<?xml version="1.0"?>
<VTKFile type="StructuredGrid" version="0.1">
<StructuredGrid WholeExtent="0 9 0 9 0 9">
<Piece Extent="0 9 0 9 0 9">
<PointData>
<DataArray type="Float32" Name="Deformation" format="ascii" NumberOfComponents="3">
-0.00067180786 0.06639310737 0.01194840534 -0.00070407315 0.06602134409 0.01203501785 -0.00073625784 0.06563212063 0.01212879798 -0.00076775799 0.06523878479 0.01222764393 -0.00079796966 0.06485468433 0.01232945390 -0.00082628889 0.06449316705 0.01243212609 -0.00085211173 0.06416758073 0.01253355870 -0.00087483425 0.06389127314 0.01263164993 -0.00089385250 0.06367759207 0.01272429799 -0.00090856251 0.06353988530 0.01280940108 -0.00064051555 0.06627257945 0.01146278465 -0.00066902848 0.06593265973 0.01150775063 -0.00069708016 0.06557029246 0.01155846251 -0.00072446448 0.06519863900 0.01161424168 -0.00075097533 0.06483086072 0.01167440951 -0.00077640661 0.06448011896 0.01173828739 -0.00080055219 0.06415957510 0.01180519670 -0.00082320598 0.06388239048 0.01187445884 -0.00084416186 0.06366172647 0.01194539517 -0.00086321372 0.06351074443 0.01201732709 -0.00060747831 0.06617334765 0.01097067260 -0.00063351464 0.06585714344 0.01098176680 -0.00065899355 0.06551508218 0.01099869065 -0.00068391667 0.06516019726 0.01102172171 -0.00070828564 0.06480552205 0.01105113753 -0.00073210209 0.06446408991 0.01108721566 -0.00075536765 0.06414893422 0.01113023365 -0.00077808396 0.06387308836 0.01118046904 -0.00080025265 0.06364958571 0.01123819939 -0.00082187536 0.06349145962 0.01130370224 -0.00057312920 0.06609355399 0.01047521438 -0.00059775333 0.06579407772 0.01045930803 -0.00062194953 0.06546670563 0.01045051732 -0.00064577578 0.06512436987 0.01044967608 -0.00066929007 0.06478000262 0.01045761812 -0.00069255040 0.06444653604 0.01047517726 -0.00071561474 0.06413690228 0.01050318731 -0.00073854109 0.06386403351 0.01054248210 -0.00076138742 0.06364086189 0.01059389545 -0.00078421174 0.06348031958 0.01065826116 -0.00053790129 0.06603134051 0.00997955521 -0.00056196624 0.06574274507 0.00994261600 -0.00058589960 0.06542537859 0.00991497743 -0.00060970301 0.06509206714 0.00989769679 -0.00063337813 0.06475563675 0.00989183139 -0.00065692661 0.06442891351 0.00989843852 -0.00068035009 0.06412472345 0.00991857549 -0.00070365024 0.06385589265 0.00995329961 -0.00072682870 0.06363524715 0.01000366816 -0.00074988712 0.06347561301 0.01007073845 -0.00050222764 0.06598484925 0.00948684030 -0.00052637507 0.06570242800 0.00943393241 -0.00055079527 0.06539131690 0.00939310590 -0.00057535957 0.06506419935 0.00936537589 -0.00059993930 0.06473375874 0.00935175748 -0.00062440578 0.06441267846 0.00935326581 -0.00064863034 0.06411364192 0.00937091598 -0.00067248431 0.06384933250 0.00940572311 -0.00069583902 0.06363243360 0.00945870233 -0.00071856580 0.06347562862 0.00953086875 -0.00046654132 0.06595222222 0.00900021486 -0.00049120152 0.06567240900 0.00893549894 -0.00051658806 0.06536473636 0.00888593766 -0.00054240668 0.06504167682 0.00885230539 -0.00056836307 0.06471570288 0.00883537653 -0.00059416298 0.06439928706 0.00883592546 -0.00061951211 0.06410490186 0.00885472655 -0.00064411619 0.06384501980 0.00889255419 -0.00066768093 0.06363211338 0.00895018277 -0.00068991206 0.06347865512 0.00902838666 -0.00043127539 0.06593160146 0.00852282409 -0.00045666727 0.06565197056 0.00844955727 -0.00048322947 0.06534585278 0.00839450761 -0.00051050552 0.06502540984 0.00835807734 -0.00053803895 0.06470280348 0.00834066868 -0.00056537328 0.06439019545 0.00834268382 -0.00059205204 0.06409974747 0.00836452500 -0.00061761876 0.06384362127 0.00840659441 -0.00064161697 0.06363397861 0.00846929428 -0.00066359019 0.06348298121 0.00855302682 -0.00039686293 0.06592112900 0.00805781322 -0.00042299404 0.06564039520 0.00797834908 -0.00045067102 0.06533488197 0.00791985068 -0.00047931732 0.06501630872 0.00788228376 -0.00050835641 0.06469639485 0.00786561404 -0.00053721173 0.06438685978 0.00786980725 -0.00056530675 0.06409942291 0.00789482911 -0.00059206490 0.06384580365 0.00794064534 -0.00061690966 0.06363772141 0.00800722168 -0.00063926447 0.06348689560 0.00809452384 -0.00036373698 0.06591894688 0.00760832745 -0.00039040350 0.06563696541 0.00752411606 -0.00041886420 0.06533203975 0.00746300179 -0.00044850329 0.06501528375 0.00742451669 -0.00047870496 0.06469781128 0.00740819277 -0.00050885342 0.06439073620 0.00741356209 -0.00053833287 0.06410517237 0.00744015668 -0.00056652751 0.06385223365 0.00748750856 -0.00059282155 0.06364303391 0.00755514977 -0.00061659917 0.06348868701 0.00764261235 -0.00063699711 0.06665521269 0.01174307305 -0.00067736153 0.06623455590 0.01191469354 -0.00071659666 0.06581107147 0.01207193405 -0.00075433808 0.06539283757 0.01221588678 -0.00079022137 0.06498793234 0.01234764391 -0.00082388214 0.06460443393 0.01246829764 -0.00085495596 0.06425042050 0.01257894015 -0.00088307842 0.06393397019 0.01268066363 -0.00090788511 0.06366316117 0.01277456028 -0.00092901162 0.06344607158 0.01286172229 -0.00060875009 0.06652390252 0.01134290776 -0.00064469736 0.06613866118 0.01144709534 -0.00067962407 0.06574391508 0.01154308862 -0.00071339303 0.06534810505 0.01163211245 -0.00074586704 0.06495967198 0.01171539172 -0.00077690889 0.06458705672 0.01179415130 -0.00080638140 0.06423870013 0.01186961606 -0.00083414735 0.06392304307 0.01194301087 -0.00086006955 0.06364852641 0.01201556061 -0.00088401080 0.06342359101 0.01208849014 -0.00057820937 0.06641813051 0.01091835144 -0.00061102451 0.06605946472 0.01097028578 -0.00064305602 0.06568656124 0.01101936699 -0.00067427347 0.06530810786 0.01106683995 -0.00070464638 0.06493279241 0.01111394954 -0.00073414432 0.06456930269 0.01116194066 -0.00076273683 0.06422632651 0.01121205820 -0.00079039346 0.06391255167 0.01126554704 -0.00081708374 0.06363666599 0.01132365206 -0.00084277724 0.06340735728 0.01138761817 -0.00054584477 0.06633520734 0.01047479756 -0.00057663652 0.06599552865 0.01048762638 -0.00060697122 0.06563854577 0.01050216929 -0.00063683123 0.06527308467 0.01051959533 -0.00066619890 0.06490797130 0.01054107356 -0.00069505661 0.06455203162 0.01056777303 -0.00072338672 0.06421409159 0.01060086279 -0.00075117160 0.06390297717 0.01064151188 -0.00077839360 0.06362751433 0.01069088936 -0.00080503510 0.06339652901 0.01075016427 -0.00051212612 0.06627244367 0.01001763963 -0.00054182696 0.06594541511 0.01000247865 -0.00057144838 0.06559940451 0.00999289560 -0.00060091815 0.06524327415 0.00998990464 -0.00063016408 0.06488588632 0.00999451995 -0.00065911395 0.06453610329 0.01000775569 -0.00068769554 0.06420278735 0.01003062603 -0.00071583663 0.06389480077 0.01006414514 -0.00074346503 0.06362100585 0.01010932720 -0.00077050852 0.06339026486 0.01016718636 -0.00047752325 0.06622715018 0.00955227112 -0.00050688936 0.06590768624 0.00951820412 -0.00053656619 0.06556867326 0.00949294604 -0.00056638610 0.06521891498 0.00947729394 -0.00059618142 0.06486721513 0.00947204488 -0.00062578451 0.06452237747 0.00947799592 -0.00065502773 0.06419320573 0.00949594413 -0.00068374342 0.06388850366 0.00952668656 -0.00071176394 0.06361707500 0.00957102027 -0.00073892165 0.06338772348 0.00962974234 -0.00044250598 0.06619663753 0.00908408552 -0.00047211728 0.06588090418 0.00903816431 -0.00050240339 0.06554588784 0.00900372071 -0.00053308689 0.06520024582 0.00898128928 -0.00056389040 0.06485263542 0.00897140454 -0.00059453649 0.06451171395 0.00897460103 -0.00062474776 0.06418613872 0.00899141330 -0.00065424682 0.06388456703 0.00902237588 -0.00068275624 0.06361565619 0.00906802330 -0.00070999863 0.06338806351 0.00912889010 -0.00040754415 0.06617821639 0.00861847633 -0.00043780426 0.06586363107 0.00856572073 -0.00046903866 0.06553058407 0.00852661972 -0.00050087240 0.06518750535 0.00850141671 -0.00053293052 0.06484282484 0.00849035510 -0.00056483807 0.06450497250 0.00849367831 -0.00059622011 0.06418237826 0.00851162975 -0.00062670168 0.06388347206 0.00854445284 -0.00065590783 0.06361668386 0.00859239097 -0.00068346362 0.06339044360 0.00865568756 -0.00037310758 0.06616919743 0.00816083702 -0.00040424386 0.06585442904 0.00810423491 -0.00043655073 0.06552229778 0.00806304317 -0.00046959444 0.06518093225 0.00803720228 -0.00050294126 0.06483846108 0.00802665274 -0.00053615743 0.06450301290 0.00803133505 -0.00056880922 0.06418271632 0.00805118970 -0.00060046286 0.06388569996 0.00808615718 -0.00063068463 0.06362009244 0.00813617799 -0.00065904077 0.06339402239 0.00820119262 -0.00033966610 0.06616689132 0.00771656109 -0.00037172961 0.06585186025 0.00765706838 -0.00040501829 0.06552056476 0.00761439116 -0.00043910488 0.06518076518 0.00758817205 -0.00047356213 0.06484022180 0.00757805364 -0.00050796277 0.06450669492 0.00758367854 -0.00054187956 0.06418794485 0.00760468934 -0.00057488523 0.06389173190 0.00764072864 -0.00060655253 0.06362581636 0.00769143905 -0.00063645421 0.06339795854 0.00775646317 -0.00060731495 0.06688162126 0.01164963674 -0.00065265391 0.06642611308 0.01187868823 -0.00069626237 0.06597834065 0.01207819644 -0.00073791452 0.06554245321 0.01225149379 -0.00077738455 0.06512259998 0.01240191270 -0.00081444665 0.06472293023 0.01253278557 -0.00084887500 0.06434759317 0.01264744483 -0.00088044381 0.06400073806 0.01274922289 -0.00090892726 0.06368651414 0.01284145216 -0.00093409953 0.06340907064 0.01292746505 -0.00058125295 0.06674206019 0.01131261140 -0.00062212910 0.06632441615 0.01145683278 -0.00066161025 0.06590672809 0.01158312289 -0.00069959932 0.06549388337 0.01169403294 -0.00073599925 0.06509076941 0.01179211415 -0.00077071295 0.06470227357 0.01187991772 -0.00080364335 0.06433328326 0.01195999487 -0.00083469338 0.06398868586 0.01203489682 -0.00086376597 0.06367336876 0.01210717477 -0.00089076404 0.06339221935 0.01217937995 -0.00055267012 0.06663067165 0.01093729899 -0.00059021302 0.06624167694 0.01101716038 -0.00062677627 0.06584700715 0.01108809444 -0.00066230954 0.06545205762 0.01115201519 -0.00069676251 0.06506222367 0.01121083668 -0.00073008488 0.06468290064 0.01126647296 -0.00076222632 0.06431948386 0.01132083805 -0.00079313651 0.06397736866 0.01137584600 -0.00082276514 0.06366195037 0.01143341085 -0.00085106189 0.06337862433 0.01149544664 -0.00052202898 0.06654426941 0.01053094717 -0.00055725219 0.06617600554 0.01056404505 -0.00059195180 0.06579826829 0.01059497339 -0.00062606259 0.06541676329 0.01062513244 -0.00065951936 0.06503719619 0.01065592246 -0.00069225688 0.06466527263 0.01068874369 -0.00072420996 0.06430669825 0.01072499638 -0.00075531338 0.06396717869 0.01076608077 -0.00078550192 0.06365241960 0.01081339711 -0.00081471037 0.06336812662 0.01086834566 -0.00048979206 0.06647966723 0.01010080361 -0.00052359312 0.06612551206 0.01010186079 -0.00055732822 0.06575960193 0.01010562206 -0.00059087592 0.06538778775 0.01011307661 -0.00062411480 0.06501592039 0.01012521363 -0.00065692342 0.06464985075 0.01014302232 -0.00068918036 0.06429542973 0.01016749186 -0.00072076418 0.06395850822 0.01019961145 -0.00075155347 0.06364493711 0.01024037028 -0.00078142678 0.06336056729 0.01029075754 -0.00045642187 0.06643367887 0.00965411597 -0.00048958233 0.06608830659 0.00963498164 -0.00052309691 0.06573009853 0.00962190278 -0.00055676697 0.06536491834 0.00961553961 -0.00059039385 0.06499862969 0.00961655236 -0.00062377893 0.06463709622 0.00962560125 -0.00065672357 0.06428618160 0.00964334652 -0.00068902912 0.06395174948 0.00967044838 -0.00072049695 0.06363966352 0.00970756707 -0.00075092841 0.06335578738 0.00975536281 -0.00042238093 0.06640311810 0.00919813191 -0.00045556634 0.06606249923 0.00916778162 -0.00048944925 0.06570884851 0.00914567787 -0.00052375315 0.06534794243 0.00913221335 -0.00055820154 0.06498555750 0.00912778079 -0.00059251788 0.06462747023 0.00913277289 -0.00062642567 0.06427945714 0.00914758236 -0.00065964839 0.06394729472 0.00917260189 -0.00069190953 0.06363675949 0.00920822421 -0.00072293257 0.06335362795 0.00925484202 -0.00038813178 0.06638479867 0.00874009910 -0.00042189166 0.06604620008 0.00870463474 -0.00045657661 0.06569494231 0.00867880963 -0.00049185192 0.06533664736 0.00866278975 -0.00052738286 0.06497693725 0.00865674109 -0.00056283470 0.06462143401 0.00866082964 -0.00059787272 0.06427575965 0.00867522138 -0.00063216218 0.06394553619 0.00870008232 -0.00066536837 0.06363638565 0.00873557842 -0.00069715655 0.06335393004 0.00878187569 -0.00035413693 0.06637553435 0.00828726519 -0.00038890480 0.06603751925 0.00824991503 -0.00042467038 0.06568747037 0.00822316040 -0.00046108071 0.06533082048 0.00820696072 -0.00049778285 0.06497300235 0.00820127541 -0.00053442386 0.06461944874 0.00820606390 -0.00057065078 0.06427559241 0.00822128561 -0.00060611069 0.06394686612 0.00824689998 -0.00064045062 0.06363870264 0.00828286643 -0.00067331764 0.06335653473 0.00832914437 -0.00032085889 0.06637213891 0.00784687786 -0.00035695229 0.06603456682 0.00780799651 -0.00039392192 0.06568552313 0.00778059249 -0.00043145694 0.06533024916 0.00776441816 -0.00046924651 0.06497398623 0.00775922590 -0.00050697979 0.06462197565 0.00776476807 -0.00054434593 0.06427945873 0.00778079706 -0.00058103410 0.06395167678 0.00780706522 -0.00061673345 0.06364387111 0.00784332494 -0.00065113313 0.06336128305 0.00788932859 -0.00058076680 0.06706888559 0.01164716962 -0.00062793153 0.06659226078 0.01190809301 -0.00067316975 0.06612986899 0.01213018622 -0.00071633062 0.06568321035 0.01231822870 -0.00075726326 0.06525378501 0.01247699993 -0.00079581683 0.06484309309 0.01261127936 -0.00083184046 0.06445263474 0.01272584648 -0.00086518330 0.06408391010 0.01282548074 -0.00089569449 0.06373841929 0.01291496161 -0.00092322317 0.06341766246 0.01299906857 -0.00055685191 0.06692329880 0.01135411817 -0.00060001388 0.06648610647 0.01152094161 -0.00064162538 0.06605474135 0.01166388215 -0.00068161598 0.06563168568 0.01178634061 -0.00071991523 0.06521942170 0.01189171780 -0.00075645265 0.06482043165 0.01198341452 -0.00079115782 0.06443719779 0.01206483158 -0.00082396027 0.06407220236 0.01213936979 -0.00085478954 0.06372792760 0.01221042996 -0.00088357520 0.06340685577 0.01228141290 -0.00053029393 0.06680715495 0.01101243219 -0.00057032808 0.06640005152 0.01110882703 -0.00060928598 0.06599261708 0.01119249144 -0.00064711244 0.06558801091 0.01126576374 -0.00068375233 0.06518939229 0.01133098229 -0.00071915047 0.06479992049 0.01139048542 -0.00075325170 0.06442275478 0.01144661146 -0.00078600088 0.06406105444 0.01150169874 -0.00081734283 0.06371797876 0.01155808561 -0.00084722240 0.06339668699 0.01161811040 -0.00050153282 0.06671705734 0.01063085401 -0.00053926734 0.06633199404 0.01067707059 -0.00057644725 0.06594235475 0.01071848280 -0.00061298560 0.06555172012 0.01075663619 -0.00064879543 0.06516367082 0.01079307633 -0.00068378980 0.06478178750 0.01082934875 -0.00071788177 0.06440965084 0.01086699901 -0.00075098437 0.06405084150 0.01090757268 -0.00078301066 0.06370894014 0.01095261530 -0.00081387369 0.06338752742 0.01100367242 -0.00047100859 0.06664960924 0.01021812596 -0.00050722484 0.06627983218 0.01023099360 -0.00054340492 0.06590281293 0.01024432498 -0.00057940104 0.06552234736 0.01025909606 -0.00061506540 0.06514223131 0.01027628280 -0.00065025021 0.06476626062 0.01029686118 -0.00068480766 0.06439823112 0.01032180716 -0.00071858997 0.06404193868 0.01035209669 -0.00075144934 0.06370117913 0.01038870576 -0.00078323798 0.06337974832 0.01043261031 -0.00043916122 0.06660141397 0.00978299036 -0.00047459377 0.06624146404 0.00977591737 -0.00051045472 0.06587285020 0.00977248670 -0.00054652438 0.06549942670 0.00977328144 -0.00058258311 0.06512504780 0.00977888465 -0.00061841122 0.06475356773 0.00978987940 -0.00065378904 0.06438884077 0.00980684878 -0.00068849692 0.06403472115 0.00983037586 -0.00072231518 0.06369506313 0.00986104371 -0.00075502415 0.06337372097 0.00989943540 -0.00040643069 0.06656907479 0.00933418954 -0.00044176732 0.06621478777 0.00931716319 -0.00047789235 0.06585132513 0.00930543670 -0.00051452122 0.06548249220 0.00929933042 -0.00055136941 0.06511209430 0.00929916476 -0.00058815237 0.06474393676 0.00930526009 -0.00062458556 0.06438182491 0.00931793680 -0.00066038444 0.06402956405 0.00933751528 -0.00069526448 0.06369095952 0.00936431589 -0.00072894113 0.06336981665 0.00939865903 -0.00037325700 0.06654919500 0.00888046582 -0.00040913869 0.06619770148 0.00886005240 -0.00044601353 0.06583709629 0.00884564369 -0.00048355716 0.06547107792 0.00883738112 -0.00052144517 0.06510334486 0.00883540607 -0.00055935320 0.06473759562 0.00883985993 -0.00059695686 0.06437752869 0.00885088412 -0.00063393177 0.06402684255 0.00886862002 -0.00066995355 0.06368923570 0.00889320903 -0.00070469781 0.06336840663 0.00892479256 -0.00034008013 0.06653837790 0.00843056154 -0.00037710105 0.06618810331 0.00840990628 -0.00041511400 0.06582902225 0.00839557643 -0.00045379779 0.06546471791 0.00838757162 -0.00049283126 0.06509877351 0.00838589147 -0.00053189325 0.06473477222 0.00839053560 -0.00057066260 0.06437629725 0.00840150363 -0.00060881813 0.06402693179 0.00841879518 -0.00064603869 0.06369025904 0.00844240986 -0.00068200310 0.06336986220 0.00847234731 -0.00030734006 0.06653322676 0.00799321902 -0.00034604761 0.06618389137 0.00797204615 -0.00038548945 0.06582596158 0.00795770363 -0.00042540872 0.06546294626 0.00795004003 -0.00046554854 0.06509835426 0.00794890389 -0.00050565206 0.06473569447 0.00795414378 -0.00054546243 0.06437847574 0.00796560824 -0.00058472276 0.06403020694 0.00798314584 -0.00062317621 0.06369439695 0.00800660512 -0.00066056591 0.06337455461 0.00803583463 -0.00055535806 0.06721355820 0.01171474488 -0.00060117561 0.06672924413 0.01198399901 -0.00064523356 0.06626159731 0.01221050448 -0.00068742964 0.06581068766 0.01239985525 -0.00072766158 0.06537658514 0.01255764526 -0.00076582709 0.06495935967 0.01268946846 -0.00080182391 0.06455908119 0.01280091880 -0.00083554976 0.06417581963 0.01289759022 -0.00086690236 0.06380964493 0.01298507667 -0.00089577944 0.06346062703 0.01306897210 -0.00053437478 0.06706386468 0.01144965066 -0.00057704185 0.06661991398 0.01162340047 -0.00061825615 0.06618396474 0.01177068320 -0.00065797563 0.06575722368 0.01189537291 -0.00069615823 0.06534089755 0.01200134368 -0.00073276189 0.06493619309 0.01209246955 -0.00076774456 0.06454431702 0.01217262459 -0.00080106417 0.06416647609 0.01224568287 -0.00083267867 0.06380387703 0.01231551844 -0.00086254601 0.06345772658 0.01238600537 -0.00051051416 0.06694376428 0.01112866797 -0.00055061759 0.06653085988 0.01123172216 -0.00058971684 0.06611958818 0.01132017644 -0.00062776975 0.06571193214 0.01139660192 -0.00066473413 0.06530987475 0.01146356971 -0.00070056781 0.06491539897 0.01152365092 -0.00073522860 0.06453048778 0.01157941667 -0.00076867433 0.06415712415 0.01163343805 -0.00080086281 0.06379729106 0.01168828619 -0.00083175188 0.06345297148 0.01174653218 -0.00048420728 0.06684988824 0.01076170888 -0.00052234899 0.06645997980 0.01081520959 -0.00056001357 0.06606728675 0.01086225071 -0.00059711597 0.06567426956 0.01090445536 -0.00063357111 0.06528338871 0.01094344666 -0.00066929396 0.06489710469 0.01098084771 -0.00070419945 0.06451787796 0.01101828162 -0.00073820253 0.06414816902 0.01105737151 -0.00077121814 0.06379043834 0.01109974050 -0.00080316122 0.06344714639 0.01114701168 -0.00045588521 0.06677886778 0.01035868545 -0.00049268223 0.06640517172 0.01038010825 -0.00052954428 0.06602587957 0.01040017252 -0.00056631824 0.06564369245 0.01041984634 -0.00060285102 0.06526131142 0.01044009781 -0.00063898949 0.06488143759 0.01046189502 -0.00067458055 0.06450677204 0.01048620605 -0.00070947109 0.06414001586 0.01051399900 -0.00074350801 0.06378387015 0.01054624196 -0.00077653818 0.06344103598 0.01058390302 -0.00042597901 0.06672733412 0.00992950977 -0.00046206347 0.06636433359 0.00993266367 -0.00049870690 0.06599418578 0.00993720837 -0.00053568055 0.06561965732 0.00994368795 -0.00057275568 0.06524351486 0.00995264646 -0.00060970352 0.06486852504 0.00996462798 -0.00064629531 0.06449745449 0.00998017656 -0.00068230231 0.06413306986 0.00999983627 -0.00071749576 0.06377813779 0.01002415118 -0.00075164690 0.06343542492 0.01005366534 -0.00039491975 0.06669191849 0.00948409390 -0.00043093886 0.06633536340 0.00947912134 -0.00046789937 0.06597102448 0.00947662478 -0.00050550686 0.06560162070 0.00947689329 -0.00054346693 0.06522987101 0.00948021591 -0.00058148517 0.06485849439 0.00948688171 -0.00061926716 0.06449020980 0.00949717974 -0.00065651849 0.06412773620 0.00951139906 -0.00069294476 0.06377379256 0.00952982872 -0.00072825155 0.06343109785 0.00955275779 -0.00036313850 0.06666925211 0.00903234991 -0.00039975459 0.06631615912 0.00902572677 -0.00043751963 0.06595521482 0.00902168826 -0.00047610114 0.06558903910 0.00902037546 -0.00051516662 0.06522025186 0.00902192945 -0.00055438358 0.06485147301 0.00902649133 -0.00059341951 0.06448532244 0.00903420219 -0.00063194194 0.06412442006 0.00904520311 -0.00066961835 0.06377138576 0.00905963519 -0.00070611626 0.06342883946 0.00907763951 -0.00033106633 0.06665596620 0.00858418988 -0.00036895680 0.06630461872 0.00857872548 -0.00040796562 0.06594557590 0.00857566531 -0.00044776735 0.06558136903 0.00857504755 -0.00048803658 0.06521452939 0.00857691037 -0.00052844787 0.06484758825 0.00858129197 -0.00056867580 0.06448307690 0.00858823051 -0.00060839495 0.06412352662 0.00859776419 -0.00064727989 0.06377146869 0.00860993117 -0.00068500519 0.06342943439 0.00862476964 -0.00029913430 0.06664869199 0.00814952587 -0.00033899167 0.06629864016 0.00814436296 -0.00037963527 0.06594092686 0.00814182244 -0.00042080947 0.06557806701 0.00814182266 -0.00046225864 0.06521257557 0.00814428198 -0.00050372718 0.06484696747 0.00814911874 -0.00054495945 0.06448375766 0.00815625130 -0.00058569984 0.06412546107 0.00816559802 -0.00062569273 0.06377459264 0.00817707725 -0.00066468250 0.06343366732 0.00819060734 -0.00052909415 0.06731219161 0.01183143573 -0.00057036739 0.06683330827 0.01208749730 -0.00061036856 0.06636946642 0.01230175230 -0.00064905488 0.06592046380 0.01248013717 -0.00068638356 0.06548609811 0.01262858836 -0.00072231184 0.06506616710 0.01275304233 -0.00075679693 0.06466046849 0.01285943551 -0.00078979605 0.06426880000 0.01295370436 -0.00082126641 0.06389095937 0.01304178533 -0.00085116524 0.06352674432 0.01312961487 -0.00051264932 0.06716000416 0.01158143149 -0.00055190318 0.06672202052 0.01174818803 -0.00059008924 0.06629040811 0.01188884284 -0.00062721090 0.06586620911 0.01200746730 -0.00066327153 0.06545046568 0.01210813279 -0.00069827455 0.06504421999 0.01219491067 -0.00073222333 0.06464851422 0.01227187234 -0.00076512127 0.06426439054 0.01234308915 -0.00079697177 0.06389289111 0.01241263250 -0.00082777821 0.06353505811 0.01248457375 -0.00049276418 0.06703668353 0.01127092327 -0.00053032943 0.06663037346 0.01137228222 -0.00056720057 0.06622411759 0.01145876790 -0.00060336903 0.06581978569 0.01153304603 -0.00063882623 0.06541924752 0.01159778228 -0.00067356362 0.06502437282 0.01165564235 -0.00070757260 0.06463703137 0.01170929194 -0.00074084461 0.06425909291 0.01176139673 -0.00077337108 0.06389242720 0.01181462243 -0.00080514343 0.06353890400 0.01187163472 -0.00046990334 0.06693907927 0.01091070258 -0.00050616416 0.06655644847 0.01096696860 -0.00054220676 0.06616954586 0.01101583030 -0.00057796943 0.06578072599 0.01105893873 -0.00061339040 0.06539234339 0.01109794497 -0.00064840795 0.06500675261 0.01113450008 -0.00068296034 0.06462630820 0.01117025512 -0.00071698582 0.06425336468 0.01120686117 -0.00075042266 0.06389027662 0.01124596930 -0.00078320911 0.06353939855 0.01128923055 -0.00044453139 0.06686404091 0.01051156089 -0.00047992540 0.06649832694 0.01053943593 -0.00051561208 0.06612564392 0.01056433285 -0.00055145225 0.06574856243 0.01058721082 -0.00058730677 0.06536965306 0.01060902901 -0.00062303645 0.06499148638 0.01063074658 -0.00065850212 0.06461663299 0.01065332270 -0.00069356463 0.06424766346 0.01067771654 -0.00072808480 0.06388714837 0.01070488725 -0.00076192347 0.06353765832 0.01073579401 -0.00041711295 0.06680841800 0.01008428971 -0.00045213120 0.06645409024 0.01009687294 -0.00048792074 0.06609136275 0.01010857838 -0.00052425767 0.06572282745 0.01011992769 -0.00056091807 0.06535107628 0.01013144254 -0.00059767800 0.06497870116 0.01014364458 -0.00063431355 0.06460829403 0.01015705547 -0.00067060080 0.06424244682 0.01017219688 -0.00070631583 0.06388375146 0.01018959046 -0.00074123471 0.06353479987 0.01020975788 -0.00038811262 0.06676906008 0.00963968050 -0.00042329958 0.06642181976 0.00964646837 -0.00045963701 0.06606565335 0.00965286972 -0.00049682584 0.06570305348 0.00965915476 -0.00053456703 0.06533651280 0.00966559371 -0.00057256150 0.06496852396 0.00967245680 -0.00061051020 0.06460157959 0.00968001425 -0.00064811407 0.06423817235 0.00968853627 -0.00068507404 0.06388079486 0.00969829308 -0.00072109106 0.06353193978 0.00970955491 -0.00035799500 0.06674281669 0.00918852477 -0.00039394857 0.06639959688 0.00919541097 -0.00043126510 0.06604746671 0.00920150968 -0.00046959692 0.06568877296 0.00920695740 -0.00050859639 0.06532586240 0.00921189066 -0.00054791586 0.06496108181 0.00921644597 -0.00058720768 0.06459677796 0.00922075983 -0.00062612419 0.06423529763 0.00922496876 -0.00066431776 0.06387898759 0.00922920928 -0.00070144073 0.06353019461 0.00923361789 -0.00032722469 0.06672653739 0.00874161400 -0.00036459622 0.06638550298 0.00875088948 -0.00040330926 0.06603575383 0.00875880109 -0.00044301107 0.06567951832 0.00876540104 -0.00048334889 0.06531902483 0.00877074154 -0.00052396996 0.06495650174 0.00877487480 -0.00056452156 0.06459417742 0.00877785303 -0.00060465092 0.06423428026 0.00877972843 -0.00064400529 0.06387903862 0.00878055321 -0.00068223193 0.06353068091 0.00878037958 -0.00029626629 0.06671707171 0.00830973968 -0.00033576055 0.06637761944 0.00832009263 -0.00037627374 0.06602946570 0.00832904677 -0.00041750844 0.06567482199 0.00833655107 -0.00045916724 0.06531589984 0.00834255449 -0.00050095271 0.06495491075 0.00834700603 -0.00054256743 0.06459406624 0.00834985464 -0.00058371398 0.06423557781 0.00835104932 -0.00062409494 0.06388165697 0.00835053903 -0.00066341288 0.06353451525 0.00834827275 -0.00049998047 0.06736133834 0.01197631538 -0.00053348810 0.06690069835 0.01219967901 -0.00056648951 0.06644941717 0.01238653076 -0.00059904960 0.06600811740 0.01254283820 -0.00063123330 0.06557742165 0.01267456890 -0.00066310549 0.06515795253 0.01278769042 -0.00069473110 0.06475033263 0.01288817034 -0.00072617503 0.06435518455 0.01298197621 -0.00075750219 0.06397313092 0.01307507562 -0.00078877748 0.06360479432 0.01317343611 -0.00049050334 0.06720796359 0.01173168323 -0.00052328805 0.06678860793 0.01187928294 -0.00055571134 0.06637008134 0.01200367789 -0.00058785440 0.06595435367 0.01210896124 -0.00061979839 0.06554339477 0.01219922614 -0.00065162450 0.06513917450 0.01227856575 -0.00068341389 0.06474366271 0.01235107323 -0.00071524775 0.06435882924 0.01242084173 -0.00074720725 0.06398664395 0.01249196441 -0.00077937356 0.06362907669 0.01256853443 -0.00047647737 0.06708209658 0.01142411502 -0.00050871150 0.06669486368 0.01151694363 -0.00054086883 0.06630240248 0.01159588428 -0.00057299783 0.06590753596 0.01166361237 -0.00060514693 0.06551308707 0.01172280333 -0.00063736461 0.06512187878 0.01177613257 -0.00066969932 0.06473673404 0.01182627552 -0.00070219950 0.06436047582 0.01187590759 -0.00073491363 0.06399592708 0.01192770420 -0.00076789014 0.06364591077 0.01198434076 -0.00045847198 0.06698094754 0.01106502591 -0.00049037984 0.06661788570 0.01112085421 -0.00052258281 0.06624561368 0.01116877474 -0.00055506170 0.06586740381 0.01121043507 -0.00058779728 0.06548652839 0.01124748276 -0.00062077036 0.06510625973 0.01128156537 -0.00065396172 0.06472987013 0.01131433045 -0.00068735218 0.06436063192 0.01134742556 -0.00072092250 0.06400181740 0.01138249828 -0.00075465350 0.06365669888 0.01142119614 -0.00043705664 0.06690172668 0.01066583107 -0.00046891447 0.06655609410 0.01069920780 -0.00050147411 0.06619894803 0.01072797413 -0.00053462780 0.06583369676 0.01075307285 -0.00056826777 0.06546374857 0.01077544675 -0.00060228625 0.06509251172 0.01079603862 -0.00063657548 0.06472339450 0.01081579125 -0.00067102767 0.06435980518 0.01083564743 -0.00070553507 0.06400515204 0.01085654996 -0.00073998990 0.06366284335 0.01087944162 -0.00041280076 0.06684164423 0.01023794566 -0.00044493675 0.06650790898 0.01026019756 -0.00047816355 0.06616163861 0.01027910730 -0.00051227795 0.06580615435 0.01029516920 -0.00054707677 0.06544477744 0.01030887760 -0.00058235682 0.06508082913 0.01032072682 -0.00061791493 0.06471763064 0.01033121116 -0.00065354788 0.06435850321 0.01034082497 -0.00068905251 0.06400676809 0.01035006255 -0.00072422562 0.06366574651 0.01035941824 -0.00038627379 0.06679791042 0.00979278486 -0.00041906810 0.06647175045 0.00981201660 -0.00045327195 0.06613291849 0.00982779907 -0.00048859393 0.06578451611 0.00984036762 -0.00052474262 0.06542964486 0.00984995763 -0.00056142659 0.06507140633 0.00985680444 -0.00059835443 0.06471290207 0.00986114342 -0.00063523471 0.06435723367 0.00986320994 -0.00067177601 0.06400750268 0.00986323936 -0.00070768692 0.06366681067 0.00986146703 -0.00035804518 0.06676773547 0.00934176382 -0.00039192988 0.06644603862 0.00936285808 -0.00042742015 0.06611202077 0.00937967430 -0.00046415755 0.06576852157 0.00939231161 -0.00050178367 0.06541838066 0.00940086913 -0.00053994007 0.06506443769 0.00940544598 -0.00057826833 0.06470953231 0.00940614127 -0.00061641004 0.06435650417 0.00940305413 -0.00065400676 0.06400819291 0.00939628368 -0.00069070007 0.06366743817 0.00938592904 -0.00032868435 0.06674832960 0.00889629772 -0.00036414350 0.06642919358 0.00892091511 -0.00040122897 0.06609817852 0.00894035782 -0.00043955061 0.06575791027 0.00895464465 -0.00047871827 0.06541101468 0.00896379442 -0.00051834178 0.06506011759 0.00896782591 -0.00055803100 0.06470784486 0.00896675794 -0.00059739578 0.06435682235 0.00896060932 -0.00063604594 0.06400967589 0.00894939884 -0.00067359134 0.06366903134 0.00893314532 -0.00029876075 0.06673690304 0.00846780172 -0.00033633033 0.06641963545 0.00849438085 -0.00037531923 0.06609062483 0.00851547448 -0.00041535491 0.06575242175 0.00853101026 -0.00045606477 0.06540757675 0.00854091580 -0.00049707626 0.06505864040 0.00854511872 -0.00053801679 0.06470816324 0.00854354667 -0.00057851381 0.06435869583 0.00853612726 -0.00061819474 0.06401278873 0.00852278813 -0.00065668701 0.06367299249 0.00850345690 -0.00046602244 0.06735755090 0.01212845704 -0.00048851898 0.06692765950 0.01230163522 -0.00051151118 0.06649739036 0.01244744093 -0.00053525711 0.06606922714 0.01257172207 -0.00056001484 0.06564565350 0.01268032653 -0.00058604245 0.06522915310 0.01277910220 -0.00061359800 0.06482220959 0.01287389700 -0.00064293958 0.06442730663 0.01297055881 -0.00067432524 0.06404692788 0.01307493553 -0.00070801306 0.06368355700 0.01319287506 -0.00046676463 0.06720398930 0.01188262851 -0.00048988661 0.06681585804 0.01200066387 -0.00051370913 0.06641899427 0.01210050516 -0.00053843876 0.06601736908 0.01218619218 -0.00056428207 0.06561495354 0.01226176474 -0.00059144563 0.06521571874 0.01233126264 -0.00062013601 0.06482363577 0.01239872569 -0.00065055978 0.06444267570 0.01246819370 -0.00068292352 0.06407680963 0.01254370646 -0.00071743379 0.06373000864 0.01262930379 -0.00046108708 0.06707618731 0.01157316015 -0.00048501170 0.06672060196 0.01165214285 -0.00050985334 0.06635063999 0.01171914401 -0.00053574372 0.06597114732 0.01177681725 -0.00056281454 0.06558696988 0.01182781620 -0.00059119751 0.06520295357 0.01187479447 -0.00062102434 0.06482394431 0.01192040566 -0.00065242675 0.06445478802 0.01196730341 -0.00068553644 0.06410033061 0.01201814133 -0.00072048512 0.06376541800 0.01207557304 -0.00044976420 0.06697181019 0.01121186968 -0.00047466307 0.06664077713 0.01126537297 -0.00050069772 0.06629197179 0.01131063723 -0.00052790850 0.06593061741 0.01134929317 -0.00055633574 0.06556193722 0.01138297154 -0.00058601977 0.06519115446 0.01141330308 -0.00061700093 0.06482349236 0.01144191851 -0.00064931956 0.06446417416 0.01147044858 -0.00068301599 0.06411842310 0.01150052403 -0.00071813055 0.06379146240 0.01153377557 -0.00043357042 0.06688852317 0.01081057477 -0.00045960953 0.06657526945 0.01084965506 -0.00048699617 0.06624263398 0.01088226454 -0.00051566962 0.06589583488 0.01090931580 -0.00054556916 0.06554009028 0.01093172139 -0.00057663410 0.06518061830 0.01095039389 -0.00060880371 0.06482263707 0.01096624585 -0.00064201730 0.06447136471 0.01098018984 -0.00067621416 0.06413201935 0.01099313843 -0.00071133356 0.06380981912 0.01100600419 -0.00041328014 0.06682399149 0.01038109314 -0.00044061992 0.06652296481 0.01041428991 -0.00046950259 0.06620227085 0.01044130570 -0.00049976358 0.06586685528 0.01046258102 -0.00053123829 0.06552166376 0.01047855638 -0.00056376216 0.06517164197 0.01048967229 -0.00059717061 0.06482173557 0.01049636926 -0.00063129906 0.06447689024 0.01049908781 -0.00066598294 0.06414205165 0.01049826844 -0.00070105767 0.06382216547 0.01049435167 -0.00038966778 0.06677588040 0.00993524247 -0.00041846305 0.06648274910 0.00996857835 -0.00044897090 0.06617052669 0.00999504043 -0.00048092689 0.06584373413 0.01001478470 -0.00051406662 0.06550689236 0.01002796713 -0.00054812564 0.06516452234 0.01003474369 -0.00058283955 0.06482114501 0.01003527036 -0.00061794392 0.06448128134 0.01002970311 -0.00065317433 0.06414945227 0.01001819793 -0.00068826635 0.06383017875 0.01000091078 -0.00036350775 0.06674185515 0.00948484048 -0.00039390774 0.06645350821 0.00952182118 -0.00042615498 0.06614704580 0.00955074847 -0.00045989608 0.06582652698 0.00957162271 -0.00049477762 0.06549601079 0.00958444427 -0.00053044622 0.06515955630 0.00958921349 -0.00056654847 0.06482122254 0.00958593075 -0.00060273097 0.06448506858 0.00957459640 -0.00063864032 0.06415515347 0.00955521080 -0.00067392311 0.06383553625 0.00952777433 -0.00033557448 0.06671958096 0.00904170484 -0.00036772281 0.06643412803 0.00908331922 -0.00040180876 0.06613147248 0.00911570956 -0.00043740764 0.06581528937 0.00913879094 -0.00047409481 0.06548925377 0.00915247842 -0.00051144558 0.06515704072 0.00915668709 -0.00054903530 0.06482232530 0.00915133202 -0.00058643929 0.06448878254 0.00913632828 -0.00062323290 0.06416008752 0.00911159094 -0.00065899145 0.06383991528 0.00907703508 -0.00030664237 0.06670672310 0.00861765328 -0.00034067709 0.06642349444 0.00866237328 -0.00037668613 0.06612345100 0.00869720343 -0.00041419810 0.06581007684 0.00872198524 -0.00045274165 0.06548685599 0.00873656023 -0.00049184539 0.06515727250 0.00874076991 -0.00053103795 0.06482481043 0.00873445579 -0.00056984797 0.06449295381 0.00871745939 -0.00060780406 0.06416518669 0.00868962223 -0.00064443485 0.06384499312 0.00865078581 -0.00042522546 0.06729738182 0.01226693389 -0.00043344126 0.06691043686 0.01237445705 -0.00044334833 0.06650932681 0.01246708391 -0.00045552067 0.06609937166 0.01255055252 -0.00047053227 0.06568589138 0.01263060091 -0.00048895713 0.06527420595 0.01271296713 -0.00051136922 0.06486963535 0.01280338920 -0.00053834255 0.06447749956 0.01290760518 -0.00057045111 0.06410311857 0.01303135308 -0.00060826889 0.06375181234 0.01318037096 -0.00044026097 0.06714432762 0.01201648990 -0.00045038904 0.06679995271 0.01209630946 -0.00046266930 0.06643315679 0.01216464144 -0.00047749661 0.06605096706 0.01222549757 -0.00049526583 0.06566041068 0.01228288959 -0.00051637182 0.06526851483 0.01234082920 -0.00054120944 0.06488230669 0.01240332815 -0.00057017354 0.06450881343 0.01247439815 -0.00060365899 0.06415506223 0.01255805093 -0.00064206065 0.06382808027 0.01265829823 -0.00044602669 0.06701513961 0.01170297560 -0.00045847793 0.06670385973 0.01176431630 -0.00047328579 0.06636502727 0.01181616555 -0.00049069427 0.06600658418 0.01186117699 -0.00051094735 0.06563647241 0.01190200424 -0.00053428903 0.06526263393 0.01194130091 -0.00056096328 0.06489301068 0.01198172063 -0.00059121412 0.06453554462 0.01202591701 -0.00062528551 0.06419817772 0.01207654369 -0.00066342146 0.06388885191 0.01213625428 -0.00044363098 0.06690798435 0.01133842467 -0.00045868085 0.06662160842 0.01138903147 -0.00047610748 0.06630510177 0.01143097093 -0.00049602557 0.06596668118 0.01146586180 -0.00051854978 0.06561456342 0.01149532282 -0.00054379479 0.06525696526 0.01152097273 -0.00057187528 0.06490210348 0.01154443025 -0.00060290593 0.06455819484 0.01156731414 -0.00063700141 0.06423345612 0.01159124313 -0.00067427640 0.06393610410 0.01161783596 -0.00043418223 0.06682102843 0.01093487079 -0.00045197072 0.06655264926 0.01098100886 -0.00047204405 0.06625354383 0.01101837225 -0.00049440242 0.06593171623 0.01104782302 -0.00051904605 0.06559517054 0.01107022329 -0.00054597515 0.06525191085 0.01108643513 -0.00057518994 0.06490994123 0.01109732064 -0.00060669062 0.06457726577 0.01110374190 -0.00064047741 0.06426188855 0.01110656101 -0.00067655052 0.06397181366 0.01110664006 -0.00041878880 0.06675243842 0.01050434763 -0.00043932049 0.06649643273 0.01055080238 -0.00046200518 0.06621051697 0.01058768417 -0.00048673676 0.06590214749 0.01061533168 -0.00051340913 0.06557878062 0.01063408359 -0.00054191617 0.06524787270 0.01064427860 -0.00057215178 0.06491688008 0.01064625540 -0.00060400984 0.06459325910 0.01064035267 -0.00063738425 0.06428446611 0.01062690911 -0.00067216890 0.06399795743 0.01060626340 -0.00039855907 0.06670038090 0.01005888885 -0.00042170306 0.06645240933 0.01010896592 -0.00044690053 0.06617618473 0.01014822138 -0.00047394049 0.06587843311 0.01017665878 -0.00050261194 0.06556588048 0.01019428167 -0.00053270388 0.06524525284 0.01020109361 -0.00056400532 0.06492327619 0.01019709814 -0.00059630525 0.06460667654 0.01018229882 -0.00062939268 0.06430217989 0.01015669919 -0.00066305661 0.06401651225 0.01012030280 -0.00037460142 0.06666302244 0.00961052815 -0.00040009137 0.06642002952 0.00966605337 -0.00042763980 0.06615071062 0.00970929855 -0.00045692555 0.06586103127 0.00974007536 -0.00048762745 0.06555695698 0.00975819550 -0.00051942435 0.06524445329 0.00976347064 -0.00055199508 0.06492948571 0.00975571248 -0.00058501849 0.06461801977 0.00973473272 -0.00061817342 0.06431602101 0.00970034302 -0.00065113871 0.06402945493 0.00965235508 -0.00034802422 0.06663852961 0.00917129918 -0.00037545835 0.06639874380 0.00923261864 -0.00040513266 0.06613425818 0.00928023035 -0.00043660384 0.06585040011 0.00931385244 -0.00046942859 0.06555249695 0.00933320300 -0.00050316360 0.06524587605 0.00933800016 -0.00053736558 0.06493586478 0.00932796204 -0.00057159122 0.06462779050 0.00930280673 -0.00060539722 0.06432698056 0.00926225237 -0.00063834028 0.06403876232 0.00920601706 -0.00031993583 0.06662506900 0.00875323562 -0.00034877692 0.06638800266 0.00881921561 -0.00038028879 0.06612699094 0.00887033146 -0.00041388729 0.06584699781 0.00890626103 -0.00044898830 0.06555298722 0.00892668214 -0.00048500770 0.06524992315 0.00893127266 -0.00052136133 0.06494276956 0.00891971041 -0.00055746508 0.06463649040 0.00889167325 -0.00059273481 0.06433604964 0.00884683901 -0.00062658638 0.06404641124 0.00878488553 -0.00037559494 0.06717738362 0.01237081916 -0.00036623617 0.06684527558 0.01239923559 -0.00035991573 0.06648116736 0.01242806077 -0.00035768358 0.06609412962 0.01246309329 -0.00036058966 0.06569323302 0.01251013173 -0.00036968393 0.06528754823 0.01257497466 -0.00038601633 0.06488614590 0.01266342068 -0.00041063683 0.06449809670 0.01278126836 -0.00044459536 0.06413247129 0.01293431629 -0.00048894188 0.06379834033 0.01312836304 -0.00040982016 0.06702522489 0.01211549001 -0.00040348550 0.06673707376 0.01215019837 -0.00040117853 0.06640857876 0.01218140355 -0.00040356057 0.06605085932 0.01221321488 -0.00041129294 0.06567503489 0.01224974169 -0.00042503696 0.06529222490 0.01229509330 -0.00044545394 0.06491354877 0.01235337902 -0.00047320521 0.06455012594 0.01242870818 -0.00050895208 0.06421307584 0.01252519010 -0.00055335588 0.06391351791 0.01264693411 -0.00043072956 0.06689513734 0.01179847830 -0.00042835807 0.06664090842 0.01183990042 -0.00043029787 0.06634176148 0.01187456736 -0.00043693704 0.06600981091 0.01190520789 -0.00044866367 0.06565717115 0.01193455078 -0.00046586588 0.06529595659 0.01196532478 -0.00048893174 0.06493828165 0.01200025866 -0.00051824937 0.06459626075 0.01204208119 -0.00055420684 0.06428200830 0.01209352113 -0.00059719227 0.06400763870 0.01215730725 -0.00043992330 0.06678578715 0.01143188171 -0.00044210019 0.06655686522 0.01148033626 -0.00044836809 0.06628148521 0.01151932904 -0.00045892861 0.06597190952 0.01155048975 -0.00047398338 0.06564040051 0.01157544810 -0.00049373399 0.06529922056 0.01159583381 -0.00051838207 0.06496063206 0.01161327659 -0.00054812922 0.06463689738 0.01162940614 -0.00058317706 0.06434027889 0.01164585217 -0.00062372720 0.06408303898 0.01166424440 -0.00043900155 0.06669584053 0.01102779792 -0.00044595814 0.06648502977 0.01108350041 -0.00045648354 0.06622851965 0.01112746540 -0.00047065095 0.06593808025 0.01116047788 -0.00048853357 0.06562548169 0.01118332279 -0.00051020460 0.06530249407 0.01119678511 -0.00053573724 0.06498088748 0.01120164978 -0.00056520470 0.06467243204 0.01119870177 -0.00059868016 0.06438889785 0.01118872604 -0.00063623685 0.06414205500 0.01117250756 -0.00042956446 0.06662396368 0.01059832463 -0.00044117823 0.06642548774 0.01066138736 -0.00045573858 0.06618363447 0.01071075328 -0.00047321970 0.06590924824 0.01074658971 -0.00049359578 0.06561317342 0.01076906397 -0.00051684101 0.06530625436 0.01077834336 -0.00054292960 0.06499933543 0.01077459521 -0.00057183572 0.06470326099 0.01075798684 -0.00060353358 0.06442887541 0.01072868555 -0.00063799737 0.06418702305 0.01068685867 -0.00041321218 0.06656882279 0.01015555951 -0.00042900675 0.06637832474 0.01022599164 -0.00044722755 0.06614759937 0.01028096950 -0.00046775050 0.06588633861 0.01032024267 -0.00049045152 0.06560423441 0.01034356074 -0.00051520653 0.06531097869 0.01035067328 -0.00054189145 0.06501626339 0.01034132987 -0.00057038222 0.06472978045 0.01031528008 -0.00060055473 0.06446122181 0.01027227351 -0.00063228493 0.06422027939 0.01021205972 -0.00039154488 0.06652908406 0.00971160025 -0.00041069001 0.06634362642 0.00978930775 -0.00043204481 0.06612118403 0.00984989088 -0.00045535901 0.06587027648 0.00989285419 -0.00048038232 0.06559942338 0.00991770224 -0.00050686446 0.06531714431 0.00992393957 -0.00053455515 0.06503195887 0.00991107072 -0.00056320411 0.06475238666 0.00987860026 -0.00059256105 0.06448694727 0.00982603272 -0.00062237571 0.06424416030 0.00975287266 -0.00036616272 0.06650341369 0.00927854453 -0.00038747430 0.06632147841 0.00936333020 -0.00041128471 0.06610515814 0.00942929425 -0.00043716087 0.06586198698 0.00947584170 -0.00046466969 0.06559949905 0.00950237758 -0.00049337810 0.06532522848 0.00950830692 -0.00052285300 0.06504670937 0.00949303475 -0.00055266132 0.06477147586 0.00945596610 -0.00058236997 0.06450706204 0.00939650600 -0.00061154586 0.06426100206 0.00931405946 -0.00033866584 0.06649047787 0.00886849004 -0.00036060591 0.06631196636 0.00896005352 -0.00038604159 0.06610029138 0.00903095644 -0.00041427173 0.06586239522 0.00908062262 -0.00044459517 0.06560522015 0.00910847589 -0.00047631076 0.06533570844 0.00911394006 -0.00050871735 0.06506080239 0.00909643894 -0.00054111378 0.06478744427 0.00905539636 -0.00057279890 0.06452257635 0.00899023614 -0.00060307156 0.06427314092 0.00890038210 </DataArray>
</PointData>
<Points>
<DataArray type="Float32" NumberOfComponents="3">
0.94183719214 0.63473010737 -0.24468559466 0.95787833289 0.63064877619 -0.25677871740 0.96938932378 0.62651479965 -0.26964878775 0.97593120497 0.62246745145 -0.28292987459 0.97706501662 0.61864600532 -0.29625604679 0.97235179890 0.61518973495 -0.30926137323 0.96135259197 0.61223791406 -0.32157992278 0.94362843598 0.60992981635 -0.33284576433 0.91874037110 0.60840471552 -0.34269296676 0.88624943749 0.60780188530 -0.35075559892 0.93022726086 0.65225896902 -0.25051314402 0.94938347879 0.64939205421 -0.26112803409 0.96331776437 0.64660961321 -0.27284009937 0.97168487683 0.64397563976 -0.28524460428 0.97413957539 0.64155412757 -0.29793681323 0.97033661926 0.63940907037 -0.31051199062 0.95993076768 0.63760446185 -0.32256540087 0.94257677985 0.63620429576 -0.33369230839 0.91792941501 0.63527256580 -0.34348797760 0.88564343237 0.63487326569 -0.35154767291 0.91950017738 0.66998872350 -0.25541905305 0.94139192893 0.66804711765 -0.26494221779 0.95746181069 0.66626466297 -0.27576485256 0.96744676442 0.66465605247 -0.28746258642 0.97108373192 0.66323597916 -0.29961104843 0.96810965494 0.66201913607 -0.31178586764 0.95826147526 0.66102021619 -0.32356267313 0.94127613466 0.66025391255 -0.33451709393 0.91689057492 0.65973491815 -0.34422475912 0.88484173781 0.65947792602 -0.35226129776 0.90965083376 0.68781473917 -0.25948019303 0.93390046681 0.68654835237 -0.26824150867 0.95181773614 0.68546577528 -0.27840803270 0.96321036551 0.68455378551 -0.28955104134 0.96788607867 0.68379916068 -0.30124181083 0.96565259937 0.68318867840 -0.31305161739 0.95631765138 0.68270911627 -0.32455173724 0.93968895843 0.68234725192 -0.33531344662 0.91557424429 0.68208986296 -0.34490802174 0.88378123271 0.68192372699 -0.35290673884 0.90067412203 0.70563238441 -0.26277343519 0.92690587590 0.70483014423 -0.27104614689 0.94638181414 0.70419877652 -0.28075462519 0.95896917785 0.70371393484 -0.29147718941 0.96453520812 0.70335127271 -0.30279215888 0.96294714604 0.70308644368 -0.31427785293 0.95407223269 0.70289510129 -0.32551259089 0.93777770918 0.70275289908 -0.33607469210 0.91393081659 0.70263549058 -0.34554247587 0.88239879601 0.70251852933 -0.35349426155 0.89256493422 0.72333702757 -0.26537565078 0.92040493967 0.72282687907 -0.27337637262 0.94115031810 0.72244949307 -0.28278961542 0.95471669921 0.72218159639 -0.29320825095 0.96101971273 0.72199991585 -0.30422515100 0.95997498838 0.72188117826 -0.31543318735 0.95149815587 0.72180211045 -0.32642523176 0.93550484493 0.72173943921 -0.33679415604 0.91191068528 0.72166989139 -0.34613283194 0.88063130663 0.72157019378 -0.35403413125 0.88531816238 0.74082403703 -0.26736371107 0.91439444162 0.74047294276 -0.27525242602 0.93611952142 0.74020375130 -0.28449798878 0.95044642734 0.74000186612 -0.29471144632 0.95732818496 0.73985269069 -0.30550384564 0.95671781985 0.73974162847 -0.31648623372 0.94856835757 0.73965408293 -0.32726965754 0.93283282371 0.73957545754 -0.33746516409 0.90946424382 0.73949115575 -0.34668380036 0.87841564349 0.73938658104 -0.35453661334 0.87892869854 0.75798878116 -0.26881448729 0.90887116523 0.75770272114 -0.27669454726 0.93128569753 0.75744737757 -0.28586473066 0.94615186002 0.75721983996 -0.29595399587 0.95344921729 0.75701719781 -0.30659130123 0.95315733391 0.75683654064 -0.31740560512 0.94525577446 0.75667495795 -0.32802586590 0.92972410353 0.75652953925 -0.33808104193 0.90654188569 0.75639737405 -0.34720009156 0.87568868553 0.75627555185 -0.35501197318 0.87339143474 0.77472662832 -0.26980485070 0.90383189396 0.77445060007 -0.27772297650 0.92664511982 0.77416619826 -0.28687482647 0.94182649500 0.77388061385 -0.29690311993 0.94937140217 0.77360103781 -0.30745057622 0.94927522401 0.77333466111 -0.31815991464 0.94153334321 0.77308867470 -0.32867385453 0.92614114243 0.77287026956 -0.33863511519 0.90309400435 0.77268663664 -0.34768641596 0.87238731167 0.77254496693 -0.35547047616 0.86870126302 0.79093294688 -0.27041167255 0.89927341131 0.79065096541 -0.27835795390 0.92219406172 0.79034603975 -0.28751326158 0.93746383005 0.79002928375 -0.29752603887 0.94508333208 0.78971181128 -0.30804472904 0.94505318362 0.78940473620 -0.31871777536 0.93737400046 0.78911917237 -0.32919362110 0.92204639841 0.78886623365 -0.33912070955 0.89907099327 0.78865703391 -0.34814748398 0.86844840083 0.78850268701 -0.35592238765 0.89434547340 0.64483052545 -0.23970526851 0.90279428928 0.63811573343 -0.25387296207 0.90867127911 0.63202268290 -0.26826613378 0.91158058231 0.62656803373 -0.28266735135 0.91112633833 0.62176844579 -0.29685918247 0.90691268660 0.61764057896 -0.31062419484 0.89854376655 0.61420109311 -0.32374495616 0.88562371762 0.61146664810 -0.33600403412 0.86775667924 0.60945390382 -0.34718399643 0.84454679085 0.60817952014 -0.35706741077 0.88596493110 0.65942005359 -0.24540817357 0.89669968623 0.65487067888 -0.25811425223 0.90435541994 0.65079771111 -0.27136553083 0.90860514716 0.64719415672 -0.28490538757 0.90912188284 0.64405302218 -0.29847720069 0.90557864193 0.64136731391 -0.31182434840 0.89764843938 0.63913003838 -0.32469020893 0.88500429012 0.63733420203 -0.33681816050 0.86731920910 0.63597281131 -0.34795158134 0.84426621127 0.63503887266 -0.35783384966 0.87764498560 0.67486250675 -0.25014089742 0.89055676403 0.67193507501 -0.26174925717 0.89991264457 0.66935963212 -0.27411895012 0.90545144336 0.66711604054 -0.28697027334 0.90691197657 0.66518416272 -0.30002352387 0.90403306034 0.66354386110 -0.31299899878 0.89655351083 0.66217499814 -0.32561699512 0.88421214419 0.66105743629 -0.33759780995 0.86674777658 0.66017103800 -0.34866174033 0.84389922414 0.65949566573 -0.35852908331 0.86950061380 0.69097144816 -0.25399703478 0.88443663283 0.68919958126 -0.26482041732 0.89537831237 0.68767521365 -0.27653525460 0.90212585122 0.68637349750 -0.28885180986 0.90447944820 0.68526958502 -0.30148034631 0.90223930211 0.68433862839 -0.31413112715 0.89520561177 0.68355577979 -0.32651441561 0.88317857599 0.68289619144 -0.33834047490 0.86595839357 0.68233501550 -0.34931956823 0.84334526333 0.68184740418 -0.35916195883 0.86164679257 0.70756044106 -0.25707018036 0.87841040277 0.70655485708 -0.26737017311 0.89078778270 0.70571122338 -0.27862330721 0.89863475102 0.70500633993 -0.29053979837 0.90180712641 0.70441700669 -0.30282986229 0.90016072753 0.70392002364 -0.31520371470 0.89355137306 0.70349219076 -0.32737157129 0.88183488165 0.70311030802 -0.33904364779 0.86486707199 0.70275117539 -0.34993015989 0.84250376273 0.70239159284 -0.35974132332 0.85419849882 0.72444304869 -0.25945392886 0.87254918400 0.72389156192 -0.26944096499 0.88617641492 0.72343442903 -0.28039197088 0.89498452306 0.72305438013 -0.29202404007 0.89887783989 0.72273414533 -0.30405426612 0.89776069690 0.72245645474 -0.31619974260 0.89153742555 0.72220403846 -0.32817756306 0.88011235733 0.72195962660 -0.33970482106 0.86338982372 0.72170594926 -0.35049861015 0.84127415619 0.72142573655 -0.36027602390 0.84727070944 0.74143283430 -0.26124187500 0.86692408668 0.74110035521 -0.27107523341 0.88157956841 0.74081159829 -0.28185010855 0.89118154763 0.74055743044 -0.29329433618 0.89567441733 0.74032871856 -0.30513575209 0.89500257049 0.74011632955 -0.31710219204 0.88911040011 0.73991113031 -0.32892149180 0.87794229917 0.73970398773 -0.34032148715 0.86144266068 0.73948576871 -0.35103001385 0.83955587761 0.73924734015 -0.36077490769 0.84097840130 0.75834336111 -0.26252761348 0.86160622094 0.75807189639 -0.27231541880 0.87703260253 0.75780949886 -0.28300658316 0.88723220503 0.75755530317 -0.29434048793 0.89217968740 0.75730844398 -0.30605651448 0.89184970861 0.75706805594 -0.31789404419 0.88621692760 0.75683327371 -0.32959245840 0.87525600333 0.75660323195 -0.34089113850 0.85894159476 0.75637706531 -0.35152946584 0.83724836084 0.75615390845 -0.36124682180 0.83543655132 0.77498819238 -0.26340473902 0.85666669693 0.77469684493 -0.27320396160 0.87257087663 0.77439489845 -0.28387025765 0.88314287554 0.77408781064 -0.29515229653 0.88837647880 0.77378103919 -0.30679874760 0.88826547154 0.77348004177 -0.31855828023 0.88280363887 0.77319027609 -0.33017956375 0.87198476594 0.77291719982 -0.34141126754 0.85580263786 0.77266627067 -0.35200206095 0.83425103977 0.77244294631 -0.36170061334 0.83076013637 0.79118089132 -0.26396684632 0.85217662481 0.79086586025 -0.27378330225 0.86822975009 0.79053456476 -0.28444999496 0.87891993947 0.79019476518 -0.29571956320 0.88424762021 0.78985422180 -0.30734464574 0.88421321957 0.78952069492 -0.31907788134 0.87881716480 0.78920194485 -0.33067190874 0.86805988315 0.78890573190 -0.34187936672 0.85194180188 0.78863981636 -0.35245289403 0.83046334826 0.78841195854 -0.36214512942 0.83621996763 0.65270660480 -0.23590279947 0.84001693699 0.64418592819 -0.25163716023 0.84247489023 0.63676327569 -0.26718667033 0.84325348150 0.63036660958 -0.28244525208 0.84201236498 0.62492389215 -0.29730682778 0.83841119482 0.62036308566 -0.31166531971 0.83210962517 0.61661215239 -0.32541465017 0.82276731021 0.61359905462 -0.33844874147 0.81004390408 0.61125175462 -0.35066151588 0.79359906096 0.60949821467 -0.36194689572 0.83085527770 0.66501081955 -0.24151515582 0.83624050799 0.65931790106 -0.25579769867 0.83993545795 0.65437244568 -0.27021468067 0.84164846051 0.65011572053 -0.28462018257 0.84108784863 0.64648899273 -0.29886828515 0.83796195524 0.64343352941 -0.31281306915 0.83197911329 0.64089059767 -0.32630861536 0.82284765573 0.63880146465 -0.33920900453 0.81027591550 0.63710739745 -0.35136831742 0.79397222555 0.63574966320 -0.36264063480 0.82517198144 0.67867427570 -0.24612095797 0.83215945882 0.67508644604 -0.25929889762 0.83710844341 0.67197800445 -0.27283757785 0.83977824652 0.66930301614 -0.28656521756 0.83992817947 0.66701554631 -0.30031003560 0.83731755358 0.66506966017 -0.31390025085 0.83170568017 0.66341942292 -0.32716408220 0.82285187057 0.66201889977 -0.33992974851 0.81051543609 0.66082215592 -0.35202546865 0.79445568804 0.65978325658 -0.36327946151 0.81929384121 0.69344707935 -0.24982623009 0.82784315030 0.69134582845 -0.26219974891 0.83401921492 0.68952737725 -0.27508209041 0.83763247868 0.68795779394 -0.28828711672 0.83849338516 0.68660314669 -0.30162868999 0.83641237797 0.68542950369 -0.31492067234 0.83119990071 0.68440293313 -0.32797692593 0.82266639697 0.68348950318 -0.34061131288 0.81062231036 0.68265528203 -0.35263769534 0.79487808448 0.68186633787 -0.36386993545 0.81334461937 0.70907933656 -0.25273699633 0.82336094325 0.70795031361 -0.26455924440 0.83069314081 0.70696798935 -0.27697494685 0.83520079615 0.70610935148 -0.28979263975 0.83674349336 0.70535138771 -0.30282085916 0.83518081654 0.70467108575 -0.31586814115 0.83037234978 0.70404543330 -0.32874302178 0.82217767719 0.70345141808 -0.34125403713 0.81045638287 0.70286602779 -0.35320972325 0.79506805090 0.70226625013 -0.36441861622 0.80744807826 0.72532115342 -0.25495928086 0.81878219848 0.72475416684 -0.26643637594 0.82715558938 0.72424726599 -0.27854287571 0.83247283809 0.72378698629 -0.29108854633 0.83463853173 0.72335986319 -0.30388315397 0.83355725742 0.72295243209 -0.31673646481 0.82913360230 0.72255122844 -0.32945824500 0.82127215350 0.72214278766 -0.34185826072 0.80987749813 0.72171364518 -0.35374627813 0.79485422334 0.72125033641 -0.36493206341 0.80172798024 0.74192263600 -0.25659910784 0.81417627682 0.74161165345 -0.26789013538 0.82343192896 0.74131263243 -0.27981260550 0.82943824366 0.74101999593 -0.29218159615 0.83213852792 0.74072816695 -0.30481218528 0.83147608876 0.74043156850 -0.31751945085 0.82739423316 0.74012462355 -0.33011847082 0.81983626814 0.73980175512 -0.34242432313 0.80874550069 0.73945738620 -0.35425208576 0.79406523783 0.73908593979 -0.36541683664 0.79630808767 0.75863389040 -0.25776250143 0.80961253908 0.75837703877 -0.26897951457 0.81954752785 0.75811151393 -0.28081086475 0.82608665201 0.75783767793 -0.29307854889 0.82920350960 0.75755589283 -0.30560456393 0.82887169867 0.75726652071 -0.31821090681 0.82506481725 0.75696992364 -0.33071957447 0.81775646337 0.75666646367 -0.34295256385 0.80692023508 0.75635650287 -0.35473187187 0.79252973042 0.75604040331 -0.36587949549 0.79131216289 0.77520502267 -0.25855548580 0.80516034608 0.77490458812 -0.26976350537 0.81552775436 0.77459133574 -0.28156438197 0.82240770230 0.77426932982 -0.29378616423 0.82579350443 0.77394263465 -0.30625690077 0.82567847530 0.77361531451 -0.31880464022 0.82205592946 0.77329143369 -0.33125743120 0.81491918145 0.77297505648 -0.34344332234 0.80426154583 0.77267024717 -0.35519036225 0.79007633714 0.77238107005 -0.36632659956 0.78686396827 0.79138613891 -0.25908408511 0.80088905863 0.79104856682 -0.27030109961 0.81139797683 0.79069952313 -0.28209988569 0.81839103369 0.79034424916 -0.29431120187 0.82186854006 0.78998798623 -0.30676580667 0.82183080678 0.78963597565 -0.31929445862 0.81827814469 0.78929345873 -0.33172791625 0.81121086464 0.78896567678 -0.34389693808 0.80062927747 0.78865787111 -0.35563228264 0.78653369403 0.78837528305 -0.36676470845 0.76985527024 0.65861499670 -0.23329271927 0.77100487363 0.64909282137 -0.25008806326 0.77155269952 0.64095581183 -0.26643397621 0.77122192727 0.63407155603 -0.28229826238 0.76973573623 0.62830764189 -0.29764872608 0.76681730576 0.62353165734 -0.31245317159 0.76218981523 0.61961119030 -0.32667940318 0.75557644399 0.61641382871 -0.34029522515 0.74670037140 0.61380716049 -0.35326844178 0.73528477683 0.61165877358 -0.36556685736 0.76754507259 0.66921018891 -0.23884737673 0.76970669826 0.66289593930 -0.25419344602 0.77104453470 0.65748489852 -0.26940860740 0.77131435400 0.65288271210 -0.28441966777 0.77027192824 0.64899502558 -0.29915343404 0.76767302949 0.64572748449 -0.31353671310 0.76327342983 0.64298573438 -0.32749631184 0.75682890134 0.64067542077 -0.34095903718 0.74809521610 0.63870218920 -0.35385169600 0.73682814619 0.63697168521 -0.36610109521 0.76481124065 0.68154259269 -0.24337130886 0.76801043262 0.67760824500 -0.25760455511 0.77016532416 0.67421835220 -0.27193914105 0.77106943920 0.67130880098 -0.28627379773 0.77051630168 0.66881547803 -0.30050725623 0.76829943552 0.66667427002 -0.31453824759 0.76421236466 0.66482106365 -0.32826550288 0.75804861304 0.66319174560 -0.34158775316 0.74960170457 0.66172220255 -0.35440372949 0.73866516321 0.66034832119 -0.36661216293 0.76171210778 0.69531501618 -0.24697869331 0.76593532592 0.69305290809 -0.26039131369 0.76890192191 0.69108194856 -0.27406425204 0.77044592605 0.68936133939 -0.28787892815 0.77040136870 0.68785028237 -0.30171676178 0.76860228018 0.68650797929 -0.31545917270 0.76488269081 0.68529363194 -0.32898758067 0.75907663093 0.68416644212 -0.34218340548 0.75101813087 0.68308561162 -0.35492806688 0.74054122096 0.68201034223 -0.36710298464 0.75830600736 0.71023026753 -0.24978370776 0.76350062736 0.70905309820 -0.26262364489 0.76724118193 0.70800146329 -0.27582261527 0.76940255773 0.70705184404 -0.28925333491 0.76985964146 0.70618072175 -0.30278851984 0.76848731977 0.70536457767 -0.31630088607 0.76516047936 0.70457989309 -0.32966314962 0.75975400689 0.70380314928 -0.34274802652 0.75214278904 0.70301082750 -0.35542823279 0.74220171249 0.70217940904 -0.36757648444 0.75465127276 0.72599115486 -0.25190052984 0.76072558613 0.72543198498 -0.26437147186 0.76516995823 0.72490267207 -0.27725290561 0.76789807742 0.72439183167 -0.29041529390 0.76882363210 0.72388807931 -0.30372909953 0.76786031063 0.72338003055 -0.31706478533 0.76492180140 0.72285630093 -0.33029281411 0.75992179277 0.72230550599 -0.34328364868 0.75277397314 0.72171626128 -0.35590775185 0.74339203087 0.72107718233 -0.36803558645 0.75080623735 0.74230048631 -0.25344333721 0.75762945143 0.74201273806 -0.26570471775 0.76267510480 0.74171135060 -0.27839379796 0.76589122831 0.74139281898 -0.29138308100 0.76722585278 0.74105363820 -0.30454507001 0.76662700907 0.74069030330 -0.31775226813 0.76404272801 0.74029930928 -0.33087717852 0.75942104045 0.73987715118 -0.34379230433 0.75270997722 0.73942032402 -0.35637014869 0.74385756916 0.73892532282 -0.36848321476 0.74682923449 0.75886107002 -0.25452630754 0.75423147245 0.75861852706 -0.26669330569 0.75974347565 0.75835327457 -0.27928396720 0.76334075357 0.75806632270 -0.29217497210 0.76499881566 0.75775868156 -0.30524300039 0.76469317142 0.75743136128 -0.31836473211 0.76239933030 0.75708537198 -0.33141684725 0.75809280178 0.75672172379 -0.34427602586 0.75174909533 0.75634142683 -0.35681894794 0.74334372042 0.75594549122 -0.36892229351 0.74277859757 0.77537571413 -0.25526361846 0.75055089839 0.77507252162 -0.26740715883 0.75636192477 0.77475421967 -0.27996208823 0.76020539638 0.77442385955 -0.29280924309 0.76207503289 0.77408449253 -0.30582945983 0.76196455398 0.77373916988 -0.31890357489 0.75986767934 0.77339094286 -0.33191242469 0.75577812862 0.77304286273 -0.34473684565 0.74968962152 0.77269798077 -0.35725767421 0.74159587771 0.77235934825 -0.36935574678 0.73871265994 0.79154722676 -0.25576944764 0.74660697845 0.79119789137 -0.26791620031 0.75251730616 0.79083996158 -0.28046683592 0.75644389993 0.79047694626 -0.29330416985 0.75838701662 0.79011235426 -0.30631101746 0.75834691309 0.78974969447 -0.31937019412 0.75632384622 0.78939247574 -0.33236451521 0.75231807285 0.78904420694 -0.34517679609 0.74632984985 0.78870839695 -0.35768985213 0.73835943409 0.78838855461 -0.36978649870 0.69764597664 0.66281235244 -0.23188955965 0.69721669685 0.65306987388 -0.24924242256 0.69665724940 0.64481952515 -0.26603163019 0.69575794434 0.63789125008 -0.28226106783 0.69430909173 0.63211499251 -0.29793462075 0.69210100163 0.62732069629 -0.31305617423 0.68892398410 0.62333830524 -0.32762961354 0.68456834919 0.61999776320 -0.34165882396 0.67882440696 0.61712901402 -0.35514769077 0.67148246747 0.61456200152 -0.36810009923 0.69868108774 0.67219708368 -0.23741812222 0.69879901124 0.66576701217 -0.25331656688 0.69866930651 0.66028615123 -0.26896836952 0.69810236475 0.65563751235 -0.28433452167 0.69690857718 0.65170410704 -0.29937601481 0.69489833499 0.64836894680 -0.31405384044 0.69188202939 0.64551504314 -0.32832899005 0.68767005158 0.64302540754 -0.34216245515 0.68207279277 0.64078305152 -0.35551522723 0.67490064415 0.63867098658 -0.36834829779 0.69929283899 0.68358602001 -0.24190402421 0.69992010476 0.67960748614 -0.25667964563 0.70019940379 0.67617924764 -0.27144204502 0.69996728675 0.67322521681 -0.28612239254 0.69906030429 0.67066930596 -0.30065185836 0.69731500705 0.66843542740 -0.31496161267 0.69456794568 0.66644749344 -0.32898282564 0.69065567083 0.66462941638 -0.34264666743 0.68541473316 0.66290510852 -0.35588430822 0.67868168332 0.66119848219 -0.36862691819 0.69943700529 0.69664864209 -0.24546533883 0.70052846640 0.69438663433 -0.25940692189 0.70118791141 0.69239861004 -0.27349745145 0.70128187153 0.69063879843 -0.28764921039 0.70067687798 0.68906142873 -0.30177448160 0.69923946197 0.68762073015 -0.31578554794 0.69683615471 0.68627093191 -0.32959469231 0.69333348742 0.68496626324 -0.34311419758 0.68859799130 0.68366095334 -0.35625634663 0.68249619756 0.68230923144 -0.36893342235 0.69906936152 0.71105443058 -0.24822013931 0.70057258514 0.70989979528 -0.26157365871 0.70157519950 0.70884403408 -0.27517938361 0.70197528028 0.70786269218 -0.28893950520 0.70167090320 0.70693131479 -0.30275621468 0.70056014396 0.70602544711 -0.31653170323 0.69854107826 0.70512063433 -0.33016816207 0.69551178181 0.70419242166 -0.34356778238 0.69137033031 0.70321635430 -0.35663275535 0.68601479947 0.70216797744 -0.36926527219 0.69814568256 0.72647286613 -0.25028649888 0.70000094998 0.72594230751 -0.26325511917 0.70130163821 0.72541531541 -0.27653263628 0.70197667420 0.72488133304 -0.29001780692 0.70195498488 0.72432980361 -0.30360938777 0.70116549720 0.72375017035 -0.31720613554 0.69953713809 0.72313187647 -0.33070680691 0.69699883449 0.72246436519 -0.34401015859 0.69347951336 0.72173707972 -0.35701494727 0.68890810162 0.72093946329 -0.36961992965 0.69662174331 0.74257342939 -0.25178249077 0.69876204989 0.74230950958 -0.26452656633 0.70030759770 0.74201224970 -0.27760200426 0.70121521447 0.74167915598 -0.29090864551 0.70144172795 0.74130773465 -0.30434633106 0.70094396587 0.74089549194 -0.31781490185 0.69967875595 0.74043993410 -0.33121419885 0.69760292595 0.73993856736 -0.34444406301 0.69467330358 0.73938889794 -0.35740433529 0.69084671660 0.73878843210 -0.36999485665 0.69445331864 0.75902560102 -0.25282618821 0.69680437385 0.75879674002 -0.26546326325 0.69853344811 0.75853463260 -0.27843228231 0.69962006231 0.75824059597 -0.29163655094 0.70004373736 0.75791594735 -0.30497937471 0.69978399416 0.75756200395 -0.31836405917 0.69882035363 0.75718008299 -0.33169390988 0.69713233665 0.75677150170 -0.34487223240 0.69469946414 0.75633757729 -0.35780233229 0.69150125700 0.75587962697 -0.37038751511 0.69159618345 0.77549886166 -0.25353566443 0.69407641086 0.77519933737 -0.26614047301 0.69591955959 0.77488225977 -0.27906826523 0.69712037889 0.77455008799 -0.29222605316 0.69767361803 0.77420528117 -0.30552084889 0.69757402627 0.77385029844 -0.31885966448 0.69681635287 0.77348759892 -0.33214951200 0.69539534708 0.77311964176 -0.34529740355 0.69330575818 0.77274888608 -0.35821035118 0.69054233541 0.77237779101 -0.37079536697 0.68800611262 0.79166269199 -0.25402899265 0.69052664990 0.79131264016 -0.26663345866 0.69240630229 0.79095492686 -0.27955474780 0.69364532542 0.79059206701 -0.29270168214 0.69424397491 0.79022657557 -0.30598308377 0.69420250637 0.78986096747 -0.31930777477 0.69352117544 0.78949775766 -0.33258457723 0.69220023772 0.78913946107 -0.34572231322 0.69023994883 0.78878859264 -0.35862980483 0.68764056441 0.78844766732 -0.37121587414 0.62198668225 0.66555532330 -0.23170785233 0.62011100427 0.65635054663 -0.24911698948 0.61854108224 0.64857364944 -0.26600321108 0.61713355743 0.64203406873 -0.28236835402 0.61574507113 0.63654124152 -0.29821425516 0.61423226461 0.63190460480 -0.31354275140 0.61245177915 0.62793359560 -0.32835567961 0.61026025603 0.62443765092 -0.34265487668 0.60751433653 0.62122620778 -0.35644217949 0.60407066192 0.61810870317 -0.36971942491 0.62691009510 0.67415042587 -0.23724067826 0.62521820113 0.66809333823 -0.25318213386 0.62379642967 0.66292728540 -0.26891502555 0.62251202988 0.65852250220 -0.28439542275 0.62123225095 0.65474922346 -0.29957939489 0.61982434206 0.65147768398 -0.31442301139 0.61815555238 0.64857811860 -0.32888234167 0.61609313109 0.64592076213 -0.34291345516 0.61350432738 0.64337584940 -0.35647242127 0.61025639042 0.64081361521 -0.36951530945 0.63134685224 0.68492311998 -0.24173117817 0.62969889455 0.68119118373 -0.25653758516 0.62832679926 0.67795926303 -0.27136469505 0.62711405449 0.67514408536 -0.28613738062 0.62594414837 0.67266237821 -0.30078051462 0.62470056903 0.67043086906 -0.31521896983 0.62326680460 0.66836628540 -0.32937761899 0.62152634321 0.66638535471 -0.34318133487 0.61936267298 0.66440480448 -0.35655499024 0.61665928206 0.66234136219 -0.36942345787 0.63515012552 0.69752134051 -0.24529708099 0.63343787842 0.69541282134 -0.25925838375 0.63203866153 0.69353704416 -0.27339740056 0.63085599329 0.69184483564 -0.28761992968 0.62979339216 0.69028702245 -0.30183176935 0.62875437660 0.68881443125 -0.31593871781 0.62764246505 0.68737788870 -0.32984657331 0.62636117599 0.68592822148 -0.34346113410 0.62481402785 0.68441625625 -0.35668819841 0.62290453910 0.68279281967 -0.36943356450 0.63817308679 0.71159302233 -0.24805611564 0.63631994662 0.71052698922 -0.26141956999 0.63483848697 0.70952809059 -0.27505832303 0.63365420829 0.70857077045 -0.28886877198 0.63269261109 0.70762947282 -0.30274731404 0.63187919583 0.70667864173 -0.31659034643 0.63113946299 0.70569272121 -0.33029426638 0.63039891305 0.70464615526 -0.34375547109 0.62958304649 0.70351338791 -0.35687035778 0.62861736379 0.70226886318 -0.36953532366 0.64026890789 0.72678610034 -0.25012601105 0.63822989304 0.72630242558 -0.26309618426 0.63663274608 0.72579986413 -0.27639264343 0.63542506154 0.72526790720 -0.28990960956 0.63455443393 0.72469604599 -0.30354130367 0.63396845779 0.72407377173 -0.31718194679 0.63361472764 0.72339057561 -0.33072575994 0.63344083801 0.72263594885 -0.34406696412 0.63339438342 0.72179938267 -0.35709978036 0.63342295839 0.72087036827 -0.36971842968 0.64129076067 0.74274850940 -0.25162449615 0.63905251157 0.74250786860 -0.26436326693 0.63732790939 0.74221982660 -0.27744554271 0.63608491505 0.74188226331 -0.29076814447 0.63529148947 0.74149305862 -0.30422789323 0.63491559357 0.74105009242 -0.31772160998 0.63492518827 0.74055124461 -0.33114611573 0.63528823449 0.73999439509 -0.34439823146 0.63597269314 0.73937742374 -0.35737477817 0.63694652516 0.73869821047 -0.36997257688 0.64109181698 0.75912818439 -0.25266929986 0.63867259608 0.75891205645 -0.26529585836 0.63683044738 0.75865543981 -0.27826220183 0.63555013084 0.75835985621 -0.29147007878 0.63481640647 0.75802682736 -0.30482123770 0.63461403423 0.75765787502 -0.31821742710 0.63492777411 0.75725452092 -0.33156039549 0.63574238610 0.75681828678 -0.34475189136 0.63704263018 0.75635069434 -0.35769366322 0.63881326633 0.75585326534 -0.37028745957 0.63952524865 0.77557306020 -0.25337815112 0.63697494047 0.77528372734 -0.26596899892 0.63504683056 0.77497416557 -0.27888780176 0.63373707095 0.77464670329 -0.29204111451 0.63304181370 0.77430366889 -0.30533549204 0.63295721084 0.77394739073 -0.31867748924 0.63347941441 0.77358019723 -0.33197366096 0.63460457647 0.77320441675 -0.34513056209 0.63632884904 0.77282237768 -0.35805474751 0.63864838418 0.77243640842 -0.37065277208 0.63644422753 0.79173107171 -0.25386877884 0.63384433862 0.79139161944 -0.26645772899 0.63188352944 0.79104346570 -0.27936752347 0.63056209741 0.79068882199 -0.29250695373 0.62988033995 0.79032989984 -0.30578481125 0.62983855448 0.78996891075 -0.31910988748 0.63043703842 0.78960806624 -0.33239097389 0.63167608920 0.78924957781 -0.34553686192 0.63355600423 0.78889565697 -0.35845634305 0.63607708095 0.78854851525 -0.37105820873 0.54527198249 0.66710056056 -0.23276212906 0.54114639352 0.65916830054 -0.24972851542 0.53795674044 0.65243741854 -0.26637229768 0.53562079127 0.64670838901 -0.28265480652 0.53405631408 0.64178168640 -0.29853737268 0.53318107690 0.63745778517 -0.31398132685 0.53291284777 0.63353715979 -0.32894799976 0.53316939475 0.62982028469 -0.34339872210 0.53386848588 0.62610763435 -0.35729482460 0.53492788919 0.62219968321 -0.37059763796 0.55487886662 0.67524913750 -0.23832833079 0.55066502215 0.67003713603 -0.25380521958 0.54741256049 0.66555938262 -0.26926963398 0.54504288650 0.66168006256 -0.28463304951 0.54347740505 0.65826336115 -0.29980694172 0.54263752099 0.65517346367 -0.31470278617 0.54244463920 0.65227455542 -0.32923205838 0.54282016451 0.64943082169 -0.34330623390 0.54368550181 0.64650644778 -0.35683678828 0.54496205595 0.64336561899 -0.36973519706 0.56370335615 0.68567245491 -0.24286484489 0.55915722134 0.68246635203 -0.25719178968 0.55566362753 0.67965697064 -0.27172549647 0.55315200774 0.67715722837 -0.28634514065 0.55155179501 0.67488004286 -0.30092989762 0.55079242235 0.67273833175 -0.31535894274 0.55080332281 0.67064501265 -0.32951145142 0.55151392940 0.66851300322 -0.34326659902 0.55285367515 0.66625522107 -0.35650356094 0.55475199311 0.66378458384 -0.36910151256 0.57153306025 0.69800649486 -0.24648483417 0.56647886870 0.69619728326 -0.25995750950 0.56261565036 0.69455693339 -0.27377981132 0.55988396950 0.69303411559 -0.28781305225 0.55822439038 0.69157750020 -0.30191854494 0.55757747728 0.69013575756 -0.31595760202 0.55788379446 0.68865755799 -0.32979153614 0.55908390619 0.68709157183 -0.34328165992 0.56111837674 0.68538646943 -0.35628928601 0.56392777037 0.68349092110 -0.36867572704 0.57815558813 0.71188723941 -0.24930146142 0.57248584184 0.71097126445 -0.26217166286 0.56817433779 0.71008602169 -0.27547250469 0.56517458628 0.70920495339 -0.28905875659 0.56344009761 0.70830150182 -0.30278518828 0.56292438209 0.70734910923 -0.31650656945 0.56358095002 0.70632121790 -0.33007766981 0.56536331168 0.70519127010 -0.34335325907 0.56822497739 0.70393270808 -0.35618810691 0.57211945744 0.70251897413 -0.36843698306 0.58335854898 0.72695067060 -0.25142788942 0.57703401835 0.72652963034 -0.26390353355 0.57224539860 0.72607098636 -0.27684350274 0.56895967258 0.72556397093 -0.29010422596 0.56714382313 0.72499781635 -0.30354213221 0.56676483310 0.72436175491 -0.31701365046 0.56778968533 0.72364501889 -0.33037520971 0.57018536266 0.72283684058 -0.34348323892 0.57391884794 0.72192645227 -0.35619416709 0.57895712402 0.72090308624 -0.36836442320 0.58692955200 0.74283277050 -0.25297728099 0.57997927585 0.74261371566 -0.26522240537 0.57473454161 0.74233857819 -0.27793273164 0.57117504291 0.74200539737 -0.29097143266 0.56928047337 0.74161221246 -0.30420168132 0.56903052661 0.74115706273 -0.31748665050 0.57040489625 0.74063798743 -0.33068951308 0.57338327592 0.74005302583 -0.34367344194 0.57794535924 0.73940021720 -0.35630160997 0.58407083983 0.73867760080 -0.36843719003 0.58865620636 0.75916952117 -0.25406279890 0.58117749193 0.75896485513 -0.26619756212 0.57554747562 0.75871554801 -0.27878011755 0.57175651178 0.75842346188 -0.29168234897 0.56979495476 0.75809045880 -0.30477614019 0.56965315893 0.75771840082 -0.31793337501 0.57132147863 0.75730915001 -0.33102593721 0.57479026824 0.75686456841 -0.34392571060 0.58004988210 0.75638651810 -0.35650457898 0.58709067457 0.75587686113 -0.36863442614 0.58832612127 0.77559690466 -0.25479760595 0.58048454421 0.77532438348 -0.26689828760 0.57458990942 0.77502864662 -0.27942558664 0.57063989368 0.77471239362 -0.29225894720 0.56863217374 0.77437832401 -0.30527781341 0.56856442637 0.77402913733 -0.31836162942 0.57043432834 0.77366753312 -0.33138983936 0.57423955642 0.77329621090 -0.34424188735 0.57997778736 0.77291787020 -0.35679721755 0.58764669794 0.77253521058 -0.36893527408 0.58572690591 0.79175090304 -0.25529486495 0.57775631028 0.79143363545 -0.26739386561 0.57176755182 0.79110462483 -0.27990906507 0.56776100312 0.79076642175 -0.29272319962 0.56573703674 0.79042157675 -0.30571900556 0.56569602525 0.79007264040 -0.31877921918 0.56763834123 0.78972216324 -0.33178657679 0.57156435724 0.78937269583 -0.34462381467 0.57747444586 0.78902678873 -0.35717366912 0.58536897966 0.78868699249 -0.36931887644 0.46989647276 0.66770471551 -0.23506692157 0.46178146224 0.66175659652 -0.25109375176 0.45565676639 0.65663006625 -0.26716246876 0.45149167059 0.65212258791 -0.28315511093 0.44925546024 0.64803162466 -0.29895371667 0.44891742069 0.64415463969 -0.31444032435 0.45044683735 0.64028909619 -0.32949697233 0.45381299558 0.63623245733 -0.34400569901 0.45898518077 0.63178218631 -0.35784854276 0.46593267830 0.62673574630 -0.37090754195 0.48523417427 0.67567214058 -0.24069436574 0.47684022849 0.67176062415 -0.25520089665 0.47050435527 0.66833352450 -0.27005325331 0.46619447173 0.66525257436 -0.28507808044 0.46387849497 0.66237950645 -0.30010202275 0.46352434211 0.65957605349 -0.31495172499 0.46509993024 0.65670394822 -0.32945383186 0.46857317648 0.65362492337 -0.34343498809 0.47391199794 0.65020071165 -0.35672183841 0.48108431172 0.64629304581 -0.36914102755 0.49909242648 0.68595258712 -0.24531709851 0.49010550444 0.68354000529 -0.25865567516 0.48332600555 0.68137094272 -0.27254285456 0.47872341183 0.67935646757 -0.28677205130 0.47626720527 0.67740764801 -0.30113667996 0.47592686789 0.67543555220 -0.31543015513 0.47767188168 0.67335124830 -0.32944589142 0.48147172865 0.67106580449 -0.34297730341 0.48729589080 0.66849028891 -0.35581780570 0.49511385015 0.66553576974 -0.36776081288 0.51126740127 0.69817748859 -0.24903951274 0.50146674393 0.69680583426 -0.26151610939 0.49408035600 0.69551796020 -0.27466039565 0.48908147834 0.69426130287 -0.28825054434 0.48644335181 0.69298329867 -0.30206472829 0.48613921727 0.69163138405 -0.31588112032 0.48814231557 0.69015299543 -0.32947789326 0.49242588758 0.68849556925 -0.34263321996 0.49896317416 0.68660654194 -0.35512527323 0.50772741617 0.68443334992 -0.36673222590 0.52155527051 0.71197827842 -0.25196600130 0.51081340082 0.71126920537 -0.26384022145 0.50272604540 0.71055021627 -0.27643499972 0.49727165873 0.70979411557 -0.28952708040 0.49442869527 0.70897370776 -0.30289320775 0.49417560949 0.70806179728 -0.31631012607 0.49649085584 0.70703118861 -0.32955457963 0.50135288879 0.70585468622 -0.34240331271 0.50874016281 0.70450509457 -0.35463306960 0.51863113236 0.70295521813 -0.36602059457 0.52975220607 0.72698639003 -0.25420095707 0.51803492893 0.72664121295 -0.26568603344 0.50922171252 0.72624335022 -0.27789578992 0.50329694045 0.72578194103 -0.29061518029 0.50024499634 0.72524612459 -0.30362915836 0.50005026379 0.72462504013 -0.31672267791 0.50269712640 0.72390782685 -0.32968069274 0.50816996779 0.72308362396 -0.34228815664 0.51645317156 0.72214157067 -0.35433002342 0.52753112133 0.72107080620 -0.36559124685 0.53565437983 0.74283325687 -0.25584877292 0.52302078211 0.74263295133 -0.26711156747 0.51352599613 0.74237300136 -0.27907188937 0.50716031096 0.74205181455 -0.29152836485 0.50391401570 0.74166779851 -0.30427962011 0.50377739940 0.74121936084 -0.31712428137 0.50674075117 0.74070490915 -0.32986097485 0.51279436008 0.74012285103 -0.34228832675 0.52192851521 0.73947159408 -0.35420496330 0.53413350563 0.73874954592 -0.36540951070 0.53905796365 0.75915031237 -0.25701384173 0.52566041421 0.75895551482 -0.26817484564 0.51559753501 0.75871480900 -0.27999242124 0.50886475772 0.75843077147 -0.29228015490 0.50545751402 0.75810597883 -0.30485163302 0.50537123558 0.75774300765 -0.31752044199 0.50860135407 0.75734443451 -0.33010016819 0.51514330117 0.75691283598 -0.34240439801 0.52499250855 0.75645078866 -0.35424671784 0.53814440788 0.75596086911 -0.36544071407 0.53975912941 0.77556898997 -0.25780055636 0.52584327906 0.77531999775 -0.26893389007 0.51539496792 0.77504441244 -0.28068650865 0.50841326818 0.77474584713 -0.29288407127 0.50489725200 0.77442791488 -0.30535223710 0.50484599155 0.77409422879 -0.31791666528 0.50825855902 0.77374840193 -0.33040301500 0.51513402658 0.77339404739 -0.34263694540 0.52547146639 0.77303477824 -0.35444411566 0.53926995064 0.77267420758 -0.36565018492 0.53755404899 0.79172072310 -0.25831330969 0.52345883051 0.79143749444 -0.26944672285 0.51287693365 0.79113745100 -0.28118327475 0.50580882979 0.79082407684 -0.29335363479 0.50225499030 0.79050085599 -0.30578847234 0.50221588656 0.79017127250 -0.31831845678 0.50569198994 0.78983881043 -0.33077425751 0.51268377181 0.78950695381 -0.34298654391 0.52319170354 0.78917918669 -0.35478598535 0.53721625650 0.78885899312 -0.36600325123 0.39825474848 0.66762443944 -0.23863676158 0.38347480804 0.66434889546 -0.25322944986 0.37239370249 0.66137082640 -0.26839730312 0.36501822012 0.65848504244 -0.28390395284 0.36135514925 0.65548635379 -0.29951303051 0.36141127819 0.65216957065 -0.31498816764 0.36519339525 0.64832950321 -0.33009299570 0.37270828874 0.64376096167 -0.34459114619 0.38396274698 0.63825875624 -0.35824625060 0.39896355827 0.63161769711 -0.37082194042 0.42062278999 0.67559835711 -0.24435206907 0.40544457435 0.67342602114 -0.25738423768 0.39405847032 0.67140079263 -0.27128694206 0.38646632269 0.66938241851 -0.28576119402 0.38266997622 0.66723064569 -0.30050800541 0.38267127571 0.66480522110 -0.31522838806 0.38647206592 0.66196589167 -0.32962335379 0.39407419164 0.65857240432 -0.34339391443 0.40547949764 0.65448450598 -0.35624108182 0.42068982870 0.64956194357 -0.36786586779 0.44024413901 0.68588207892 -0.24910001316 0.42435416317 0.68451915778 -0.26094265760 0.41243005029 0.68319975154 -0.27383517464 0.40447053208 0.68183362469 -0.28744449121 0.40047434024 0.68033054174 -0.30143753425 0.40044020651 0.67860026717 -0.31548123070 0.40436686259 0.67655256547 -0.32924250750 0.41225304020 0.67409720113 -0.34238829159 0.42409747105 0.67114393866 -0.35458550991 0.43989888687 0.66760254254 -0.36550108940 0.45703474036 0.69810770512 -0.25297203105 0.44021681082 0.69730428848 -0.26394599366 0.42759425655 0.69647980707 -0.27605486551 0.41916419800 0.69558106203 -0.28895437218 0.41492375560 0.69455485452 -0.30230023929 0.41487004979 0.69334798570 -0.31574819242 0.41900020101 0.69190725671 -0.32895395716 0.42731132971 0.69017946871 -0.34157325911 0.43980055633 0.68811142285 -0.35326182387 0.45646500130 0.68564992028 -0.36367537702 0.47091053887 0.71190733598 -0.25605955995 0.45304575359 0.71145739638 -0.26643552989 0.43963690327 0.71095306318 -0.27795887930 0.43068067017 0.71036713155 -0.29029136475 0.42617373656 0.70967239662 -0.30309474281 0.42611278473 0.70884165357 -0.31603077006 0.43049449694 0.70784769753 -0.32876120307 0.43931555546 0.70666332366 -0.34094779842 0.45257264257 0.70526132712 -0.35225231267 0.47026244054 0.70361450306 -0.36233650240 0.48178747938 0.72691307174 -0.25845403706 0.46285422780 0.72665446457 -0.26845255034 0.44864380459 0.72633162383 -0.27956008067 0.43915329829 0.72593423427 -0.29145599670 0.43437979743 0.72545198062 -0.30381966709 0.43432039053 0.72487454763 -0.31633046050 0.43897216612 0.72419162004 -0.32866774557 0.44833221273 0.72339288260 -0.34051089095 0.46239761889 0.72246802004 -0.35153926531 0.48116547312 0.72140671711 -0.36143223729 0.48958150672 0.74275701266 -0.26024689959 0.46965546973 0.74257147618 -0.27003833903 0.45470077468 0.74232759298 -0.28087133424 0.44471543209 0.74202477123 -0.29244879583 0.43969745249 0.74166241910 -0.30447363440 0.43964484639 0.74123994476 -0.31664876057 0.44455562433 0.74075675638 -0.32867708496 0.45442779682 0.74021226213 -0.34026151815 0.46925937439 0.73960587018 -0.35110497078 0.48904836756 0.73893698870 -0.36091035345 0.49420856571 0.75907125901 -0.26152958475 0.47346271570 0.75888441432 -0.27123418002 0.45789362770 0.75865307457 -0.28190550467 0.44750042128 0.75838114345 -0.29327028993 0.44228221602 0.75807252464 -0.30505526701 0.44223813151 0.75773112181 -0.31698716715 0.44736728731 0.75736083866 -0.32879272156 0.45766880301 0.75696557887 -0.34019866146 0.47314179818 0.75654924611 -0.35093171807 0.49378539241 0.75611574408 -0.36071862263 0.49558460120 0.77548791104 -0.26239352975 0.47428920201 0.77526926211 -0.27208135733 0.45830817779 0.77502017258 -0.28267545660 0.44764161556 0.77474575197 -0.29392100680 0.44228960231 0.77445110982 -0.30556318720 0.44225222506 0.77414135566 -0.31734717708 0.44752957082 0.77382159901 -0.32901815569 0.45812172659 0.77349694942 -0.34032130230 0.47402877938 0.77317251641 -0.35100179617 0.49525081619 0.77285340951 -0.36080481658 0.49362555799 0.79163906900 -0.26293017178 0.47214816496 0.79140200266 -0.27262115502 0.45603023913 0.79114099094 -0.28319405466 0.44527236465 0.79086099781 -0.29440147423 0.43987512565 0.79056698722 -0.30599601724 0.43983910626 0.79026392315 -0.31773028721 0.44516489061 0.78995676956 -0.32935688767 0.45585306284 0.78965049040 -0.34062842211 0.47190420707 0.78935004964 -0.35129749407 0.49331890745 0.78906041124 -0.36111670706 0.33274140506 0.66711638362 -0.24348618084 0.30768502858 0.66717865830 -0.25615236112 0.28892009113 0.66687893279 -0.27010037956 0.27647246457 0.66600412962 -0.28493601782 0.27036802077 0.66434117130 -0.30026505757 0.27063263157 0.66167698033 -0.31569328048 0.27729216885 0.65779847923 -0.33082646821 0.29037250446 0.65249259053 -0.34527040242 0.30989951027 0.64554623672 -0.35863086478 0.33589905812 0.63674634033 -0.37051363696 0.36369148574 0.67520670912 -0.24931472672 0.33817881394 0.67519554557 -0.26037031528 0.31906156194 0.67491226861 -0.27299175872 0.30635797649 0.67421197592 -0.28671306876 0.30008630430 0.67294976520 -0.30106825715 0.30026479211 0.67098073413 -0.31559133560 0.30691168664 0.66815998041 -0.32981631585 0.32004523462 0.66434260171 -0.34327720962 0.33968368279 0.65938369573 -0.35550802866 0.36584527786 0.65313836016 -0.36604278468 0.38988856948 0.68557949262 -0.25422566299 0.36371361687 0.68551082375 -0.26406615297 0.34409187871 0.68524196935 -0.27562086200 0.33103563381 0.68468052148 -0.28838883905 0.32455716100 0.68373407214 -0.30186913311 0.32466873910 0.68231021339 -0.31556079315 0.33138264693 0.68031653725 -0.32896286815 0.34471116330 0.67766063576 -0.34157440710 0.36466656703 0.67425010095 -0.35289445896 0.39126113695 0.66999252485 -0.36242207273 0.41151666929 0.69787052789 -0.25829330348 0.38454437606 0.69775846009 -0.26725897253 0.36431883010 0.69750215645 -0.27797893281 0.35084780664 0.69704805766 -0.28994650202 0.34413908089 0.69634260444 -0.30265499786 0.34420042808 0.69533223748 -0.31559773805 0.35103962342 0.69396339749 -0.32826804029 0.36466444214 0.69218252518 -0.34015922227 0.38508265945 0.68993606124 -0.35076460172 0.41230205058 0.68717044638 -0.35957749634 0.42875979818 0.71171560871 -0.26159196202 0.40092603020 0.71157242187 -0.26996787231 0.38005020483 0.71132695131 -0.28005721457 0.36613686508 0.71095287586 -0.29136923101 0.35919055398 0.71042387440 -0.30341316382 0.35921581454 0.70971362577 -0.31569825523 0.36621718980 0.70879580884 -0.32773374742 0.38019922277 0.70764410245 -0.33902888260 0.40116645648 0.70623218547 -0.34909290297 0.42912343394 0.70453373675 -0.35743505074 0.44180196915 0.72675052884 -0.26419595246 0.41311351798 0.72658667634 -0.27221195064 0.39159379157 0.72635047533 -0.28184695068 0.37724517923 0.72603326745 -0.29264019934 0.37007007027 0.72562639434 -0.30413094339 0.37007085401 0.72512119764 -0.31585842960 0.37724991977 0.72450901901 -0.32736190471 0.39160965684 0.72378120009 -0.33818061550 0.41315245456 0.72292908253 -0.34785380874 0.44188070222 0.72194400796 -0.35592073117 0.45082719522 0.74261108204 -0.26617958864 0.42136177808 0.74243519076 -0.27401030588 0.39925737901 0.74220684994 -0.28333938456 0.38451511918 0.74192752380 -0.29374258037 0.37713611979 0.74159867657 -0.30479564898 0.37712150200 0.74122177247 -0.31607434608 0.38447238701 0.74079827574 -0.32715442733 0.39918989599 0.74032965059 -0.33761164843 0.42127515014 0.73981736127 -0.34702176505 0.45072927062 0.73926287198 -0.35496053287 0.45601948941 0.75893306211 -0.26761718439 0.42592574921 0.75875193240 -0.27538203636 0.40334875585 0.75853019654 -0.28452575962 0.38828905505 0.75827393629 -0.29465954742 0.38074719254 0.75798923340 -0.30539459299 0.38072371402 0.75768216963 -0.31634208959 0.38821916522 0.75735882673 -0.32711323045 0.40323409186 0.75702528646 -0.33731920882 0.42576903966 0.75668763057 -0.34657121795 0.45582455433 0.75635194083 -0.35448045107 0.45756286472 0.77535226279 -0.26858305355 0.42706037004 0.77517086851 -0.27634624043 0.40417571078 0.77495463655 -0.28539731928 0.38890935694 0.77471079631 -0.29537427383 0.38126177854 0.77444657716 -0.30591508784 0.38123344558 0.77416920849 -0.31665774506 0.38882482809 0.77388591971 -0.32724022923 0.40403639608 0.77360394018 -0.33730052411 0.42686861956 0.77333049931 -0.34647661345 0.45732196854 0.77307282647 -0.35440648100 0.45564133416 0.79150447787 -0.26915150996 0.42502057928 0.79132596636 -0.27692201644 0.40204603249 0.79111429138 -0.28594530693 0.38671839494 0.79087639522 -0.29586993293 0.37903836780 0.79061922015 -0.30634444592 0.37900665220 0.79034970844 -0.31701739739 0.38662394932 0.79007480239 -0.32753733884 0.40189096029 0.78980144427 -0.33755282174 0.42480838628 0.78953657635 -0.34671239760 0.45537692844 0.78928714092 -0.35466461790 </DataArray>
</Points>
</Piece>
</StructuredGrid>
</VTKFile>
