<?xml version="1.0"?>
<VTKFile type="StructuredGrid" version="0.1">
<StructuredGrid WholeExtent="0 9 0 9 0 9">
<Piece Extent="0 9 0 9 0 9">
<PointData>
<DataArray type="Float32" Name="Deformation" format="ascii" NumberOfComponents="3">
-0.00358386152 -0.05212765723 0.22098965847 -0.00357737656 -0.04953241917 0.22153638821 -0.00355583113 -0.04655889543 0.22211744167 -0.00352346190 -0.04332373185 0.22271220486 -0.00348450552 -0.03994357425 0.22330006379 -0.00344319867 -0.03653506846 0.22386040446 -0.00340377799 -0.03321486030 0.22437261288 -0.00337048017 -0.03009959561 0.22481607506 -0.00334754185 -0.02730592021 0.22517017701 -0.00333919971 -0.02495047993 0.22541430473 -0.00367273851 -0.05293225642 0.22602260237 -0.00366319519 -0.05034448655 0.22657704256 -0.00363944892 -0.04738029933 0.22716166721 -0.00360540412 -0.04415552795 0.22775661473 -0.00356496522 -0.04078600559 0.22834202349 -0.00352203664 -0.03738756543 0.22889803186 -0.00348052280 -0.03407604065 0.22940477825 -0.00344432814 -0.03096726444 0.22984240103 -0.00341735708 -0.02817706998 0.23019103858 -0.00340351403 -0.02582129046 0.23043082929 -0.00376125539 -0.05373638988 0.23103816490 -0.00374875547 -0.05115549474 0.23159883638 -0.00372278896 -0.04819979556 0.23218649759 -0.00368700112 -0.04498445369 0.23278177505 -0.00364503718 -0.04162463050 0.23336529522 -0.00360054240 -0.03823548734 0.23391768463 -0.00355716202 -0.03493218557 0.23441956975 -0.00351854128 -0.03182988656 0.23485157708 -0.00348832542 -0.02904375165 0.23519433311 -0.00347015970 -0.02668894221 0.23542846435 -0.00384969342 -0.05454063842 0.23603573435 -0.00383430890 -0.05196610794 0.23660151740 -0.00380610096 -0.04901813892 0.23719183993 -0.00376851365 -0.04581135135 0.23778760564 -0.00372499102 -0.04246036518 0.23836971827 -0.00367897712 -0.03907980040 0.23891908152 -0.00363391599 -0.03578427697 0.23941659913 -0.00359325168 -0.03268841485 0.23984317480 -0.00356042824 -0.02990683403 0.24017971226 -0.00353888971 -0.02755415448 0.24040711523 -0.00393833388 -0.05534558286 0.24101469898 -0.00392010701 -0.05277699033 0.24158483335 -0.00388963463 -0.04983608423 0.24217760133 -0.00385020248 -0.04663706318 0.24277402636 -0.00380509634 -0.04329412582 0.24335513188 -0.00375760194 -0.03992147078 0.24390194133 -0.00371100506 -0.03663329670 0.24439547815 -0.00366859144 -0.03354380222 0.24481676579 -0.00363364685 -0.03076718597 0.24514682768 -0.00360945703 -0.02841764658 0.24536668726 -0.00402745803 -0.05615180400 0.24597444707 -0.00400640132 -0.05358880613 0.24654853194 -0.00397363967 -0.05065438629 0.24714368892 -0.00393232837 -0.04746243146 0.24774095703 -0.00388562273 -0.04412682859 0.24832137531 -0.00383667803 -0.04076146468 0.24886598281 -0.00378864957 -0.03748022667 0.24935581857 -0.00374469266 -0.03439700155 0.24977192162 -0.00370796259 -0.03162567627 0.25009533100 -0.00368161465 -0.02928013783 0.25030708576 -0.00411734716 -0.05695988266 0.25091436687 -0.00409344335 -0.05440221952 0.25149236090 -0.00405836580 -0.05147379992 0.25209000981 -0.00401515208 -0.04828829845 0.25268831749 -0.00396683979 -0.04495938971 0.25326828784 -0.00391646653 -0.04160074827 0.25381092476 -0.00386706988 -0.03832604875 0.25429723214 -0.00382168744 -0.03524896572 0.25470821388 -0.00378335679 -0.03248317378 0.25502487388 -0.00375511553 -0.03014234752 0.25522821604 -0.00420828253 -0.05777039966 0.25583384667 -0.00418148462 -0.05521789471 0.25641606796 -0.00414406271 -0.05229507993 0.25701647113 -0.00409893436 -0.04911550644 0.25761602759 -0.00404901714 -0.04579272534 0.25819570873 -0.00399722861 -0.04244028777 0.25873648594 -0.00394648634 -0.03917174482 0.25921933062 -0.00389970788 -0.03610064764 0.25962521417 -0.00385981080 -0.03334054731 0.25993510797 -0.00382971267 -0.03100499498 0.26012998343 -0.00430054542 -0.05858393580 0.26073227474 -0.00427077664 -0.05603649589 0.26131940082 -0.00423098012 -0.05311898113 0.26192297999 -0.00418393598 -0.04994489768 0.26252400715 -0.00413242437 -0.04662775169 0.26310347723 -0.00407922543 -0.04328104934 0.26364238513 -0.00402711928 -0.04001829678 0.26412172577 -0.00397888608 -0.03695300018 0.26452249406 -0.00393730595 -0.03419866570 0.26482568491 -0.00390515903 -0.03186879951 0.26501229323 -0.00439441711 -0.05940107189 0.26560903934 -0.00436157094 -0.05685868726 0.26620210722 -0.00431936773 -0.05394625833 0.26680944350 -0.00427041770 -0.05077731444 0.26741217602 -0.00421733108 -0.04746538494 0.26799143261 -0.00416271813 -0.04412399918 0.26852834111 -0.00410918906 -0.04086668650 0.26900402934 -0.00405935413 -0.03780697625 0.26939962514 -0.00401582356 -0.03505839777 0.26969625635 -0.00398120760 -0.03273448041 0.26987505079 -0.00357581643 -0.05427523914 0.22049896719 -0.00356491625 -0.05110634356 0.22109774893 -0.00354410298 -0.04767321376 0.22172100715 -0.00351586873 -0.04405769833 0.22235443014 -0.00348270562 -0.04034164587 0.22298370614 -0.00344710578 -0.03660690498 0.22359452342 -0.00341156133 -0.03293532425 0.22417257024 -0.00337856438 -0.02940875226 0.22470353488 -0.00335060706 -0.02610903762 0.22517310559 -0.00333018149 -0.02311802891 0.22556697063 -0.00366575627 -0.05507164559 0.22552441242 -0.00365234123 -0.05191079244 0.22612629260 -0.00362883094 -0.04848685893 0.22675037556 -0.00359774773 -0.04488122945 0.22738273636 -0.00356161394 -0.04117528836 0.22800945004 -0.00352295192 -0.03745042003 0.22861659166 -0.00348428401 -0.03378800885 0.22919023626 -0.00344813256 -0.03026943918 0.22971645890 -0.00341701989 -0.02697609540 0.23018133462 -0.00339346836 -0.02398936188 0.23057093847 -0.00375600102 -0.05586849356 0.23053295567 -0.00373989017 -0.05271574110 0.23113735463 -0.00371364408 -0.04930061031 0.23176216066 -0.00367979700 -0.04570418073 0.23239368532 -0.00364088319 -0.04200753187 0.23301824012 -0.00359943692 -0.03829174329 0.23362213660 -0.00355799245 -0.03463789451 0.23419168629 -0.00351908404 -0.03112706506 0.23471320072 -0.00348524595 -0.02784033449 0.23517299143 -0.00345901245 -0.02485878231 0.23555736995 -0.00384676784 -0.05666610795 0.23552380679 -0.00382777088 -0.05352147666 0.23613035403 -0.00379873834 -0.05011480080 0.23675587169 -0.00376219396 -0.04652698546 0.23738678909 -0.00372066146 -0.04283893570 0.23800953552 -0.00367666457 -0.03913155660 0.23861054027 -0.00363272702 -0.03548575324 0.23917623266 -0.00359137252 -0.03198243069 0.23969304197 -0.00355512482 -0.02870249402 0.24014739751 -0.00352650763 -0.02572684832 0.24052572858 -0.00393827389 -0.05746481367 0.24049617561 -0.00391619115 -0.05432828623 0.24110470982 -0.00388430968 -0.05092976332 0.24173101789 -0.00384511606 -0.04735007695 0.24236155978 -0.00380109687 -0.04367005912 0.24298279541 -0.00375473869 -0.03997054182 0.24358118474 -0.00370852811 -0.03633235706 0.24414318771 -0.00366495171 -0.03283633684 0.24465526426 -0.00362649607 -0.02956331316 0.24510387433 -0.00359564777 -0.02659411801 0.24547547786 -0.00403073630 -0.05826493561 0.24544927197 -0.00400535880 -0.05513645692 0.24605984101 -0.00397055405 -0.05174583078 0.24668710849 -0.00392874072 -0.04817388851 0.24731750946 -0.00388233751 -0.04450146141 0.24793747897 -0.00383376308 -0.04080938080 0.24853345206 -0.00378543611 -0.03717847800 0.24909186380 -0.00373977528 -0.03368958431 0.24959914921 -0.00369919927 -0.03042353105 0.25004174336 -0.00366612675 -0.02746114952 0.25040608130 -0.00412437224 -0.05906679869 0.25038230571 -0.00409548162 -0.05594627585 0.25099516663 -0.00405766738 -0.05256333608 0.25162365274 -0.00401324538 -0.04899885341 0.25225415024 -0.00396453148 -0.04533370185 0.25287304535 -0.00391384154 -0.04164875539 0.25346672429 -0.00386349140 -0.03802488806 0.25402157325 -0.00381579694 -0.03454297388 0.25452397845 -0.00377307399 -0.03128388684 0.25496032610 -0.00373763843 -0.02832850096 0.25531700241 -0.00421939885 -0.05987072779 0.25529448665 -0.00418676742 -0.05675803012 0.25591010568 -0.00414584564 -0.05338261215 0.25654015985 -0.00409880747 -0.04982540498 0.25717099420 -0.00404782690 -0.04616733971 0.25778895373 -0.00399507788 -0.04248934744 0.25838038346 -0.00394273438 -0.03887235928 0.25893162841 -0.00389297037 -0.03539730632 0.25942903358 -0.00384795982 -0.03214511968 0.25985894400 -0.00380987669 -0.02919673044 0.26020770468 -0.00431603330 -0.06067704781 0.26018502465 -0.00427942400 -0.05757200685 0.26080407718 -0.00423528476 -0.05420399189 0.26143613909 -0.00418560443 -0.05065397650 0.26206755343 -0.00413237186 -0.04700293428 0.26268466327 -0.00407757591 -0.04333183880 0.26327381165 -0.00402320543 -0.03972166366 0.26382134162 -0.00397124928 -0.03625338244 0.26431359624 -0.00392369633 -0.03300796872 0.26473691856 -0.00388253541 -0.03006639609 0.26507765164 -0.00441449272 -0.06148608367 0.26505312953 -0.00437365918 -0.05838849316 0.26567650014 -0.00432618071 -0.05502780821 0.26631109967 -0.00427381368 -0.05148500128 0.26694334003 -0.00421831446 -0.04784104483 0.26755963313 -0.00416143942 -0.04417691133 0.26814639089 -0.00410494493 -0.04057357324 0.26869002522 -0.00405058736 -0.03711200301 0.26917694803 -0.00400012308 -0.03387317312 0.26959357125 -0.00395530845 -0.03093805602 0.26992630679 -0.00355100654 -0.05595161850 0.22009179990 -0.00353796927 -0.05236334656 0.22072761624 -0.00351817841 -0.04859379944 0.22138092058 -0.00349314285 -0.04469916005 0.22204201096 -0.00346437150 -0.04073561130 0.22270118544 -0.00343337324 -0.03675933611 0.22334874206 -0.00340165699 -0.03282651738 0.22397497887 -0.00337073163 -0.02899333801 0.22457019394 -0.00334210607 -0.02531598093 0.22512468531 -0.00331728920 -0.02185062905 0.22562875104 -0.00364346085 -0.05673783405 0.22510927906 -0.00362754173 -0.05315906480 0.22574507186 -0.00360453044 -0.04939951185 0.22639731865 -0.00357605037 -0.04551515981 0.22705644409 -0.00354372492 -0.04156199330 0.22771287286 -0.00350917749 -0.03759599693 0.22835702961 -0.00347403146 -0.03367315530 0.22897933902 -0.00343991023 -0.02984945305 0.22957022575 -0.00340843720 -0.02618087477 0.23012011445 -0.00338123575 -0.02272340507 0.23061942981 -0.00373689661 -0.05752525848 0.23010921610 -0.00371780884 -0.05395614012 0.23074497610 -0.00369148800 -0.05020636957 0.23139629447 -0.00365962480 -0.04633184550 0.23205366516 -0.00362390997 -0.04238846658 0.23270758213 -0.00358603424 -0.03843213148 0.23334853935 -0.00354768833 -0.03451873888 0.23396703077 -0.00351056296 -0.03070418744 0.23455355036 -0.00347634887 -0.02704437584 0.23509859208 -0.00344673678 -0.02359520274 0.23559264989 -0.00383143204 -0.05831406944 0.23509076759 -0.00380889289 -0.05475467366 0.23572657441 -0.00377916264 -0.05101448371 0.23637713216 -0.00374395375 -0.04714939720 0.23703296006 -0.00370497865 -0.04321531176 0.23768457728 -0.00366394978 -0.03926812500 0.23832250301 -0.00362257958 -0.03536373455 0.23893725646 -0.00358258049 -0.03155803803 0.23951935680 -0.00354566495 -0.02790693305 0.24005932323 -0.00351354539 -0.02446631724 0.24054767495 -0.00392718537 -0.05910444456 0.24005309008 -0.00390091613 -0.05555476655 0.24068911218 -0.00386766592 -0.05182396536 0.24133911585 -0.00382912484 -0.04796799500 0.24199361469 -0.00378698297 -0.04404280946 0.24264312232 -0.00374293040 -0.04010436273 0.24327815235 -0.00369865720 -0.03620860880 0.24388921839 -0.00365585346 -0.03241150166 0.24446683405 -0.00361620926 -0.02876899532 0.24500151294 -0.00358141470 -0.02533704375 0.24548376867 -0.00402427483 -0.05989656151 0.24499534012 -0.00399400083 -0.05635651993 0.24563183484 -0.00395710939 -0.05263492565 0.24628152963 -0.00391522569 -0.04878781900 0.24693491496 -0.00386997495 -0.04487124031 0.24758248130 -0.00382298237 -0.04094122989 0.24821471912 -0.00377587317 -0.03705382808 0.24882211890 -0.00373027253 -0.03326507519 0.24939517112 -0.00368780568 -0.02963101155 0.24992436623 -0.00365009781 -0.02620767748 0.25040019473 -0.00412281864 -0.06069059794 0.24991667428 -0.00408826928 -0.05716003494 0.25055398782 -0.00404760458 -0.05344747567 0.25120365763 -0.00400234391 -0.04960904928 0.25185614676 -0.00395400659 -0.04570088492 0.25250191823 -0.00390411200 -0.04177911172 0.25313143507 -0.00385417947 -0.03789985885 0.25373516032 -0.00380572837 -0.03411925544 0.25430355700 -0.00376027803 -0.03049343064 0.25482708815 -0.00371934781 -0.02707851361 0.25529621680 -0.00422293502 -0.06148673150 0.25481624911 -0.00418384372 -0.05796541273 0.25545481651 -0.00413926306 -0.05426172654 0.25610478396 -0.00409056710 -0.05043186593 0.25675659599 -0.00403912991 -0.04653202391 0.25740069715 -0.00398632555 -0.04261839345 0.25802753196 -0.00393352810 -0.03874716757 0.25862754496 -0.00388211162 -0.03497453926 0.25919118071 -0.00383345017 -0.03135670151 0.25970888373 -0.00378891783 -0.02794984733 0.26017109856 -0.00432474221 -0.06228513984 0.25969322116 -0.00428084645 -0.05877275442 0.26033356635 -0.00423219637 -0.05507778935 0.26098419274 -0.00417998289 -0.05125644904 0.26163554856 -0.00412539691 -0.04736493789 0.26227808207 -0.00406962932 -0.04345946032 0.26290224152 -0.00401387103 -0.03959622072 0.26349847516 -0.00395931294 -0.03583142350 0.26405723123 -0.00390714595 -0.03222127307 0.26456895799 -0.00385856096 -0.02882197384 0.26502410368 -0.00442835843 -0.06308600062 0.26454674699 -0.00437939971 -0.05958216116 0.26518948276 -0.00432651606 -0.05589577522 0.26584116808 -0.00427067890 -0.05208297869 0.26649229037 -0.00421285961 -0.04819990750 0.26713333704 -0.00415402959 -0.04430269755 0.26775479552 -0.00409516026 -0.04044748474 0.26834715323 -0.00403722300 -0.03669040500 0.26890089758 -0.00398118922 -0.03308759422 0.26940651598 -0.00392803031 -0.02969518832 0.26985449586 -0.00351283968 -0.05715050125 0.21977204466 -0.00349905727 -0.05329620906 0.22042863809 -0.00348040688 -0.04931342737 0.22109871146 -0.00345793835 -0.04524140759 0.22177559792 -0.00343270155 -0.04111940118 0.22245263062 -0.00340574632 -0.03698665957 0.22312314269 -0.00337812252 -0.03288243419 0.22378046729 -0.00335088002 -0.02884597648 0.22441793756 -0.00332506866 -0.02491653789 0.22502888665 -0.00330173831 -0.02113336984 0.22560664769 -0.00360915652 -0.05792504910 0.22478039569 -0.00359167355 -0.05408199822 0.22543471957 -0.00356933187 -0.05011049836 0.22610227993 -0.00354321075 -0.04604976769 0.22677637590 -0.00351438947 -0.04193902439 0.22745030660 -0.00348394732 -0.03781748665 0.22811737117 -0.00345296358 -0.03372437266 0.22877086873 -0.00342251754 -0.02969890058 0.22940409842 -0.00339368847 -0.02578028861 0.23001035936 -0.00336755566 -0.02200775493 0.23058295069 -0.00370705055 -0.05870155608 0.22976967493 -0.00368557605 -0.05486962814 0.23042201480 -0.00365937140 -0.05090917110 0.23108727027 -0.00362951163 -0.04685940568 0.23175871745 -0.00359707174 -0.04275955260 0.23242963247 -0.00356312676 -0.03864883258 0.23309329146 -0.00352875171 -0.03456646636 0.23374297052 -0.00349502161 -0.03055167464 0.23437194580 -0.00346301147 -0.02664367815 0.23497349340 -0.00343379632 -0.02288169762 0.23554088946 -0.00380652011 -0.05948012234 0.23473910956 -0.00378077775 -0.05565913868 0.23538975677 -0.00375053968 -0.05170947048 0.23605292294 -0.00371684600 -0.04767036261 0.23672187139 -0.00368073681 -0.04358105993 0.23738986543 -0.00364325221 -0.03948080731 0.23805016837 -0.00360543229 -0.03540884961 0.23869604352 -0.00356831715 -0.03140443170 0.23932075420 -0.00353294688 -0.02750679846 0.23991756372 -0.00350036159 -0.02375519473 0.24047973538 -0.00390756358 -0.06026084803 0.23968792676 -0.00387729165 -0.05645056970 0.24033717845 -0.00384285091 -0.05251142139 0.24099847841 -0.00380521889 -0.04848267952 0.24166508651 -0.00376537316 -0.04440362051 0.24233026265 -0.00372429124 -0.04031352077 0.24298726671 -0.00368295070 -0.03625165674 0.24362935857 -0.00364232907 -0.03225730483 0.24424979812 -0.00360340391 -0.02836974146 0.24484184525 -0.00356715277 -0.02462824306 0.24539875983 -0.00401017931 -0.06104383327 0.24461535368 -0.00397513076 -0.05724396105 0.24526351284 -0.00393631930 -0.05331504871 0.24592317715 -0.00389463532 -0.04929639745 0.24658761164 -0.00385096923 -0.04522730846 0.24725008134 -0.00380621143 -0.04114708294 0.24790385128 -0.00376125232 -0.03709502208 0.24854218651 -0.00371698230 -0.03311042708 0.24915835204 -0.00367429178 -0.02923259912 0.24974561293 -0.00363407115 -0.02550083941 0.25029723419 -0.00411436565 -0.06182917822 0.24952061750 -0.00407430806 -0.05803935259 0.25016799292 -0.00403095904 -0.05412037733 0.25082625963 -0.00398510029 -0.05011155745 0.25148869557 -0.00393751350 -0.04605219793 0.25214857867 -0.00388898035 -0.04198160376 0.25279918690 -0.00384028254 -0.03793907995 0.25343379818 -0.00379220175 -0.03396393149 0.25404569047 -0.00374551968 -0.03009546337 0.25462814170 -0.00370101801 -0.02637298059 0.25517442983 -0.00422012098 -0.06261698301 0.25440294540 -0.00417483655 -0.05883678418 0.25504985169 -0.00412678435 -0.05492743215 0.25570696632 -0.00407661883 -0.05092820055 0.25636758711 -0.00402499442 -0.04687836302 0.25702501185 -0.00397256558 -0.04281719319 0.25767253836 -0.00391998673 -0.03878396468 0.25830346443 -0.00386791234 -0.03481795112 0.25891108788 -0.00381699683 -0.03095842615 0.25948870651 -0.00376789465 -0.02724466340 0.26002961813 -0.00432744364 -0.06340734778 0.25926156453 -0.00427672923 -0.05963629567 0.25990832212 -0.00422380943 -0.05573623804 0.26056453770 -0.00416919595 -0.05174636781 0.26122353508 -0.00411340047 -0.04770587788 0.26187863807 -0.00405693469 -0.04365396117 0.26252317047 -0.00400031029 -0.03962981058 0.26315045611 -0.00394403898 -0.03567261903 0.26375381878 -0.00388863244 -0.03182157942 0.26432658230 -0.00383460237 -0.02811588466 0.26486207047 -0.00443633200 -0.06420037268 0.26409570208 -0.00437999909 -0.06043792692 0.26474263720 -0.00432204849 -0.05654681989 0.26539821422 -0.00426283667 -0.05256610025 0.26605578827 -0.00420272010 -0.04853481663 0.26670871450 -0.00414205525 -0.04449201766 0.26735034805 -0.00408119860 -0.04047675199 0.26797404405 -0.00402050660 -0.03652806826 0.26857315766 -0.00396033573 -0.03268501510 0.26914104400 -0.00390104245 -0.02898664115 0.26967105823 -0.00346472368 -0.05786559337 0.21954358956 -0.00345070192 -0.05389771198 0.22020346238 -0.00343313784 -0.04982487243 0.22087590928 -0.00341290930 -0.04567773154 0.22155584159 -0.00339089416 -0.04148694615 0.22223817060 -0.00336797027 -0.03728317308 0.22291780765 -0.00334501548 -0.03309706918 0.22358966403 -0.00332290765 -0.02895929128 0.22424865106 -0.00330252464 -0.02490049620 0.22488968006 -0.00328474429 -0.02095134079 0.22550766234 -0.00356614752 -0.05862751799 0.22454095572 -0.00354761359 -0.05467228728 0.22519657499 -0.00352601971 -0.05061205874 0.22586504289 -0.00350212758 -0.04647750173 0.22654116975 -0.00347669891 -0.04229928562 0.22721976593 -0.00345049542 -0.03810807978 0.22789564176 -0.00342427883 -0.03393455356 0.22856360759 -0.00339881085 -0.02980937634 0.22921847376 -0.00337485318 -0.02576321747 0.22985505061 -0.00335316755 -0.02182674633 0.23046814848 -0.00366957120 -0.05939225776 0.22951706090 -0.00364625637 -0.05544914150 0.23016878472 -0.00362034499 -0.05140111268 0.23083345932 -0.00359248459 -0.04727881894 0.23150584508 -0.00356332272 -0.04311290793 0.23218070235 -0.00353350689 -0.03893402728 0.23285279149 -0.00350368465 -0.03477282463 0.23351687286 -0.00347450352 -0.03065994762 0.23416770682 -0.00344661103 -0.02662604390 0.23480005373 -0.00342065471 -0.02270176109 0.23540867395 -0.00377486614 -0.06015986614 0.23447132553 -0.00374652830 -0.05622831149 0.23511947934 -0.00371603529 -0.05219204400 0.23578054562 -0.00368392371 -0.04808165774 0.23644927593 -0.00365073019 -0.04392774679 0.23712042185 -0.00361699134 -0.03976090522 0.23778873497 -0.00358324376 -0.03561172712 0.23844896686 -0.00355002407 -0.03151080654 0.23909586909 -0.00351786889 -0.02748873758 0.23972419324 -0.00348731482 -0.02357611430 0.24032869090 -0.00388190374 -0.06093039657 0.23940317002 -0.00384832745 -0.05700983410 0.24004804665 -0.00381301221 -0.05298486244 0.24070568879 -0.00377638828 -0.04888599268 0.24137087066 -0.00373888592 -0.04474373592 0.24203836645 -0.00370093540 -0.04058860324 0.24270295037 -0.00366296698 -0.03645110573 0.24335939663 -0.00362541092 -0.03236175450 0.24400247943 -0.00358869748 -0.02835106062 0.24462697298 -0.00355325693 -0.02444953520 0.24522765148 -0.00399055542 -0.06170390248 0.24431201480 -0.00395155190 -0.05779374617 0.24495387441 -0.00391119738 -0.05377957776 0.24560827587 -0.00386982166 -0.04969179835 0.24627003762 -0.00382775452 -0.04556080904 0.24693397813 -0.00378532575 -0.04141701095 0.24759491584 -0.00374286513 -0.03729080520 0.24824766921 -0.00370070246 -0.03321259289 0.24888705670 -0.00365916752 -0.02921277513 0.24950789675 -0.00361859009 -0.02532175303 0.25010500783 -0.00410069259 -0.06248043731 0.24919728028 -0.00405609969 -0.05858008456 0.24983635041 -0.00401051240 -0.05457619970 0.25048769387 -0.00396416720 -0.05049904929 0.25114618518 -0.00391730058 -0.04637889988 0.25180669889 -0.00387014903 -0.04224601801 0.25246410953 -0.00382294904 -0.03813067024 0.25311329164 -0.00377593711 -0.03406312312 0.25374911975 -0.00372934971 -0.03007364319 0.25436646840 -0.00368342334 -0.02619249702 0.25496021213 -0.00421218666 -0.06326005452 0.25405838689 -0.00416186891 -0.05936888611 0.25469486243 -0.00411087888 -0.05537473802 0.25534332981 -0.00405936825 -0.05130772009 0.25599872169 -0.00400748870 -0.04719794215 0.25665597074 -0.00395539190 -0.04307551403 0.25731000960 -0.00390322953 -0.03897054556 0.25795577095 -0.00385115326 -0.03491314658 0.25858818744 -0.00379931477 -0.03093342693 0.25920219174 -0.00374786573 -0.02706149642 0.25979271650 -0.00432490906 -0.06404280755 0.25889475504 -0.00426875760 -0.06016018767 0.25952879825 -0.00421221843 -0.05617520246 0.26017457072 -0.00415536817 -0.05211778530 0.26082705551 -0.00409828348 -0.04801786957 0.26148123566 -0.00404104101 -0.04390538865 0.26213209420 -0.00398371741 -0.03981027589 0.26277461418 -0.00392638933 -0.03576246470 0.26340377863 -0.00386913341 -0.03179188842 0.26401457060 -0.00381202631 -0.02792848046 0.26460197312 -0.00443873117 -0.06482874983 0.26370580516 -0.00437666385 -0.06095402608 0.26433754564 -0.00431445266 -0.05697760277 0.26498080362 -0.00425211031 -0.05292921951 0.26563059500 -0.00418964953 -0.04883861588 0.26628193567 -0.00412708302 -0.04473553150 0.26692984149 -0.00406442351 -0.04064970595 0.26756932837 -0.00400168372 -0.03661087885 0.26819541217 -0.00393887635 -0.03264878979 0.26880310880 -0.00387601412 -0.02879317837 0.26938743413 -0.00341006639 -0.05809060081 0.21941032268 -0.00339542486 -0.05416063621 0.22005473705 -0.00337872074 -0.05012090951 0.22071404357 -0.00336070978 -0.04600142247 0.22138339255 -0.00334214774 -0.04183217685 0.22205793433 -0.00332379037 -0.03764317439 0.22273281924 -0.00330639342 -0.03346441687 0.22340319761 -0.00329071264 -0.02932590602 0.22406421975 -0.00327750378 -0.02525764362 0.22471103601 -0.00326752261 -0.02128963141 0.22533879670 -0.00351773810 -0.05883946800 0.22439415256 -0.00349823873 -0.05492262655 0.22503197735 -0.00347737842 -0.05089643327 0.22568539097 -0.00345569956 -0.04679081060 0.22634946362 -0.00343374456 -0.04263568098 0.22701926552 -0.00341205579 -0.03846096685 0.22768986685 -0.00339117565 -0.03429659067 0.22835633782 -0.00337164653 -0.03017247487 0.22901374863 -0.00335401081 -0.02611854189 0.22965716948 -0.00333881090 -0.02216471419 0.23028167056 -0.00362756696 -0.05959223495 0.22935410276 -0.00360291437 -0.05568761653 0.22998559983 -0.00357745944 -0.05167429208 0.23063323288 -0.00355157081 -0.04758204296 0.23129205092 -0.00352561713 -0.04344065056 0.23195710295 -0.00349996704 -0.03927989625 0.23262343801 -0.00347498920 -0.03512956139 0.23328610509 -0.00345105224 -0.03101942736 0.23394015322 -0.00342852482 -0.02697927553 0.23458063140 -0.00340777559 -0.02303888728 0.23520258866 -0.00373930420 -0.06034890030 0.23428990831 -0.00370924736 -0.05645563184 0.23491532036 -0.00367881528 -0.05245448711 0.23555730180 -0.00364823987 -0.04837505864 0.23621092652 -0.00361775302 -0.04424693892 0.23687126844 -0.00358758663 -0.04009972046 0.23753340145 -0.00355797261 -0.03596299578 0.23819239946 -0.00352914284 -0.03186635738 0.23884333637 -0.00350132923 -0.02783939776 0.23948128609 -0.00347476368 -0.02391170944 0.24010132253 -0.00385270109 -0.06110946267 0.23920130426 -0.00381703324 -0.05722669816 0.23982085479 -0.00378129739 -0.05323701956 0.24045733021 -0.00374562307 -0.04916979669 0.24110586253 -0.00371013979 -0.04505439936 0.24176158375 -0.00367497707 -0.04092019739 0.24241962589 -0.00364026442 -0.03679656060 0.24307512095 -0.00360613137 -0.03271285881 0.24372320094 -0.00357270744 -0.02869846182 0.24435899786 -0.00354012214 -0.02478273945 0.24497764373 -0.00396750885 -0.06187392070 0.24408802565 -0.00392606757 -0.05800084119 0.24470191896 -0.00388475724 -0.05402189060 0.24533305060 -0.00384363676 -0.04996619619 0.24597663103 -0.00380276500 -0.04586288521 0.24662787071 -0.00376220085 -0.04174108493 0.24728198008 -0.00372200318 -0.03762992261 0.24793416963 -0.00368223089 -0.03355852552 0.24857964979 -0.00364294286 -0.02955602091 0.24921363103 -0.00360419796 -0.02565153606 0.24983132380 -0.00408347875 -0.06264227301 0.24894980754 -0.00403614591 -0.05877808663 0.24955822874 -0.00398904629 -0.05480910143 0.25018419547 -0.00394219727 -0.05076419620 0.25082300412 -0.00389561621 -0.04667224977 0.25146995108 -0.00384932048 -0.04256214095 0.25212033275 -0.00380332744 -0.03846274856 0.25276944551 -0.00375765446 -0.03440295140 0.25341258576 -0.00371231890 -0.03041162829 0.25404504990 -0.00366733813 -0.02651765804 0.25466213430 -0.00420036203 -0.06341451825 0.25378638496 -0.00414706381 -0.05955846017 0.25438949997 -0.00409401600 -0.05559865321 0.25501049730 -0.00404122094 -0.05156373580 0.25564475388 -0.00398868098 -0.04748234637 0.25628764667 -0.00393639846 -0.04338312336 0.25693455262 -0.00388437572 -0.03929470520 0.25758084865 -0.00383261511 -0.03524573032 0.25822191173 -0.00378111896 -0.03126483716 0.25885311878 -0.00372988963 -0.02738066415 0.25946984677 -0.00431790993 -0.06419065504 0.25859749296 -0.00425861683 -0.06034198749 0.25919544851 -0.00419951783 -0.05639054713 0.25981168858 -0.00414062412 -0.05236475404 0.26044165242 -0.00408194688 -0.04829302831 0.26108077928 -0.00402349731 -0.04420379003 0.26172450842 -0.00396528659 -0.04012545929 0.26236827908 -0.00390732591 -0.03608645617 0.26300753053 -0.00384962647 -0.03211520076 0.26363770200 -0.00379219945 -0.02824011315 0.26425423275 -0.00443587371 -0.06497068201 0.26338286659 -0.00437060054 -0.06112869429 0.26397579021 -0.00430540325 -0.05718478438 0.26458750180 -0.00424032313 -0.05316719001 0.26521347181 -0.00417540146 -0.04910414892 0.26584917069 -0.00411067951 -0.04502389887 0.26649006889 -0.00404619857 -0.04095467759 0.26713163685 -0.00398199991 -0.03692472282 0.26776934502 -0.00391812482 -0.03296227232 0.26839866385 -0.00385461458 -0.02909556382 0.26901506379 -0.00335227564 -0.05781922955 0.21937613209 -0.00333574775 -0.05407776265 0.21998511003 -0.00331950503 -0.05019431351 0.22061464381 -0.00330399387 -0.04620577098 0.22125890139 -0.00328966068 -0.04214902393 0.22191205073 -0.00327695189 -0.03806096122 0.22256825980 -0.00326631388 -0.03397847173 0.22322169655 -0.00325819308 -0.02993844433 0.22386652895 -0.00325303590 -0.02597776786 0.22449692495 -0.00325128873 -0.02213333122 0.22510705254 -0.00346723252 -0.05855512642 0.22434317962 -0.00344642583 -0.05482571063 0.22494226589 -0.00342619246 -0.05095586223 0.22556310764 -0.00340682542 -0.04698214293 0.22619989549 -0.00338861773 -0.04294111444 0.22684682003 -0.00337186241 -0.03886933844 0.22749807187 -0.00335685248 -0.03480337663 0.22814784162 -0.00334388095 -0.03077979073 0.22879031987 -0.00333324084 -0.02683514241 0.22941969723 -0.00332522517 -0.02300599339 0.23003016431 -0.00358414620 -0.05929635907 0.22928352923 -0.00355861465 -0.05557798957 0.22987277414 -0.00353376546 -0.05172080706 0.23048496220 -0.00350979739 -0.04776103541 0.23111433785 -0.00348690918 -0.04373489848 0.23175514550 -0.00346529960 -0.03967862016 0.23240162959 -0.00344516740 -0.03562842431 0.23304803454 -0.00342671133 -0.03162053481 0.23368860479 -0.00341013015 -0.02769117552 0.23431758475 -0.00339562260 -0.02387657032 0.23492921886 -0.00370266841 -0.06004282428 0.23419735071 -0.00367203776 -0.05633453947 0.23477685805 -0.00364204549 -0.05248908269 0.23538049308 -0.00361284746 -0.04854234135 0.23600257601 -0.00358459953 -0.04453020290 0.23663742706 -0.00355745757 -0.04048855474 0.23727936642 -0.00353157745 -0.03645328431 0.23792271432 -0.00350711502 -0.03246027904 0.23856179096 -0.00348422617 -0.02854542635 0.23919091655 -0.00346306674 -0.02474461366 0.23980441130 -0.00382245086 -0.06079441883 0.23908481383 -0.00378641873 -0.05709530029 0.23965474088 -0.00375085402 -0.05326062379 0.24024998587 -0.00371591333 -0.04932595373 0.24086495754 -0.00368175326 -0.04532685450 0.24149406462 -0.00364853041 -0.04129889053 0.24213171584 -0.00361640140 -0.03727762619 0.24277231993 -0.00358552281 -0.03329862591 0.24341028562 -0.00355605125 -0.02939745406 0.24404002164 -0.00352814332 -0.02560967507 0.24465593672 -0.00394314530 -0.06155103951 0.24394608839 -0.00390148110 -0.05786021200 0.24450664589 -0.00386001249 -0.05403536504 0.24509372617 -0.00381893266 -0.05011176548 0.24570182999 -0.00377843484 -0.04612468013 0.24632545811 -0.00373871223 -0.04210937586 0.24695911131 -0.00369995804 -0.03810111949 0.24759729036 -0.00366236548 -0.03413517787 0.24823449602 -0.00362612775 -0.03024681783 0.24886522906 -0.00359143807 -0.02647130621 0.24948399025 -0.00406440344 -0.06231258311 0.24878134418 -0.00401694843 -0.05862921458 0.24933279636 -0.00396934236 -0.05481324114 0.24991199956 -0.00392184316 -0.05089966956 0.25051354090 -0.00387470878 -0.04692350661 0.25113200745 -0.00382819713 -0.04291975909 0.25176198632 -0.00378256617 -0.03892343376 0.25239806461 -0.00373807382 -0.03496953741 0.25303482942 -0.00369497801 -0.03109307682 0.25366686784 -0.00365353669 -0.02732905875 0.25428876697 -0.00418587701 -0.06307894639 0.25359075097 -0.00413254427 -0.05940224799 0.25413341553 -0.00407866509 -0.05559418675 0.25470509165 -0.00402458250 -0.05168955892 0.25530043782 -0.00397063954 -0.04772316077 0.25591411255 -0.00391717921 -0.04372978856 0.25654077434 -0.00386454457 -0.03974423855 0.25717508168 -0.00381307862 -0.03580130700 0.25781169307 -0.00376312439 -0.03193579018 0.25844526701 -0.00371502492 -0.02818248435 0.25907046201 -0.00430721775 -0.06385002616 0.25837447855 -0.00424799217 -0.06017925221 0.25890872668 -0.00418780214 -0.05637813656 0.25947328802 -0.00412708837 -0.05248132652 0.26006286832 -0.00406629161 -0.04852346943 0.26067217334 -0.00400585258 -0.04453921262 0.26129590883 -0.00394621202 -0.04056320340 0.26192878053 -0.00388781066 -0.03663008912 0.26256549421 -0.00383108924 -0.03277451709 0.26320075560 -0.00377648848 -0.02903113465 0.26382927047 -0.00442807737 -0.06462571919 0.26313269672 -0.00436301570 -0.06096016722 0.26365895306 -0.00429657496 -0.05716502525 0.26421687426 -0.00422929846 -0.05327486532 0.26480117994 -0.00416172948 -0.04932425943 0.26540658973 -0.00409441133 -0.04534777961 0.26602782327 -0.00402788732 -0.04137999787 0.26665960018 -0.00396270074 -0.03745548623 0.26729664010 -0.00389939490 -0.03360881671 0.26793366264 -0.00383851309 -0.02987456134 0.26856538745 -0.00329475926 -0.05704518553 0.21944490586 -0.00327419226 -0.05364187221 0.21999722924 -0.00325784016 -0.05003785930 0.22057923952 -0.00324541564 -0.04628406763 0.22118301869 -0.00323663139 -0.04243141803 0.22180064873 -0.00323120009 -0.03853083131 0.22242421163 -0.00322883443 -0.03463322829 0.22304578938 -0.00322924709 -0.03078952980 0.22365746396 -0.00323215076 -0.02705065667 0.22425131736 -0.00323725814 -0.02346752971 0.22481943157 -0.00341793503 -0.05776872052 0.22439123030 -0.00339505179 -0.05437423407 0.22492877986 -0.00337524630 -0.05078258589 0.22549797638 -0.00335840385 -0.04704394739 0.22609110332 -0.00334440975 -0.04320848998 0.22670044414 -0.00333314929 -0.03932638508 0.22731828228 -0.00332450777 -0.03544780410 0.22793690119 -0.00331837048 -0.03162291846 0.22854858433 -0.00331462274 -0.02790189957 0.22914561515 -0.00331314983 -0.02433491884 0.22972027711 -0.00354241731 -0.05849950153 0.22930806907 -0.00351642177 -0.05511319697 0.22983062163 -0.00349231373 -0.05153275541 0.23038701854 -0.00347019143 -0.04780775395 0.23096970875 -0.00345015310 -0.04398776968 0.23157114119 -0.00343229699 -0.04012237970 0.23218376480 -0.00341672132 -0.03626116108 0.23280002854 -0.00340352434 -0.03245369092 0.23341238133 -0.00339280427 -0.02874954631 0.23401327213 -0.00338465936 -0.02519830435 0.23459514987 -0.00366779283 -0.05923723755 0.23419614555 -0.00363800234 -0.05585847415 0.23470367064 -0.00360889175 -0.05228811359 0.23524742107 -0.00358079948 -0.04857528194 0.23581997725 -0.00355406396 -0.04476910530 0.23641391960 -0.00352902363 -0.04091870977 0.23702182853 -0.00350601690 -0.03707322142 0.23763628444 -0.00348538220 -0.03328176636 0.23824986776 -0.00346745796 -0.02959347067 0.23885515888 -0.00345258261 -0.02605746044 0.23944473824 -0.00379364830 -0.05998163755 0.23905618313 -0.00375949364 -0.05660977891 0.23954884295 -0.00372482965 -0.05304840616 0.24008023900 -0.00369024911 -0.04934632598 0.24064305111 -0.00365634484 -0.04555234501 0.24122995909 -0.00362370963 -0.04171526991 0.24183364276 -0.00359293628 -0.03788390734 0.24244678193 -0.00356461760 -0.03410706395 0.24306205641 -0.00353934639 -0.03043354639 0.24367214603 -0.00351771545 -0.02691216133 0.24426973059 -0.00391957044 -0.06073241050 0.24388890519 -0.00388059581 -0.05736682449 0.24436705462 -0.00383997671 -0.05381337888 0.24488652739 -0.00379856142 -0.05012068071 0.24544007261 -0.00375719823 -0.04633733699 0.24602043939 -0.00371673542 -0.04251195476 0.24662037682 -0.00367802128 -0.03869314104 0.24723263403 -0.00364190409 -0.03492950285 0.24784996010 -0.00360923215 -0.03126964724 0.24846510416 -0.00358085374 -0.02776218121 0.24907081530 -0.00404514595 -0.06148926538 0.24869503511 -0.00400100899 -0.05812932417 0.24915922173 -0.00395418224 -0.05458277748 0.24966734129 -0.00390575752 -0.05089814075 0.25021218403 -0.00385682665 -0.04712392941 0.25078654020 -0.00380848143 -0.04330865892 0.25138320003 -0.00376181368 -0.03950084472 0.25199495376 -0.00371791521 -0.03574900225 0.25261459163 -0.00367787784 -0.03210164696 0.25323490389 -0.00364279336 -0.02860729429 0.25384868076 -0.00416996156 -0.06225191116 0.25347529628 -0.00412043330 -0.05889699122 0.25392626034 -0.00406729551 -0.05535634770 0.25442373574 -0.00401185851 -0.05167850072 0.25496052766 -0.00395543261 -0.04791197045 0.25552944125 -0.00389932810 -0.04410527702 0.25612328170 -0.00384485529 -0.04030694060 0.25673485416 -0.00379332450 -0.03656548132 0.25735696380 -0.00374604603 -0.03292941933 0.25798241580 -0.00370433018 -0.02944727477 0.25860401533 -0.00429360397 -0.06302005682 0.25823041209 -0.00423856888 -0.05966953891 0.25866908653 -0.00417916583 -0.05613383526 0.25915676580 -0.00411688550 -0.05246155526 0.25968624576 -0.00405321861 -0.04870130827 0.26025032226 -0.00398965584 -0.04490170369 0.26084179114 -0.00392768791 -0.04111135087 0.26145344824 -0.00386880550 -0.03737885921 0.26207808942 -0.00381449933 -0.03375283809 0.26270851052 -0.00376626008 -0.03028189687 0.26333750739 -0.00441565990 -0.06379341132 0.26296110592 -0.00435511588 -0.06044668049 0.26338861635 -0.00428964247 -0.05691498593 0.26386748652 -0.00422085959 -0.05324709899 0.26439048064 -0.00415038716 -0.04949179107 0.26495036295 -0.00407984510 -0.04569783353 0.26553989767 -0.00401085333 -0.04191399775 0.26615184904 -0.00394503176 -0.03818905512 0.26677898129 -0.00388400031 -0.03457177700 0.26741405864 -0.00382937891 -0.03111093478 0.26804984532 -0.00324092511 -0.05576217474 0.21962053208 -0.00321328005 -0.05284574578 0.22009374260 -0.00319607559 -0.04964432178 0.22060936019 -0.00318762918 -0.04622960302 0.22115639502 -0.00318625825 -0.04267328979 0.22172385725 -0.00319028024 -0.03904708237 0.22230075706 -0.00319801260 -0.03542268103 0.22287610463 -0.00320777277 -0.03187178607 0.22343891011 -0.00321787818 -0.02846609776 0.22397818370 -0.00322664629 -0.02527731639 0.22448293555 -0.00337314987 -0.05647447757 0.22454149802 -0.00334699348 -0.05356089148 0.22499285849 -0.00332732440 -0.05036884454 0.22548978063 -0.00331333357 -0.04696867262 0.22602172509 -0.00330421193 -0.04343071160 0.22657815250 -0.00329915041 -0.03982529735 0.22714852350 -0.00329733996 -0.03622276573 0.22772229875 -0.00329797150 -0.03269345263 0.22828893887 -0.00330023599 -0.02930769390 0.22883790451 -0.00330332434 -0.02613582542 0.22935865632 -0.00350548866 -0.05719653376 0.22943045102 -0.00347940031 -0.05428617504 0.22985945630 -0.00345615494 -0.05110223488 0.23033777316 -0.00343578005 -0.04771415626 0.23085516650 -0.00341830311 -0.04419138215 0.23140140122 -0.00340375160 -0.04060335553 0.23196624221 -0.00339215301 -0.03701951938 0.23253945438 -0.00338353481 -0.03350931667 0.23311080263 -0.00337792449 -0.03014219038 0.23367005186 -0.00337534953 -0.02698758349 0.23420696696 -0.00363751156 -0.05792773959 0.23428878566 -0.00361024392 -0.05502087564 0.23469533636 -0.00358251987 -0.05184386267 0.23515538736 -0.00355514892 -0.04846565644 0.23565888308 -0.00352894055 -0.04495521271 0.23619576795 -0.00350470427 -0.04138148725 0.23675598638 -0.00348324957 -0.03781343581 0.23732948282 -0.00346538594 -0.03432001417 0.23790620168 -0.00345192288 -0.03097017807 0.23847608739 -0.00344366988 -0.02783288330 0.23902908437 -0.00376878864 -0.05866749132 0.23911789653 -0.00373926770 -0.05576427242 0.23950229900 -0.00370637185 -0.05259309773 0.23994467281 -0.00367162049 -0.04922277565 0.24043503865 -0.00363653304 -0.04572211455 0.24096341722 -0.00360262889 -0.04215992283 0.24151982922 -0.00357142745 -0.03860500888 0.24209429534 -0.00354444813 -0.03512618108 0.24267683629 -0.00352321033 -0.03179224782 0.24325747277 -0.00350923346 -0.02867201749 0.24382622546 -0.00389888996 -0.05941518525 0.24391917820 -0.00386621504 -0.05651564455 0.24428214454 -0.00382766353 -0.05334930993 0.24470767908 -0.00378537509 -0.04998511639 0.24518579703 -0.00374148933 -0.04649199894 0.24570651357 -0.00369814591 -0.04293889262 0.24625984390 -0.00365748446 -0.03939473242 0.24683580323 -0.00362164462 -0.03592845337 0.24742440674 -0.00359276602 -0.03260899047 0.24801566964 -0.00357298831 -0.02950527876 0.24859960712 -0.00402738559 -0.06017021764 0.24869402525 -0.00399082931 -0.05727427119 0.24903667331 -0.00394634758 -0.05411186910 0.24944645577 -0.00389659301 -0.05075228115 0.24991332205 -0.00384421821 -0.04726477716 0.25042722154 -0.00379187582 -0.04371862694 0.25097810364 -0.00374221843 -0.04018310028 0.25155591777 -0.00369789866 -0.03672746699 0.25215061331 -0.00366156914 -0.03342099689 0.25275213968 -0.00363588246 -0.03033295977 0.25335044627 -0.00415384561 -0.06093198477 0.25344383227 -0.00411285391 -0.05803943150 0.25376768563 -0.00406237664 -0.05488014509 0.25416305245 -0.00400545457 -0.05152387244 0.25461977753 -0.00394512845 -0.04804036048 0.25512770565 -0.00388443906 -0.04449935613 0.25567668163 -0.00382642715 -0.04097060631 0.25625655024 -0.00377413350 -0.03752385793 0.25685715628 -0.00373059885 -0.03422885792 0.25746834454 -0.00369886398 -0.03115535319 0.25807995981 -0.00427784007 -0.06169988292 0.25816999384 -0.00423203221 -0.05881040465 0.25847698183 -0.00417570338 -0.05565350775 0.25885951869 -0.00411214008 -0.05229949275 0.25930732729 -0.00404462882 -0.04881866017 0.25981013046 -0.00397645611 -0.04528131053 0.26035765106 -0.00391090846 -0.04175774434 0.26093961192 -0.00385127237 -0.03831826213 0.26154573591 -0.00380083435 -0.03503316441 0.26216574587 -0.00376288091 -0.03197275171 0.26278936464 -0.00439893905 -0.06247330836 0.26287390454 -0.00434810761 -0.05958646978 0.26316636223 -0.00428628045 -0.05643132693 0.26353790409 -0.00421682985 -0.05307874458 0.26397813516 -0.00414312809 -0.04959958750 0.26447666049 -0.00406854743 -0.04606472046 0.26502308513 -0.00399646015 -0.04254500822 0.26560701411 -0.00393023852 -0.03911131555 0.26621805250 -0.00387325481 -0.03583450722 0.26684580533 -0.00382888129 -0.03278544799 0.26747987765 -0.00319418101 -0.05396390312 0.21990689881 -0.00315553277 -0.05168216426 0.22027729805 -0.00313656077 -0.04900647583 0.22070653534 -0.00313328856 -0.04603566773 0.22117968097 -0.00314173966 -0.04286856986 0.22168180523 -0.00315793762 -0.03960401214 0.22219797842 -0.00317790596 -0.03634082447 0.22271327081 -0.00319766822 -0.03317783674 0.22321275272 -0.00321324794 -0.03021387888 0.22368149442 -0.00322066866 -0.02754778077 0.22410456621 -0.00333618130 -0.05466662485 0.22479717617 -0.00330512778 -0.05237837742 0.22513584103 -0.00328521123 -0.04970687844 0.22553830387 -0.00327451329 -0.04674876728 0.22599039877 -0.00327111559 -0.04360068328 0.22647795979 -0.00327309978 -0.04035926579 0.22698682100 -0.00327854750 -0.03712115417 0.22750281649 -0.00328554038 -0.03398298777 0.22801178033 -0.00329216006 -0.03104140594 0.22849954658 -0.00329648819 -0.02839304803 0.22895194933 -0.00347646864 -0.05538232717 0.22965340381 -0.00345061484 -0.05308986014 0.22995959213 -0.00342833979 -0.05042134326 0.23033559731 -0.00340959035 -0.04747220001 0.23076771398 -0.00339431341 -0.04433785388 0.23124223680 -0.00338245584 -0.04111372834 0.23174546039 -0.00337396451 -0.03789524689 0.23226367941 -0.00336878630 -0.03477783301 0.23278318849 -0.00336686808 -0.03185691018 0.23329028228 -0.00336815673 -0.02922790189 0.23377125543 -0.00361465870 -0.05610992984 0.23447776385 -0.00359186533 -0.05381518368 0.23475143344 -0.00356609569 -0.05114861279 0.23510169355 -0.00353894876 -0.04820524090 0.23551504634 -0.00351202353 -0.04508009170 0.23597799398 -0.00348691897 -0.04186818889 0.23647703863 -0.00346523408 -0.03866455619 0.23699868246 -0.00344856782 -0.03556421729 0.23752942764 -0.00343851918 -0.03266219589 0.23805577634 -0.00343668715 -0.03005351571 0.23856423073 -0.00375036711 -0.05684835263 0.23927243840 -0.00372875062 -0.05455291924 0.23951424705 -0.00369862819 -0.05188742953 0.23983987050 -0.00366301754 -0.04894716491 0.24023581556 -0.00362493636 -0.04582740678 0.24068858904 -0.00358740237 -0.04262343656 0.24118469776 -0.00355343327 -0.03943053564 0.24171064855 -0.00352604675 -0.03634398544 0.24225294822 -0.00350826053 -0.03345906737 0.24279810358 -0.00350309231 -0.03087106283 0.24333262146 -0.00388320955 -0.05759651532 0.24403960958 -0.00386114209 -0.05530163808 0.24425091506 -0.00382608654 -0.05263653598 0.24455340606 -0.00378222570 -0.04969724701 0.24493344135 -0.00373374233 -0.04657980916 0.24537737969 -0.00368481923 -0.04338026044 0.24587157985 -0.00363963917 -0.04019463882 0.24640240058 -0.00360238493 -0.03711898231 0.24695620065 -0.00357723931 -0.03424932890 0.24751933882 -0.00356838508 -0.03168171658 0.24807817385 -0.00401280166 -0.05835333765 0.24878145951 -0.00398891113 -0.05605991141 0.24896431955 -0.00394862001 -0.05339467463 0.24924557814 -0.00389700226 -0.05045476216 0.24961134345 -0.00383913185 -0.04733730888 0.25004772366 -0.00378008272 -0.04413944964 0.25054082693 -0.00372492885 -0.04095831930 0.25107676145 -0.00367874418 -0.03789105272 0.25164163537 -0.00364660269 -0.03503478477 0.25222155688 -0.00363357831 -0.03248665031 0.25280263414 -0.00413875910 -0.05911773941 0.25350017031 -0.00411192911 -0.05682631047 0.25365734262 -0.00406637783 -0.05416058798 0.25391966464 -0.00400777625 -0.05121898534 0.25427294157 -0.00394179533 -0.04809991597 0.25470297864 -0.00387410605 -0.04490179326 0.25519558106 -0.00381037939 -0.04172303064 0.25573655405 -0.00375628632 -0.03866204152 0.25631170282 -0.00371749783 -0.03581723929 0.25690683258 -0.00369968489 -0.03328703737 0.25750774855 -0.00426069753 -0.05988864037 0.25819792408 -0.00423006742 -0.05759940650 0.25833286636 -0.00417950928 -0.05493301854 0.25857894345 -0.00411497667 -0.05198919151 0.25892165543 -0.00404242319 -0.04886764047 0.25934650236 -0.00396780239 -0.04566808043 0.25983898429 -0.00389706787 -0.04249022643 0.26038460129 -0.00383617318 -0.03943379352 0.26096885342 -0.00379107192 -0.03659849673 0.26157724074 -0.00376771766 -0.03408405109 0.26219526332 -0.00437823259 -0.06066496028 0.26287690294 -0.00434319743 -0.05837777072 0.26299377285 -0.00428816359 -0.05571070880 0.26322669250 -0.00421903256 -0.05276465565 0.26356090476 -0.00414170584 -0.04964049241 0.26398165252 -0.00406208494 -0.04643910023 0.26447417867 -0.00398607136 -0.04326136024 0.26502372607 -0.00391956659 -0.04020815358 0.26561553762 -0.00386847213 -0.03738036139 0.26623485619 -0.00383868950 -0.03487886481 0.26686692467 </DataArray>
</PointData>
<Points>
<DataArray type="Float32" NumberOfComponents="3">
0.86548113848 0.67288634277 0.71287165847 0.89608643826 0.67548158083 0.70555602195 0.91905709479 0.67845510457 0.69704265978 0.93438887143 0.68169026815 0.68766298264 0.94207753151 0.68507042575 0.67774840123 0.94211883837 0.68847893154 0.66763032627 0.93450855534 0.69179913970 0.65764016843 0.91924244576 0.69491440439 0.64810933843 0.89631627296 0.69770807979 0.63936924697 0.86572580029 0.70006352007 0.63175130473 0.86072591169 0.68798604262 0.71790460237 0.89131630712 0.69057381249 0.71059667630 0.91427569247 0.69353799971 0.70208688532 0.92960016332 0.69676277109 0.69270739251 0.93728581525 0.70013229345 0.68279036093 0.93732874383 0.70353073361 0.67266795367 0.92972504464 0.70684225839 0.66267233381 0.91447081325 0.70995103460 0.65313566440 0.89156214524 0.71274122906 0.64439010854 0.86099513618 0.71509700858 0.63676782929 0.85517576107 0.70308615059 0.72292016490 0.88580710528 0.70566704573 0.71561847012 0.90879720499 0.70862274491 0.70711171570 0.92414241498 0.71183808677 0.69773255282 0.93183908998 0.71519790996 0.68781363267 0.93188358476 0.71858705312 0.67768760644 0.92427225408 0.72189035489 0.66768712530 0.90900145268 0.72499265391 0.65814484045 0.88606753532 0.72777878882 0.64939340307 0.85546685676 0.73013359826 0.64176546435 0.84873452880 0.71818610232 0.72791773435 0.87944941401 0.72076063281 0.72062115115 0.90250224746 0.72370860182 0.71211705803 0.91788958511 0.72691538940 0.70273838342 0.92560798291 0.73026637556 0.69281805572 0.92565399682 0.73364694034 0.68268900333 0.91802418278 0.73694246378 0.67268415468 0.90271509674 0.74003832589 0.66313643818 0.87972329467 0.74281990671 0.65437878222 0.84904533251 0.74517258626 0.64674411523 0.84130605707 0.73328533347 0.73289669898 0.87213381460 0.73585392599 0.72560446710 0.89527143498 0.73879483210 0.71710281944 0.91071563245 0.74199385315 0.70772480413 0.91846312126 0.74533679051 0.69780346932 0.91851061566 0.74870944554 0.68767186314 0.91085482988 0.75199761962 0.67766303371 0.89549247816 0.75508711410 0.66811002916 0.87242027476 0.75786373036 0.65934589764 0.84163493391 0.76021326974 0.65170368726 0.83279418806 0.74838327967 0.73785644707 0.86375088832 0.75094627755 0.73056816569 0.88698538263 0.75388069738 0.72206890703 0.90249451571 0.75707265222 0.71269173481 0.91027513224 0.76040825508 0.70276971276 0.91032407694 0.76377361900 0.69263590462 0.90263819451 0.76705485701 0.68262337412 0.88721432964 0.77013808213 0.67306518499 0.86404932706 0.77290940740 0.66429440096 0.83314003144 0.77525494585 0.65664408576 0.82310276395 0.76347937659 0.74279636687 0.85419121646 0.76603703974 0.73551199465 0.87752470554 0.76896545934 0.72701522792 0.89310019360 0.77215096081 0.71763909527 0.90091464306 0.77547986955 0.70771662529 0.90096501632 0.77883851098 0.69758084657 0.89324827579 0.78211321051 0.68756478770 0.87776138389 0.78519029354 0.67800147726 0.85450130302 0.78795608548 0.66922394384 0.82346499558 0.79029691174 0.66156521604 0.81213562693 0.77857305987 0.74771584667 0.84334538029 0.78112556482 0.74043570170 0.86677001878 0.78404837960 0.73194168924 0.88240662485 0.78722795310 0.72256680537 0.89025228093 0.79055073419 0.71264404618 0.89030406946 0.79390317177 0.70250640775 0.88255907288 0.79717171471 0.69248688618 0.86701437361 0.80024281190 0.68291847754 0.84366705411 0.80300291222 0.67413417793 0.81251419680 0.80533846455 0.66646698343 0.79979661918 0.79366376516 0.75261427474 0.83110396110 0.79621120507 0.74533903456 0.85460193748 0.79912871983 0.73684819809 0.87028776818 0.80230280328 0.72747478493 0.87815867307 0.80561994927 0.71755181468 0.87821187202 0.80896665162 0.70741230694 0.87044458488 0.81222940418 0.69738928132 0.85485403152 0.81529470078 0.68781575743 0.83143743180 0.81804903526 0.67902475487 0.80019200558 0.82037890146 0.67134929323 0.78598958289 0.80875092811 0.75749103934 0.81735754017 0.81129331274 0.75022174096 0.84090107672 0.81420574167 0.74173466161 0.85661758230 0.81737468556 0.73236295380 0.86450444670 0.82068661506 0.72243977006 0.86455905965 0.82402800082 0.71229826292 0.85677881094 0.82728531350 0.70227158489 0.84116109031 0.83034502375 0.69269288851 0.81770328755 0.83309360223 0.68389532630 0.78640279240 0.83541751959 0.67621205079 0.82752398604 0.67073876086 0.71871755978 0.84898343816 0.67390765644 0.70955908201 0.86509066540 0.67734078624 0.69955810251 0.87584317562 0.68095630167 0.68894802821 0.88123847672 0.68467235413 0.67796226601 0.88127407656 0.68840709502 0.66683422280 0.87594748302 0.69207867575 0.65579730550 0.86525620400 0.69560524774 0.64508492100 0.84919774735 0.69890496238 0.63493047621 0.82776962098 0.70189597109 0.62556737803 0.82278999368 0.68584665345 0.72374300501 0.84423936952 0.68900750660 0.71458762568 0.86033985041 0.69243144011 0.70458747092 0.87108891403 0.69603706959 0.69397633444 0.87648403801 0.69974301068 0.68298800992 0.87652270003 0.70346787901 0.67185629105 0.87120237774 0.70713029019 0.66081497152 0.86052054880 0.71064885986 0.65009784502 0.84447469086 0.71394220364 0.63993870524 0.82306228158 0.71692893716 0.63057134588 0.81719100134 0.70095404691 0.72875154827 0.83866970399 0.70410679937 0.71959868770 0.85479289395 0.70752193015 0.70959925602 0.86555803693 0.71111835974 0.69898728339 0.87096259869 0.71481500859 0.68799679999 0.87100404496 0.71853079718 0.67686183598 0.86567984148 0.72218464596 0.66581642154 0.85498745399 0.72569547540 0.65509458684 0.83892434822 0.72898220598 0.64493036206 0.81748798991 0.73196375815 0.63555777736 0.81064739793 0.71606063279 0.73374239938 0.83218552364 0.71920526408 0.72459168711 0.84835390273 0.72261193994 0.71459296705 0.85915001148 0.72619975528 0.70398038717 0.86457132616 0.72988780504 0.69298809539 0.86461532305 0.73359518414 0.68185023966 0.85927947842 0.73724098750 0.67080096791 0.84856126855 0.74074431005 0.66007442809 0.83245816970 0.74402424672 0.64990476813 0.81096765815 0.74699989242 0.64052613598 0.80307957237 0.73116610266 0.73871476821 0.82469791048 0.73430263010 0.72956604290 0.84092698348 0.73770115300 0.71956811325 0.85176430479 0.74128083937 0.70895515786 0.85720738782 0.74496085720 0.69796135529 0.85725374600 0.74866037450 0.68682088413 0.85190089274 0.75229855926 0.67576792297 0.84114634145 0.75579457948 0.66503665038 0.82498760556 0.75906760316 0.65486124495 0.80342219849 0.76203679831 0.64547588527 0.79440791356 0.74627014806 0.74366786457 0.81611794655 0.74939862676 0.73452117409 0.83241624292 0.75278925290 0.72452420385 0.84330038399 0.75636119517 0.71391110754 0.84876795108 0.76003362227 0.70291603884 0.84881652551 0.76372570287 0.69177315145 0.84344368861 0.76735660568 0.68071659905 0.83264702169 0.77084549937 0.66998053533 0.81642410609 0.77411155263 0.65979911399 0.79477252311 0.77707393415 0.65040648871 0.78455281041 0.76137246057 0.74860089830 0.80635671390 0.76449298341 0.73945649971 0.82272578779 0.76787592318 0.72946074810 0.83365771622 0.77144040585 0.71884774832 0.83915018334 0.77510555741 0.70785160523 0.83920087329 0.77879050387 0.69670642367 0.83380747020 0.78241437119 0.68564630850 0.82296765824 0.78589628538 0.67490536457 0.80667912152 0.78915537242 0.66471769672 0.78493954422 0.79211075830 0.65531740981 0.77343465183 0.77647273175 0.75351307925 0.79532529455 0.77958542941 0.74437143876 0.81175972480 0.78296084738 0.73437725522 0.82273576861 0.78651805456 0.72376459228 0.82825125201 0.79017611983 0.71276751361 0.82830400103 0.79385411209 0.70162008285 0.82289184170 0.79747110025 0.69055636366 0.81201260007 0.80094615321 0.67981041970 0.79566410215 0.80419833986 0.66961631463 0.77384417399 0.80714672909 0.66020811209 0.76097382673 0.79157065315 0.75840361724 0.78293477055 0.79467569411 0.74926541026 0.79942216069 0.79804370907 0.73927323445 0.81043400828 0.80159372446 0.72866115151 0.81596832449 0.80524476668 0.71766322314 0.81602312044 0.80891586216 0.70651351103 0.81059640728 0.81252603730 0.69544607687 0.79968619616 0.81599431852 0.68469498236 0.78329049823 0.81923973224 0.67449428919 0.76140732461 0.82218130487 0.66507805905 0.74709072402 0.80666591633 0.76327172212 0.76909622392 0.80976350684 0.75413783322 0.78561720216 0.81312419179 0.74414819504 0.79665190237 0.81666699872 0.73353693811 0.80219856818 0.82031095517 0.72253819301 0.80225544322 0.82397508867 0.71138609027 0.79682077112 0.82757842676 0.70031476047 0.78589279551 0.83103999699 0.68955833415 0.76946976002 0.83427882688 0.67935094188 0.74754990828 0.83721394398 0.66992671420 0.78363382062 0.66906238150 0.72306283693 0.79770804165 0.67265065344 0.71252022382 0.80827372033 0.67642020056 0.70140192388 0.81532934777 0.68031483995 0.68986772427 0.81887341507 0.68427838870 0.67807741213 0.81890441332 0.68825466389 0.66619077462 0.81542083364 0.69218748262 0.65436759890 0.80842116711 0.69602066199 0.64276767212 0.79790390485 0.69969801907 0.63155078144 0.78386753796 0.70316337095 0.62087671400 0.77892310428 0.68418046498 0.72808031609 0.79299195270 0.68775923424 0.71753767944 0.80355466096 0.69151878719 0.70641832195 0.81060960567 0.69540313923 0.69488215740 0.81415516344 0.69935630574 0.68308909955 0.81418971088 0.70332230211 0.67119906218 0.81071162458 0.70724514374 0.65937195905 0.80371928117 0.71106884599 0.64776770393 0.79321105723 0.71473742427 0.63654621058 0.77918532938 0.71819489397 0.62586739277 0.77326641634 0.69929728198 0.73308025314 0.78735589209 0.70286640034 0.72253758368 0.79793500391 0.70661617090 0.71141729777 0.80500206110 0.71049069497 0.69987937846 0.80855537292 0.71443407389 0.68808380882 0.80859324866 0.71839040899 0.67619057192 0.80511399757 0.72230380159 0.66435965080 0.79811592895 0.72611835303 0.65275102854 0.78759735206 0.72977816463 0.64152468821 0.77355657618 0.73322733773 0.63084061285 0.76660331256 0.71441267131 0.73806180463 0.78073330402 0.71797206708 0.72751918199 0.79134362349 0.72171225704 0.71639813547 0.79843255854 0.72557734354 0.70485867336 0.80199839671 0.72951142898 0.69306080397 0.80203942558 0.73345861574 0.68116453558 0.79855393271 0.73736300619 0.66932987648 0.79154020565 0.74116870271 0.65771683498 0.78099653196 0.74481980769 0.64648541936 0.76692119921 0.74826042351 0.63579563791 0.75887334868 0.72952647176 0.74302412712 0.77305763270 0.73307614978 0.73248171976 0.78370939399 0.73680695096 0.72136011915 0.79082694246 0.74066292132 0.70981932800 0.79440858802 0.74458810686 0.69801934902 0.79445264060 0.74852655359 0.68612018492 0.79095741010 0.75242230752 0.67428183842 0.78392120645 0.75621941466 0.66266431223 0.77334233957 0.75986192101 0.65142760906 0.75921911936 0.76329387257 0.64073173163 0.75001608046 0.74463852216 0.74796637716 0.76426232234 0.74817856375 0.73742444242 0.77496118971 0.75190015802 0.72630253293 0.78211105735 0.75574726467 0.71476062826 0.78571030006 0.75966384337 0.70295870799 0.78575729263 0.76359385378 0.69105675169 0.78225040987 0.76748125560 0.67921473893 0.77518802656 0.77127000849 0.66759264930 0.76456851750 0.77490407213 0.65635046236 0.75039025749 0.77832740620 0.64564815769 0.73997106365 0.75974866132 0.75288771132 0.75428081714 0.76327922432 0.74234659540 0.76502788493 0.76699178359 0.73122466093 0.77221074768 0.77083020998 0.71968186007 0.77582788603 0.77473837434 0.70787814492 0.77587778062 0.77866014754 0.69597346764 0.77235891211 0.78253940041 0.68412778035 0.76526976115 0.78632000382 0.67250103518 0.75460880839 0.78994582862 0.66125318428 0.74037453447 0.79336074565 0.65054417976 0.72867785399 0.77485672803 0.75778728614 0.74304656130 0.77837804681 0.74724742409 0.75383835397 0.78208173300 0.73612578726 0.76105185794 0.78591159360 0.72458230930 0.76468569914 0.78981143563 0.71277692384 0.76473850349 0.79372506608 0.70086956452 0.76120889694 0.79759629196 0.68902016499 0.75409550542 0.80136892027 0.67738865889 0.74339695485 0.80498675802 0.66613497985 0.72911187118 0.80839361220 0.65541906152 0.71607600724 0.78996256112 0.76266425819 0.73049299903 0.79347494654 0.75212617393 0.74132147112 0.79716991161 0.74100519604 0.74856023261 0.80099125192 0.72946126187 0.75220809260 0.80488276307 0.71765430877 0.75226386019 0.80878824064 0.70574427409 0.74872634447 0.81265148024 0.69389109519 0.74159435455 0.81641627746 0.68225470941 0.73086669952 0.82002642789 0.67099505411 0.71654218849 0.82342572712 0.66027206665 0.70210507915 0.80506599938 0.76751778403 0.71655357453 0.80856983884 0.75698209034 0.72740611067 0.81225622478 0.74586217138 0.73466171617 0.81606902131 0.73431800367 0.73831941962 0.81995209250 0.72250956374 0.73837824963 0.82384930245 0.71059682809 0.73483723481 0.82770451526 0.69873977326 0.72769540374 0.83146159500 0.68709837576 0.71695178502 0.83506440578 0.67583261210 0.70260540727 0.83845681168 0.66510245882 0.73550716032 0.66786349875 0.72591137799 0.74345396879 0.67171779094 0.71444209533 0.74942238873 0.67570057263 0.70257565339 0.75341137029 0.67977259241 0.69042272138 0.75541986361 0.68389459882 0.67809396852 0.75544681884 0.68802734043 0.66570006405 0.75349118612 0.69213156581 0.65335167717 0.74955191559 0.69616802352 0.64115947712 0.74362795740 0.70009746211 0.62923413311 0.73571826169 0.70388063016 0.61768631436 0.73082087025 0.68299324994 0.73091972902 0.73876672228 0.68683630082 0.71944817682 0.74473534077 0.69080780068 0.70757922186 0.74872564642 0.69486853135 0.69542349936 0.75073655996 0.69897927465 0.68309164451 0.75076700211 0.70310081239 0.67069429252 0.74881589359 0.70719392638 0.65834207861 0.74488215510 0.71121939846 0.64614563797 0.73896470737 0.71513801043 0.63421560582 0.73106247112 0.71891054411 0.62266261736 0.72509994280 0.69812098439 0.73590900827 0.73305963618 0.70195291232 0.72443547205 0.73903950500 0.70591336937 0.71256421220 0.74303847422 0.70996313479 0.70040584091 0.74505546883 0.71406298787 0.68807097038 0.74508941380 0.71817370788 0.67567021281 0.74313923413 0.72225607411 0.66331418040 0.73920385479 0.72627086583 0.65111348535 0.73328220076 0.73017886231 0.63917873986 0.72537319703 0.73394084284 0.62762055613 0.71830496823 0.71324661840 0.74087844290 0.72628984040 0.71706760206 0.72940321402 0.73228942582 0.72101727026 0.71752986487 0.73630268440 0.72505637813 0.70536899484 0.73832857605 0.72914568081 0.69303120333 0.73836606065 0.73324593343 0.68062708972 0.73641409812 0.73731789113 0.66826725340 0.73247164836 0.74132230904 0.65606229375 0.72653767127 0.74521994229 0.64412281017 0.71861112675 0.74897154601 0.63255940205 0.71039653681 0.72837006830 0.74582726009 0.71841446483 0.73218034662 0.73435063570 0.72443964765 0.73611949493 0.72247542034 0.72847110772 0.74014823681 0.71031220997 0.73050786748 0.74422729582 0.69797160056 0.73054894939 0.74831739555 0.68556418806 0.72859337591 0.75237925958 0.67320056845 0.72464016949 0.75637361149 0.66099133767 0.71868835257 0.76026117486 0.64904709170 0.71073694762 0.76400267327 0.63747842650 0.70133523882 0.74349125040 0.75075468701 0.70939063940 0.74729112263 0.73927697009 0.71544471489 0.75122003497 0.72740011908 0.71949657488 0.75523868623 0.71523473509 0.72154532898 0.75930777521 0.70289141924 0.72159008678 0.76338800073 0.69048077264 0.71962995788 0.76744006159 0.67811339638 0.71566405188 0.77142465660 0.66589989160 0.70969147838 0.77530248455 0.65395085938 0.70171134698 0.77903424427 0.64237690086 0.69108166453 0.75861008104 0.75565995083 0.69917549400 0.76239990667 0.74418145017 0.70525917193 0.76631888193 0.73230320156 0.70933191663 0.77032770181 0.72013581902 0.71139294639 0.77438706133 0.70778991658 0.71144147954 0.77845765550 0.69537610825 0.70947673438 0.78250017931 0.68300500806 0.70549792923 0.78647532777 0.67078723002 0.69950428239 0.79034379589 0.65883338816 0.69149501217 0.79406627867 0.64725409650 0.67959640420 0.77372647652 0.76054227873 0.68772615855 0.77750667536 0.74906330893 0.69383756320 0.78141602739 0.73718390825 0.69792996369 0.78541525898 0.72501471057 0.70000270557 0.78946509651 0.71266634976 0.70005513442 0.79352626635 0.70024945971 0.69808659578 0.79755949486 0.68787467431 0.69409643521 0.80152550841 0.67565262743 0.68808399828 0.80538503338 0.66369395297 0.68004863052 0.80909879613 0.65210928480 0.66684004810 0.78884035318 0.76540089787 0.67499976296 0.79261140529 0.75392177937 0.68113443308 0.79651146292 0.74204147963 0.68524354679 0.80050133315 0.72987065853 0.68732659238 0.80454182308 0.71751997597 0.68738305816 0.80859373979 0.70510009183 0.68541243245 0.81261789038 0.69272166599 0.68141420354 0.81657508193 0.68049535833 0.67538785974 0.82042612154 0.66853182876 0.66733288937 0.82413181630 0.65694173714 0.65277318652 0.80395162732 0.77023503542 0.66095343713 0.80771407308 0.75875609445 0.66710432600 0.81160518011 0.74687515615 0.67122549666 0.81558589975 0.73470291173 0.67331659266 0.81961718337 0.72235005241 0.67337725750 0.82365998234 0.70992726940 0.67140713474 0.82767524801 0.69754525393 0.66740586789 0.83162393174 0.68531469721 0.66137310049 0.83546698490 0.67334629046 0.65330847607 0.83916535885 0.66175072490 0.68484052324 0.66714840663 0.72726707105 0.68741493965 0.67111628802 0.71532734446 0.68935279972 0.67518912757 0.70308082053 0.69065322559 0.67933626846 0.69061367012 0.69131533939 0.68352705385 0.67801206412 0.69133826328 0.68773082692 0.66536217339 0.69072111941 0.69191693082 0.65275016883 0.68946302991 0.69605470872 0.64026222130 0.68756311693 0.70011350380 0.62798450168 0.68502050262 0.70406265921 0.61600318085 0.68017891837 0.68229078105 0.73226443720 0.68275634390 0.68624601176 0.72032045707 0.68469710648 0.69030624030 0.70806995413 0.68600044442 0.69444079731 0.69559899828 0.68666559598 0.69861901342 0.68299365944 0.68669179947 0.70281021926 0.67034000751 0.68607829316 0.70698374548 0.65772411239 0.68482431535 0.71110892270 0.64523204400 0.68292910431 0.71515508157 0.63294987223 0.68039189834 0.71909155271 0.62096366700 0.67438951745 0.69743028270 0.73724054239 0.67697490293 0.70137339897 0.72529266680 0.67892236729 0.70542142779 0.71303837057 0.68023126301 0.70954372152 0.70056367361 0.68090094254 0.71370963254 0.68795459586 0.68093075837 0.71788851319 0.67529715723 0.68032006295 0.72204971583 0.66267737766 0.67906820876 0.72616259284 0.65018127706 0.67717454827 0.73019649657 0.63789487535 0.67463843393 0.73412077938 0.62590419247 0.66745506050 0.71256687460 0.74219480701 0.67005221801 0.71649842925 0.73024336142 0.67200932578 0.72053469674 0.71798545686 0.67332584719 0.72464508300 0.70550710446 0.67400124563 0.72879899395 0.69289431537 0.67403498448 0.73296583552 0.68023310072 0.67342652714 0.73711501362 0.66760947166 0.67217533699 0.74121593420 0.65510943933 0.67028087742 0.74523800316 0.64281901487 0.66774261181 0.74915062644 0.63082420942 0.65935828757 0.72770051976 0.74712665150 0.66196989043 0.73162108222 0.73517192873 0.66393872559 0.73564605388 0.72291060003 0.66526436281 0.73974492364 0.71042869919 0.66594637181 0.74388718041 0.69781225996 0.66598432233 0.74804231309 0.68514731612 0.66537778411 0.75217981059 0.67251990143 0.66412632689 0.75626916183 0.66001604967 0.66222952040 0.76027985570 0.64772179460 0.65968693437 0.76418138112 0.63572316999 0.65008193869 0.74283118120 0.75203549628 0.65270952144 0.74674133750 0.74007775649 0.65469131037 0.75075550592 0.72781318711 0.65602697571 0.75484328533 0.71532786615 0.65671618765 0.75897427464 0.70270787164 0.65675861642 0.76311807272 0.69003928159 0.65615393223 0.76724427848 0.67740817401 0.65490180529 0.77132249079 0.66490062694 0.65300190582 0.77532230855 0.65260271838 0.65045390402 0.77921333065 0.64060052635 0.63960875389 0.75795882194 0.75692076176 0.64225271231 0.76185917470 0.74496023249 0.64424782375 0.76586305956 0.73269260511 0.64559385172 0.76994020997 0.72020401371 0.64629055972 0.77406035938 0.70758059240 0.64633771127 0.77819324125 0.69490847528 0.64573506987 0.78230858902 0.68227379644 0.64448239905 0.78637613614 0.66976268999 0.64257946230 0.79036561607 0.65746129002 0.64002602314 0.79424676223 0.64545573064 0.62792147320 0.77308340501 0.76178186837 0.63058106432 0.77697457342 0.74981874451 0.63258900938 0.78096872151 0.73754824105 0.63394515669 0.78503573944 0.72505655022 0.63464935458 0.78914551739 0.71242986425 0.63470145138 0.79326794551 0.69975437535 0.63410129541 0.79737291397 0.68711627575 0.63284873500 0.80143031295 0.67460175768 0.63094361846 0.80541003261 0.66229701336 0.62838579414 0.80928196311 0.65028823502 0.61500283667 0.78820489341 0.76661823652 0.61767617874 0.79208751329 0.75465268033 0.61969561088 0.79607249850 0.74237948197 0.62106105645 0.80012991566 0.72988488405 0.62177243879 0.80422983139 0.71725512917 0.62182968126 0.80834231231 0.70457645995 0.62123270721 0.81243742507 0.69193511898 0.61998143998 0.81648523627 0.67941734887 0.61807580294 0.82045581254 0.66710939222 0.61551571942 0.82431922050 0.65509749164 0.60083558433 0.80332325017 0.77142928664 0.60351965683 0.80719797392 0.75946142772 0.60554837191 0.81117439723 0.74718571487 0.60692171685 0.81522278049 0.73468842354 0.60763967893 0.81931338412 0.72205582918 0.60770224543 0.82341646850 0.70937420724 0.60710940365 0.82750229405 0.69672983317 0.60586114085 0.83154112115 0.68420898241 0.60395744434 0.83550321021 0.67189793042 0.60139830138 0.83935882163 0.65988295265 0.63333042744 0.66692339919 0.72713380416 0.63078467432 0.67085336379 0.71517861913 0.62888108244 0.67489309049 0.70291895481 0.62761889607 0.67901257753 0.69044122108 0.62699735945 0.68318182315 0.67783182785 0.62701571682 0.68737082561 0.66517718499 0.62767321244 0.69154958313 0.65256370241 0.62896909054 0.69568809398 0.64007778999 0.63090259539 0.69975635638 0.62780585763 0.63347297122 0.70372436859 0.61583431522 0.62869287538 0.68207883104 0.73211763405 0.62615348315 0.68599567249 0.72015585943 0.62425517476 0.69002186577 0.70789030221 0.62299740781 0.69412748844 0.69540729216 0.62237963992 0.69828261806 0.68279315903 0.62240132869 0.70245733219 0.67013423260 0.62306193173 0.70662170837 0.65751684262 0.62436090665 0.71074582417 0.64502731887 0.62629771107 0.71479975715 0.63275199110 0.62887180258 0.71875358485 0.62077718908 0.62283307701 0.69723030551 0.73707758424 0.62029565895 0.70113492394 0.72510948191 0.61839956089 0.70514824839 0.71283814412 0.61714441420 0.70924049750 0.70034987945 0.61652985022 0.71338188990 0.68773099647 0.61655550031 0.71754264422 0.67506780376 0.61722099582 0.72169297908 0.66244660989 0.61852596809 0.72580311311 0.64995372346 0.62047004850 0.72984326493 0.63767545302 0.62305286837 0.73378365319 0.62569810718 0.61575628493 0.71237784044 0.74201338979 0.61321752211 0.71627110891 0.73003920244 0.61132133943 0.72027225363 0.71776221304 0.61006750500 0.72435168210 0.70526875505 0.60945578694 0.72847980182 0.69264516195 0.60948595332 0.73262702028 0.67997776719 0.61015777227 0.73676374496 0.66735290426 0.61147101187 0.74086038336 0.65485690661 0.61342544023 0.74488734298 0.64257610772 0.61602082546 0.74881503130 0.63059684105 0.60746775177 0.72752145365 0.74692478574 0.60492539304 0.73140421816 0.73494473687 0.60302760896 0.73539389676 0.72266224145 0.60177427000 0.73946111963 0.71016369106 0.60116524663 0.74357651696 0.69753547727 0.60120040936 0.74771071893 0.68486399164 0.60187962864 0.75183435572 0.67223562575 0.60320277498 0.75591805752 0.65973677118 0.60516971884 0.75993245451 0.64745381949 0.60778033072 0.76384817687 0.63547316225 0.59797273011 0.74266116298 0.75181150713 0.59542559217 0.74653424248 0.73982580104 0.59352546807 0.75051319307 0.72753796184 0.59227229894 0.75456888749 0.71503445956 0.59166602590 0.75867219847 0.70240176422 0.59170659005 0.76279399875 0.68972634583 0.59239393252 0.76690516107 0.67709467443 0.59372799442 0.77097655816 0.66459322003 0.59570871688 0.77497906276 0.65230845265 0.59833604101 0.77888354762 0.64032684232 0.58727647258 0.75779698625 0.75667328902 0.58472443989 0.76166117263 0.74468211082 0.58282201536 0.76563015783 0.73238910671 0.58156918162 0.76967506306 0.71988083265 0.58096592130 0.77376700949 0.70724384459 0.58101221703 0.77787711831 0.69456469850 0.58170805145 0.78197651070 0.68192995031 0.58305340720 0.78603630786 0.66942615600 0.58504826690 0.79002763097 0.65713987152 0.58769261320 0.79392160122 0.64515765282 0.57538423177 0.77292894129 0.76150986644 0.57282825663 0.77678499936 0.74951338205 0.57092434942 0.78074480633 0.73721540854 0.56967250779 0.78477972374 0.72470258241 0.56907272941 0.78886111317 0.71206154019 0.56912501193 0.79296033618 0.69937891836 0.56982935301 0.79704875434 0.68674135345 0.57118575031 0.80109772921 0.67423548196 0.57319420147 0.80507862237 0.66194794040 0.57585470417 0.80896279539 0.64996536528 0.56230126031 0.78805704592 0.76632097444 0.55974336279 0.79190571347 0.75431933059 0.55783956882 0.79585715383 0.74201659982 0.55658986723 0.79988294692 0.72949948095 0.55599424681 0.80395467265 0.71685467279 0.55605269639 0.80804391093 0.70416887417 0.55676520476 0.81212224167 0.69152878388 0.55813176075 0.81616124479 0.67902110076 0.56015235315 0.82013250020 0.66673252362 0.56282697079 0.82400758781 0.65474975127 0.54803281079 0.80318131799 0.77110634807 0.54547607878 0.80702330571 0.75909967229 0.54357477218 0.81096721562 0.74679241304 0.54232884971 0.81498480999 0.73427130034 0.54173827009 0.81904785108 0.72162306420 0.54180299203 0.82312810113 0.70893443463 0.54252297427 0.82719732241 0.69629214165 0.54389817552 0.83122727718 0.68378291526 0.54592855449 0.83518972768 0.67149348548 0.54861406992 0.83905643618 0.65951058231 0.58267339103 0.66719477045 0.72551546542 0.57475689285 0.67093623735 0.71399856728 0.56882336603 0.67481968649 0.70209158574 0.56487236416 0.67880822902 0.68990602485 0.56290344083 0.68286497607 0.67755338864 0.56291614962 0.68695303878 0.66514518115 0.56491004414 0.69103552827 0.65279290642 0.56888467797 0.69507555567 0.64060806850 0.57483960471 0.69903623214 0.62870217141 0.58277437793 0.70288066878 0.61718671920 0.57805836805 0.68236317262 0.73048251296 0.57015080567 0.68609258841 0.71895572314 0.56422476225 0.68996243681 0.70704004957 0.56027994476 0.69393615611 0.69484701895 0.55831606018 0.69797718460 0.68248815794 0.55833281550 0.70204896060 0.67007499323 0.56032991770 0.70611492241 0.65771905149 0.56430707376 0.71013850831 0.64553185942 0.57026399067 0.71408315663 0.63362494369 0.57820037540 0.71791230565 0.62210983098 0.57212855821 0.69752618139 0.73542286257 0.56421587088 0.70124455089 0.72388623139 0.55828705590 0.70510173340 0.71196190413 0.55434191453 0.70906150506 0.69976146130 0.55238024801 0.71308764198 0.68739648341 0.55240185759 0.71714392031 0.67497855094 0.55440654451 0.72119411616 0.66261924442 0.55839411003 0.72520200566 0.65043014434 0.56436435538 0.72913136495 0.63852283121 0.57231708182 0.73294597015 0.62700888553 0.56491133708 0.71268391646 0.74033668404 0.55698283792 0.71639220127 0.72879031530 0.55104348283 0.72023765805 0.71685743501 0.54709311596 0.72418439939 0.70464969947 0.54513158144 0.72819653784 0.69227876496 0.54515872340 0.73223818600 0.67985628777 0.54717438597 0.73627345643 0.66749392419 0.55117841330 0.74026646170 0.65530333051 0.55717064951 0.74418131439 0.64339616300 0.56515093875 0.74798212708 0.63188407797 0.55643408021 0.72783649749 0.74522414717 0.54848245624 0.73153561603 0.73366819813 0.54252727888 0.73537029254 0.72172692780 0.53856839152 0.73930496260 0.70951208100 0.53660563757 0.74330406182 0.69713540253 0.53663886041 0.74733202580 0.68470863719 0.53866790345 0.75135329013 0.67234352980 0.54269261009 0.75533229042 0.66015182517 0.54871282372 0.75923346226 0.64824526809 0.55672838774 0.76302124125 0.63673560339 0.54672416314 0.74298404416 0.75008542173 0.53874547531 0.74667487167 0.73852010314 0.53277167990 0.75049971863 0.72657066810 0.52880258370 0.75442331820 0.71434895344 0.52683799352 0.75841040354 0.70196679602 0.52687771613 0.76242570781 0.68953603267 0.52892155833 0.76643396418 0.67716850024 0.53296932691 0.77039990580 0.66497603557 0.53902082866 0.77428826584 0.65307047552 0.54707587037 0.77806377746 0.64156365691 0.53580896145 0.75812667615 0.75492067751 0.52780264457 0.76181004468 0.74334625360 0.52180992173 0.76562601812 0.73138894149 0.51783053498 0.76953958970 0.71916066435 0.51586422640 0.77351575264 0.70677334536 0.51591073804 0.77751950017 0.69433890768 0.51796981197 0.78151582549 0.68196927449 0.52204119027 0.78546972185 0.66977636897 0.52812461498 0.78934618244 0.65787211430 0.53621982819 0.79311020051 0.64636843364 0.52371585067 0.77326451314 0.75973008430 0.51568471349 0.77694121154 0.74814687278 0.50967524022 0.78074927278 0.73618203358 0.50568708784 0.78465390061 0.72394756128 0.50371991332 0.78862029876 0.71155545046 0.50377337365 0.79261367097 0.69911769569 0.50584712578 0.79659922098 0.68674629155 0.50994082669 0.80054215253 0.67455323262 0.51605413336 0.80440766935 0.66265051347 0.52418670276 0.80816097519 0.65115012868 0.51047220638 0.78839767480 0.76451381189 0.50242243151 0.79206844875 0.75292218392 0.49640087121 0.79586956440 0.74095022994 0.49240708475 0.79976637444 0.72870999178 0.49044063141 0.80372423153 0.71631351125 0.49050107044 0.80770848834 0.70387283018 0.49258796111 0.81168449756 0.69149999041 0.49670086269 0.81561761184 0.67930703376 0.50283933444 0.81947318387 0.66740600206 0.51100293564 0.82321656631 0.65590893713 0.49610540411 0.80352628081 0.76927203005 0.48804654808 0.80719183278 0.75767241031 0.48202005055 0.81098697475 0.74569381619 0.47802536821 0.81487713468 0.73344830339 0.47606195777 0.81882774057 0.72104792764 0.47612927591 0.82280422039 0.70860474462 0.47822677935 0.82677200213 0.69623081006 0.48235392477 0.83069651377 0.68403817965 0.48851016889 0.83454318329 0.67213890910 0.49669496839 0.83827743866 0.66064505411 0.53456593209 0.66796881447 0.72241594290 0.52052531533 0.67137212779 0.71178983682 0.50999577961 0.67497614070 0.70060024282 0.50297761225 0.67872993237 0.68900873199 0.49947110056 0.68258258197 0.67717687542 0.49947653186 0.68648316869 0.66526624420 0.50299419347 0.69038077171 0.65343840941 0.51002437268 0.69422447020 0.64185494214 0.52056735683 0.69796334333 0.63067741349 0.53462343322 0.70154647029 0.62006739454 0.52997102314 0.68314957852 0.72736226734 0.51594097708 0.68654406497 0.71672138744 0.50542108560 0.69013571315 0.70551897968 0.49841146340 0.69387435165 0.69391681663 0.49491222518 0.69770980906 0.68207667083 0.49492348564 0.70159191396 0.67016031484 0.49844535949 0.70547049494 0.65832952122 0.50547796141 0.70929538058 0.64674606251 0.51602140613 0.71301639947 0.63557171128 0.53007580834 0.71658338020 0.62496824007 0.52397389779 0.69832303893 0.73227910611 0.50992950536 0.70170934350 0.72162322921 0.49940082241 0.70528978506 0.71040802185 0.49238775073 0.70901478652 0.69879542205 0.48889019206 0.71283477078 0.68694736788 0.48890804817 0.71670016077 0.67502579737 0.49244122083 0.72056137939 0.66319264856 0.49948961181 0.72436884954 0.65160985951 0.51005312285 0.72807299415 0.64043936825 0.52413165574 0.73162423612 0.62984311283 0.51662291250 0.71348950319 0.73716718259 0.50254525068 0.71686826659 0.72649627822 0.49199377205 0.72043862716 0.71526842437 0.48496813816 0.72415145880 0.70364569056 0.48146801060 0.72795763544 0.69179014629 0.48149305094 0.73180803098 0.67986386109 0.48504292075 0.73565351932 0.66802890447 0.49211728160 0.73944497438 0.65644734593 0.50271579506 0.74313327007 0.64528125501 0.51683812272 0.74666928030 0.63469270120 0.50796642370 0.72864927877 0.74202722017 0.49384256358 0.73202113742 0.73134145053 0.48325871650 0.73558251016 0.72010124230 0.47621428964 0.73928459034 0.70846876442 0.47270869022 0.74307857131 0.69660618579 0.47274132543 0.74691564641 0.68467567533 0.47631160247 0.75074700898 0.67283940196 0.48341892854 0.75452385238 0.66125953459 0.49406271083 0.75819736993 0.65009824215 0.50824235655 0.76171875500 0.63951769355 0.49805278783 0.74380267317 0.74685994222 0.48387579457 0.74716825918 0.73615966220 0.47325443775 0.75072170479 0.72490753069 0.46618786910 0.75441440297 0.71326578592 0.46267524032 0.75819774669 0.70139666608 0.46271570313 0.76202312892 0.68946240939 0.46630840925 0.76584194264 0.67762525405 0.47345251037 0.76960558082 0.66604743828 0.48414715823 0.77326543644 0.65489120028 0.49839150453 0.77677290247 0.64431877827 0.48693036134 0.75894999388 0.75166607215 0.47269929417 0.76230993508 0.74095182931 0.46203971782 0.76585648178 0.72968834459 0.45495054047 0.76954111851 0.71803789734 0.45143067031 0.77331532985 0.70616276689 0.45147901552 0.77713060034 0.69422523260 0.45509448431 0.78093841454 0.68238757379 0.46227598484 0.78469025701 0.67081206981 0.47302242532 0.78833761230 0.65966100001 0.48733271393 0.79183196497 0.64909664372 0.47464750066 0.77409154837 0.75644633332 0.46036741291 0.77744646831 0.74571886792 0.44967333868 0.78098711184 0.73444473904 0.44256396767 0.78466495881 0.72278624096 0.43903798958 0.78843148909 0.71090566795 0.43909409409 0.79223818251 0.69896531426 0.44273097089 0.79603651894 0.68712747419 0.44994730969 0.79977797822 0.67555444198 0.46074180017 0.80341404021 0.66440851193 0.47511313203 0.80689618476 0.65385197829 0.46125256224 0.78922764414 0.76120144913 0.44693450131 0.79257816205 0.75046169411 0.43621408234 0.79611386570 0.73917776910 0.42908981466 0.79978614570 0.72751195907 0.42556020755 0.80354639269 0.71562654895 0.42562377031 0.80734599727 0.70368382370 0.42927901225 0.81113635009 0.69184606827 0.43652444267 0.81486884175 0.68027556760 0.44735857086 0.81849486287 0.66913460665 0.46177990613 0.82196580409 0.65858547035 0.44679390252 0.80435858868 0.76593214295 0.43245490988 0.80770531951 0.75518122393 0.42172073080 0.81123701407 0.74388848982 0.41458974535 0.81490490101 0.73221619395 0.41106033361 0.81866020893 0.72032658964 0.41113087567 0.82245416647 0.70838193024 0.41479975161 0.82623800225 0.69654446907 0.42206534151 0.82996294488 0.68497645947 0.43292602545 0.83358022300 0.67384015476 0.44738018351 0.83704106522 0.66329780829 0.49070456872 0.66925182526 0.71783912467 0.46928366183 0.67216825422 0.70855507568 0.45321445232 0.67536967822 0.69844645555 0.44249862277 0.67878439698 0.68774999310 0.43713785571 0.68234071021 0.67670241712 0.43713383372 0.68596691763 0.66554045645 0.44248823934 0.68959131897 0.65450083988 0.45320275515 0.69314221393 0.64382029623 0.46927906370 0.69654790224 0.63373555432 0.49071884754 0.69973668361 0.62448334296 0.48612646741 0.68444382147 0.72276009061 0.46471666299 0.68735740756 0.71345419157 0.44865936147 0.69054945450 0.70332687599 0.43795537189 0.69394962642 0.69261532317 0.43260550333 0.69748758744 0.68155671237 0.43261056485 0.70109300169 0.67038822289 0.43797136551 0.70469553331 0.65934703400 0.44868871437 0.70822484641 0.64867032499 0.46476342048 0.71161060514 0.63859527514 0.48619629293 0.71478247362 0.62935906373 0.48006703247 0.69962600671 0.72764904361 0.45863052902 0.70253636542 0.71832078938 0.44255683053 0.70572030558 0.70817486852 0.43184590952 0.70910838421 0.69744876458 0.42649773851 0.71263115832 0.68637996109 0.42651229002 0.71621918494 0.67520594160 0.43188953656 0.71980302109 0.66416418964 0.44262945066 0.72331322380 0.65349218875 0.45873200484 0.72668035008 0.64342742248 0.48019717161 0.72983495697 0.63420737437 0.47259370675 0.71479900116 0.73250737825 0.45110184565 0.71770586510 0.72315666944 0.43499022315 0.72088287807 0.71299248272 0.42425802973 0.72426108430 0.70225248116 0.41890445591 0.72777152803 0.69117432782 0.41892869219 0.73134525350 0.67999568577 0.42432992908 0.73491330493 0.66895421808 0.43510735708 0.73840672658 0.65828758780 0.45126016669 0.74175656267 0.64823345801 0.47278754843 0.74489385745 0.63902949178 0.46377393306 0.72996342500 0.73733648912 0.44220719862 0.73286664390 0.72796363208 0.42604290294 0.73603781859 0.71778176817 0.41527952661 0.73940814068 0.70702863673 0.40991555022 0.74290880177 0.69594197709 0.40994945438 0.74647099349 0.68475952860 0.41537971966 0.75002590745 0.67371903060 0.42620482667 0.75350473525 0.66305822241 0.44242325599 0.75683866850 0.65301484339 0.46403348823 0.75995889883 0.64382663286 0.45367515423 0.74511989843 0.74213777079 0.43202317366 0.74801943912 0.73274347762 0.41579823355 0.75118577375 0.72254477444 0.40499819425 0.75454996729 0.71177939511 0.39962091613 0.75804308473 0.70068507344 0.39966425955 0.76159619106 0.68949954329 0.40512608487 0.76514035126 0.67846053848 0.41600425246 0.76860663031 0.66780579286 0.43229662268 0.77192609320 0.65777304027 0.45400105589 0.77502980492 0.64860001453 0.44236481311 0.76026904162 0.74691261784 0.42062635652 0.76316498807 0.73749800639 0.40433957860 0.76632739016 0.72728355113 0.39350182673 0.76968697811 0.71650692013 0.38811044830 0.77317448209 0.70540578141 0.38816279070 0.77672063232 0.69421780303 0.39365620131 0.78025615898 0.68318065302 0.40458802751 0.78371179226 0.67253199943 0.42095561669 0.78701826237 0.66250951031 0.44275631624 0.79010629949 0.65335085368 0.42991035251 0.77541147477 0.75166242487 0.40809333292 0.77830402803 0.74222901871 0.39175030171 0.78146331444 0.73200014781 0.38087821814 0.78481958709 0.72121337560 0.37547404143 0.78830309905 0.71010626553 0.37553473082 0.79184410340 0.69891638101 0.38105724555 0.79537285323 0.68788128549 0.39203854486 0.79881960161 0.67723854240 0.40847558797 0.80211460162 0.66722571516 0.43036533413 0.80518810634 0.65808036722 0.41637921527 0.79054781804 0.75638858643 0.39450068860 0.79343729631 0.74693831491 0.37811376653 0.79659419321 0.73669661406 0.36721516257 0.79994820821 0.72590092537 0.36180159019 0.80342904079 0.71478869034 0.36186976290 0.80696639043 0.70359735044 0.36741639419 0.81048995662 0.69256434718 0.37843819754 0.81392943883 0.68192712203 0.39493188646 0.81721453655 0.67192311649 0.41689417443 0.82027494925 0.66278977204 0.40183884421 0.80567869164 0.76109249713 0.37992500930 0.80856553022 0.75162769531 0.36351333668 0.81172067307 0.74137499945 0.35260045410 0.81507325542 0.73057173324 0.34718298927 0.81855241250 0.71945522037 0.34725756993 0.82208727954 0.70826278451 0.35282082380 0.82560699178 0.69723174937 0.36386937861 0.82904068445 0.68659943862 0.38039986209 0.83231749278 0.67660317595 0.40240890198 0.83536655201 0.66748028506 0.45278581899 0.67105009688 0.71178889881 0.42222565242 0.67333183574 0.70429693179 0.39929551330 0.67600752417 0.69563175345 0.38399937811 0.67897833227 0.68613045875 0.37634122330 0.68214543014 0.67613014268 0.37632502535 0.68540998786 0.66596790023 0.38395476071 0.68867317553 0.65598082637 0.39923440585 0.69183616326 0.64650601609 0.42216793724 0.69480012112 0.63788056438 0.45275933134 0.69746621923 0.63044156621 0.44822032762 0.68625167419 0.71667917617 0.41767052903 0.68853992162 0.70915547478 0.39475480650 0.69121142060 0.70046352198 0.37947507839 0.69416953176 0.69094117654 0.37183326306 0.69731761576 0.68092629723 0.37183127887 0.70055903325 0.67075674281 0.37947104418 0.70379714487 0.66077037205 0.39475447736 0.70693531127 0.65130504370 0.41768349675 0.70987689310 0.64269861654 0.44826002073 0.71252525101 0.63528894933 0.44210589898 0.70144021329 0.72153540381 0.41151290850 0.70373268032 0.71397922588 0.38857105035 0.70640119720 0.70526081542 0.37328037764 0.70935034046 0.69571849176 0.36564094351 0.71248468659 0.68569057424 0.36565280108 0.71570881213 0.67551538220 0.37331600348 0.71892729358 0.66553123496 0.38863060383 0.72204470746 0.65607645187 0.41159665527 0.72496563028 0.64748935224 0.44221421090 0.72759463857 0.64010825543 0.43452641538 0.71661681090 0.72635976385 0.40384970806 0.71891155707 0.71877106719 0.38085085219 0.72157812795 0.71002691166 0.36552824877 0.72452149984 0.70046582412 0.35788029883 0.72764664904 0.69042633142 0.35790540339 0.73085855185 0.68024696044 0.36560196346 0.73406218455 0.67026623802 0.38096838006 0.73716252345 0.66082269102 0.40400305421 0.74006454485 0.65225484630 0.43470438693 0.74267322503 0.64490123073 0.42556575909 0.73178256369 0.73115443840 0.39477784492 0.73407799708 0.72353388080 0.37170081935 0.73674348679 0.71476508861 0.35633166468 0.73968375142 0.70518659333 0.34866736318 0.74280350954 0.69513692649 0.34870489717 0.74600747977 0.68495461958 0.35644124894 0.74920038068 0.67497820411 0.37187340079 0.75228693088 0.66554621159 0.39499833501 0.75517184895 0.65699717354 0.42581303389 0.75775985350 0.64966962146 0.41530781240 0.74693856836 0.73592160958 0.38439423631 0.74923344560 0.72827054880 0.36122755919 0.75189854770 0.71947862417 0.34580359826 0.75483783667 0.70988421913 0.33811817074 0.75795527451 0.69982571714 0.33816709385 0.76115482324 0.68964150166 0.34594618479 0.76434044486 0.67966995614 0.36145126080 0.76741610137 0.67024946403 0.38467813909 0.77028575478 0.66171840878 0.41562263687 0.77285336710 0.65441517385 0.40383645760 0.76208592161 0.74066345951 0.37279579943 0.76437934785 0.73298395330 0.34953767903 0.76704458463 0.72417079625 0.33405702243 0.76998449710 0.71456212123 0.32634875567 0.77310195038 0.70449606111 0.32640780480 0.77629980962 0.69431074874 0.33422909584 0.77948093996 0.68434431700 0.34980755486 0.78254820654 0.67493489875 0.37313810788 0.78540447448 0.66642062684 0.40421568095 0.78795260895 0.65913963414 0.39123557697 0.77722572012 0.74538217031 0.36007945152 0.77951714906 0.73767697636 0.33673778622 0.78218287155 0.72884488274 0.32120491008 0.78512447419 0.71922371935 0.31347515214 0.78824354357 0.70915131609 0.31354284142 0.79144166627 0.69896550288 0.32140230694 0.79462042889 0.68900410961 0.33704787773 0.79768141802 0.67960496619 0.36047388280 0.80052622025 0.67110590254 0.39167465119 0.80305642217 0.66384474855 0.37758905281 0.79235906059 0.75007992408 0.34634210979 0.79464829446 0.74235250010 0.32293448808 0.79731468242 0.73350416156 0.30736023412 0.80025850945 0.72387243321 0.29961339432 0.80338006049 0.71379483981 0.29968801512 0.80657962053 0.70360890610 0.30757814293 0.80975747453 0.69365215685 0.32327782417 0.81281390744 0.68426211680 0.34678110529 0.81564920423 0.67577631070 0.37808203268 0.81816364987 0.66853226332 0.36298076741 0.80748703972 0.75475890294 0.33168069145 0.80977422928 0.74701340660 0.30823439196 0.81244129120 0.73815191060 0.29263596744 0.81538734435 0.72851168254 0.28487951638 0.81851150759 0.71842998997 0.28495913728 0.82171289977 0.70824410048 0.29286892864 0.82489063976 0.69829128163 0.30860298897 0.82794384642 0.68890880099 0.33215541676 0.83077163861 0.68043392615 0.36352031050 0.83327313519 0.67320392467 </DataArray>
</Points>
</Piece>
</StructuredGrid>
</VTKFile>
