<?xml version="1.0"?>
<VTKFile type="StructuredGrid" version="0.1">
<StructuredGrid WholeExtent="0 9 0 9 0 9">
<Piece Extent="0 9 0 9 0 9">
<PointData>
<DataArray type="Float32" Name="Deformation" format="ascii" NumberOfComponents="3">
-0.00192181589 -0.04873996376 0.01387082796 -0.00225233387 -0.04815171700 0.01547051106 -0.00263010584 -0.04778397548 0.01741099721 -0.00304104643 -0.04762363176 0.01960944526 -0.00347107029 -0.04765757836 0.02198301407 -0.00390609204 -0.04787270785 0.02444886249 -0.00433202633 -0.04825591275 0.02692414937 -0.00473478779 -0.04879408563 0.02932603358 -0.00510029105 -0.04947411901 0.03157167396 -0.00541445077 -0.05028290545 0.03357822938 -0.00164584225 -0.04953004567 0.01260983640 -0.00206730382 -0.04941318252 0.01480635641 -0.00250559453 -0.04938007533 0.01715734717 -0.00295366500 -0.04943019082 0.01961472257 -0.00340446584 -0.04956299572 0.02213039650 -0.00385094769 -0.04977795675 0.02465628286 -0.00428606117 -0.05007454065 0.02714429553 -0.00470275690 -0.05045221413 0.02954634840 -0.00509398550 -0.05091044393 0.03181435535 -0.00545269759 -0.05144869677 0.03390023029 -0.00141577129 -0.05048217073 0.01165200808 -0.00190506845 -0.05071111103 0.01429359175 -0.00238832725 -0.05092416635 0.01695071507 -0.00286380039 -0.05113002946 0.01960126445 -0.00332974058 -0.05133739316 0.02222312632 -0.00378440055 -0.05155495024 0.02479418709 -0.00422603299 -0.05179139347 0.02729233317 -0.00465289062 -0.05205541565 0.02969545097 -0.00506322614 -0.05235570957 0.03198142693 -0.00545529228 -0.05270096800 0.03412814745 -0.00123373056 -0.05155701242 0.01099803466 -0.00176677509 -0.05202637414 0.01393293393 -0.00227871648 -0.05241144834 0.01679098401 -0.00277135049 -0.05272727195 0.01956739526 -0.00324647283 -0.05298888190 0.02225737804 -0.00370587924 -0.05321131513 0.02485614273 -0.00415136545 -0.05340960855 0.02735889969 -0.00458472720 -0.05359879911 0.02976085929 -0.00500776021 -0.05379392373 0.03205723189 -0.00542226022 -0.05401001935 0.03424322785 -0.00110184762 -0.05271524420 0.01064860780 -0.00165357106 -0.05333984346 0.01372509979 -0.00217717474 -0.05383712113 0.01667803708 -0.00267621318 -0.05422604257 0.01951143932 -0.00315424090 -0.05452557315 0.02222932620 -0.00361481242 -0.05475467824 0.02483571737 -0.00406148224 -0.05493232321 0.02733463252 -0.00449780491 -0.05507747341 0.02973009131 -0.00492733493 -0.05520909422 0.03202611342 -0.00535362682 -0.05534615100 0.03422671851 -0.00102225000 -0.05391753953 0.01060441914 -0.00156660370 -0.05463239059 0.01367080617 -0.00208411452 -0.05519638451 0.01661175736 -0.00257828636 -0.05563046559 0.01943172098 -0.00305262312 -0.05595557813 0.02213514530 -0.00351062871 -0.05619266642 0.02472647858 -0.00395580704 -0.05636267477 0.02721016907 -0.00439166200 -0.05648654747 0.02959066503 -0.00482169752 -0.05658522882 0.03187241473 -0.00524941749 -0.05667966312 0.03405986643 -0.00099706527 -0.05512457189 0.01086616036 -0.00150702034 -0.05588488714 0.01377076989 -0.00199994831 -0.05648443830 0.01659202795 -0.00247746788 -0.05694466528 0.01932656459 -0.00294119779 -0.05728700803 0.02197100989 -0.00339275676 -0.05753290648 0.02452199392 -0.00383376350 -0.05770380056 0.02697614674 -0.00426583674 -0.05782113021 0.02933009842 -0.00469059521 -0.05790633534 0.03158047902 -0.00510965762 -0.05798085591 0.03372391862 -0.00102842096 -0.05629701474 0.01143452310 -0.00147596831 -0.05707820473 0.01402570781 -0.00192508861 -0.05769648230 0.01661873193 -0.00237365565 -0.05817276593 0.01919429448 -0.00281954325 -0.05852797409 0.02173309449 -0.00326062520 -0.05878302526 0.02421583097 -0.00369477532 -0.05895883791 0.02662320295 -0.00411986738 -0.05907633053 0.02893590944 -0.00453377522 -0.05915642158 0.03113464948 -0.00493437261 -0.05922002955 0.03320012207 -0.00111844464 -0.05739554153 0.01231019903 -0.00147459493 -0.05819321496 0.01443633676 -0.00185994791 -0.05882771634 0.01669175240 -0.00226674754 -0.05931889181 0.01903323500 -0.00268723781 -0.05968658751 0.02141757362 -0.00311366269 -0.05995064957 0.02380155730 -0.00353826616 -0.06013092414 0.02614197511 -0.00395329219 -0.06024725735 0.02839561609 -0.00435098477 -0.06031949533 0.03051926930 -0.00472358787 -0.06036748423 0.03246972379 -0.00126926384 -0.05838082575 0.01349387980 -0.00150404754 -0.05921078944 0.01500337358 -0.00180493872 -0.05987334022 0.01681097244 -0.00215664144 -0.06038716720 0.01884171048 -0.00254385979 -0.06077095950 0.02102062180 -0.00295129785 -0.06104340626 0.02327274048 -0.00336365969 -0.06122319658 0.02552310063 -0.00376564941 -0.06132901958 0.02769673633 -0.00414197109 -0.06137956439 0.02971868169 -0.00447732879 -0.06139352013 0.03151397079 -0.00215707758 -0.05025552541 0.01524313992 -0.00244827419 -0.04977131991 0.01671679330 -0.00278698841 -0.04946355981 0.01851157780 -0.00316157720 -0.04932175452 0.02056065038 -0.00356039755 -0.04933541345 0.02279716796 -0.00397180641 -0.04949404600 0.02515428749 -0.00438416075 -0.04978716158 0.02756516591 -0.00478581755 -0.05020426960 0.02996296015 -0.00516513376 -0.05073487946 0.03228082714 -0.00551046636 -0.05136850058 0.03445192383 -0.00193476512 -0.05106895927 0.01426776967 -0.00229212669 -0.05095284497 0.01622151391 -0.00267381532 -0.05090363902 0.01834563218 -0.00307362989 -0.05092112731 0.02059950389 -0.00348536927 -0.05100509572 0.02294250847 -0.00390283234 -0.05115533014 0.02533402532 -0.00431981797 -0.05137161646 0.02773343388 -0.00473012503 -0.05165374056 0.03010011356 -0.00512755241 -0.05200148833 0.03239344378 -0.00550589897 -0.05241464564 0.03457280396 -0.00174577937 -0.05204047770 0.01352214037 -0.00215191950 -0.05218945395 0.01583397668 -0.00256522433 -0.05232763732 0.01820383587 -0.00298354988 -0.05246199996 0.02061073246 -0.00340475216 -0.05259951400 0.02303368094 -0.00382668716 -0.05274715158 0.02545169583 -0.00424721089 -0.05291188483 0.02784379163 -0.00466417936 -0.05310068589 0.03018898286 -0.00507544858 -0.05332052690 0.03246628403 -0.00547887454 -0.05357837998 0.03465470963 -0.00159206466 -0.05312919290 0.01300755810 -0.00202896224 -0.05345863418 0.01555547720 -0.00246195721 -0.05372581862 0.01808678590 -0.00289158924 -0.05394234317 0.02059361824 -0.00331839798 -0.05411980475 0.02306810822 -0.00374292310 -0.05426980031 0.02550238988 -0.00416570425 -0.05440392677 0.02788859724 -0.00458728110 -0.05453378109 0.03021886431 -0.00500819331 -0.05467096019 0.03248532513 -0.00542898054 -0.05482706101 0.03468011372 -0.00147556527 -0.05429421706 0.01272532895 -0.00192456454 -0.05473787300 0.01538731108 -0.00236475575 -0.05508844682 0.01799507930 -0.00279800003 -0.05536012761 0.02054744341 -0.00322615854 -0.05556710441 0.02304321318 -0.00365109242 -0.05572356631 0.02548119837 -0.00407466280 -0.05584370236 0.02786020878 -0.00449873083 -0.05594170164 0.03017905418 -0.00492515766 -0.05603175322 0.03243654434 -0.00535580443 -0.05612804615 0.03463148904 -0.00139822552 -0.05549466242 0.01267675900 -0.00184003603 -0.05600465776 0.01533077391 -0.00227436172 -0.05640578584 0.01792931310 -0.00270303433 -0.05671332397 0.02047149015 -0.00312788563 -0.05694254944 0.02295641865 -0.00355074736 -0.05710873957 0.02538321218 -0.00397345127 -0.05722717167 0.02775098435 -0.00439782913 -0.05731312304 0.03005884872 -0.00482571268 -0.05738187099 0.03230591890 -0.00525893368 -0.05744869283 0.03449130847 -0.00136198971 -0.05668964117 0.01286315433 -0.00177668633 -0.05723647580 0.01538716132 -0.00219151690 -0.05766809958 0.01789008432 -0.00260694420 -0.05799990293 0.02036504062 -0.00302343102 -0.05824727629 0.02280514749 -0.00344144016 -0.05842561010 0.02520352219 -0.00386143441 -0.05855029478 0.02755328201 -0.00428387657 -0.05863672078 0.02984754421 -0.00470922942 -0.05870027852 0.03207942606 -0.00513795575 -0.05875635845 0.03424204484 -0.00136880215 -0.05783826552 0.01328582103 -0.00173582508 -0.05841081447 0.01555776888 -0.00211696308 -0.05886565195 0.01787798999 -0.00250998171 -0.05921783519 0.02022737700 -0.00291264652 -0.05948242142 0.02258682255 -0.00332272309 -0.05967446787 0.02493721928 -0.00373797697 -0.05980903177 0.02725945985 -0.00415617372 -0.05990117035 0.02953443689 -0.00457507892 -0.05996594083 0.03174304306 -0.00499245812 -0.06001840044 0.03386617099 -0.00142060714 -0.05889964768 0.01394606516 -0.00171876190 -0.05950516109 0.01584389223 -0.00205144204 -0.05998870685 0.01789362715 -0.00241239892 -0.06036509143 0.02005778146 -0.00279538391 -0.06064912128 0.02229886668 -0.00319414837 -0.06085560289 0.02457939433 -0.00360244367 -0.06099934272 0.02686187595 -0.00401402117 -0.06109514724 0.02910882304 -0.00442263223 -0.06115782291 0.03128274715 -0.00482202823 -0.06120217622 0.03334615979 -0.00151934899 -0.05983289986 0.01484519282 -0.00172680642 -0.06049700303 0.01624682694 -0.00199569556 -0.06102752820 0.01793759282 -0.00231444791 -0.06143964233 0.01985553617 -0.00267149498 -0.06174851233 0.02193870273 -0.00305526826 -0.06196930514 0.02412513823 -0.00345419926 -0.06211718770 0.02635288839 -0.00385671948 -0.06220732694 0.02855999893 -0.00425126042 -0.06225488980 0.03068451558 -0.00462625357 -0.06227504321 0.03266448408 -0.00230843977 -0.05179463576 0.01666811208 -0.00256600379 -0.05138682708 0.01803636334 -0.00287204206 -0.05112120831 0.01970903150 -0.00321603472 -0.05098953231 0.02163203411 -0.00358746189 -0.05098355199 0.02375128874 -0.00397580370 -0.05109502022 0.02601271291 -0.00437054026 -0.05131568989 0.02836222419 -0.00476115169 -0.05163731389 0.03074574013 -0.00513711814 -0.05205164510 0.03310917826 -0.00548791970 -0.05255043641 0.03539845614 -0.00212691447 -0.05262915076 0.01591677501 -0.00243294311 -0.05251013364 0.01767273900 -0.00276894163 -0.05244374197 0.01960909921 -0.00312889164 -0.05243077165 0.02169184685 -0.00350677475 -0.05247201859 0.02388697316 -0.00389657257 -0.05256827869 0.02616046935 -0.00429226673 -0.05272034785 0.02847832664 -0.00468783885 -0.05292902197 0.03080653627 -0.00507727053 -0.05319509695 0.03311108945 -0.00545454339 -0.05351936869 0.03535797741 -0.00196821622 -0.05362135077 0.01533771974 -0.00230969958 -0.05370476803 0.01738245785 -0.00266763549 -0.05377964238 0.01951548153 -0.00303934421 -0.05385266511 0.02171778296 -0.00342214596 -0.05393052748 0.02397035431 -0.00381336097 -0.05401992078 0.02625418776 -0.00421030949 -0.05412753628 0.02855027551 -0.00461031175 -0.05426006525 0.03083960972 -0.00501068798 -0.05442419896 0.03310318258 -0.00540875842 -0.05462662870 0.03532198627 -0.00183433597 -0.05472859580 0.01493251304 -0.00219779741 -0.05494535200 0.01716724765 -0.00256912041 -0.05511524096 0.01942937784 -0.00294784385 -0.05524833724 0.02170988507 -0.00333350657 -0.05535471540 0.02399975078 -0.00372564744 -0.05544444997 0.02628995641 -0.00412380531 -0.05552761553 0.02857148340 -0.00452751904 -0.05561428662 0.03083531319 -0.00493632748 -0.05571453779 0.03307242722 -0.00534976950 -0.05583844359 0.03527380695 -0.00172726466 -0.05590824586 0.01470272171 -0.00209876083 -0.05620650729 0.01702883613 -0.00247439315 -0.05643686911 0.01935198750 -0.00285484197 -0.05661091260 0.02166819584 -0.00324078764 -0.05674021905 0.02397348116 -0.00363291052 -0.05683636973 0.02626386352 -0.00403189097 -0.05691094594 0.02853536291 -0.00443840935 -0.05697552895 0.03078399938 -0.00485314601 -0.05704170005 0.03300579295 -0.00527678131 -0.05712104052 0.03519676365 -0.00164899322 -0.05711766093 0.01464991252 -0.00201411409 -0.05746285564 0.01696895107 -0.00238445047 -0.05773085824 0.01928450988 -0.00276078997 -0.05793351574 0.02159275788 -0.00314392020 -0.05808267516 0.02388986405 -0.00353462876 -0.05819018352 0.02617199733 -0.00393370327 -0.05826788783 0.02843532667 -0.00434193134 -0.05832763511 0.03067602102 -0.00476010056 -0.05838127238 0.03289024935 -0.00518899856 -0.05844064665 0.03507418059 -0.00160151259 -0.05831420104 0.01477565227 -0.00194538141 -0.05868901880 0.01698932022 -0.00230028915 -0.05898353976 0.01922814433 -0.00266613928 -0.05920927121 0.02148361386 -0.00304283531 -0.05937772047 0.02374721802 -0.00343028072 -0.05950039481 0.02601044608 -0.00382837899 -0.05958880156 0.02826478726 -0.00423703363 -0.05965444799 0.03050173082 -0.00465614812 -0.05970884141 0.03271276598 -0.00508562594 -0.05976348912 0.03488938199 -0.00158681371 -0.05945522617 0.01508150773 -0.00189408702 -0.05985961849 0.01709167133 -0.00222290593 -0.06018124507 0.01918409025 -0.00257134130 -0.06043130357 0.02134080639 -0.00293746401 -0.06062099169 0.02354386168 -0.00331934492 -0.06076150708 0.02577529801 -0.00371505492 -0.06086404744 0.02801715731 -0.00412266488 -0.06093981045 0.03025148148 -0.00454024566 -0.06099999377 0.03246031243 -0.00496586813 -0.06105579510 0.03462569207 -0.00160688753 -0.06049809633 0.01556904568 -0.00186175516 -0.06094927647 0.01727773215 -0.00215329759 -0.06131030559 0.01915354697 -0.00247684743 -0.06159273738 0.02116437813 -0.00282773734 -0.06180812554 0.02327811360 -0.00320129993 -0.06196802379 0.02546264137 -0.00359286784 -0.06208398583 0.02768584941 -0.00399777371 -0.06216756537 0.02991562572 -0.00441135017 -0.06223031610 0.03211985827 -0.00482892984 -0.06228379174 0.03426643504 -0.00166372497 -0.06140017152 0.01623983290 -0.00184991006 -0.06193261447 0.01754923045 -0.00209246089 -0.06235705272 0.01913771389 -0.00238310910 -0.06268669717 0.02095437171 -0.00271358635 -0.06293475876 0.02294829238 -0.00307562428 -0.06311444842 0.02506856438 -0.00346095454 -0.06323897706 0.02726427618 -0.00386130878 -0.06332155563 0.02948451625 -0.00426841864 -0.06337539503 0.03167837307 -0.00467401576 -0.06341370620 0.03379493512 -0.00238140224 -0.05332725643 0.01812837565 -0.00261026823 -0.05297291579 0.01941048750 -0.00288862371 -0.05273488791 0.02098295742 -0.00320619919 -0.05260678943 0.02280169051 -0.00355272518 -0.05258223696 0.02482259185 -0.00391793219 -0.05265484713 0.02700156653 -0.00429155074 -0.05281823656 0.02929451964 -0.00466331133 -0.05306602188 0.03165735626 -0.00502294448 -0.05339181970 0.03404598149 -0.00536018070 -0.05378924665 0.03641630040 -0.00222995248 -0.05418137012 0.01754748314 -0.00249534181 -0.05405728249 0.01914641258 -0.00279448795 -0.05397412914 0.02093105986 -0.00312117368 -0.05393401231 0.02287311742 -0.00346918177 -0.05393903424 0.02494427769 -0.00383229500 -0.05399129719 0.02711623311 -0.00420429615 -0.05409290339 0.02936067611 -0.00457896798 -0.05424595508 0.03164929913 -0.00495009328 -0.05445255452 0.03395379459 -0.00531145482 -0.05471480394 0.03624585494 -0.00209274894 -0.05519557964 0.01709522153 -0.00238491366 -0.05522708298 0.01892936690 -0.00269940971 -0.05525042328 0.02087200267 -0.00303303545 -0.05527281801 0.02290653172 -0.00338258928 -0.05530148467 0.02501635691 -0.00374486955 -0.05534364072 0.02718488112 -0.00411667466 -0.05540650365 0.02939550723 -0.00449480297 -0.05549729093 0.03163163811 -0.00487605286 -0.05562322005 0.03387667663 -0.00525722272 -0.05579150848 0.03611402568 -0.00197198699 -0.05632539064 0.01677318444 -0.00228073879 -0.05645451530 0.01876138216 -0.00260456442 -0.05654702427 0.02080746176 -0.00294230832 -0.05661263865 0.02290254318 -0.00329281491 -0.05666107954 0.02503774638 -0.00365492863 -0.05670206804 0.02720419131 -0.00402749391 -0.05674532525 0.02939299791 -0.00440935518 -0.05680057226 0.03159528613 -0.00479935689 -0.05687753019 0.03380217592 -0.00519634346 -0.05698592012 0.03600478722 -0.00186986202 -0.05752630876 0.01658296550 -0.00218457219 -0.05771177751 0.01864449002 -0.00251112752 -0.05784718608 0.02073911299 -0.00284951606 -0.05794290634 0.02286176158 -0.00319972587 -0.05800931018 0.02500736300 -0.00356174501 -0.05805676947 0.02717084443 -0.00393556154 -0.05809565608 0.02934713307 -0.00432116353 -0.05813634191 0.03153115612 -0.00471853903 -0.05818919881 0.03371784076 -0.00512767609 -0.05826459869 0.03590211418 -0.00178856941 -0.05875383967 0.01652615832 -0.00209816886 -0.05897106766 0.01858072218 -0.00242027442 -0.05913416263 0.02066863225 -0.00275518246 -0.05925305318 0.02278479669 -0.00310318936 -0.05933766788 0.02492412363 -0.00346459149 -0.05939793531 0.02708152123 -0.00383968521 -0.05944378406 0.02925189763 -0.00422876691 -0.05948514270 0.03143016099 -0.00463213295 -0.05953193983 0.03361121945 -0.00505007970 -0.05959410401 0.03578998116 -0.00173030453 -0.05996348901 0.01660435651 -0.00202328379 -0.06020458379 0.01857211030 -0.00233318056 -0.06039120789 0.02059769544 -0.00265983134 -0.06053251128 0.02267225828 -0.00300307260 -0.06063764395 0.02478694516 -0.00336274085 -0.06071575588 0.02693290245 -0.00373867255 -0.06077599707 0.02910127650 -0.00413070421 -0.06082751748 0.03128321367 -0.00453867231 -0.06087946711 0.03346986030 -0.00496241333 -0.06094099594 0.03565236276 -0.00169726276 -0.06111076243 0.01681915369 -0.00196167197 -0.06138452396 0.01862068608 -0.00225102136 -0.06160157578 0.02052797844 -0.00256398646 -0.06177071274 0.02252475612 -0.00289924279 -0.06190072970 0.02459474447 -0.00325546587 -0.06200042150 0.02672166885 -0.00363133121 -0.06207858301 0.02888925460 -0.00402551434 -0.06214400908 0.03108122707 -0.00443669078 -0.06220549456 0.03328131163 -0.00486353605 -0.06227183430 0.03547323361 -0.00169163949 -0.06215116559 0.01717214348 -0.00191508840 -0.06248308622 0.01872848118 -0.00217497226 -0.06274852026 0.02046115712 -0.00246817164 -0.06295708968 0.02234289998 -0.00279156714 -0.06311841643 0.02434643844 -0.00314203934 -0.06324212248 0.02644450116 -0.00351646883 -0.06333782979 0.02860981683 -0.00391173620 -0.06341516033 0.03081511413 -0.00432472203 -0.06348373606 0.03303312173 -0.00475230692 -0.06355317893 0.03523656830 -0.00171563007 -0.06304020413 0.01766491950 -0.00188528808 -0.06347246862 0.01889752730 -0.00210620867 -0.06381529528 0.02039890739 -0.00237291066 -0.06408107420 0.02212729965 -0.00267991285 -0.06428219546 0.02404094395 -0.00302173404 -0.06443104914 0.02609808015 -0.00339289305 -0.06454002531 0.02825694813 -0.00378790868 -0.06462151407 0.03047578776 -0.00420129973 -0.06468790550 0.03271283891 -0.00462758501 -0.06475158966 0.03492634144 -0.00238146475 -0.05482334899 0.01960656185 -0.00258581308 -0.05450426327 0.02082043209 -0.00284009026 -0.05428256558 0.02231295469 -0.00313385080 -0.05415335019 0.02404771360 -0.00345664927 -0.05411171137 0.02598829276 -0.00379804019 -0.05415274337 0.02809827613 -0.00414757811 -0.05427154047 0.03034124766 -0.00449481756 -0.05446319693 0.03268079129 -0.00482931310 -0.05472280702 0.03508049099 -0.00514061925 -0.05504546500 0.03750393069 -0.00225154132 -0.05569636736 0.01915052476 -0.00248491147 -0.05556652551 0.02062891554 -0.00275396875 -0.05546854551 0.02229482574 -0.00305219946 -0.05540573775 0.02412468157 -0.00337308986 -0.05538141260 0.02609490919 -0.00371012624 -0.05539888044 0.02818193480 -0.00405679489 -0.05546145167 0.03036218458 -0.00440658208 -0.05557243665 0.03261208473 -0.00475297410 -0.05573514577 0.03490806142 -0.00508945723 -0.05595288941 0.03722654084 -0.00212904462 -0.05673395400 0.01879112108 -0.00238406672 -0.05672642851 0.02046503546 -0.00266439594 -0.05671022176 0.02225974992 -0.00296647570 -0.05669325179 0.02416109449 -0.00328674940 -0.05668343661 0.02615489921 -0.00362166045 -0.05668869427 0.02822699412 -0.00396765225 -0.05671694277 0.03036320923 -0.00432116821 -0.05677610015 0.03254937459 -0.00467865173 -0.05687408444 0.03477132023 -0.00503654622 -0.05701881365 0.03701487617 -0.00201646020 -0.05788974689 0.01852985727 -0.00228524459 -0.05795411178 0.02033101763 -0.00257264757 -0.05798847748 0.02220973958 -0.00287717664 -0.05800263189 0.02415793998 -0.00319733929 -0.05800636290 0.02616753570 -0.00353164302 -0.05800945841 0.02823044360 -0.00387859534 -0.05802170634 0.03033858054 -0.00423670373 -0.05805289459 0.03248386338 -0.00460447571 -0.05811281105 0.03465820898 -0.00498041876 -0.05821124363 0.03685353422 -0.00191627361 -0.05911738397 0.01836823975 -0.00219041086 -0.05921971485 0.02022908781 -0.00247999940 -0.05928419583 0.02214680709 -0.00278479936 -0.05932061762 0.02411620564 -0.00310457090 -0.05933877092 0.02613209151 -0.00343907416 -0.05934844646 0.02818927276 -0.00378806930 -0.05935943495 0.03028255743 -0.00415131644 -0.05938152710 0.03240675357 -0.00452857576 -0.05942451362 0.03455666924 -0.00491960739 -0.05949818523 0.03672711249 -0.00183097041 -0.06037050322 0.01830777498 -0.00210153130 -0.06049337724 0.02016147177 -0.00238772718 -0.06057825997 0.02207296481 -0.00268984097 -0.06063394856 0.02403687906 -0.00300815563 -0.06066924018 0.02604783951 -0.00334295408 -0.06069293199 0.02810047111 -0.00369451927 -0.06071382115 0.03018939884 -0.00406313414 -0.06074070482 0.03230924767 -0.00444908162 -0.06078238017 0.03445464258 -0.00485264465 -0.06084764436 0.03662020852 -0.00176303615 -0.06160274259 0.01834996938 -0.00202057168 -0.06174523846 0.02013039527 -0.00229710666 -0.06185155304 0.02199022510 -0.00259279857 -0.06192936428 0.02392094786 -0.00290780485 -0.06198635014 0.02591405255 -0.00324228298 -0.06203018856 0.02796102817 -0.00359639041 -0.06206855750 0.03005336371 -0.00397028460 -0.06210913490 0.03218254817 -0.00436412301 -0.06215959873 0.03434007054 -0.00477806310 -0.06222762692 0.03651741982 -0.00171495640 -0.06276774005 0.01849632940 -0.00194949776 -0.06294543803 0.02013808408 -0.00220941361 -0.06308495820 0.02190060033 -0.00249416925 -0.06319360436 0.02376939964 -0.00280322997 -0.06327868028 0.02573000351 -0.00313606108 -0.06334748976 0.02776793346 -0.00349212786 -0.06340733656 0.02986871097 -0.00387089562 -0.06346552448 0.03201785755 -0.00427182966 -0.06352935730 0.03420089470 -0.00469439527 -0.06360613880 0.03640334391 -0.00168921669 -0.06381913357 0.01874836148 -0.00189027531 -0.06406411547 0.02018676397 -0.00212592377 -0.06425935861 0.02180610286 -0.00239445011 -0.06441340837 0.02358322200 -0.00269414236 -0.06453481010 0.02549496525 -0.00302328857 -0.06463210916 0.02751817648 -0.00338017677 -0.06471385091 0.02962969955 -0.00376309500 -0.06478858071 0.03180637830 -0.00417033130 -0.06486484392 0.03402505661 -0.00460017371 -0.06495118591 0.03626257833 -0.00168830259 -0.06471056109 0.01910757206 -0.00184487010 -0.06507141029 0.02027866070 -0.00204791290 -0.06535563743 0.02170874505 -0.00229413825 -0.06557551589 0.02336340254 -0.00258025342 -0.06574331906 0.02520821063 -0.00290296567 -0.06587132033 0.02720874676 -0.00325898229 -0.06597179309 0.02933058838 -0.00364501053 -0.06605701072 0.03153931292 -0.00405775766 -0.06613924660 0.03380049784 -0.00449393096 -0.06623077414 0.03607972059 -0.00231412706 -0.05625287506 0.02108530188 -0.00249738390 -0.05595554679 0.02224746343 -0.00272979860 -0.05574220825 0.02367862243 -0.00300076976 -0.05560903890 0.02534819742 -0.00329969601 -0.05555221818 0.02722560693 -0.00361597597 -0.05556792556 0.02928026950 -0.00393900825 -0.05565234049 0.03148160367 -0.00425819148 -0.05580164244 0.03379902796 -0.00456292427 -0.05601201084 0.03620196092 -0.00484260523 -0.05627962517 0.03865982108 -0.00219934318 -0.05714489247 0.02071653057 -0.00240724081 -0.05701009667 0.02210662878 -0.00265089854 -0.05690073607 0.02368370848 -0.00292369242 -0.05682083644 0.02542790527 -0.00321899853 -0.05677442357 0.02731935477 -0.00353019291 -0.05676552326 0.02933819260 -0.00385065165 -0.05679816127 0.03146455436 -0.00417375080 -0.05687636340 0.03367857567 -0.00449286642 -0.05700415543 0.03596039214 -0.00480137458 -0.05718556315 0.03829013938 -0.00208677038 -0.05820726355 0.02042189374 -0.00231366371 -0.05817283432 0.02197979515 -0.00256644316 -0.05812927959 0.02366507389 -0.00284151704 -0.05808475955 0.02546558704 -0.00313529363 -0.05804743439 0.02736919170 -0.00344418124 -0.05802546430 0.02936374497 -0.00376458815 -0.05802700948 0.03143710395 -0.00409292267 -0.05806023012 0.03357712572 -0.00442559310 -0.05813328641 0.03577166740 -0.00475900772 -0.05825433854 0.03800858607 -0.00197919807 -0.05939183404 0.02020281647 -0.00221877300 -0.05941212914 0.02186929094 -0.00247772819 -0.05940690950 0.02362491324 -0.00275464281 -0.05938570142 0.02546242289 -0.00304809603 -0.05935803116 0.02737455940 -0.00335666700 -0.05933342501 0.02935406226 -0.00367893489 -0.05932140925 0.03139367101 -0.00401347887 -0.05933151016 0.03348612514 -0.00435887811 -0.05937325404 0.03562416417 -0.00471371176 -0.05945616715 0.03780052760 -0.00187941565 -0.06065044966 0.02006072390 -0.00212468909 -0.06069635051 0.02177744455 -0.00238604935 -0.06071269647 0.02356542112 -0.00266346896 -0.06070855522 0.02541959299 -0.00295692042 -0.06069299440 0.02733489953 -0.00326637626 -0.06067508167 0.02930628012 -0.00359180900 -0.06066388468 0.03132867413 -0.00393319116 -0.06066847110 0.03339702094 -0.00429049526 -0.06069790857 0.03550625992 -0.00466369380 -0.06076126475 0.03765133043 -0.00179021252 -0.06193495617 0.01999704111 -0.00203353239 -0.06199386782 0.02170658437 -0.00229270237 -0.06202571117 0.02348879210 -0.00256839468 -0.06203821414 0.02533827750 -0.00286128151 -0.06203910465 0.02724965380 -0.00317203509 -0.06203611060 0.02921753419 -0.00350132762 -0.06203695991 0.03123653190 -0.00384983130 -0.06204938049 0.03330126014 -0.00421821835 -0.06208110026 0.03540633211 -0.00460716098 -0.06213984713 0.03754636103 -0.00171437807 -0.06319719930 0.02001319322 -0.00194742330 -0.06327305046 0.02165903882 -0.00219898297 -0.06332502427 0.02339722076 -0.00246981918 -0.06335957137 0.02521965659 -0.00276069402 -0.06338314243 0.02711826386 -0.00307236955 -0.06340218809 0.02908496011 -0.00340560787 -0.06342315903 0.03111166289 -0.00376117107 -0.06345250591 0.03319028974 -0.00413982121 -0.06349667937 0.03531275821 -0.00454232040 -0.06356213007 0.03747098583 -0.00165470171 -0.06438902478 0.02011060534 -0.00186848222 -0.06450226784 0.02163713628 -0.00210618688 -0.06458970644 0.02329290167 -0.00236814169 -0.06465752009 0.02506491042 -0.00265467263 -0.06471188826 0.02694017140 -0.00296610570 -0.06475899047 0.02890569353 -0.00330276689 -0.06480500619 0.03094848569 -0.00366498221 -0.06485611491 0.03305555678 -0.00405307764 -0.06491849615 0.03521391568 -0.00446737917 -0.06499832937 0.03741057130 -0.00161397282 -0.06546227837 0.02029070258 -0.00179882957 -0.06564988933 0.02164320516 -0.00201560983 -0.06579882836 0.02317802942 -0.00226376140 -0.06591695347 0.02487521915 -0.00254273206 -0.06601212268 0.02671481811 -0.00285196960 -0.06609219401 0.02867687009 -0.00319092182 -0.06616502547 0.03074141888 -0.00355903650 -0.06623847508 0.03288850826 -0.00395576144 -0.06632040086 0.03509818200 -0.00438054442 -0.06641866082 0.03735048390 -0.00159498081 -0.06636880580 0.02055491003 -0.00174058574 -0.06668428433 0.02167957387 -0.00192854754 -0.06693146069 0.02305479859 -0.00215707752 -0.06712276471 0.02465176294 -0.00242438700 -0.06727062622 0.02644164564 -0.00272868732 -0.06738747504 0.02839562543 -0.00306818978 -0.06748574102 0.03048488104 -0.00344110571 -0.06757785398 0.03268059119 -0.00384564643 -0.06767624376 0.03495393463 -0.00428002326 -0.06779334019 0.03727609009 -0.00218488896 -0.05758579621 0.02254722697 -0.00234972625 -0.05730144361 0.02367284783 -0.00256110563 -0.05709178288 0.02505955977 -0.00280873625 -0.05695367987 0.02668123602 -0.00308232727 -0.05688400041 0.02851174983 -0.00337158783 -0.05687961034 0.03052497443 -0.00366622708 -0.05693737551 0.03269478308 -0.00395595419 -0.05705416176 0.03499504901 -0.00423047829 -0.05722683493 0.03739964545 -0.00447950854 -0.05745226086 0.03988244566 -0.00208102022 -0.05849769546 0.02223613130 -0.00226791854 -0.05836022996 0.02356593322 -0.00248879179 -0.05824444578 0.02508101967 -0.00273737602 -0.05815419685 0.02676415450 -0.00300740729 -0.05809333709 0.02859810156 -0.00329262163 -0.05806572043 0.03056562469 -0.00358675511 -0.05807520078 0.03264948773 -0.00388354376 -0.05812563207 0.03483245455 -0.00417672366 -0.05822086823 0.03709728897 -0.00446003084 -0.05836476317 0.03942675486 -0.00197559332 -0.05958629799 0.02198401482 -0.00218020961 -0.05953633013 0.02346397761 -0.00240940035 -0.05947783852 0.02507432521 -0.00266001155 -0.05941813441 0.02680412511 -0.00292888925 -0.05936452905 0.02864244484 -0.00321287946 -0.05932433370 0.03057835190 -0.00350882822 -0.05930485962 0.03260091381 -0.00381358154 -0.05931341805 0.03469919806 -0.00412398547 -0.05935732025 0.03686227219 -0.00443688601 -0.05944387747 0.03907920368 -0.00187164310 -0.06080182158 0.02179234702 -0.00208878222 -0.06079655506 0.02336933898 -0.00232416462 -0.06076962925 0.02504168468 -0.00257690084 -0.06072923172 0.02680233933 -0.00284610142 -0.06068355002 0.02864425814 -0.00313087691 -0.06064077172 0.03056039632 -0.00343033785 -0.06060908438 0.03254370908 -0.00374359479 -0.06059667556 0.03458715165 -0.00406975825 -0.06061173281 0.03668367924 -0.00440793880 -0.06066244371 0.03882624705 -0.00177220440 -0.06209448403 0.02166259736 -0.00199581913 -0.06210771565 0.02328437530 -0.00223431794 -0.06209748610 0.02498530641 -0.00248830190 -0.06207122793 0.02675998863 -0.00275837210 -0.06203637372 0.02860301991 -0.00304512959 -0.06200035603 0.03050899817 -0.00334917545 -0.06197060743 0.03247252136 -0.00367111075 -0.06195456049 0.03448818741 -0.00401153657 -0.06195964776 0.03655059427 -0.00437105396 -0.06199330182 0.03865433986 -0.00168031206 -0.06341450311 0.02159623532 -0.00190350308 -0.06343662282 0.02321144453 -0.00214109362 -0.06343907719 0.02490739870 -0.00239447275 -0.06342786221 0.02667826451 -0.00266502954 -0.06340897388 0.02851820862 -0.00295415308 -0.06338840819 0.03042139770 -0.00326323244 -0.06337216114 0.03238199841 -0.00359365670 -0.06336622872 0.03439417743 -0.00394681495 -0.06337660692 0.03645210141 -0.00432409625 -0.06340929174 0.03854993704 -0.00159900091 -0.06471209663 0.02159473038 -0.00181401686 -0.06475008748 0.02315290464 -0.00204572500 -0.06477207065 0.02481016987 -0.00229567139 -0.06478287371 0.02655835844 -0.00256540203 -0.06478732422 0.02838930274 -0.00285646298 -0.06479024975 0.03029483515 -0.00317040026 -0.06479647786 0.03226678804 -0.00350875990 -0.06481083613 0.03429699381 -0.00387308794 -0.06483815213 0.03637728482 -0.00426493040 -0.06488325341 0.03849949347 -0.00153130580 -0.06593748237 0.02165955201 -0.00172954320 -0.06601492055 0.02311111361 -0.00194944541 -0.06607413462 0.02469582823 -0.00219215582 -0.06612000159 0.02640146191 -0.00245881785 -0.06615739846 0.02821578073 -0.00275057489 -0.06619120225 0.03012655075 -0.00306857034 -0.06622628996 0.03212153803 -0.00341394760 -0.06626753862 0.03418850864 -0.00378785008 -0.06631982522 0.03631522863 -0.00419142117 -0.06638802678 0.03848946409 -0.00148026156 -0.06704087811 0.02179216968 -0.00165226487 -0.06719793294 0.02308842941 -0.00185348816 -0.06732293723 0.02456658209 -0.00208418407 -0.06742298501 0.02620876640 -0.00234460527 -0.06750517033 0.02799712106 -0.00263500440 -0.06757658725 0.02991378475 -0.00295563411 -0.06764432981 0.03194089617 -0.00330674707 -0.06771549205 0.03406059401 -0.00368859592 -0.06779716802 0.03625501699 -0.00410143331 -0.06789645177 0.03850630378 -0.00144890303 -0.06797250165 0.02199405288 -0.00158436463 -0.06826593557 0.02308721001 -0.00175908658 -0.06849614660 0.02442463976 -0.00197201414 -0.06867556313 0.02598146339 -0.00222209256 -0.06881661357 0.02773280218 -0.00250826710 -0.06893172631 0.02965377737 -0.00282948302 -0.06903332975 0.03171951024 -0.00318468556 -0.06913385231 0.03390512204 -0.00357281999 -0.06924572237 0.03618573403 -0.00399283156 -0.06938136834 0.03853646747 -0.00199925020 -0.05879207405 0.02397496833 -0.00214758569 -0.05851663099 0.02507785161 -0.00233736827 -0.05830925642 0.02643536582 -0.00255953049 -0.05816709741 0.02802492343 -0.00280500490 -0.05808730102 0.02982393690 -0.00306472405 -0.05806701433 0.03180981871 -0.00332962050 -0.05810338440 0.03395998130 -0.00359062678 -0.05819355828 0.03625183716 -0.00383867546 -0.05833468306 0.03866279875 -0.00406469907 -0.05852390579 0.04117027852 -0.00190423462 -0.05972552632 0.02369995764 -0.00207253336 -0.05958915933 0.02499320975 -0.00227116300 -0.05947341962 0.02647007094 -0.00249497370 -0.05938070744 0.02811479524 -0.00273881565 -0.05931342306 0.02991163667 -0.00299753900 -0.05927396676 0.03184484925 -0.00326599394 -0.05926473878 0.03389868701 -0.00353903063 -0.05928813941 0.03605740396 -0.00381149925 -0.05934656890 0.03830525414 -0.00407824995 -0.05944242752 0.04062649156 -0.00180518054 -0.06084184700 0.02347395968 -0.00199020939 -0.06078694564 0.02490791447 -0.00219711646 -0.06072614031 0.02647385449 -0.00242381132 -0.06066416949 0.02816082447 -0.00266820354 -0.06060577167 0.02995786911 -0.00292820268 -0.06055568535 0.03185403313 -0.00320171832 -0.06051864901 0.03383836125 -0.00348666002 -0.06049940114 0.03589989818 -0.00378093734 -0.06050268023 0.03802768863 -0.00408245987 -0.06053322477 0.04021077733 -0.00170523776 -0.06208987900 0.02329873386 -0.00190273045 -0.06207537724 0.02482429864 -0.00211631518 -0.06204394565 0.02644875583 -0.00234614471 -0.06200060728 0.02816403671 -0.00259237178 -0.06195038520 0.02996207259 -0.00285514914 -0.06189830248 0.03183479475 -0.00313462951 -0.06184938216 0.03377413451 -0.00343096566 -0.06180864733 0.03577202314 -0.00374431032 -0.06178112104 0.03782039195 -0.00407481624 -0.06177182634 0.03991117223 -0.00160755609 -0.06341846525 0.02317603956 -0.00181221321 -0.06341984148 0.02474469512 -0.00202984570 -0.06340336281 0.02639681428 -0.00226207527 -0.06337314455 0.02812545755 -0.00251052361 -0.06333330201 0.02992368546 -0.00277681242 -0.06328795051 0.03178455853 -0.00306256342 -0.06324120535 0.03370113726 -0.00336939829 -0.06319718184 0.03566648217 -0.00369893874 -0.06315999530 0.03767365379 -0.00405280648 -0.06313376103 0.03971571263 -0.00151528532 -0.06477644864 0.02310763620 -0.00172077436 -0.06478572568 0.02467143677 -0.00193879456 -0.06478091895 0.02632006919 -0.00217170437 -0.06476490503 0.02804611259 -0.00242186223 -0.06474056046 0.02984214610 -0.00269162659 -0.06471076182 0.03170074885 -0.00298335591 -0.06467838565 0.03361449998 -0.00329940862 -0.06464630852 0.03557597861 -0.00364214317 -0.06461740700 0.03757776387 -0.00401391801 -0.06459455763 0.03961243490 -0.00143157528 -0.06611267211 0.02309528317 -0.00163053057 -0.06613841718 0.02460685645 -0.00184424828 -0.06615314125 0.02622055990 -0.00207513338 -0.06615901244 0.02792702740 -0.00232559086 -0.06615819890 0.02971689285 -0.00259802570 -0.06615286877 0.03158079014 -0.00289484288 -0.06614519016 0.03350935315 -0.00321844738 -0.06613733124 0.03549321577 -0.00357124418 -0.06613146012 0.03752301190 -0.00395563827 -0.06612974495 0.03958937542 -0.00135957577 -0.06737597855 0.02314073987 -0.00154359853 -0.06744330332 0.02455328703 -0.00174729340 -0.06749655686 0.02610032575 -0.00197246370 -0.06753859053 0.02776922759 -0.00222091273 -0.06757225570 0.02954736409 -0.00249444380 -0.06760040373 0.03142210679 -0.00279486022 -0.06762588599 0.03338082724 -0.00312396529 -0.06765155384 0.03541089699 -0.00348356233 -0.06768025865 0.03749968759 -0.00387545465 -0.06771485178 0.03963457057 -0.00130243658 -0.06851521088 0.02324576570 -0.00146209490 -0.06866577143 0.02451306137 -0.00164901646 -0.06878769295 0.02596140610 -0.00186379670 -0.06888676301 0.02757373874 -0.00210703105 -0.06896876920 0.02933299816 -0.00237931494 -0.06903949907 0.03122212321 -0.00268124380 -0.06910474021 0.03322405274 -0.00301341308 -0.06917028018 0.03532172560 -0.00337641820 -0.06924190656 0.03749808064 -0.00377085459 -0.06932540692 0.03973605673 -0.00126330753 -0.06947921203 0.02341212006 -0.00138813637 -0.06977120884 0.02448851232 -0.00155050399 -0.07000307668 0.02580584027 -0.00174923376 -0.07018665363 0.02734158645 -0.00198314904 -0.07033377776 0.02907323344 -0.00225107317 -0.07045628717 0.03097826381 -0.00255182953 -0.07056601993 0.03303416011 -0.00288424147 -0.07067481413 0.03521840491 -0.00324713234 -0.07079450784 0.03750848078 -0.00363932551 -0.07093693917 0.03988187027 -0.00176271055 -0.05984167017 0.02535115717 -0.00189570777 -0.05957578617 0.02644374107 -0.00206194340 -0.05937259580 0.02778563970 -0.00225493266 -0.05922911583 0.02935735369 -0.00246819076 -0.05914236303 0.03113938362 -0.00269523293 -0.05910935417 0.03311223011 -0.00292957439 -0.05912710603 0.03525639376 -0.00316473036 -0.05919263538 0.03755237518 -0.00339421607 -0.05930295900 0.03998067496 -0.00361154672 -0.05945509365 0.04252179373 -0.00167664857 -0.06079913505 0.02509864030 -0.00182667398 -0.06066911878 0.02637483926 -0.00200152664 -0.06056140257 0.02783417389 -0.00219820891 -0.06047525668 0.02946119345 -0.00241372313 -0.06040995142 0.03124044722 -0.00264507165 -0.06036475705 0.03315648447 -0.00288925684 -0.06033894386 0.03519385447 -0.00314328104 -0.06033178214 0.03733710651 -0.00340414661 -0.06034254216 0.03957078985 -0.00366885590 -0.06037049422 0.04187945376 -0.00158519915 -0.06194470029 0.02488820365 -0.00175016801 -0.06189471056 0.02630193736 -0.00193344047 -0.06184442670 0.02785001238 -0.00213476843 -0.06179365789 0.02951980087 -0.00235390380 -0.06174221330 0.03129867498 -0.00259059846 -0.06168990211 0.03317400688 -0.00284460432 -0.06163653349 0.03513316870 -0.00311567328 -0.06158191661 0.03716353262 -0.00340355724 -0.06152586064 0.03925247078 -0.00370800810 -0.06146817477 0.04138735534 -0.00149142454 -0.06322617580 0.02472226195 -0.00166807588 -0.06321658339 0.02622730680 -0.00185853822 -0.06319716761 0.02783482861 -0.00206456844 -0.06316721257 0.02953386246 -0.00228792341 -0.06312600239 0.03131344342 -0.00253036003 -0.06307282118 0.03316260658 -0.00279363516 -0.06300695303 0.03507038702 -0.00307950568 -0.06292768206 0.03702581982 -0.00338972848 -0.06283429237 0.03901794006 -0.00372606042 -0.06272606808 0.04103578283 -0.00139838696 -0.06459137152 0.02460322995 -0.00158228359 -0.06459875917 0.02615321907 -0.00177767321 -0.06459512470 0.02779029604 -0.00198756612 -0.06457881386 0.02950406474 -0.00221497263 -0.06454817239 0.03128412904 -0.00246290305 -0.06450154604 0.03312009283 -0.00273436768 -0.06443728057 0.03500155999 -0.00303237684 -0.06435372174 0.03691813442 -0.00335994083 -0.06424921529 0.03885941999 -0.00372006996 -0.06412210697 0.04081502059 -0.00130914864 -0.06598809735 0.02453352237 -0.00149467718 -0.06600525982 0.02608194563 -0.00169169880 -0.06601379740 0.02771808812 -0.00190371870 -0.06601135487 0.02943109423 -0.00213424209 -0.06599557698 0.03121010834 -0.00238677419 -0.06596410852 0.03304427487 -0.00266482020 -0.06591459424 0.03492273820 -0.00297188534 -0.06584467892 0.03683464273 -0.00331147482 -0.06575200733 0.03876913286 -0.00368709384 -0.06563422424 0.04071535298 -0.00122677181 -0.06736416323 0.02451555395 -0.00140714266 -0.06740010723 0.02601575794 -0.00160146831 -0.06742868512 0.02761987829 -0.00181298337 -0.06744772873 0.02931563744 -0.00204492245 -0.06745506988 0.03109075785 -0.00230052014 -0.06744854041 0.03293296195 -0.00258301105 -0.06742597213 0.03482997221 -0.00289562979 -0.06738519686 0.03676951106 -0.00324161096 -0.06732404644 0.03873930096 -0.00362418916 -0.06724035269 0.04072706435 -0.00115431871 -0.06866737907 0.02455173943 -0.00132156604 -0.06874732329 0.02595692747 -0.00150783509 -0.06881528726 0.02749734000 -0.00171531735 -0.06887082856 0.02915838091 -0.00194620435 -0.06891350479 0.03092545406 -0.00220268758 -0.06894287352 0.03278396333 -0.00248695856 -0.06895849234 0.03471931259 -0.00280120878 -0.06895991883 0.03671690572 -0.00314762977 -0.06894671056 0.03876214659 -0.00352841301 -0.06891842513 0.04084043908 -0.00109485157 -0.06984555480 0.02464449354 -0.00123983335 -0.07001092991 0.02590772568 -0.00141165246 -0.07014910324 0.02735214671 -0.00161067784 -0.07026354750 0.02896001115 -0.00183727844 -0.07035773541 0.03071357349 -0.00209182319 -0.07043513967 0.03259508825 -0.00237468104 -0.07049923299 0.03458680992 -0.00268622091 -0.07055348807 0.03667099302 -0.00302681176 -0.07060137763 0.03882989205 -0.00339682251 -0.07064637437 0.04104576151 -0.00105143262 -0.07084650034 0.02479623103 -0.00116383059 -0.07115494898 0.02587042403 -0.00131377376 -0.07140563247 0.02718597185 -0.00149902205 -0.07160877867 0.02872121467 -0.00171733537 -0.07177461544 0.03045449264 -0.00196647366 -0.07191337066 0.03236414596 -0.00224419682 -0.07203527218 0.03442851478 -0.00254826477 -0.07215054786 0.03662593928 -0.00287643745 -0.07226942558 0.03893475963 -0.00322647475 -0.07240213320 0.04133331602 -0.00148076978 -0.06070454617 0.02665842470 -0.00159883806 -0.06045358643 0.02775178253 -0.00173818793 -0.06025976798 0.02908998055 -0.00189672295 -0.06011955944 0.03065662084 -0.00207234670 -0.06002942940 0.03243530544 -0.00226296275 -0.05998584648 0.03440963643 -0.00246647467 -0.05998527929 0.03656321585 -0.00268078603 -0.06002419643 0.03887964578 -0.00290380041 -0.06009906651 0.04134252827 -0.00313342138 -0.06020635814 0.04393546538 -0.00140592423 -0.06168927165 0.02642280999 -0.00153592911 -0.06157234228 0.02769720268 -0.00168339722 -0.06148213960 0.02915664014 -0.00184880508 -0.06141273304 0.03078471511 -0.00203262923 -0.06135819206 0.03256502033 -0.00223534619 -0.06131258610 0.03448114853 -0.00245743249 -0.06126998460 0.03651669243 -0.00269936464 -0.06122445700 0.03865524479 -0.00296161918 -0.06117007276 0.04088039832 -0.00324467264 -0.06110090131 0.04317574576 -0.00132531626 -0.06286564754 0.02622322206 -0.00146659045 -0.06282965458 0.02763637790 -0.00162222135 -0.06280293945 0.02918914948 -0.00179473498 -0.06277739274 0.03086517006 -0.00198665731 -0.06274490502 0.03264807293 -0.00220051435 -0.06269736688 0.03452149136 -0.00243883209 -0.06262666890 0.03646905861 -0.00270413653 -0.06252470167 0.03847440795 -0.00299895367 -0.06238335577 0.04052117267 -0.00332580948 -0.06219452178 0.04259298602 -0.00124164592 -0.06418088146 0.02606321626 -0.00139227671 -0.06418816118 0.02757150036 -0.00155519205 -0.06419660405 0.02918860497 -0.00173436600 -0.06419643208 0.03089816398 -0.00193377262 -0.06417786730 0.03268381129 -0.00215738596 -0.06413113173 0.03452918079 -0.00240918008 -0.06404644739 0.03641790637 -0.00269312904 -0.06391403630 0.03833362192 -0.00301320689 -0.06372412048 0.04025996134 -0.00337338769 -0.06346692195 0.04218055851 -0.00115761325 -0.06558218101 0.02594634793 -0.00131444252 -0.06561049993 0.02750476222 -0.00148284102 -0.06563756989 0.02915610303 -0.00166755153 -0.06565274464 0.03088387517 -0.00187331684 -0.06564537796 0.03267158346 -0.00210487974 -0.06560482358 0.03450273271 -0.00236698302 -0.06552043526 0.03636082773 -0.00266436947 -0.06538156676 0.03822937334 -0.00300178188 -0.06517757183 0.04009187436 -0.00338396304 -0.06489780423 0.04193183559 -0.00107591830 -0.06701675383 0.02587617241 -0.00123454252 -0.06705930868 0.02743835565 -0.00140569997 -0.06710027348 0.02909274007 -0.00159414493 -0.06712922400 0.03082248193 -0.00180463165 -0.06713573603 0.03261073748 -0.00204191442 -0.06710938534 0.03444066297 -0.00231074750 -0.06703974771 0.03629541468 -0.00261588515 -0.06691639893 0.03815814885 -0.00296208166 -0.06672891476 0.04001202174 -0.00335409130 -0.06646687100 0.04184018961 -0.00099926111 -0.06843180751 0.02585624504 -0.00115403133 -0.06849722529 0.02737447281 -0.00132430062 -0.06855915133 0.02899961251 -0.00151399957 -0.06860876372 0.03071416255 -0.00172705875 -0.06863724055 0.03250062139 -0.00196740873 -0.06863575993 0.03434148747 -0.00223898009 -0.06859549993 0.03621925922 -0.00254570341 -0.06850763866 0.03811643508 -0.00289150927 -0.06836335421 0.04001551351 -0.00328032824 -0.06815382466 0.04189899293 -0.00093034173 -0.06977454969 0.02589012116 -0.00107436358 -0.06988688761 0.02731530587 -0.00123917468 -0.06998863994 0.02887781674 -0.00142696883 -0.07007425736 0.03055909534 -0.00163993980 -0.07013819057 0.03234058325 -0.00188028139 -0.07017489026 0.03420372206 -0.00215018739 -0.07017880711 0.03612995334 -0.00245185157 -0.07014439183 0.03810071869 -0.00278746773 -0.07006609510 0.04009745969 -0.00315922964 -0.06993836762 0.04210161791 -0.00087186021 -0.07099218797 0.02598135610 -0.00099699390 -0.07119093350 0.02726304699 -0.00115085385 -0.07136317583 0.02872844918 -0.00133290606 -0.07150859851 0.03035745858 -0.00154261650 -0.07162688513 0.03212997109 -0.00177945114 -0.07171771925 0.03402588262 -0.00204287596 -0.07178078445 0.03602508906 -0.00233235694 -0.07181576431 0.03810748632 -0.00264736006 -0.07182234239 0.04025297030 -0.00298735128 -0.07180020227 0.04244143689 -0.00082651659 -0.07203192997 0.02613350523 -0.00092337691 -0.07237200081 0.02721988833 -0.00105986986 -0.07265719549 0.02855260625 -0.00123166465 -0.07289468072 0.03010943059 -0.00143443052 -0.07309162326 0.03186813298 -0.00166383670 -0.07325518982 0.03380648503 -0.00191555240 -0.07339254714 0.03590225836 -0.00218524685 -0.07351086196 0.03813322460 -0.00246858929 -0.07361730100 0.04047715535 -0.00276124893 -0.07371903100 0.04291182225 </DataArray>
</PointData>
<Points>
<DataArray type="Float32" NumberOfComponents="3">
1.00552018411 0.28975203624 2.84397182796 1.00505605159 0.30886617189 2.83724087595 1.00394342228 0.33172750600 2.83309632368 1.00169536097 0.35740003491 2.83130063044 0.99782493246 0.38494775497 2.83161625549 0.99184520151 0.41343466253 2.83380565810 0.98326923293 0.44192475391 2.83763129752 0.97161009150 0.46948202549 2.84285563303 0.95638084200 0.49517047358 2.84924112390 0.93709454923 0.51805409455 2.85655022938 1.00579615775 0.27453913952 2.85319371706 0.99548818333 0.29985591133 2.85003729334 0.98695148754 0.32698079897 2.84848565950 0.97961304221 0.35535889885 2.84838005443 0.97289981915 0.38443530737 2.84956171698 0.96623879017 0.41365512094 2.85187188603 0.95905692709 0.44246343598 2.85515180043 0.95078120172 0.47030534889 2.85924269907 0.94083858588 0.49662595609 2.86398582080 0.92865605138 0.52087035399 2.86922240450 1.00602622871 0.26276990334 2.86436160891 0.98833504482 0.29274388546 2.86378328625 0.97422504559 0.32306386046 2.86409640429 0.96305324686 0.35346112275 2.86520242962 0.95417666446 0.38366696672 2.86700282883 0.94695231421 0.41341268678 2.86939906849 0.94073721195 0.44242957731 2.87229261519 0.93488837349 0.47044893273 2.87558493551 0.92876281468 0.49720204743 2.87917749604 0.92171755134 0.52242021581 2.88297176336 1.00620826944 0.25448365425 2.87700681244 0.98359574740 0.28754682161 2.87825217617 0.96576501069 0.31997199422 2.87988115101 0.95201971947 0.35168145781 2.88183965177 0.94166353388 0.38259749812 2.88407359331 0.93400011405 0.41264240087 2.88652889043 0.92833312014 0.44173845181 2.88915145799 0.92396621229 0.46980793665 2.89188721081 0.92020305064 0.49677314115 2.89468206372 0.91634729533 0.52255635102 2.89748193156 1.00634015238 0.24971971876 2.89066063660 0.98126940240 0.28428144713 2.89321728462 0.96157229711 0.31770050401 2.89579249262 0.94651620459 0.34999465524 2.89836361663 0.93536849291 0.38118166665 2.90090801269 0.92739653014 0.41127930407 2.90340303682 0.92186768435 0.44030533335 2.90582604506 0.91804932361 0.46827752031 2.90815439343 0.91520881598 0.49521363079 2.91036543797 0.91261352955 0.52113143062 2.91243653470 1.00641975000 0.24851742343 2.90485439034 0.98135512116 0.28296448937 2.90845193308 0.96164781911 0.31624469360 2.91178302208 0.94654644676 0.34837546623 2.91484621994 0.93529960705 0.37937423740 2.91764008925 0.92715590290 0.40925843722 2.92016319261 0.92136393721 0.43804549583 2.92241409260 0.91717231292 0.46575284335 2.92439135184 0.91382963295 0.49239790991 2.92609353290 0.91058450021 0.51799812563 2.92751919840 1.00644493473 0.25091609478 2.91911938258 0.98385201502 0.28361267568 2.92372944306 0.96599249095 0.31559986674 2.92780533237 0.95211419055 0.34679864199 2.93135935746 0.94146494182 0.37712997545 2.93440382527 0.93329257276 0.40651484117 2.93695104274 0.92684491140 0.43487421315 2.93901331683 0.92136978572 0.46212906545 2.94060295448 0.91611502375 0.48820037207 2.94173226264 0.91032845349 0.51300910705 2.94241354825 1.00641357904 0.25695505934 2.93298692228 0.98875919531 0.28624273339 2.93882313606 0.97460722692 0.31576132719 2.94381201644 0.96322318050 0.34523893371 2.94797492492 0.95387256271 0.37440364590 2.95133322301 0.94582088018 0.40298355675 2.95390827218 0.93833363956 0.43070675920 2.95572143396 0.93067634750 0.45730134624 2.95679406983 0.92211451064 0.48249541081 2.95714754130 0.91191363562 0.50601704589 2.95680320986 1.00632355536 0.26667364365 2.94598831837 0.99607577338 0.29087138986 2.95350633358 0.98749294126 0.31672437872 2.95975566726 0.97987716116 0.34367109259 2.96476481809 0.97253053522 0.37115001384 2.96856228474 0.96475516557 0.39859962481 2.97117656588 0.95585315436 0.42545840787 2.97263616019 0.94512660373 0.45116484538 2.97296956634 0.93187761583 0.47515741969 2.97220528300 0.91540829279 0.49687461316 2.97037180884 1.00617273616 0.28011117425 2.95765487980 1.00580086055 0.29751537242 2.96755235711 1.00465054825 0.31848432508 2.97558887779 1.00207987708 0.34206986984 2.98180093270 0.99744692485 0.36732384434 2.98622501275 0.99010976937 0.39329808620 2.98889760880 0.97942648845 0.41904443305 2.98985521174 0.96475515991 0.44361472253 2.98913431247 0.94545386156 0.46606079226 2.98677140185 0.92088067121 0.48543447987 2.98280297079 0.92899567551 0.30094562823 2.84605139918 0.92862357848 0.31845117506 2.84083909213 0.92785933986 0.33954492194 2.83775404450 0.92644036798 0.36350229816 2.83664015640 0.92410407115 0.38959873302 2.83734132789 0.92058785770 0.41710965582 2.83970145907 0.91562913595 0.44531049584 2.84356445001 0.90896531423 0.47347668238 2.84877420080 0.90033380085 0.50088364473 2.85517461153 0.88947200415 0.52680681218 2.86260958227 0.92921798797 0.28912554578 2.85534741052 0.92192975352 0.31158835516 2.85310104916 0.91594948375 0.33608516719 2.85216735577 0.91095241929 0.36216737090 2.85244098519 0.90661380076 0.38938635530 2.85381659225 0.90260886877 0.41729350943 2.85618883178 0.89861286394 0.44544022229 2.85945235862 0.89430102689 0.47337788292 2.86350182759 0.88934859825 0.50065788032 2.86823189353 0.88343081863 0.52683160352 2.87353721126 0.92940697371 0.27989904092 2.86655674732 0.91693160859 0.30608895034 2.86640435161 0.90703327741 0.33313891975 2.86698411672 0.89933456777 0.36080753861 2.86822932177 0.89345806730 0.38885339639 2.87007324591 0.88902636360 0.41703508255 2.87244916825 0.88566204429 0.44511118657 2.87529036794 0.88298769699 0.47284029792 2.87853012410 0.88062590931 0.49998100605 2.88210171585 0.87819926886 0.52629190045 2.88593842235 0.92956068843 0.27330700144 2.87919968836 0.91362810852 0.30197372143 2.88048410042 0.90111165303 0.33070872201 2.88209905374 0.89159162432 0.35940822550 2.88400641182 0.88464832472 0.38796845423 2.88616803817 0.87986205660 0.41628563053 2.88854579628 0.87681312228 0.44425597675 2.89110154966 0.87508182411 0.47177571520 2.89379716182 0.87424846445 0.49874106822 2.89659449625 0.87389334563 0.52504825815 2.89945541646 0.92967718782 0.26939031512 2.89279651244 0.91201821810 0.29926342925 2.89507539654 0.89818554282 0.32879711636 2.89740689324 0.88772839983 0.35795485577 2.89977350101 0.88019602699 0.38670012678 2.90215771833 0.87513766214 0.41499640871 2.90454204367 0.87210254314 0.44280718087 2.90690897549 0.87063990784 0.47009592257 2.90924101227 0.87029899408 0.49682611311 2.91152065247 0.87062903972 0.52296123182 2.91373039456 0.92975452757 0.26818986977 2.90686749834 0.91210090215 0.29797883461 2.90991334089 0.89825587898 0.32740664520 2.91280236160 0.88774970523 0.35643285363 2.91553183502 0.88011262805 0.38501701201 2.91809903571 0.87487489464 0.41311867244 2.92050123822 0.87156675214 0.44069738701 2.92273571711 0.86971844775 0.46771270784 2.92479974693 0.86886022861 0.49412418702 2.92669060224 0.86852234192 0.51989137666 2.92840555760 0.92979076338 0.26974655316 2.92093292485 0.91387512549 0.29814069834 2.92473303443 0.90132359372 0.32653985092 2.92818018523 0.89166035140 0.35482764329 2.93128265953 0.88440958187 0.38288770786 2.93404873960 0.87909546847 0.41060367704 2.93648670774 0.87524219454 0.43785918323 2.93860484622 0.87237394343 0.46453785882 2.94041143732 0.87001489847 0.49052333623 2.94191476333 0.86768924300 0.51569924786 2.94312310651 0.92978395094 0.27410125310 2.93451307075 0.91733985293 0.29976978126 2.93926957809 0.90738961923 0.32619927591 2.94343509052 0.89946514925 0.35312464895 2.94702722020 0.89309834239 0.38028081230 2.95006357932 0.88782109803 0.40740267788 2.95256178003 0.88316531560 0.43422515758 2.95453943451 0.87866289447 0.46048316334 2.95601415493 0.87384573405 0.48591160705 2.95700355346 0.86824573375 0.51024540062 2.95752524226 0.92973214595 0.28129485738 2.94712821484 0.92249404927 0.30288684419 2.95325807281 0.91645488772 0.32638746256 2.95846180386 0.91116890969 0.35130929481 2.96276676272 0.90619036356 0.37716492328 2.96620030416 0.90107349772 0.40346693028 2.96878978289 0.89537256056 0.42972789814 2.97056255368 0.88864180045 0.45546040919 2.97154597126 0.88043546579 0.48017704575 2.97176739038 0.87030780495 0.50339039014 2.97125416578 0.92963340410 0.29136825378 2.95829863590 0.92933667933 0.30751264794 2.96643361953 0.92852033139 0.32710695326 2.97315505165 0.92677644362 0.34936700508 2.97850253277 0.92369709935 0.37350863875 2.98251566342 0.91887438193 0.39874768960 2.98523404413 0.91190037468 0.42429999297 2.98669727542 0.90236716095 0.44938138420 2.98694495782 0.88986682408 0.47320769863 2.98601669185 0.87399144739 0.49499477161 2.98395207804 0.85304506640 0.31179533406 2.84802718616 0.85274113127 0.32790871741 2.84399015692 0.85220480580 0.34743945278 2.84172023964 0.85130984909 0.36983318409 2.84112388749 0.84993002025 0.39453555529 2.84210755364 0.84793907839 0.42099221030 2.84457769126 0.84521078261 0.44864879306 2.84844075353 0.84161889203 0.47695094750 2.85360319362 0.83703716575 0.50534431754 2.85997146469 0.83133936288 0.53327454713 2.86745201993 0.85322659170 0.30266739997 2.85738251482 0.84828535232 0.32275134713 2.85583606971 0.84425427012 0.34500307783 2.85537160852 0.84096524148 0.36906151330 2.85592536852 0.83825016279 0.39456557480 2.85743358695 0.83594093041 0.42115418355 2.85983250108 0.83386944073 0.44846626081 2.86305834815 0.83186759012 0.47614072781 2.86704736542 0.82976727495 0.50381650580 2.87173579016 0.82740039161 0.53113251602 2.87705985961 0.85338528995 0.29545513564 2.86862544207 0.84496616332 0.31852986832 2.86879437835 0.83830856270 0.34282618340 2.86956806259 0.83320766210 0.36812820717 2.87090510661 0.82945863555 0.39422006590 2.87276412226 0.82685665706 0.42088588589 2.87510372139 0.82519690063 0.44790979341 2.87788251584 0.82427454029 0.47507591476 2.88105911745 0.82388475005 0.50216837621 2.88459213806 0.82382270393 0.52897130405 2.88844018951 0.85351917020 0.29020118106 2.88126743856 0.84278227201 0.31526841357 2.88257040082 0.83436819317 0.34091704228 2.88415932288 0.82804135056 0.36702707098 2.88600938990 0.82356616110 0.39347850348 2.88809578706 0.82070704168 0.42015134357 2.89039369951 0.81922840922 0.44692559506 2.89287831242 0.81889468060 0.47368126174 2.89552481097 0.81947027275 0.50029834742 2.89830838031 0.82071960255 0.52665685591 2.90120420562 0.85362624152 0.28694817623 2.89481997498 0.84173238615 0.31299111547 2.89686945509 0.83243367115 0.33928392722 2.89899511046 0.82547054646 0.36575191001 2.90118450655 0.82058346198 0.39232036237 2.90342520882 0.81751286764 0.41891458283 2.90570478272 0.81599921337 0.44545986992 2.90801079372 0.81578294909 0.47188152216 2.91033080728 0.81660452472 0.49810483810 2.91265238885 0.81820439018 0.52405511625 2.91496310389 0.85370451296 0.28573876116 2.90879452198 0.84181521346 0.31172210661 2.91139685912 0.83250550629 0.33793511101 2.91392514637 0.82549948940 0.36429652955 2.91637674469 0.82052126076 0.39072511745 2.91874901502 0.81729491831 0.41713962992 2.92103931832 0.81554456001 0.44345882217 2.92324501555 0.81499428381 0.46960144942 2.92536346765 0.81536818767 0.49548626687 2.92739203559 0.81639036954 0.52103202974 2.92932808030 0.85375199358 0.28661557583 2.92270255025 0.84302946168 0.31148551958 2.92585793090 0.83458420820 0.33687886640 2.92879915168 0.82813241901 0.36265473487 2.93153239247 0.82339027999 0.38867224357 2.93406383315 0.82007397703 0.41479051109 2.93639965362 0.81789969601 0.44086865601 2.93854603373 0.81658362280 0.46676579693 2.94050915339 0.81584194329 0.49234105241 2.94229519246 0.81539084335 0.51745354106 2.94391033083 0.85376669246 0.28962126024 2.93605553045 0.84537383857 0.31230548697 2.93995798838 0.83867028651 0.33612346617 2.94346684742 0.83337357487 0.36082033125 2.94659773803 0.82920124223 0.38614121559 2.94936629069 0.82587082717 0.41183125258 2.95178813589 0.82309986827 0.43763557561 2.95387890409 0.82060590411 0.46329931808 2.95565422576 0.81810647326 0.48856761337 2.95712973139 0.81531911432 0.51318559486 2.95832105145 0.85374661864 0.29479845440 2.94836493326 0.84884705185 0.31420614136 2.95340234955 0.84476425086 0.33567718310 2.95777795464 0.84122719661 0.35878712398 2.96151906951 0.83796487005 0.38311150837 2.96465301512 0.83470625210 0.40822588064 2.96720711244 0.83118032370 0.43370578516 2.96920868243 0.82711606579 0.45912676628 2.97068504606 0.82224245929 0.48406436838 2.97166352430 0.81628848516 0.50809413583 2.97217143812 0.85368978120 0.30218979830 2.95914222934 0.85344780926 0.31721161535 2.96589633237 0.85286661086 0.33554828995 2.97158219442 0.85169752383 0.35654891833 2.97624267507 0.84969188599 0.37956259677 2.97992063392 0.84660103516 0.40393842152 2.98265893056 0.84217630919 0.42902548882 2.98450042458 0.83616904588 0.45417289493 2.98548797557 0.82833058307 0.47872973611 2.98566444312 0.81841225859 0.50204510861 2.98507268683 0.77760159776 0.32220522505 2.84990137565 0.77734643781 0.33712413736 2.84674017916 0.77694341556 0.35528239731 2.84507135904 0.77633412317 0.37625934911 2.84484618022 0.77546015278 0.39963433698 2.84601590765 0.77426309656 0.42498670512 2.84853180628 0.77268454665 0.45189579773 2.85234514104 0.77066609521 0.47994095902 2.85740717687 0.76814933439 0.50870153320 2.86366917871 0.76507585633 0.53775686447 2.87108241151 0.77775304752 0.31515234044 2.85930336832 0.77457240646 0.33328276924 2.85827418875 0.77197233070 0.35363680994 2.85814962758 0.76987167506 0.37592454294 2.85889610155 0.76818929435 0.39985604863 2.86048002743 0.76684404337 0.42514140737 2.86286782198 0.76575477692 0.45149069957 2.86602590194 0.76484034981 0.47861400560 2.86992068407 0.76401961685 0.50622140585 2.87451858514 0.76321143285 0.53402298070 2.87978602189 0.77789025106 0.30948905273 2.87057315482 0.77251555614 0.33004432084 2.87097349194 0.76826378327 0.35205157896 2.87187909476 0.76503305331 0.37531932379 2.87326733947 0.76272148711 0.39965605202 2.87511560226 0.76122720553 0.42487026038 2.87740125934 0.76044832940 0.45077044555 2.88010168690 0.76028297958 0.47716510423 2.88319426113 0.76062927693 0.50386273314 2.88665635823 0.76138534229 0.53067182897 2.89046535439 0.77801101301 0.30525985628 2.88321541764 0.77117427940 0.32743573007 2.88452100871 0.76581755811 0.35053941561 2.88607571788 0.76182072750 0.37444387941 2.88786498956 0.75906366592 0.39902208794 2.88987426816 0.75742625173 0.42414700773 2.89208899810 0.75678836328 0.44969160525 2.89449462378 0.75702987893 0.47552884702 2.89707658963 0.75803067704 0.50153169952 2.89982034005 0.75967063597 0.52757312926 2.90271131946 0.77811313798 0.30250924542 2.89673483925 0.77054696878 0.32548393482 2.89859965904 0.76463344007 0.34911303117 2.90055545424 0.76023716721 0.37329839758 2.90259414742 0.75722276562 0.39794189715 2.90470766114 0.75545485067 0.42294539302 2.90688791796 0.75479803777 0.44821074828 2.90912684045 0.75511694229 0.47363982605 2.91141635117 0.75627617964 0.49913448945 2.91374837267 0.75814036521 0.52459660159 2.91611482754 0.77819443059 0.30128171451 2.91063610213 0.77063201683 0.32421587300 2.91289236290 0.76471121397 0.34778513688 2.91513426114 0.76028484204 0.37188306606 2.91735990864 0.75720572105 0.39640322042 2.91956741721 0.75532667105 0.42123915984 2.92175489865 0.75450051205 0.44628444421 2.92392046476 0.75458006408 0.47143263343 2.92606222733 0.75541814717 0.49657728738 2.92817829816 0.75686758133 0.52161196595 2.93026678906 0.77825269547 0.30162175791 2.92442388874 0.77142781607 0.32365848249 2.92708204027 0.76605066466 0.34656844401 2.92962809588 0.76196622155 0.37019807263 2.93206736883 0.75901946708 0.39439379850 2.93440517241 0.75705538157 0.41900205179 2.93664681989 0.75591894534 0.44386926265 2.93879762457 0.75545513873 0.46884186126 2.94086289970 0.75550894205 0.49376627776 2.94284795858 0.75592533564 0.51848894233 2.94475811448 0.77828573724 0.30357386994 2.93760288158 0.77293275906 0.32383870121 2.94085161114 0.76865157698 0.34547566382 2.94385291576 0.76528377535 0.36824360505 2.94662162357 0.76267093854 0.39190137217 2.94917256273 0.76065465091 0.41620781246 2.95152056141 0.75907649682 0.44092177318 2.95368044774 0.75777806065 0.46580210163 2.95566704988 0.75660092674 0.49060764506 2.95749519599 0.75538667947 0.51509725075 2.95917971422 0.77829136051 0.30718254498 2.94967776310 0.77514523833 0.32478346704 2.95388399549 0.77251373577 0.34451950755 2.95762467808 0.77023997301 0.36601985108 2.96092776846 0.76816707028 0.38891368219 2.96382122421 0.76613814778 0.41283018544 2.96633300291 0.76399632570 0.43739854540 2.96849106213 0.76158472426 0.46224794664 2.97032335945 0.75874646367 0.48700757371 2.97185785247 0.75532466412 0.51130661119 2.97312249875 0.77826736993 0.31249227735 2.96015321579 0.77806364643 0.32651971789 2.96586211328 0.77763692586 0.34371268648 2.97075934015 0.77683728413 0.36352699850 2.97489089910 0.77551479716 0.38541846933 2.97830279285 0.77351954087 0.40884291433 2.98104102411 0.77070159118 0.43325614890 2.98315159560 0.76691102401 0.45811398839 2.98468051001 0.76199791528 0.48287224819 2.98567377007 0.75581234092 0.50698674367 2.98617737848 0.70259851056 0.33207937254 2.85167615444 0.70237722595 0.34598277331 2.84913526768 0.70203876464 0.36294505433 2.84788385263 0.70154350910 0.38264744964 2.84790139108 0.70085184180 0.40477119331 2.84916736485 0.69992414521 0.42899751941 2.85166125571 0.69872080181 0.45500766199 2.85536254548 0.69720219407 0.48248285511 2.86025071594 0.69532870446 0.51110433284 2.86630524891 0.69306071546 0.54055332924 2.87350562616 0.70272843399 0.32656800555 2.86111430937 0.70080834267 0.34312050346 2.86044724004 0.69921014957 0.36188864259 2.86055262274 0.69789188633 0.38263967671 2.86141608143 0.69681158456 0.40514085958 2.86302324005 0.69592727589 0.42915944496 2.86535972256 0.69519699196 0.45446268661 2.86841115290 0.69457876440 0.48081783829 2.87216315503 0.69403062482 0.50799215377 2.87660135290 0.69351060487 0.53575288681 2.88171137045 0.70285093069 0.32205165744 2.87240534727 0.69965663421 0.34060998935 2.87296181784 0.69711182095 0.36074103394 2.87394806609 0.69517126486 0.38227708380 2.87535357568 0.69378973988 0.40505043150 2.87716783027 0.69292201995 0.42889336960 2.87938031354 0.69252287903 0.45363819068 2.88198050913 0.69254709104 0.47911718732 2.88495790071 0.69294942994 0.50516265208 2.88830197195 0.69368466968 0.53160687753 2.89200220651 0.70296351511 0.31857669024 2.88504898022 0.69892017219 0.33848050297 2.88634585542 0.69574267488 0.35951830260 2.88786199818 0.69338158445 0.38156453592 2.88958961431 0.69178746212 0.40449364972 2.89152090964 0.69091086915 0.42818009076 2.89364809002 0.69070236679 0.45249830585 2.89596336126 0.69111251627 0.47732274176 2.89845892919 0.69209187886 0.50252784528 2.90112699964 0.69359101578 0.52798806319 2.90395977844 0.70306370170 0.31618946600 2.89854492031 0.69859702825 0.33676131632 2.90026620714 0.69510160752 0.35823652279 2.90208623451 0.69252278486 0.38050689807 2.90399993778 0.69080590565 0.40346425487 2.90600225228 0.68989631526 0.42700040587 2.90808811337 0.68973935903 0.45100716375 2.91025245637 0.69028038236 0.47537634119 2.91249021665 0.69146473058 0.49999975089 2.91479632953 0.69323774909 0.52476920553 2.91716573037 0.70314900490 0.31493634675 2.91239287962 0.69868527403 0.33548170140 2.91438972733 0.69518751497 0.35691176871 2.91641259061 0.69259480586 0.37910903526 2.91846028657 0.69084622483 0.40195598761 2.92053163232 0.68988085002 0.42533511234 2.92262544494 0.68963775954 0.44912889601 2.92474054156 0.69005603155 0.47321982518 2.92687573928 0.69107474416 0.49749038644 2.92902985520 0.69263297551 0.52182306634 2.93120170642 0.70321693915 0.31486369454 2.92609257025 0.69918298115 0.33467093019 2.92838327036 0.69599929337 0.35556011460 2.93063288199 0.69359758721 0.37737581249 2.93284640116 0.69190957402 0.39996258859 2.93502882386 0.69086696520 0.42316500761 2.93718514611 0.69040147210 0.44682763428 2.93932036392 0.69044480611 0.47079503331 2.94143947328 0.69092867860 0.49491176944 2.94354747022 0.69178480095 0.51902240737 2.94564935072 0.70326501891 0.31601787139 2.93914370429 0.70008822125 0.33435827468 2.94191369057 0.69753583885 0.35419763466 2.94453892416 0.69553106866 0.37531209477 2.94703402200 0.69399710758 0.39747779843 2.94941360105 0.69285715255 0.42047088909 2.95169227824 0.69203440049 0.44406751018 2.95388467052 0.69145204831 0.46804380514 2.95600539485 0.69103329295 0.49217591741 2.95806906815 0.69070133132 0.51623999041 2.96009030739 0.70329075862 0.31844523934 2.95104599382 0.70139906595 0.33457300688 2.95464784231 0.69979604754 0.35284040313 2.95792253262 0.69839518997 0.37292274710 2.96089888958 0.69710997987 0.39449535780 2.96360573800 0.69585390384 0.41723355422 2.96607190269 0.69454044848 0.44081265537 2.96832620847 0.69308310041 0.46490798025 2.97039748016 0.69139534622 0.48919484787 2.97231454258 0.68939067253 0.51334857722 2.97410622054 0.70329167272 0.32219216044 2.96129915093 0.70311358691 0.33534439876 2.96625257993 0.70277881555 0.35150449421 2.97057552290 0.70218989092 0.37021263449 2.97431674436 0.70124934525 0.39100900733 2.97752500883 0.69985971082 0.41343380042 2.98024908082 0.69792351987 0.43702720148 2.98253772484 0.69534330466 0.46132939821 2.98443970542 0.69202159745 0.48588057834 2.98600378707 0.68786093049 0.51022092956 2.98727873431 0.62796904577 0.34132184785 2.85335370929 0.62777122356 0.35436996369 2.85122153131 0.62745444852 0.37029872262 2.85023417036 0.62696832575 0.38886414207 2.85038387658 0.62626246033 0.40982223948 2.85166290013 0.62528645733 0.43292903231 2.85406349116 0.62398992184 0.45794053798 2.85757789981 0.62232245893 0.48461277394 2.86219837624 0.62023367368 0.51270175764 2.86791717059 0.61767317118 0.54196350652 2.87472653301 0.62808382966 0.33690203366 2.86281967635 0.62701058770 0.35220243178 2.86238705734 0.62607421081 0.36966085483 2.86263180383 0.62524604155 0.38909013149 2.86354820528 0.62449742251 0.41030309044 2.86513055115 0.62379969623 0.43311256037 2.86737313088 0.62312420530 0.45733136996 2.87027023395 0.62244229227 0.48277234790 2.87381614979 0.62172529973 0.50924832288 2.87800516788 0.62094457022 0.53657212357 2.88283157766 0.62819640246 0.33319381499 2.87412748109 0.62646624466 0.35020455528 2.87477948151 0.62506555753 0.36882047590 2.87580582944 0.62398282018 0.38889768258 2.87720137058 0.62320651173 0.41029228108 2.87896095066 0.62272511128 0.43286037715 2.88107941541 0.62252709795 0.45645807653 2.88355161053 0.62260095086 0.48094148499 2.88637238176 0.62293514912 0.50616670826 2.88953657481 0.62351817185 0.53198985210 2.89303903539 0.62830397477 0.33024534612 2.88677348090 0.62613599188 0.34840756432 2.88805487229 0.62442647049 0.36779616383 2.88953192322 0.62317575070 0.38829492567 2.89119966768 0.62238417262 0.40978763087 2.89305313969 0.62205207637 0.43215806043 2.89508737325 0.62217980206 0.45528999537 2.89729740236 0.62276768980 0.47906721670 2.89967826101 0.62381607970 0.50337350546 2.90222498323 0.62532531187 0.52809264264 2.90493260300 0.62840375719 0.32810478130 2.90025403318 0.62601762679 0.34684268900 2.90186929815 0.62415493147 0.36660649665 2.90358576124 0.62282192216 0.38728999111 2.90539939181 0.62202484983 0.40878695927 2.90730615925 0.62176996543 0.43099118798 2.90930203292 0.62206351990 0.45379646412 2.91138298219 0.62291176420 0.47709657454 2.91354497642 0.62432094928 0.50078530613 2.91578398498 0.62629732609 0.52475644575 2.91809597725 0.62849296032 0.32682027479 2.91406549533 0.62610894682 0.34554115944 2.91587882755 0.62424892224 0.36527005236 2.91774301954 0.62291842363 0.38589100923 2.91965683818 0.62212298799 0.40728808575 2.92161905035 0.62186815235 0.42934533759 2.92362842293 0.62215945374 0.45194682045 2.92568372280 0.62300242918 0.47497659001 2.92778371684 0.62440261570 0.49831870196 2.92992717193 0.62636555032 0.52185721198 2.93211285494 0.62856879477 0.32643998086 2.92770422472 0.62640774939 0.34453420577 2.92973952896 0.62470642461 0.36380540899 2.93177937419 0.62346234414 0.38410611037 2.93382830201 0.62267303171 0.40528882977 2.93589085401 0.62233601104 0.42720608703 2.93797157181 0.62244880585 0.44971040202 2.94007499699 0.62300893985 0.47265429459 2.94220567115 0.62401393678 0.49589028459 2.94436813590 0.62546132036 0.51927089188 2.94656693284 0.62862847113 0.32701205376 2.94066657878 0.62691183195 0.34385305809 2.94310747086 0.62552542035 0.36223114454 2.94547050123 0.62445077278 0.38194342485 2.94777007850 0.62366942565 0.40278701079 2.95002061124 0.62316291541 0.42455901409 2.95223650805 0.62291277849 0.44705654651 2.95443217751 0.62290055133 0.47007671980 2.95662202822 0.62310777036 0.49341664571 2.95882046876 0.62351597202 0.51687343599 2.96104190773 0.62866920002 0.32858464776 2.95244891487 0.62761899193 0.34352894653 2.95563872170 0.62670389126 0.36056583703 2.95859207673 0.62588079858 0.37941108303 2.96133846287 0.62510661443 0.39978044827 2.96390736305 0.62433823937 0.42138969653 2.96632826017 0.62353257395 0.44395459156 2.96863063715 0.62264651873 0.46719089712 2.97084397691 0.62163697427 0.49081437697 2.97299776235 0.62046084111 0.51454079487 2.97512147640 0.62868819203 0.33120591711 2.96254759042 0.62852702675 0.34359310119 2.96698934996 0.62823981912 0.35882806448 2.97091977672 0.62774951060 0.37651721522 2.97438975034 0.62697904268 0.39626696169 2.97745015045 0.62585135681 0.41768371214 2.98015185669 0.62428939449 0.44037387484 2.98254574869 0.62221609716 0.46394385806 2.98468270609 0.61955440632 0.48800007004 2.98661360852 0.61622726343 0.51214891907 2.98838933563 0.55364644437 0.34983672231 2.85493622697 0.55346615847 0.36217104691 2.85304507889 0.55315406269 0.37721470098 2.85219876217 0.55263889200 0.39477608282 2.85238799322 0.55184938141 0.41466359071 2.85360348843 0.55071426590 0.43668562296 2.85583596422 0.54916228046 0.46065057785 2.85907613699 0.54712216007 0.48636685368 2.86331472314 0.54452263973 0.51364284876 2.86854243908 0.54129245442 0.54228696136 2.87475000122 0.55375031312 0.34614206311 2.86442380762 0.55319656827 0.36046643619 2.86412547441 0.55267099846 0.37685572571 2.86443838066 0.55215430703 0.39515912416 2.86535537025 0.55162719731 0.41522582399 2.86686928708 0.55107037265 0.43690501767 2.86897297503 0.55046453639 0.46004589766 2.87165927800 0.54979039187 0.48449765644 2.87492103986 0.54902864243 0.51010948647 2.87875110452 0.54815999142 0.53673058022 2.88314231585 0.55385574002 0.34296639063 2.87574501797 0.55302123466 0.35880570009 2.87644660842 0.55233787485 0.37621583234 2.87748323765 0.55182824275 0.39507731545 2.87884827950 0.55151492056 0.41527067751 2.88053510780 0.55142049045 0.43667644661 2.88253709640 0.55156753461 0.45917515082 2.88484761913 0.55197863522 0.48264731823 2.88746004985 0.55267637447 0.50697347692 2.89036776238 0.55368333454 0.53203415499 2.89356413057 0.55395969023 0.34035948706 2.88839427431 0.55293778000 0.35722174615 2.88965799066 0.55215187195 0.37531545988 2.89109925245 0.55165505557 0.39454093380 2.89271155322 0.55150042036 0.41479847348 2.89448838648 0.55174105581 0.43598838447 2.89642324577 0.55243005142 0.45801097232 2.89850962460 0.55362049667 0.48076654259 2.90074101649 0.55536548108 0.50415540082 2.90311091498 0.55771809412 0.52807785259 2.90561281358 0.55405912893 0.33837113463 2.90186599293 0.55294382665 0.35574748186 2.90340913083 0.55211016987 0.37417504733 2.90505234435 0.55162910187 0.39356025631 2.90679002369 0.55157156590 0.41380953409 2.90861655904 0.55200850522 0.43482930595 2.91052634060 0.55301086308 0.45652599718 2.91251375859 0.55464958274 0.47880603307 2.91457320319 0.55699560746 0.50157583889 2.91669906461 0.56011988050 0.52474183993 2.91888573305 0.55415102128 0.33705111554 2.91565459009 0.55303699696 0.35441581476 2.91734953867 0.55220994873 0.37281503371 2.91910843265 0.55174473806 0.39214556007 2.92092852316 0.55171622640 0.41230418152 2.92280706136 0.55219927519 0.43318768574 2.92474129836 0.55326874589 0.45469286042 2.92672848531 0.55499949996 0.47671649322 2.92876587334 0.55746639884 0.49915537184 2.93085071357 0.56074430400 0.52190628394 2.93298025716 0.55423233242 0.33644921201 2.92925448209 0.55321491329 0.35325965234 2.93112872388 0.55244838864 0.37125585802 2.93303343663 0.55199632054 0.39030712218 2.93497188392 0.55192227104 0.41028273797 2.93694732935 0.55228980222 0.43105199854 2.93896303650 0.55316247613 0.45248419703 2.94102226896 0.55460385485 0.47444862660 2.94312829033 0.55667750043 0.49681458038 2.94528436418 0.55944697495 0.51945135153 2.94749375411 0.55430002754 0.33661520625 2.94216008521 0.55347519801 0.35231190214 2.94439619620 0.55282266970 0.36951795927 2.94659327560 0.55237820568 0.38805521974 2.94876493823 0.55217756902 0.40774552563 2.95092479891 0.55225652280 0.42841071903 2.95308647248 0.55265083008 0.44987264204 2.95526357375 0.55339625394 0.47195313675 2.95746971755 0.55452855745 0.49447404525 2.95971851872 0.55608350369 0.51725720962 2.96202359207 0.55435107178 0.33759888046 2.95386581572 0.55381547347 0.35160547166 2.95680146534 0.55332997203 0.36762177648 2.95955386884 0.55288474990 0.38540012984 2.96215251834 0.55246998955 0.40469286668 2.96462690594 0.55207587344 0.42525232191 2.96700652374 0.55169258402 0.44683083045 2.96932086387 0.55131030376 0.46918072722 2.97159941842 0.55091921511 0.49205434714 2.97387167950 0.55050950054 0.51520402513 2.97616713922 0.55438243031 0.33945001687 2.96386608992 0.55423336204 0.35117326841 2.96799404103 0.55396747573 0.36558774864 2.97168113567 0.55351030959 0.38235212960 2.97497945653 0.55278740182 0.40112508333 2.97794108633 0.55172429064 0.42156528187 2.98061810776 0.55024651424 0.44333139727 2.98306260352 0.54827961083 0.46608210156 2.98532665631 0.54574911863 0.48947606679 2.98746234882 0.54258057584 0.51317196499 2.98952176376 0.47956394733 0.35752806724 2.85642589425 0.47939975856 0.36927136138 2.85465201926 0.47910120261 0.38356428821 2.85385407801 0.47858552672 0.40024992830 2.85400809749 0.47776997808 0.41917136221 2.85509010465 0.47657180391 0.44017167050 2.85707612649 0.47490825142 0.46309393375 2.85994218996 0.47269656782 0.48778123250 2.86366432204 0.46985400032 0.51407664734 2.86821854970 0.46629779612 0.54182325882 2.87358089992 0.47965896291 0.35427573228 2.86593104153 0.47938371113 0.36785039866 2.86569432500 0.47910699662 0.38337553429 2.86602356303 0.47883684904 0.40072987160 2.86690047347 0.47858129808 0.41979214301 2.86830677420 0.47834837340 0.44044108092 2.87022418307 0.47814610467 0.46255541775 2.87263441796 0.47798252158 0.48601388593 2.87551919674 0.47786565380 0.51069521787 2.87886023725 0.47780353100 0.53647814599 2.88263925738 0.47975801699 0.35142024958 2.87726341959 0.47939845135 0.36639110522 2.87798332404 0.47914165470 0.38285303081 2.87901114359 0.47906805602 0.40071217778 2.88033185776 0.47925808427 0.41987469755 2.88193044604 0.47979216842 0.44024674156 2.88379188793 0.48075073744 0.46173446124 2.88590116293 0.48221422032 0.48424400801 2.88824325054 0.48426304601 0.50768153331 2.89080313026 0.48697764350 0.53195318856 2.89356578158 0.47985795977 0.34901277623 2.88991671506 0.47944157805 0.36492788051 2.89116514185 0.47920180627 0.38201865133 2.89257774532 0.47927132836 0.40020844546 2.89414167444 0.47978282825 0.41942061964 2.89584407819 0.48086898987 0.43957853065 2.89767210554 0.48266249717 0.46060553523 2.89961290549 0.48529603408 0.48242499014 2.90165362700 0.48890228452 0.50496025215 2.90378141905 0.49361393243 0.52813467800 2.90598343063 0.47995564144 0.34710446931 2.90338461458 0.47951069006 0.36349512395 2.90488590394 0.47928408070 0.38089426941 2.90648429381 0.47943884676 0.39923027327 2.90816934757 0.48013802161 0.41843150307 2.90993062863 0.48154463867 0.43842632638 2.91175770040 0.48382173130 0.45914311074 2.91364012627 0.48713233291 0.48051022372 2.91556746967 0.49163947687 0.50245603287 2.91752929398 0.49750619659 0.52490890576 2.91951516262 0.48004791221 0.34574648592 2.91716080478 0.47960338621 0.36212723497 2.91879173580 0.47938510739 0.37950175862 2.92049171466 0.47956279192 0.39778925985 2.92225430121 0.48030615596 0.41690894163 2.92407305536 0.48178491569 0.43678000696 2.92594153696 0.48416878727 0.45732165880 2.92785330592 0.48762748686 0.47845310015 2.92980192209 0.49233073065 0.50009353398 2.93178094537 0.49844823479 0.52216216328 2.93378393564 0.48013162225 0.34498998313 2.93073897230 0.47971726533 0.36085861302 2.93252876292 0.47950151573 0.37786299253 2.93436093347 0.47963534455 0.39589700383 2.93623595945 0.48026972289 0.41485452913 2.93815431637 0.48155562185 0.43462945060 2.94011647973 0.48364401252 0.45511565044 2.94212292505 0.48668586600 0.47620701083 2.94417412783 0.49083215340 0.49779741396 2.94627056357 0.49623384581 0.51978074202 2.94841270779 0.48020362176 0.34488611803 2.94361280377 0.47984992626 0.35972365752 2.94574311080 0.47962993512 0.37599984469 2.94785287587 0.47964868536 0.39356510385 2.94995374636 0.48001121399 0.41226985935 2.95205736967 0.48082255803 0.43196453552 2.95417539318 0.48218775449 0.45249955668 2.95631946430 0.48421184037 0.47372534716 2.95850123041 0.48699985269 0.49549233131 2.96073233891 0.49065682846 0.51765093344 2.96302443718 0.48026076095 0.34548604771 2.95527598583 0.47999896782 0.35875676791 2.95808090492 0.47976699494 0.37393418867 2.96072846743 0.47959499504 0.39080515854 2.96324708599 0.47951312086 0.40915652610 2.96566517324 0.47955152514 0.42877513991 2.96801114180 0.47974036061 0.44944784854 2.97031340431 0.48010978001 0.47096150055 2.97260037341 0.48068993608 0.49310294450 2.97490046172 0.48151098154 0.51565902898 2.97724208189 0.48029989000 0.34684092926 2.96522220511 0.48016198884 0.35799234363 2.96918827079 0.47990932458 0.37168789804 2.97274863378 0.47946645429 0.38762876653 2.97595540243 0.47875793509 0.40551612317 2.97886068508 0.47770832408 0.42505114199 2.98151659006 0.47624217835 0.44593499704 2.98397522570 0.47428405500 0.46786886238 2.98628870035 0.47175851113 0.49055391205 2.98850912235 0.46859010385 0.51369132009 2.99068860003 0.40565479563 0.36429995397 2.85782489791 0.40550975166 0.37555624551 2.85608846124 0.40525946379 0.38921878309 2.85527656781 0.40483854878 0.40515233492 2.85533854588 0.40418162338 0.42322166918 2.85622372372 0.40322330435 0.44329155408 2.85788142956 0.40189820847 0.46522675781 2.86026099169 0.40014095247 0.48889204857 2.86331173834 0.39788615314 0.51415219456 2.86698299778 0.39506842721 0.54087196397 2.87122409826 0.40574085761 0.36129067951 2.86734571646 0.40558944300 0.37429220118 2.86712544288 0.40548868933 0.38912255963 2.86743856075 0.40551383387 0.40568559072 2.86824641207 0.40574011391 0.42388513028 2.86951033885 0.40624276673 0.44362501419 2.87119168308 0.40709702961 0.46480907827 2.87325178676 0.40837813984 0.48734115838 2.87565199191 0.41016133471 0.51112509038 2.87835364052 0.41252185149 0.53606471010 2.88131807460 0.40583230702 0.35860625709 2.87868814762 0.40567474188 0.37293845212 2.87940975382 0.40568977892 0.38865799884 2.88042040012 0.40606278343 0.40569846491 2.88168966071 0.40697912074 0.42399341795 2.88318710977 0.40862415612 0.44347642561 2.88488232145 0.41118325488 0.46408105552 2.88674486994 0.41484178233 0.48574087532 2.88874432940 0.41978510376 0.50838945265 2.89085027401 0.42619858447 0.53196035515 2.89303227795 0.40592608163 0.35629887678 2.89134615775 0.40576342754 0.37153079944 2.89258625721 0.40585920047 0.38784819878 2.89398116127 0.40647639837 0.40520334578 2.89550643488 0.40787801922 0.42354851142 2.89713764299 0.41032706099 0.44283596671 2.89885035056 0.41408652165 0.46301798260 2.90062012255 0.41941939917 0.48404683010 2.90242252391 0.42658869152 0.50587478019 2.90423311961 0.43585739668 0.52845410384 2.90602747459 0.40601911922 0.35442072867 2.90481371317 0.40585327928 0.37010504427 2.90629981625 0.40599342191 0.38671625747 2.90787991955 0.40674567957 0.40421262160 2.90953487762 0.40841618471 0.42255238996 2.91124554502 0.41131106979 0.44169381585 2.91299277628 0.41573646727 0.46159515258 2.91475742594 0.42199850961 0.48221465346 2.91652034856 0.43040332925 0.50351057180 2.91826239867 0.44125705865 0.52544116091 2.91996443082 0.40610835754 0.35302400284 2.91858478023 0.40594207634 0.36869698772 2.92019529408 0.40608891116 0.38528527298 2.92187575030 0.40686162794 0.40273868067 2.92361313203 0.40857299257 0.42100703279 2.92539442238 0.41153577099 0.44004015139 2.92720660448 0.41606272912 0.45978785849 2.92903666146 0.42246663287 0.48019997612 2.93087157644 0.43106024816 0.50122632630 2.93269833255 0.44215634092 0.52281673107 2.93450391292 0.40619073436 0.35216088935 2.93215332527 0.40602759800 0.36734243090 2.93391755389 0.40614213616 0.38357834335 2.93572772889 0.40681524437 0.40079391125 2.93757934115 0.40832781816 0.41891441918 2.93946788157 0.41096075305 0.43786515170 2.94138884104 0.41499494455 0.45757139338 2.94333771044 0.42071128820 0.47795842879 2.94530998067 0.42839067951 0.49895154249 2.94730114262 0.43831401401 0.52047601905 2.94930668717 0.40626318746 0.35188357830 2.94501331463 0.40610762352 0.36607717495 2.94711145885 0.40614956482 0.38161856661 2.94919493066 0.40659752978 0.39839070163 2.95127164807 0.40766003684 0.41627652836 2.95334952911 0.40954560442 0.43515899514 2.95543649183 0.41246275094 0.45492105031 2.95754045423 0.41661999484 0.47544564221 2.95966933435 0.42222585454 0.49661571918 2.96183105023 0.42948884846 0.51831422958 2.96403351987 0.40632265460 0.35224425976 2.95665871464 0.40617993218 0.36493702096 2.95942187213 0.40610766507 0.37942904082 2.96203643095 0.40619948506 0.39554144010 2.96452819584 0.40654902396 0.41309533960 2.96692297152 0.40724991356 0.43191186007 2.96924656272 0.40839578564 0.45181212231 2.97152477417 0.41008027201 0.47261724709 2.97378341060 0.41239700447 0.49414835518 2.97604827674 0.41543961480 0.51622656737 2.97834517730 0.40636607355 0.35329512381 2.96658349166 0.40624230323 0.36395777007 2.97049365689 0.40601290483 0.37703286402 2.97401130513 0.40561211111 0.39225851494 2.97718712754 0.40497415488 0.40937283212 2.98007181530 0.40403326893 0.42811392486 2.98271605960 0.40272368602 0.44821990244 2.98517055161 0.40097963897 0.46942887416 2.98748598252 0.39873536055 0.49147894931 2.98971304351 0.39592508355 0.51410823717 2.99190242575 0.33185223022 0.37005645383 2.85913542470 0.33173386564 0.38091103771 2.85740051367 0.33159244170 0.39404948442 2.85654268151 0.33142827705 0.40934995908 2.85647369491 0.33124169033 0.42669062684 2.85710532053 0.33103300021 0.44594965283 2.85834932504 0.33080252533 0.46700520219 2.86011747511 0.33055058434 0.48973544006 2.86232153741 0.33027749588 0.51401853157 2.86487327861 0.32998357862 0.53973264186 2.86768446538 0.33192707577 0.36717454316 2.86867217076 0.33183119063 0.37972972573 2.86845066180 0.33192256068 0.39399908078 2.86873458365 0.33240542781 0.40990949837 2.86945608320 0.33348403392 0.42738786860 2.87054730738 0.33536262090 0.44636108153 2.87194040311 0.33824543064 0.46675602724 2.87356751731 0.34233670505 0.48849959580 2.87536079689 0.34784068602 0.51151867730 2.87725238877 0.35496161543 0.53574016179 2.87917443986 0.33200768374 0.36457527838 2.88002466376 0.33192695338 0.37842542222 2.88074602323 0.33219512929 0.39355666396 2.88174186009 0.33317294846 0.40993237219 2.88295924368 0.33522114786 0.42751591545 2.88434524334 0.33870046450 0.44627066232 2.88584692839 0.34397163536 0.46615998136 2.88741136816 0.35139539744 0.48714724112 2.88898563200 0.36133248772 0.50919581018 2.89051678924 0.37414364319 0.53226905710 2.89195190920 0.33209135408 0.36231145187 2.89268795700 0.33201936999 0.37703533499 2.89393126808 0.33240698155 0.39274656280 2.89532325975 0.33372209490 0.40943151991 2.89682223806 0.33643261619 0.42707659091 2.89838650905 0.34100645157 0.44566816040 2.89997437878 0.34791150716 0.46519261297 2.90154415329 0.35761568913 0.48563633321 2.90305413861 0.37058690361 0.50698570571 2.90446264081 0.38729305675 0.52922711508 2.90572796592 0.33217538675 0.36043585602 2.90615710376 0.33210665654 0.37559667185 2.90765106649 0.33255495145 0.39159310609 2.90923753152 0.33404412306 0.40841988092 2.91088412803 0.33709802294 0.42607171849 2.91255848520 0.34224050263 0.44454334096 2.91422823223 0.34999541372 0.46382947049 2.91586099828 0.36088660776 0.48392482925 2.91742441256 0.37543793632 0.50482413939 2.91888610425 0.39417325095 0.52652212307 2.92021370253 0.33225708170 0.35900128321 2.91992715732 0.33218702910 0.37414664061 2.92155008862 0.33263587300 0.39012062266 2.92324342432 0.33413028885 0.40691039460 2.92498397530 0.33719695211 0.42450312170 2.92674855244 0.34236253824 0.44288596920 2.92851396664 0.35015372271 0.46204610236 2.93025702876 0.36109718095 0.48197068644 2.93195454970 0.37571958845 0.50264688669 2.93358334034 0.39454762064 0.52406186837 2.93512021156 0.33233373889 0.35806052582 2.93349317096 0.33225870377 0.37272244910 2.93527300459 0.33264658019 0.38835344131 2.93709968704 0.33397184817 0.40491600034 2.93896084156 0.33670898774 0.42237262405 2.94084409144 0.34133247894 0.44068581031 2.94273705994 0.34831680180 0.45981805700 2.94462737033 0.35813643635 0.47973186198 2.94650264588 0.37126586262 0.50038972312 2.94835050985 0.38817956065 0.52175413830 2.95015858553 0.33240265827 0.35766637624 2.94635019797 0.33231989664 0.37136130511 2.94846448455 0.33258390703 0.38631589087 2.95056506858 0.33356005693 0.40244963752 2.95265378852 0.33561371385 0.41968204906 2.95473248286 0.33911024527 0.43793262950 2.95680299005 0.34441501868 0.45712088282 2.95886714859 0.35189340158 0.47716631304 2.96092679693 0.36191076147 0.49798842416 2.96298377356 0.37483246583 0.51950672017 2.96503991695 0.33246113979 0.35787162684 2.95799329163 0.33236882378 0.37010041646 2.96076919864 0.33244468752 0.38403230014 2.96339831785 0.33288617106 0.39952424552 2.96590187788 0.33389071446 0.41643322024 2.96830110735 0.33565575776 0.43461619194 2.97061723490 0.33837874102 0.45393012826 2.97287148915 0.34225710428 0.47423199684 2.97508509872 0.34748828760 0.49537876530 2.97727929225 0.35426973102 0.51722740130 2.97947529835 0.33250648341 0.35872907003 2.96791750523 0.33240370128 0.36897699096 2.97183181700 0.33222575566 0.38152699793 2.97535818375 0.33194144646 0.39615276372 2.97854417133 0.33151957359 0.41262796110 2.98143734560 0.33092893697 0.43072626285 2.98408527241 0.33013833649 0.45022134175 2.98653551762 0.32911657208 0.47088687055 2.98883564710 0.32783244363 0.49249652204 2.99103322668 0.32625475107 0.51482396900 2.99317582225 </DataArray>
</Points>
</Piece>
</StructuredGrid>
</VTKFile>
