<?xml version="1.0"?>
<VTKFile type="StructuredGrid" version="0.1">
<StructuredGrid WholeExtent="0 9 0 9 0 9">
<Piece Extent="0 9 0 9 0 9">
<PointData>
<DataArray type="Float32" Name="Deformation" format="ascii" NumberOfComponents="3">
0.00007040808 0.00027591530 -0.00363434709 0.00006974144 0.00030288819 -0.00364089263 0.00006441494 0.00032517536 -0.00364574259 0.00005543454 0.00034267525 -0.00364938500 0.00004380620 0.00035528631 -0.00365230788 0.00003053589 0.00036290699 -0.00365499925 0.00001662956 0.00036543575 -0.00365794714 0.00000309319 0.00036277102 -0.00366163957 -0.00000906728 0.00035481126 -0.00366656457 -0.00001884587 0.00034145492 -0.00367321015 0.00008341248 0.00028063739 -0.00362756065 0.00008163121 0.00031422338 -0.00363570858 0.00007484139 0.00034174435 -0.00364183899 0.00006410621 0.00036346939 -0.00364630445 0.00005048887 0.00037966755 -0.00364945752 0.00003505254 0.00039060793 -0.00365165075 0.00001886043 0.00039655958 -0.00365323672 0.00000297571 0.00039779160 -0.00365456797 -0.00001153842 0.00039457305 -0.00365599708 -0.00002361878 0.00038717300 -0.00365787660 0.00010037801 0.00029397224 -0.00361915319 0.00009781278 0.00033473121 -0.00362929248 0.00008935424 0.00036790042 -0.00363711196 0.00007626711 0.00039409928 -0.00364284632 0.00005981606 0.00041394722 -0.00364673023 0.00004126579 0.00042806364 -0.00364899836 0.00002188098 0.00043706797 -0.00364988538 0.00000292634 0.00044157961 -0.00364962597 -0.00001433345 0.00044221799 -0.00364845478 -0.00002863370 0.00043960251 -0.00364660651 0.00012133556 0.00031628438 -0.00360923146 0.00011762130 0.00036408456 -0.00362209586 0.00010695749 0.00040274413 -0.00363214825 0.00009087441 0.00043320444 -0.00363957071 0.00007090237 0.00045640685 -0.00364454531 0.00004857166 0.00047329273 -0.00364725413 0.00002541258 0.00048480345 -0.00364787924 0.00000295542 0.00049188037 -0.00364660272 -0.00001726951 0.00049546485 -0.00364360663 -0.00003373192 0.00049649826 -0.00363907306 0.00014631603 0.00034793834 -0.00359790218 0.00014039195 0.00040195635 -0.00361457025 0.00012665510 0.00044537609 -0.00362753459 0.00010688530 0.00047942436 -0.00363703770 0.00008286239 0.00050532799 -0.00364332205 0.00005636620 0.00052431379 -0.00364663012 0.00002917656 0.00053760858 -0.00364720441 0.00000307329 0.00054643917 -0.00364528740 -0.00002016376 0.00055203240 -0.00364112158 -0.00003875477 0.00055561507 -0.00363494942 0.00017535032 0.00038929866 -0.00358527211 0.00016545989 0.00044801947 -0.00360716720 0.00014745106 0.00049489688 -0.00362385776 0.00012325697 0.00053139856 -0.00363580739 0.00009481073 0.00055899218 -0.00364347973 0.00006404545 0.00057914540 -0.00364733839 0.00003289426 0.00059332590 -0.00364784700 0.00000329028 0.00060300135 -0.00364546919 -0.00002283337 0.00060963941 -0.00364066857 -0.00004354357 0.00061470775 -0.00363390876 0.00020846933 0.00044072989 -0.00357144796 0.00019216027 0.00050194682 -0.00360033824 0.00016834936 0.00055040710 -0.00362170448 0.00013894660 0.00058776654 -0.00363643988 0.00010586196 0.00061568096 -0.00364543765 0.00007100545 0.00063580617 -0.00364959100 0.00003628705 0.00064979798 -0.00364979313 0.00000361674 0.00065931220 -0.00364693724 -0.00002509548 0.00066600464 -0.00364191655 -0.00004793963 0.00067153113 -0.00363562426 0.00024570396 0.00050259656 -0.00355653650 0.00021982826 0.00056341129 -0.00359453491 0.00018835397 0.00061100733 -0.00362166152 0.00015291136 0.00064716781 -0.00363949526 0.00011513070 0.00067367588 -0.00364961511 0.00007664225 0.00069231468 -0.00365360000 0.00003907626 0.00070486735 -0.00365302889 0.00000406300 0.00071311703 -0.00364948074 -0.00002676726 0.00071884687 -0.00364453449 -0.00005178427 0.00072384001 -0.00363976910 0.00028708510 0.00057526320 -0.00354064444 0.00024779901 0.00063208579 -0.00359020874 0.00020646888 0.00067579816 -0.00362431561 0.00016410846 0.00070824187 -0.00364553364 0.00012173154 0.00073125848 -0.00365643139 0.00008035187 0.00074668953 -0.00365957745 0.00004098324 0.00075637657 -0.00365754041 0.00000463940 0.00076216117 -0.00365288884 -0.00002766587 0.00076588486 -0.00364819133 -0.00005491880 0.00076938921 -0.00364601645 0.00033264366 0.00065909437 -0.00352387854 0.00027540770 0.00070764321 -0.00358781128 0.00022169806 0.00074388019 -0.00363025352 0.00017149507 0.00076962824 -0.00365511509 0.00012477906 0.00078671030 -0.00366630578 0.00008153037 0.00079694931 -0.00366773541 0.00004172933 0.00080216820 -0.00366331379 0.00000535628 0.00080418991 -0.00365695072 -0.00002760846 0.00080483738 -0.00365255602 -0.00005718455 0.00080593355 -0.00365403948 0.00006954386 0.00030347021 -0.00364376246 0.00006685966 0.00031787558 -0.00364827094 0.00006053722 0.00033055078 -0.00365159066 0.00005132536 0.00034099699 -0.00365416644 0.00003997292 0.00034871539 -0.00365644308 0.00002722873 0.00035320717 -0.00365886537 0.00001384162 0.00035397351 -0.00366187814 0.00000056043 0.00035051560 -0.00366592618 -0.00001186602 0.00034233461 -0.00367145429 -0.00002268889 0.00032893174 -0.00367890730 0.00008292963 0.00031705107 -0.00363965488 0.00007902706 0.00033684060 -0.00364462088 0.00007120041 0.00035370771 -0.00364841110 0.00006023405 0.00036751806 -0.00365125638 0.00004691237 0.00037813733 -0.00365338756 0.00003201975 0.00038543116 -0.00365503546 0.00001634056 0.00038926524 -0.00365643092 0.00000065920 0.00038950523 -0.00365780477 -0.00001423996 0.00038601678 -0.00365938784 -0.00002757254 0.00037866557 -0.00366141097 0.00009995106 0.00033933949 -0.00363404514 0.00009476194 0.00036446465 -0.00363996911 0.00008501781 0.00038559207 -0.00364465671 0.00007164924 0.00040287541 -0.00364817613 0.00005558679 0.00041646834 -0.00365059557 0.00003776104 0.00042652452 -0.00365198322 0.00001910255 0.00043319761 -0.00365240727 0.00000054189 0.00043664129 -0.00365193591 -0.00001699036 0.00043700920 -0.00365063734 -0.00003256364 0.00043445501 -0.00364857975 0.00012047025 0.00037045673 -0.00362723768 0.00011354852 0.00040050274 -0.00363481221 0.00010132288 0.00042559635 -0.00364088466 0.00008492743 0.00044611614 -0.00364543967 0.00006549627 0.00046244073 -0.00364846190 0.00004416349 0.00047494872 -0.00364993600 0.00002206318 0.00048401871 -0.00364984662 0.00000032943 0.00049002932 -0.00364817840 -0.00001990365 0.00049335915 -0.00364491601 -0.00003750199 0.00049438679 -0.00364004409 0.00014434928 0.00041052406 -0.00361953698 0.00013487098 0.00044470992 -0.00362964676 0.00011944905 0.00047311305 -0.00363765210 0.00009942513 0.00049628737 -0.00364356097 0.00007614089 0.00051478679 -0.00364738132 0.00005093797 0.00052916523 -0.00364912114 0.00002515803 0.00053997662 -0.00364878839 0.00000014273 0.00054777488 -0.00364639104 -0.00002276629 0.00055311392 -0.00364193706 -0.00004222736 0.00055654765 -0.00363543441 0.00017145025 0.00045966276 -0.00361124750 0.00015821356 0.00049684121 -0.00362496934 0.00013872978 0.00052753468 -0.00363551620 0.00011449886 0.00055243620 -0.00364305399 0.00008702074 0.00057223881 -0.00364774862 0.00005779537 0.00058763555 -0.00364976600 0.00002832271 0.00059931943 -0.00364927204 0.00000010270 0.00060798351 -0.00364643263 -0.00002536470 0.00061432080 -0.00364141370 -0.00004657954 0.00061902434 -0.00363438114 0.00020163523 0.00051799410 -0.00360267370 0.00018306046 0.00055665163 -0.00362127651 0.00015849852 0.00058825373 -0.00363503410 0.00012950511 0.00061360976 -0.00364443272 0.00009763590 0.00063352911 -0.00364995858 0.00006444657 0.00064882114 -0.00365209793 0.00003149280 0.00066029523 -0.00365133698 0.00000033028 0.00066876075 -0.00364816198 -0.00002748532 0.00067502707 -0.00364305916 -0.00005039831 0.00067990358 -0.00363651473 0.00023476632 0.00058563934 -0.00359412006 0.00020889588 0.00062389621 -0.00361906486 0.00017808872 0.00065466270 -0.00363676298 0.00014380040 0.00067885516 -0.00364821112 0.00010748646 0.00069738996 -0.00365440598 0.00007060244 0.00071118348 -0.00365634426 0.00003460389 0.00072115209 -0.00365502267 0.00000094636 0.00072821215 -0.00365143789 -0.00002891460 0.00073328004 -0.00364658664 -0.00005352346 0.00073727212 -0.00364146561 0.00027070560 0.00066271976 -0.00358589104 0.00023520403 0.00069832999 -0.00361883097 0.00019683383 0.00072615409 -0.00364125998 0.00015674124 0.00074721950 -0.00365490317 0.00011607250 0.00076255367 -0.00366148560 0.00007597387 0.00077318406 -0.00366273236 0.00003759158 0.00078013811 -0.00366036852 0.00000207188 0.00078444326 -0.00365611916 -0.00002943898 0.00078712698 -0.00365170936 -0.00005579475 0.00078921670 -0.00364886420 0.00030931516 0.00074935662 -0.00357829110 0.00026146913 0.00077970799 -0.00362107140 0.00021406729 0.00080212040 -0.00364908227 0.00016768413 0.00081774991 -0.00366502284 0.00012289412 0.00082775254 -0.00367159223 0.00008027173 0.00083328435 -0.00367148957 0.00004039145 0.00083550136 -0.00366741399 0.00000382775 0.00083555963 -0.00366206460 -0.00002884489 0.00083461518 -0.00365814055 -0.00005705199 0.00083382406 -0.00365834095 0.00006737341 0.00032440876 -0.00365066612 0.00006326171 0.00033016070 -0.00365373772 0.00005632171 0.00033598705 -0.00365598294 0.00004709074 0.00034120014 -0.00365781043 0.00003610612 0.00034511231 -0.00365962884 0.00002390516 0.00034703590 -0.00366184679 0.00001102519 0.00034628323 -0.00366487294 -0.00000199647 0.00034216666 -0.00366911592 -0.00001462249 0.00033399851 -0.00367498438 -0.00002631557 0.00032109112 -0.00368288695 0.00008087733 0.00034490109 -0.00364822479 0.00007547991 0.00035485357 -0.00365102482 0.00006700363 0.00036394554 -0.00365321413 0.00005600850 0.00037180167 -0.00365493921 0.00004305450 0.00037804666 -0.00365634654 0.00002870162 0.00038230516 -0.00365758263 0.00001350985 0.00038420187 -0.00365879395 -0.00000196080 0.00038336147 -0.00366012700 -0.00001715036 0.00037940861 -0.00366172826 -0.00003149883 0.00037196800 -0.00366374423 0.00009760967 0.00037407552 -0.00364449164 0.00009060614 0.00038787305 -0.00364756169 0.00008006886 0.00040011721 -0.00365010740 0.00006666603 0.00041065131 -0.00365208720 0.00005106582 0.00041931867 -0.00365345952 0.00003393643 0.00042596263 -0.00365418281 0.00001594603 0.00043042649 -0.00365421549 -0.00000223718 0.00043255358 -0.00365351600 -0.00001994503 0.00043218722 -0.00365204278 -0.00003650931 0.00042917074 -0.00364975427 0.00011735250 0.00041188471 -0.00363989505 0.00010826148 0.00042900628 -0.00364385950 0.00009510632 0.00044406319 -0.00364718269 0.00007871493 0.00045704631 -0.00364972192 0.00005991525 0.00046794654 -0.00365133451 0.00003953519 0.00047675476 -0.00365187777 0.00001840268 0.00048346187 -0.00365120903 -0.00000265435 0.00048805874 -0.00364918560 -0.00002280799 0.00049053627 -0.00364566479 -0.00004123030 0.00049088534 -0.00364050391 0.00013988788 0.00045828134 -0.00363486342 0.00012806701 0.00047804040 -0.00364042940 0.00011170491 0.00049534461 -0.00364495988 0.00009180681 0.00051028396 -0.00364831084 0.00006937794 0.00052294844 -0.00365033822 0.00004542352 0.00053342806 -0.00365089798 0.00002094878 0.00054181281 -0.00364984609 -0.00000304105 0.00054819269 -0.00364703849 -0.00002554074 0.00055265769 -0.00364233114 -0.00004554507 0.00055529781 -0.00363558001 0.00016499789 0.00051321808 -0.00362982510 0.00014964381 0.00053476254 -0.00363778252 0.00012945357 0.00055352259 -0.00364395891 0.00010559327 0.00056966151 -0.00364832147 0.00007922905 0.00058334256 -0.00365083739 0.00005152701 0.00059472900 -0.00365147388 0.00002365328 0.00060398412 -0.00365019813 -0.00000322602 0.00061127117 -0.00364697734 -0.00002794479 0.00061675342 -0.00364177870 -0.00004933689 0.00062059415 -0.00363456943 0.00019246458 0.00057664760 -0.00362520849 0.00017261295 0.00059895983 -0.00363643004 0.00014794120 0.00061815827 -0.00364469968 0.00011972592 0.00063447624 -0.00365022130 0.00008924375 0.00064814707 -0.00365319875 0.00005777129 0.00065940407 -0.00365383591 0.00002658516 0.00066848058 -0.00365233665 -0.00000303801 0.00067560991 -0.00364890483 -0.00002982162 0.00068102540 -0.00364374433 -0.00005248904 0.00068496036 -0.00363705902 0.00022207002 0.00064852256 -0.00362144197 0.00019659552 0.00067041941 -0.00363688309 0.00016675672 0.00068881277 -0.00364770211 0.00013385636 0.00070402543 -0.00365447782 0.00009919718 0.00071638016 -0.00365778902 0.00006408194 0.00072619975 -0.00365821453 0.00002981338 0.00073380699 -0.00365633314 -0.00000230577 0.00073952466 -0.00365272366 -0.00003097274 0.00074367556 -0.00364796489 -0.00005488480 0.00074658245 -0.00364263564 0.00025359628 0.00072879564 -0.00361895390 0.00022121259 0.00074892842 -0.00363965284 0.00018548905 0.00076504722 -0.00365348610 0.00014763619 0.00077760633 -0.00366155852 0.00010886452 0.00078706000 -0.00366497494 0.00007038459 0.00079386252 -0.00366484018 0.00003340690 0.00079846815 -0.00366225909 -0.00000085802 0.00080133116 -0.00365833649 -0.00003119964 0.00080290583 -0.00365417723 -0.00005640745 0.00080364642 -0.00365088614 0.00028682542 0.00081741951 -0.00361817267 0.00024608523 0.00083427398 -0.00364525043 0.00020372711 0.00084642275 -0.00366257158 0.00016071701 0.00085451622 -0.00367193091 0.00011802093 0.00085920479 -0.00367512322 0.00007660483 0.00086113887 -0.00367394331 0.00003743468 0.00086096886 -0.00367018598 0.00000147647 0.00085934515 -0.00366564602 -0.00003030383 0.00085691815 -0.00366211822 -0.00005694025 0.00085433827 -0.00366139739 0.00006417140 0.00033970055 -0.00365546397 0.00005913674 0.00034004079 -0.00365758759 0.00005189556 0.00034134159 -0.00365912716 0.00004281530 0.00034289035 -0.00366045994 0.00003226338 0.00034397446 -0.00366196323 0.00002060724 0.00034388132 -0.00366401429 0.00000821432 0.00034189833 -0.00366699042 -0.00000454795 0.00033731289 -0.00367126887 -0.00001731215 0.00032941240 -0.00367722695 -0.00002971084 0.00031748426 -0.00368524191 0.00007756231 0.00036539590 -0.00365386817 0.00007120452 0.00036883270 -0.00365532649 0.00006240492 0.00037258989 -0.00365651057 0.00005154664 0.00037618279 -0.00365751355 0.00003901284 0.00037912671 -0.00365842859 0.00002518666 0.00038093695 -0.00365934882 0.00001045127 0.00038112883 -0.00366036741 -0.00000481020 0.00037921765 -0.00366157750 -0.00002021459 0.00037471872 -0.00366307224 -0.00003537876 0.00036714734 -0.00366494478 0.00009373113 0.00039966869 -0.00365125822 0.00008559849 0.00040577084 -0.00365257932 0.00007468130 0.00041181652 -0.00365378230 0.00006144639 0.00041746731 -0.00365476327 0.00004636059 0.00042238483 -0.00365541834 0.00002989073 0.00042623064 -0.00365564364 0.00001250364 0.00042866637 -0.00365533529 -0.00000533386 0.00042935358 -0.00365438939 -0.00002315493 0.00042795389 -0.00365270208 -0.00004049275 0.00042412887 -0.00365016946 0.00011244757 0.00044236133 -0.00364812419 0.00010206053 0.00045063428 -0.00364984628 0.00008850244 0.00045865231 -0.00365141855 0.00007237077 0.00046616407 -0.00365262947 0.00005426295 0.00047291819 -0.00365326757 0.00003477645 0.00047866332 -0.00365312132 0.00001450872 0.00048314811 -0.00365197922 -0.00000594281 0.00048612118 -0.00364962978 -0.00002598066 0.00048733120 -0.00364586148 -0.00004500740 0.00048652678 -0.00364046283 0.00013348133 0.00049331629 -0.00364495614 0.00012033251 0.00050320208 -0.00364762758 0.00010364606 0.00051272810 -0.00364989553 0.00008417597 0.00052169319 -0.00365153258 0.00006267623 0.00052989618 -0.00365231133 0.00003990084 0.00053713591 -0.00365200440 0.00001660380 0.00054321122 -0.00365038438 -0.00000646091 0.00054792095 -0.00364722387 -0.00002853928 0.00055106393 -0.00364229547 -0.00004887732 0.00055243901 -0.00363537179 0.00015660211 0.00055237598 -0.00364224416 0.00014015633 0.00056325331 -0.00364642343 0.00011988987 0.00057367473 -0.00364968945 0.00009671819 0.00058347483 -0.00365189296 0.00007155673 0.00059248817 -0.00365288471 0.00004532091 0.00060054932 -0.00365251545 0.00001892617 0.00060749286 -0.00365063592 -0.00000671203 0.00061315335 -0.00364709687 -0.00003067828 0.00061736537 -0.00364174905 -0.00005205712 0.00061996349 -0.00363444321 0.00018157963 0.00061938285 -0.00364047829 0.00016127385 0.00063056701 -0.00364673404 0.00013701161 0.00064112303 -0.00365127654 0.00010985365 0.00065092913 -0.00365413104 0.00008086075 0.00065986354 -0.00365532278 0.00005109366 0.00066780449 -0.00365487702 0.00002161313 0.00067463020 -0.00365281902 -0.00000652006 0.00068021890 -0.00364917401 -0.00003224516 0.00068444881 -0.00364396724 -0.00005450140 0.00068719816 -0.00363722398 0.00020818358 0.00069417934 -0.00364014860 0.00018342697 0.00070492225 -0.00364905960 0.00015478898 0.00071470382 -0.00365513299 0.00012343855 0.00072347623 -0.00365866718 0.00009054461 0.00073119167 -0.00365996061 0.00005727610 0.00073780233 -0.00365931168 0.00002480197 0.00074326040 -0.00365701883 -0.00000570885 0.00074751806 -0.00365338049 -0.00003308740 0.00075052751 -0.00364869506 -0.00005616477 0.00075224094 -0.00364326098 0.00023618367 0.00077660788 -0.00364174517 0.00020635757 0.00078609810 -0.00365390034 0.00017299972 0.00079404795 -0.00366173502 0.00013732908 0.00080053628 -0.00366592181 0.00010056460 0.00080564193 -0.00366713326 0.00006392525 0.00080944376 -0.00366604198 0.00002862997 0.00081202061 -0.00366332054 -0.00000410227 0.00081345134 -0.00365964153 -0.00003305252 0.00081381478 -0.00365567752 -0.00005700182 0.00081318978 -0.00365210110 0.00026534960 0.00086651091 -0.00364575805 0.00022980751 0.00087387361 -0.00366175645 0.00019142154 0.00087878625 -0.00367155885 0.00015138145 0.00088152942 -0.00367631529 0.00011087705 0.00088238371 -0.00367717582 0.00007109811 0.00088162972 -0.00367529048 0.00003323443 0.00087954802 -0.00367180930 -0.00000152420 0.00087641921 -0.00366788234 -0.00003198799 0.00087252388 -0.00366465963 -0.00005696717 0.00086814261 -0.00366329122 0.00006021255 0.00035031519 -0.00365856190 0.00005467392 0.00034781311 -0.00366011519 0.00004738589 0.00034647185 -0.00366123105 0.00003858362 0.00034567327 -0.00366225793 0.00002850229 0.00034479923 -0.00366354430 0.00001737705 0.00034323160 -0.00366543864 0.00000544307 0.00034035223 -0.00366828941 -0.00000706449 0.00033554299 -0.00367244509 -0.00001991044 0.00032818574 -0.00367825413 -0.00003285964 0.00031766233 -0.00368606502 0.00007329133 0.00037974397 -0.00365718284 0.00006641570 0.00037934840 -0.00365793200 0.00005755810 0.00037977282 -0.00365856292 0.00004696554 0.00038052398 -0.00365914004 0.00003488497 0.00038110864 -0.00365972779 0.00002156339 0.00038103355 -0.00366039060 0.00000724778 0.00037980545 -0.00366119290 -0.00000781489 0.00037693110 -0.00366219910 -0.00002337762 0.00037191726 -0.00366347366 -0.00003919344 0.00036427067 -0.00366508099 0.00008869277 0.00041760735 -0.00365511040 0.00007999214 0.00041897242 -0.00365553107 0.00006902904 0.00042103067 -0.00365599964 0.00005611924 0.00042336376 -0.00365638806 0.00004157855 0.00042555340 -0.00365656828 0.00002572274 0.00042718126 -0.00365641226 0.00000886759 0.00042782903 -0.00365579194 -0.00000867110 0.00042707838 -0.00365457927 -0.00002657755 0.00042451102 -0.00365264622 -0.00004453598 0.00041970861 -0.00364986472 0.00010622075 0.00046367961 -0.00365284568 0.00009524599 0.00046642582 -0.00365338109 0.00008170589 0.00046987136 -0.00365396845 0.00006602879 0.00047363851 -0.00365437438 0.00004864304 0.00047734957 -0.00365436552 0.00002997696 0.00048062685 -0.00365370848 0.00001045890 0.00048309263 -0.00365216990 -0.00000948281 0.00048436922 -0.00364951641 -0.00002941984 0.00048407891 -0.00364551462 -0.00004892383 0.00048184401 -0.00363993118 0.00012567914 0.00051773500 -0.00365088981 0.00011201996 0.00052144925 -0.00365195075 0.00009549586 0.00052592088 -0.00365289661 0.00007667823 0.00053079412 -0.00365347143 0.00005613846 0.00053571322 -0.00365341926 0.00003444794 0.00054032241 -0.00365248416 0.00001217809 0.00054426592 -0.00365041016 -0.00001009971 0.00054718799 -0.00364694132 -0.00003181406 0.00054873286 -0.00364182169 -0.00005239357 0.00054854475 -0.00363479532 0.00014687181 0.00057954781 -0.00364974388 0.00013015681 0.00058378334 -0.00365170873 0.00011030616 0.00058880519 -0.00365321137 0.00008805159 0.00059427650 -0.00365405161 0.00006412482 0.00059986042 -0.00365402927 0.00003925757 0.00060522007 -0.00365294415 0.00001418156 0.00061001858 -0.00365059606 -0.00001037148 0.00061391910 -0.00364678482 -0.00003366982 0.00061658475 -0.00364131023 -0.00005498176 0.00061767867 -0.00363397210 0.00016960264 0.00064889231 -0.00364990903 0.00014949925 0.00065316874 -0.00365312371 0.00012604398 0.00065815027 -0.00365533999 0.00010013292 0.00066353156 -0.00365648735 0.00007266214 0.00066900723 -0.00365649530 0.00004452771 0.00067427192 -0.00365529335 0.00001662571 0.00067902027 -0.00365281099 -0.00001014779 0.00068294692 -0.00364897772 -0.00003489671 0.00068574650 -0.00364372305 -0.00005672498 0.00068711365 -0.00363697648 0.00019367551 0.00072554278 -0.00365188635 0.00016989002 0.00072934610 -0.00365666439 0.00014261654 0.00073358210 -0.00365970971 0.00011290627 0.00073800518 -0.00366115105 0.00008181044 0.00074236971 -0.00366111711 0.00005038025 0.00074643007 -0.00365973662 0.00001966692 0.00074994065 -0.00365713828 -0.00000927834 0.00075265584 -0.00365345083 -0.00003540432 0.00075433001 -0.00364880297 -0.00005765981 0.00075471754 -0.00364332343 0.00021889428 0.00080927348 -0.00365617698 0.00019117185 0.00081205606 -0.00366279943 0.00015993102 0.00081472666 -0.00366674780 0.00012635568 0.00081714327 -0.00366841512 0.00009162973 0.00081916393 -0.00366819446 0.00005693707 0.00082064663 -0.00366647884 0.00002346159 0.00082144940 -0.00366366133 -0.00000761281 0.00082143025 -0.00366013497 -0.00003510225 0.00082044718 -0.00365629280 -0.00005782281 0.00081835822 -0.00365252789 0.00024506284 0.00089985869 -0.00366328201 0.00021318747 0.00090103928 -0.00367199754 0.00017789463 0.00090120991 -0.00367688151 0.00014046519 0.00090039174 -0.00367865199 0.00010218003 0.00089860596 -0.00367802709 0.00006432004 0.00089587371 -0.00367572489 0.00002816611 0.00089221618 -0.00367246348 -0.00000500089 0.00088765453 -0.00366896094 -0.00003390008 0.00088220993 -0.00366593536 -0.00005725056 0.00087590354 -0.00366410483 0.00005577153 0.00035722229 -0.00366036577 0.00005006240 0.00035377488 -0.00366161514 0.00004291983 0.00035123523 -0.00366250235 0.00003448033 0.00034915454 -0.00366334736 0.00002488042 0.00034708402 -0.00366447012 0.00001425663 0.00034457489 -0.00366619061 0.00000274548 0.00034117836 -0.00366882879 -0.00000951651 0.00033644564 -0.00367270462 -0.00002239282 0.00032992796 -0.00367813806 -0.00003574693 0.00032117651 -0.00368544909 0.00006837111 0.00038915376 -0.00365876662 0.00006132821 0.00038697110 -0.00365924742 0.00005261705 0.00038562639 -0.00365963367 0.00004238228 0.00038468783 -0.00365997931 0.00003076849 0.00038372362 -0.00366033828 0.00001792030 0.00038230197 -0.00366076454 0.00000398235 0.00037999109 -0.00366131202 -0.00001090076 0.00037635917 -0.00366203466 -0.00002658441 0.00037097441 -0.00366298642 -0.00004292397 0.00036340503 -0.00366422124 0.00008287188 0.00042937988 -0.00365681371 0.00007404022 0.00042829223 -0.00365692603 0.00006328598 0.00042810034 -0.00365707768 0.00005081350 0.00042838100 -0.00365714532 0.00003682713 0.00042871100 -0.00365700560 0.00002153122 0.00042866715 -0.00365653518 0.00000513010 0.00042782625 -0.00365561070 -0.00001217188 0.00042576507 -0.00365410882 -0.00003017037 0.00042206044 -0.00365190618 -0.00004866104 0.00041628913 -0.00364887945 0.00009913730 0.00047763253 -0.00365498015 0.00008811818 0.00047742001 -0.00365507248 0.00007491129 0.00047822799 -0.00365520861 0.00005982286 0.00047963876 -0.00365516867 0.00004315915 0.00048123459 -0.00365473280 0.00002522639 0.00048259778 -0.00365368113 0.00000633084 0.00048331062 -0.00365179381 -0.00001322126 0.00048295540 -0.00364885096 -0.00003312367 0.00048111440 -0.00364463273 -0.00005307014 0.00047736991 -0.00363891925 0.00011703081 0.00053364359 -0.00365373905 0.00010348185 0.00053403618 -0.00365410832 0.00008747769 0.00053558026 -0.00365440071 0.00006945922 0.00053786581 -0.00365437266 0.00004986730 0.00054048280 -0.00365378061 0.00002914282 0.00054302121 -0.00365238101 0.00000772665 0.00054507101 -0.00364993032 -0.00001394033 0.00054622217 -0.00364618498 -0.00003541725 0.00054606467 -0.00364090144 -0.00005626323 0.00054418849 -0.00363383616 0.00013641585 0.00059714493 -0.00365356351 0.00012005095 0.00059782246 -0.00365445508 0.00010096988 0.00059972806 -0.00365502821 0.00007977143 0.00060246688 -0.00365508055 0.00005705438 0.00060564407 -0.00365440974 0.00003341752 0.00060886479 -0.00365281341 0.00000945963 0.00061173419 -0.00365008921 -0.00001422049 0.00061385742 -0.00364603476 -0.00003702407 0.00061483964 -0.00364044771 -0.00005835231 0.00061428600 -0.00363312569 0.00015715588 0.00066786844 -0.00365492667 0.00013774523 0.00066846059 -0.00365653427 0.00011537255 0.00067024230 -0.00365746535 0.00009080835 0.00067284667 -0.00365761565 0.00006482315 0.00067590682 -0.00365688093 0.00003818749 0.00067905588 -0.00365515695 0.00001167188 0.00068192696 -0.00365233945 -0.00001395315 0.00068415318 -0.00364832419 -0.00003791708 0.00068536766 -0.00364300691 -0.00005944937 0.00068520353 -0.00363628338 0.00017911433 0.00074554598 -0.00365830162 0.00015648444 0.00074563231 -0.00366076743 0.00013067040 0.00074669388 -0.00366208636 0.00010261884 0.00074840988 -0.00366230124 0.00007327640 0.00075045947 -0.00366145491 0.00004358973 0.00075252182 -0.00365959022 0.00001450548 0.00075427610 -0.00365675002 -0.00001302972 0.00075540148 -0.00365297714 -0.00003806923 0.00075557713 -0.00364831444 -0.00005966639 0.00075448221 -0.00364280475 0.00020215466 0.00082990945 -0.00366416148 0.00017618832 0.00082901933 -0.00366757610 0.00014684813 0.00082865373 -0.00366926548 0.00011525176 0.00082856123 -0.00366946059 0.00008251691 0.00082849045 -0.00366839239 0.00004976127 0.00082818998 -0.00366629183 0.00001810253 0.00082740841 -0.00366338989 -0.00001134162 0.00082589436 -0.00365991752 -0.00003745348 0.00082339640 -0.00365610567 -0.00005911536 0.00081966316 -0.00365218533 0.00022614030 0.00092069072 -0.00367297935 0.00019677661 0.00091830341 -0.00367738179 0.00016389043 0.00091569275 -0.00367937695 0.00012875596 0.00091270544 -0.00367941700 0.00009264744 0.00090918819 -0.00367795410 0.00005683909 0.00090498770 -0.00367544039 0.00002260512 0.00089995068 -0.00367232803 -0.00000878024 0.00089392383 -0.00366906919 -0.00003604277 0.00088675387 -0.00366611600 -0.00005790825 0.00087828748 -0.00366392063 0.00005112304 0.00036139146 -0.00366128148 0.00004549135 0.00035822338 -0.00366238207 0.00003862450 0.00035548918 -0.00366314881 0.00003059001 0.00035293980 -0.00366387119 0.00002145537 0.00035032621 -0.00366483875 0.00001128807 0.00034739933 -0.00366634098 0.00000015562 0.00034391013 -0.00366866741 -0.00001187449 0.00033960954 -0.00367210753 -0.00002473475 0.00033424851 -0.00367695088 -0.00003835766 0.00032757799 -0.00368348694 0.00006310839 0.00039483372 -0.00365921732 0.00005615683 0.00039227121 -0.00365967886 0.00004773562 0.00039028265 -0.00365998530 0.00003791393 0.00038853689 -0.00366019197 0.00002676097 0.00038670281 -0.00366035416 0.00001434591 0.00038444925 -0.00366052719 0.00000073795 0.00038144509 -0.00366076638 -0.00001399373 0.00037735917 -0.00366112702 -0.00002977993 0.00037186035 -0.00366166443 -0.00004655146 0.00036461751 -0.00366243393 0.00007664578 0.00043647462 -0.00365713368 0.00006799586 0.00043454467 -0.00365727327 0.00005762603 0.00043336621 -0.00365733466 0.00004565808 0.00043255935 -0.00365721878 0.00003221380 0.00043174424 -0.00365682655 0.00001741497 0.00043054101 -0.00365605893 0.00000138339 0.00042856980 -0.00365481683 -0.00001575915 0.00042545075 -0.00365300119 -0.00003389087 0.00042080397 -0.00365051296 -0.00005288998 0.00041424963 -0.00364725306 0.00009166250 0.00048601311 -0.00365544819 0.00008097745 0.00048465594 -0.00365552901 0.00006831328 0.00048422986 -0.00365551525 0.00005388683 0.00048433391 -0.00365522438 0.00003791493 0.00048456714 -0.00365447385 0.00002061443 0.00048452859 -0.00365308112 0.00000220217 0.00048381729 -0.00365086365 -0.00001710503 0.00048203229 -0.00364763890 -0.00003709032 0.00047877263 -0.00364322432 -0.00005753686 0.00047363736 -0.00363743737 0.00010808585 0.00054314815 -0.00365457851 0.00009507064 0.00054221717 -0.00365480973 0.00007981492 0.00054236361 -0.00365484542 0.00006266457 0.00054318732 -0.00365448151 0.00004396546 0.00054428815 -0.00365351396 0.00002406348 0.00054526594 -0.00365173872 0.00000330449 0.00054572055 -0.00364895174 -0.00001796563 0.00054525182 -0.00364494898 -0.00003940100 0.00054345960 -0.00363952637 -0.00006065575 0.00053994374 -0.00363247987 0.00012584312 0.00060757869 -0.00365494228 0.00011024445 0.00060684052 -0.00365547914 0.00009214849 0.00060725745 -0.00365564353 0.00007205568 0.00060844630 -0.00365526292 0.00005046647 0.00061002390 -0.00365416481 0.00002788128 0.00061160705 -0.00365217667 0.00000480058 0.00061281260 -0.00364912600 -0.00001827522 0.00061325735 -0.00364484027 -0.00004084566 0.00061255813 -0.00363914697 -0.00006241030 0.00061033177 -0.00363187359 0.00014486159 0.00067900368 -0.00365695715 0.00012646790 0.00067813816 -0.00365790092 0.00010533153 0.00067840139 -0.00365822794 0.00008212455 0.00067943760 -0.00365784136 0.00005751902 0.00068089102 -0.00365664431 0.00003218703 0.00068240589 -0.00365453991 0.00000680064 0.00068362644 -0.00365143131 -0.00001796807 0.00068419690 -0.00364722162 -0.00004144703 0.00068376150 -0.00364181399 -0.00006296416 0.00068196448 -0.00363511154 0.00016506855 0.00075712207 -0.00366104078 0.00014371004 0.00075572225 -0.00366243874 0.00011938160 0.00075528542 -0.00366291702 0.00009293555 0.00075548795 -0.00366248958 0.00006522421 0.00075600617 -0.00366117038 0.00003709989 0.00075651643 -0.00365897339 0.00000941490 0.00075669509 -0.00365591256 -0.00001697845 0.00075621849 -0.00365200188 -0.00004122784 0.00075476298 -0.00364725528 -0.00006248097 0.00075200489 -0.00364168675 0.00018639130 0.00084163282 -0.00366761080 0.00016193987 0.00083920494 -0.00366945630 0.00013431623 0.00083739955 -0.00367002912 0.00010455308 0.00083592408 -0.00366948031 0.00007368313 0.00083448597 -0.00366796094 0.00004273905 0.00083279265 -0.00366562204 0.00001275357 0.00083055156 -0.00366261467 -0.00001524063 0.00082747013 -0.00365908987 -0.00004021085 0.00082325581 -0.00365519871 -0.00006112439 0.00081761602 -0.00365109223 0.00020875713 0.00093223488 -0.00367708487 0.00018112644 0.00092819841 -0.00367931727 0.00015015298 0.00092423378 -0.00367988259 0.00011704152 0.00092007274 -0.00367908632 0.00008299683 0.00091544706 -0.00367723390 0.00004922369 0.00091008851 -0.00367463080 0.00001692686 0.00090372885 -0.00367158250 -0.00001268888 0.00089609985 -0.00366839446 -0.00003841878 0.00088693328 -0.00366537214 -0.00005905806 0.00087596089 -0.00366282101 0.00004654177 0.00036379232 -0.00366171491 0.00004114991 0.00036145583 -0.00366271061 0.00003462705 0.00035909111 -0.00366337815 0.00002699728 0.00035663472 -0.00366397241 0.00001828470 0.00035402319 -0.00366474824 0.00000851342 0.00035119309 -0.00366596052 -0.00000229247 0.00034808097 -0.00366786412 -0.00001410886 0.00034462337 -0.00367071389 -0.00002691166 0.00034075684 -0.00367476470 -0.00004067677 0.00033641795 -0.00368027141 0.00005780991 0.00039799232 -0.00365913275 0.00005111637 0.00039581914 -0.00365963240 0.00004306765 0.00039387365 -0.00365988031 0.00003367759 0.00039193375 -0.00365993865 0.00002296000 0.00038977737 -0.00365986954 0.00001092871 0.00038718241 -0.00365973514 -0.00000240246 0.00038392679 -0.00365959758 -0.00001701968 0.00037978844 -0.00365951901 -0.00003290914 0.00037454525 -0.00365956158 -0.00005005701 0.00036797516 -0.00365978743 0.00007039177 0.00044037993 -0.00365683582 0.00006211220 0.00043854417 -0.00365708190 0.00005222310 0.00043716895 -0.00365708885 0.00004078189 0.00043593916 -0.00365679218 0.00002784598 0.00043453972 -0.00365612740 0.00001347277 0.00043265552 -0.00365503003 -0.00000228033 0.00042997148 -0.00365343559 -0.00001935590 0.00042617249 -0.00365127958 -0.00003769653 0.00042094346 -0.00364849753 -0.00005724481 0.00041396929 -0.00364502494 0.00008426164 0.00049061436 -0.00365517041 0.00007412412 0.00048917270 -0.00365535920 0.00006210650 0.00048838462 -0.00365526457 0.00004835455 0.00048789309 -0.00365475353 0.00003301405 0.00048734113 -0.00365369311 0.00001623077 0.00048637171 -0.00365195031 -0.00000184950 0.00048462782 -0.00364939217 -0.00002108100 0.00048175245 -0.00364588570 -0.00004131794 0.00047738860 -0.00364129792 -0.00006241454 0.00047117926 -0.00363549585 0.00009939378 0.00054835480 -0.00365448284 0.00008713882 0.00054724650 -0.00365476440 0.00007273091 0.00054692825 -0.00365466831 0.00005643991 0.00054703770 -0.00365404325 0.00003853563 0.00054721248 -0.00365273793 0.00001928791 0.00054709024 -0.00365060106 -0.00000103340 0.00054630863 -0.00364748133 -0.00002215847 0.00054450528 -0.00364322744 -0.00004381747 0.00054131784 -0.00363768811 -0.00006574056 0.00053638396 -0.00363071204 0.00011576248 0.00061326045 -0.00365511941 0.00010114300 0.00061230734 -0.00365559759 0.00008410944 0.00061220746 -0.00365556088 0.00006508232 0.00061261511 -0.00365488186 0.00004448213 0.00061318465 -0.00365343315 0.00002272938 0.00061357041 -0.00365108736 0.00000024457 0.00061342672 -0.00364771708 -0.00002255180 0.00061240792 -0.00364319493 -0.00004523923 0.00061016833 -0.00363739350 -0.00006739723 0.00060636230 -0.00363018540 0.00013334203 0.00068499050 -0.00365742644 0.00011612335 0.00068389701 -0.00365815886 0.00009625516 0.00068362983 -0.00365820309 0.00007432614 0.00068386749 -0.00365748990 0.00005092499 0.00068428853 -0.00365595005 0.00002664037 0.00068457149 -0.00365351431 0.00000206099 0.00068439490 -0.00365011345 -0.00002222448 0.00068343729 -0.00364567824 -0.00004562734 0.00068137721 -0.00364013944 -0.00006755893 0.00067789320 -0.00363342782 0.00015210669 0.00076320415 -0.00366175023 0.00013206658 0.00076155728 -0.00366274830 0.00010918115 0.00076060298 -0.00366285578 0.00008421573 0.00076003699 -0.00366208790 0.00005793560 0.00075955500 -0.00366045990 0.00003110607 0.00075885276 -0.00365798700 0.00000449244 0.00075762597 -0.00365468445 -0.00002113999 0.00075557035 -0.00365056748 -0.00004502590 0.00075238164 -0.00364565132 -0.00006640001 0.00074775554 -0.00363995120 0.00017203075 0.00084756059 -0.00366843709 0.00014895938 0.00084482992 -0.00366966600 0.00012290051 0.00084253451 -0.00366977976 0.00009479543 0.00084036574 -0.00366889640 0.00006558539 0.00083801494 -0.00366713397 0.00003621165 0.00083517349 -0.00366461052 0.00000761550 0.00083153274 -0.00366144410 -0.00001926182 0.00082678404 -0.00365775275 -0.00004347902 0.00082061876 -0.00365365451 -0.00006409485 0.00081272824 -0.00364926743 0.00019308848 0.00093771903 -0.00367783333 0.00016678845 0.00093325670 -0.00367921206 0.00013742632 0.00092883202 -0.00367923584 0.00010610960 0.00092409589 -0.00367813592 0.00007394577 0.00091869924 -0.00367614355 0.00004204232 0.00091229298 -0.00367348996 0.00001150675 0.00090452803 -0.00367040641 -0.00001655345 0.00089505530 -0.00366712413 -0.00004103080 0.00088352573 -0.00366387438 -0.00006081781 0.00086959021 -0.00366088838 0.00004230241 0.00036539448 -0.00366207195 0.00003722726 0.00036376950 -0.00366289537 0.00003105459 0.00036189847 -0.00366339812 0.00002378674 0.00035984492 -0.00366379396 0.00001542601 0.00035767237 -0.00366429666 0.00000597475 0.00035544432 -0.00366512001 -0.00000456473 0.00035322430 -0.00366647778 -0.00001619010 0.00035107582 -0.00366858373 -0.00002889903 0.00034906241 -0.00367165165 -0.00004268920 0.00034724757 -0.00367589532 0.00005278241 0.00039983801 -0.00365911073 0.00004642158 0.00039818532 -0.00365951413 0.00003876700 0.00039653145 -0.00365958119 0.00002979031 0.00039474098 -0.00365937997 0.00001946317 0.00039267846 -0.00365897853 0.00000775722 0.00039020847 -0.00365844493 -0.00000535590 0.00038719556 -0.00365784723 -0.00001990452 0.00038350431 -0.00365725349 -0.00003591702 0.00037899928 -0.00365673177 -0.00005342173 0.00037354504 -0.00365635013 0.00006448717 0.00044258417 -0.00365668566 0.00005664238 0.00044110515 -0.00365686098 0.00004725111 0.00043984924 -0.00365665848 0.00003631386 0.00043856077 -0.00365604924 0.00002383112 0.00043698404 -0.00365500439 0.00000980339 0.00043486336 -0.00365349503 -0.00000576884 0.00043194304 -0.00365149225 -0.00002288508 0.00042796739 -0.00364896716 -0.00004154483 0.00042268070 -0.00364589088 -0.00006174759 0.00041582731 -0.00364223449 0.00007739997 0.00049322928 -0.00365506741 0.00006785851 0.00049200939 -0.00365517163 0.00005648557 0.00049119991 -0.00365483280 0.00004335987 0.00049048541 -0.00365396817 0.00002856013 0.00048955045 -0.00365249501 0.00001216508 0.00048807960 -0.00365033056 -0.00000574655 0.00048575741 -0.00364739208 -0.00002509605 0.00048226845 -0.00364359682 -0.00004580468 0.00047729728 -0.00363886204 -0.00006779373 0.00047052847 -0.00363310500 0.00009150410 0.00055136964 -0.00365452668 0.00008003886 0.00055037846 -0.00365468177 0.00006644905 0.00054993153 -0.00365430696 0.00005093086 0.00054969600 -0.00365330313 0.00003368048 0.00054933903 -0.00365157111 0.00001489413 0.00054852775 -0.00364901177 -0.00000523201 0.00054692933 -0.00364552595 -0.00002650172 0.00054421090 -0.00364101452 -0.00004871882 0.00054003962 -0.00363537832 -0.00007168709 0.00053408264 -0.00362851822 0.00010678283 0.00061660155 -0.00365533413 0.00009315229 0.00061569277 -0.00365562709 0.00007712019 0.00061539217 -0.00365528380 0.00005902931 0.00061537366 -0.00365422050 0.00003922244 0.00061531112 -0.00365235345 0.00001804234 0.00061487842 -0.00364959891 -0.00000416819 0.00061374947 -0.00364587311 -0.00002706638 0.00061159814 -0.00364109231 -0.00005030945 0.00060809832 -0.00363517276 -0.00007355462 0.00060292390 -0.00362803072 0.00012321946 0.00068852135 -0.00365776047 0.00010716766 0.00068743273 -0.00365824331 0.00008847765 0.00068692992 -0.00365796611 0.00006765775 0.00068669949 -0.00365688668 0.00004521627 0.00068642805 -0.00365496278 0.00002166156 0.00068580219 -0.00365215222 -0.00000249808 0.00068450849 -0.00364841278 -0.00002675431 0.00068223356 -0.00364370225 -0.00005059881 0.00067866398 -0.00363797843 -0.00007352326 0.00067348636 -0.00363119909 0.00014079726 0.00076672532 -0.00366207636 0.00012205385 0.00076507877 -0.00366276611 0.00010050009 0.00076389284 -0.00366255673 0.00007681866 0.00076285461 -0.00366146803 0.00005169227 0.00076165118 -0.00365951984 0.00002580359 0.00075996964 -0.00365673196 -0.00000016466 0.00075749707 -0.00365312421 -0.00002552980 0.00075392056 -0.00364871641 -0.00004960913 0.00074892721 -0.00364352836 -0.00007171996 0.00074220410 -0.00363757990 0.00015949951 0.00085080979 -0.00366855249 0.00013777972 0.00084811128 -0.00366943119 0.00011316616 0.00084562900 -0.00366925845 0.00008651456 0.00084302012 -0.00366813096 0.00005868068 0.00083994184 -0.00366614537 0.00003052028 0.00083605136 -0.00366339837 0.00000288909 0.00083100586 -0.00365998663 -0.00002335713 0.00082446255 -0.00365600683 -0.00004736263 0.00081607861 -0.00365155563 -0.00006827167 0.00080551124 -0.00364672972 0.00017930950 0.00094037106 -0.00367745955 0.00015431414 0.00093601070 -0.00367847425 0.00012645451 0.00093148648 -0.00367827411 0.00009674794 0.00092637713 -0.00367704183 0.00006621180 0.00092026137 -0.00367496012 0.00003586343 0.00091271794 -0.00367221170 0.00000672019 0.00090332554 -0.00366897928 -0.00002020059 0.00089166292 -0.00366544558 -0.00004388154 0.00087730879 -0.00366179329 -0.00006330532 0.00085984187 -0.00365820514 0.00003867965 0.00036716754 -0.00366275847 0.00003391254 0.00036546162 -0.00366323100 0.00002803426 0.00036376868 -0.00366341645 0.00002104298 0.00036217607 -0.00366347881 0.00001293688 0.00036077112 -0.00366358207 0.00000371413 0.00035964116 -0.00366389022 -0.00000662710 0.00035887354 -0.00366456724 -0.00001808863 0.00035855559 -0.00366577713 -0.00003067230 0.00035877464 -0.00366768388 -0.00004437991 0.00035961803 -0.00367045148 0.00004833262 0.00040157926 -0.00365974906 0.00004228726 0.00039994016 -0.00365973015 0.00003498752 0.00039838812 -0.00365935042 0.00002636919 0.00039682114 -0.00365867656 0.00001636806 0.00039513725 -0.00365777524 0.00000491994 0.00039323444 -0.00365671314 -0.00000803940 0.00039101073 -0.00365555692 -0.00002257415 0.00038836411 -0.00365437328 -0.00003874852 0.00038519261 -0.00365322888 -0.00005662671 0.00038139422 -0.00365219041 0.00005930927 0.00044457570 -0.00365744872 0.00005183952 0.00044304201 -0.00365711961 0.00004288395 0.00044174776 -0.00365636180 0.00003238289 0.00044046452 -0.00365517372 0.00002027667 0.00043896382 -0.00365355379 0.00000650562 0.00043701722 -0.00365150043 -0.00000898994 0.00043439628 -0.00364901206 -0.00002626967 0.00043087253 -0.00364608711 -0.00004539324 0.00042621755 -0.00364272399 -0.00006642033 0.00042020287 -0.00363892112 0.00007154278 0.00049565088 -0.00365605981 0.00006248097 0.00049420509 -0.00365557482 0.00005164515 0.00049318340 -0.00365459613 0.00003903666 0.00049227997 -0.00365308032 0.00002465684 0.00049118901 -0.00365098399 0.00000850705 0.00048960471 -0.00364826372 -0.00000941137 0.00048722125 -0.00364487611 -0.00002909707 0.00048373284 -0.00364077775 -0.00005054872 0.00047883366 -0.00363592522 -0.00007376496 0.00047221791 -0.00363027514 0.00008496631 0.00055429877 -0.00365578467 0.00007412325 0.00055286733 -0.00365527124 0.00006119270 0.00055203079 -0.00365419897 0.00004628305 0.00055144130 -0.00365250640 0.00002950272 0.00055075102 -0.00365013210 0.00001096011 0.00054961211 -0.00364701462 -0.00000923635 0.00054767673 -0.00364309251 -0.00003097826 0.00054459702 -0.00363830433 -0.00005415720 0.00054002515 -0.00363258863 -0.00007866478 0.00053361326 -0.00362588397 0.00009951304 0.00062001337 -0.00365682568 0.00008667803 0.00061846662 -0.00365638431 0.00007144820 0.00061762571 -0.00365531585 0.00005407464 0.00061712229 -0.00365356199 0.00003480843 0.00061658805 -0.00365106439 0.00001390068 0.00061565464 -0.00364776475 -0.00000839753 0.00061395375 -0.00364360472 -0.00003183510 0.00061111705 -0.00363852600 -0.00005616095 0.00060677620 -0.00363247025 -0.00008112398 0.00060056287 -0.00362537915 0.00011511613 0.00069228868 -0.00365938519 0.00010005694 0.00069044090 -0.00365908947 0.00008233324 0.00068930393 -0.00365809233 0.00006236399 0.00068849674 -0.00365635711 0.00004056813 0.00068763828 -0.00365384713 0.00001736462 0.00068634751 -0.00365052572 -0.00000682757 0.00068424341 -0.00364635619 -0.00003158951 0.00068094492 -0.00364130188 -0.00005650222 0.00067607101 -0.00363532611 -0.00008114676 0.00066924065 -0.00362839219 0.00013170877 0.00077061870 -0.00366366556 0.00011417165 0.00076822808 -0.00366356216 0.00009376943 0.00076640124 -0.00366267395 0.00007110367 0.00076473843 -0.00366100180 0.00004677594 0.00076283991 -0.00365854658 0.00002138782 0.00076030593 -0.00365530915 -0.00000445913 0.00075673674 -0.00365129037 -0.00003016335 0.00075173261 -0.00364649111 -0.00005512326 0.00074489379 -0.00364091224 -0.00007873730 0.00073582053 -0.00363455462 0.00014922411 0.00085449742 -0.00366986914 0.00012893379 0.00085126607 -0.00366997783 0.00010567834 0.00084825339 -0.00366920626 0.00008024625 0.00084502115 -0.00366760610 0.00005342602 0.00084113113 -0.00366522901 0.00002600615 0.00083614509 -0.00366212665 -0.00000122487 0.00082962483 -0.00365835071 -0.00002747852 0.00082113212 -0.00365395283 -0.00005196633 0.00081022873 -0.00364898468 -0.00007389978 0.00079647645 -0.00364349794 0.00016759534 0.00094341883 -0.00367819829 0.00014425503 0.00093899280 -0.00367851192 0.00011798157 0.00093419617 -0.00367783480 0.00008974429 0.00092851870 -0.00367628002 0.00006051249 0.00092145013 -0.00367396067 0.00003125548 0.00091248022 -0.00367098985 0.00000294258 0.00090109873 -0.00366748065 -0.00002345691 0.00088679542 -0.00366354616 -0.00004697368 0.00086906003 -0.00365929947 -0.00006663841 0.00084738233 -0.00365485368 </DataArray>
</PointData>
<Points>
<DataArray type="Float32" NumberOfComponents="3">
0.29636640808 0.34444291530 -1.17008334709 0.33965135461 0.36319925582 -1.17063880758 0.37129006103 0.38585741267 -1.17097806220 0.39211232343 0.41145993451 -1.17098108870 0.40294793789 0.43904936998 -1.17052786480 0.40462670050 0.46766826776 -1.16949836825 0.39797840734 0.49635917649 -1.16777257677 0.38383285450 0.52416464482 -1.16523046811 0.36301983807 0.55012722141 -1.16175201999 0.33636915413 0.57328945492 -1.15721721015 0.32885598999 0.33263524508 -1.16661586929 0.37511513864 0.35187464341 -1.16700575332 0.40884811421 0.37525504867 -1.16724321092 0.43130851326 0.40174535345 -1.16724400897 0.44374993237 0.43031445035 -1.16692391430 0.44742596809 0.45993123198 -1.16619869379 0.44359021698 0.48956459093 -1.16498411428 0.43349627562 0.51818341981 -1.16319594262 0.41839774056 0.54475661123 -1.16074994569 0.39954820838 0.56825305777 -1.15756189032 0.37513907211 0.31838116703 -1.16385854826 0.42325393074 0.33801026308 -1.16409668082 0.45815693781 0.36217908102 -1.16423355310 0.48144411612 0.38975689194 -1.16421311894 0.49471148843 0.41961296696 -1.16397933219 0.49955507754 0.45061657716 -1.16347614669 0.49757090623 0.48163699364 -1.16264751628 0.49035499730 0.51154348751 -1.16143739480 0.47950337351 0.53920532987 -1.15978973611 0.46661205766 0.56349179181 -1.15764849403 0.43254426148 0.30221069178 -1.16166423146 0.48124842890 0.32229347206 -1.16173755803 0.51632645121 0.34739142020 -1.16175122425 0.53962764259 0.37626155560 -1.16167112352 0.55300131719 0.40766089768 -1.16146314923 0.55829678921 0.44034646583 -1.16109319479 0.55736337280 0.47307527944 -1.16052715359 0.55205038214 0.50460435794 -1.15973091903 0.54420713140 0.53369072070 -1.15867038451 0.53568293475 0.55909138715 -1.15731144343 0.49840016514 0.28465382997 -1.15988576638 0.54627933111 0.30541162758 -1.15975435290 0.58046657377 0.33165397668 -1.15959835990 0.60296760328 0.36202635003 -1.15940072758 0.61578812978 0.39517422039 -1.15914439618 0.62093386343 0.42974306051 -1.15881230592 0.62041051436 0.46437834317 -1.15838739702 0.61622379273 0.49772554111 -1.15785260969 0.61037940869 0.52843012711 -1.15719088417 0.60488307239 0.55513757391 -1.15638516067 0.57003539010 0.26624059221 -1.15837600050 0.61552733534 0.28805208690 -1.15797303338 0.64768722487 0.31572866096 -1.15757709555 0.66857250881 0.34781828084 -1.15718463602 0.68024063732 0.38286891296 -1.15679210381 0.68474906054 0.41942852376 -1.15639594792 0.68415522861 0.45604507965 -1.15599261736 0.68051659167 0.49126654707 -1.15557856117 0.67589059987 0.52364089246 -1.15515022833 0.67233470334 0.55171608224 -1.15470406788 0.64477854341 0.24750098915 -1.15698778130 0.68617313959 0.27090220724 -1.15621956743 0.71509832386 0.30037738352 -1.15548956675 0.73355086978 0.33440435364 -1.15480555374 0.74352755093 0.37146095328 -1.15417530287 0.74702514090 0.41002501808 -1.15360658861 0.74604041325 0.44857438371 -1.15310718545 0.74257014156 0.48558688584 -1.15268486784 0.73861109941 0.51954036013 -1.15234741028 0.73616006037 0.54891264224 -1.15210258723 0.71995823208 0.22896503140 -1.15557395625 0.75539744184 0.25464934586 -1.15431992298 0.77980979011 0.28636205484 -1.15313790899 0.79501119679 0.32255157405 -1.15204618561 0.80281758174 0.36166631920 -1.15106302412 0.80504486484 0.40215470601 -1.15020669584 0.80350896596 0.44246515018 -1.14949547207 0.80002580498 0.48104606744 -1.14894762411 0.79641130178 0.51634587349 -1.14858142326 0.79448137622 0.54681298404 -1.14841514085 0.79290306316 0.21116272959 -1.15398737284 0.82038094006 0.23998085999 -1.15210006798 0.83893154300 0.27444458540 -1.15032425781 0.85006200045 0.31302694766 -1.14868923653 0.85527944086 0.35420098861 -1.14722429833 0.85609099270 0.39643975008 -1.14595873743 0.85400378444 0.43821627390 -1.14492184804 0.85052494453 0.47800360190 -1.14414292434 0.84716160145 0.51427477591 -1.14365126055 0.84542088366 0.54550283777 -1.14347615088 0.86094164366 0.19462409437 -1.15208087854 0.87830433225 0.22758410686 -1.14938597040 0.88957350190 0.26538688568 -1.14685074872 0.89581179136 0.30659748009 -1.14451741139 0.89808183942 0.34978093938 -1.14242815626 0.89744628483 0.39350231282 -1.14062518123 0.89496776637 0.43632664968 -1.13915068416 0.89170892281 0.47681899924 -1.13804686293 0.88873239291 0.51354441077 -1.13735591541 0.88710081545 0.54506793355 -1.13712003948 0.30739027500 0.35367748530 -1.13805421787 0.33775398233 0.37139577580 -1.14271203494 0.35973092906 0.39271463163 -1.14628926457 0.37369708134 0.41690762712 -1.14883439085 0.38002840535 0.44324833665 -1.15039589790 0.37910086723 0.47101033457 -1.15102226982 0.37129043315 0.49946719523 -1.15076199072 0.35697306927 0.52789249297 -1.14966354471 0.33652474174 0.55555980217 -1.14777541589 0.31032141673 0.58174269717 -1.14514608837 0.35226256404 0.34327353239 -1.13562986258 0.38472536250 0.36148093899 -1.14016816502 0.40824725140 0.38345572343 -1.14366653468 0.42356573813 0.40838560605 -1.14619406444 0.43141833004 0.43545830721 -1.14781984716 0.43254253452 0.46386154726 -1.14861297571 0.42767585894 0.49278304653 -1.14864254296 0.41755581066 0.52141052539 -1.14797764178 0.40291989708 0.54893170418 -1.14668736503 0.38450562555 0.57453430325 -1.14484080559 0.40682338720 0.33070589759 -1.13376574794 0.44059696570 0.34935691793 -1.13818374128 0.46499720316 0.37207415443 -1.14159490382 0.48105126181 0.39794356959 -1.14408485349 0.48978630385 0.42605112594 -1.14573920825 0.49222949150 0.45548278598 -1.14664358602 0.48940798696 0.48532451224 -1.14688360476 0.48234895245 0.51466226722 -1.14654488240 0.47207955018 0.54258201345 -1.14571303688 0.45962694237 0.56816971344 -1.14447368614 0.46919646669 0.31632195802 -1.13242059210 0.50338904738 0.33547000795 -1.13668763751 0.52795354004 0.35906509105 -1.13997584393 0.54413125376 0.38608198456 -1.14238432626 0.55316349761 0.41549546574 -1.14401219943 0.55629158064 0.44628031182 -1.14495857836 0.55475681193 0.47741130007 -1.14532257797 0.54980050056 0.50786320772 -1.14520331317 0.54266395558 0.53661081202 -1.14469989888 0.53458848607 0.56262889022 -1.14391145002 0.53750552470 0.30046909078 -1.13155311318 0.57112186299 0.32026650436 -1.13560872750 0.59508901776 0.34492369971 -1.13871082698 0.61078331535 0.37330131779 -1.14097005102 0.61958108212 0.40425999953 -1.14249703901 0.62285864441 0.43666038587 -1.14340243036 0.62199232855 0.46936311776 -1.14379686445 0.61835846090 0.50122883612 -1.14379098069 0.61333336779 0.53111818191 -1.14349541848 0.60829337558 0.55789179606 -1.14302081720 0.60987428342 0.28349467298 -1.13112202932 0.64181566798 0.30419270247 -1.13487588503 0.66437639201 0.33014514685 -1.13770132494 0.67898504795 0.36010203611 -1.13971959602 0.68707022823 0.39281340024 -1.14105194526 0.69006052527 0.42702926921 -1.14181961961 0.68938453152 0.46149967303 -1.14214386606 0.68647083939 0.49497464168 -1.14214593157 0.68274804134 0.52620420515 -1.14194706312 0.67964472978 0.55393839342 -1.14166850767 0.68442646503 0.26574608174 -1.13108605865 0.71349071780 0.28769489762 -1.13441798388 0.73378841853 0.31522459890 -1.13684880977 0.74671405293 0.34698460635 -1.13851052955 0.75366210675 0.38162434077 -1.13953513646 0.75602706570 0.41779322293 -1.14005462375 0.75520341554 0.45414067363 -1.14020098465 0.75258564197 0.48931611365 -1.14010621240 0.74956823074 0.52196896377 -1.13990230024 0.74754566758 0.55074864478 -1.13972124140 0.75928579174 0.24757069415 -1.13140391932 0.78416726791 0.27121938512 -1.13416389785 0.80129785301 0.30065722227 -1.13605475343 0.81194793166 0.33444949534 -1.13722041985 0.81738788850 0.37116149404 -1.13780483091 0.81888810817 0.40935850811 -1.13795192040 0.81771897531 0.44760582728 -1.13780562209 0.81515087455 0.48446874126 -1.13750986980 0.81245419053 0.51851253979 -1.13720859729 0.81089930789 0.54830251260 -1.13704573838 0.83257598573 0.22931588732 -1.13203432944 0.85186557376 0.25521246028 -1.13404250071 0.86487745116 0.28693818340 -1.13522062789 0.87266428550 0.32299716990 -1.13572683521 0.87627874431 0.36189353297 -1.13571924689 0.87677349515 0.40213138584 -1.13535598716 0.87520120555 0.44221484171 -1.13479518024 0.87261454306 0.48064801378 -1.13419495035 0.87006617522 0.51593501526 -1.13371342172 0.86860876959 0.54657995936 -1.13350871858 0.90242076920 0.21132903838 -1.13293600715 0.91460589078 0.24012041843 -1.13398266625 0.92249996871 0.27456264871 -1.13424790511 0.92684071583 0.31312809686 -1.13390734388 0.92836584501 0.35428913048 -1.13313660268 0.92781306910 0.39651811720 -1.13211130166 0.92592010095 0.43828742465 -1.13100706094 0.92342465341 0.47806942043 -1.12999950067 0.92106443935 0.51433647218 -1.12926424097 0.91957717161 0.54556094752 -1.12897690199 0.31597418548 0.36355952948 -1.11110834651 0.33627594217 0.38026703406 -1.11861683264 0.35073538418 0.40030618353 -1.12443955406 0.35938096576 0.42313470763 -1.12873888415 0.36224114120 0.44821033610 -1.13167719634 0.35934436477 0.47499079869 -1.13341686401 0.35071909073 0.50293382512 -1.13412026059 0.33639377336 0.53149714515 -1.13394975946 0.31639686693 0.56013848851 -1.13306773404 0.29075682572 0.58831558495 -1.13163655773 0.37049005792 0.35425576952 -1.10949343442 0.39220897373 0.37145644010 -1.11691926333 0.40778269141 0.39210126597 -1.12268381198 0.41755028198 0.41555458088 -1.12696022980 0.42185081644 0.44118071858 -1.12992166617 0.42102336580 0.46834401281 -1.13174127051 0.41540700107 0.49640879734 -1.13259219221 0.40534079326 0.52473940589 -1.13264758068 0.39116381339 0.55270017223 -1.13208058532 0.37321513246 0.57965543011 -1.13106435553 0.43149787826 0.34302671225 -1.10830699122 0.45410298545 0.36071476437 -1.11564082276 0.47032607859 0.38206784959 -1.12133337946 0.48075320637 0.40634875302 -1.12556683016 0.48597041745 0.43282025975 -1.12852334370 0.48656376050 0.46074515489 -1.13038508889 0.48311928419 0.48938622352 -1.13133423457 0.47622303720 0.51800625076 -1.13155294957 0.46646106819 0.54586802170 -1.13122340271 0.45441942584 0.57223432144 -1.13052776283 0.49774118001 0.33009500756 -1.10757502258 0.52063258485 0.34832061346 -1.11477834035 0.53701049299 0.37051421334 -1.12035748437 0.54764367108 0.39583036364 -1.12450279087 0.55330088573 0.42342362080 -1.12740459607 0.55475090358 0.45244854129 -1.12925323621 0.55276249125 0.48205968156 -1.13023904751 0.54810441537 0.51141159804 -1.13055236621 0.54154544257 0.53965884720 -1.13038352854 0.53385433948 0.56595598548 -1.12992287072 0.56796349668 0.31568330533 -1.10732353415 0.59047237945 0.33455259397 -1.11432864553 0.60648088189 0.35774863614 -1.11972535461 0.61687560825 0.38431255230 -1.12371221753 0.62254316278 0.41328546291 -1.12648779045 0.62437014975 0.44370848843 -1.12825062952 0.62324317340 0.47462274931 -1.12919929088 0.62004883799 0.50506936601 -1.12953233069 0.61567374777 0.53408945900 -1.12944830510 0.61100450701 0.56072414873 -1.12914577026 0.64090836176 0.30001425546 -1.10757853160 0.66229697679 0.31968931249 -1.11428856772 0.67738219257 0.34407939695 -1.11940621807 0.68710295004 0.37210845861 -1.12313921578 0.69239819011 0.40270044726 -1.12569529400 0.69420685372 0.43477931268 -1.12728218586 0.69346788179 0.46726900465 -1.12810762450 0.69112021525 0.49909347296 -1.12837934307 0.68810279503 0.52917666739 -1.12830507470 0.68535456206 0.55644253772 -1.12809255252 0.71531930876 0.28331050783 -1.10836602062 0.73478098438 0.30400937561 -1.11465493634 0.74835937232 0.32981477468 -1.11936930263 0.75697962859 0.35953122212 -1.12272789122 0.76156690921 0.39196323501 -1.12494947386 0.76304637020 0.42591533043 -1.12625282229 0.76234316758 0.46019202546 -1.12685670823 0.76038245737 0.49359783717 -1.12697990344 0.75808939559 0.52493728265 -1.12684117964 0.75638913825 0.55301487897 -1.12665930857 0.78993987118 0.26579471233 -1.10971200685 0.80659900975 0.28779138992 -1.11542458080 0.81805736841 0.31526304829 -1.11958383618 0.82515957605 0.34689398243 -1.12242234948 0.82875026158 0.38136848736 -1.12417269721 0.82967405391 0.41737085808 -1.12506745585 0.82877558193 0.45358538960 -1.12533920191 0.82689947455 0.48869637692 -1.12522051187 0.82489036068 0.52138811505 -1.12494396223 0.82359286922 0.55034489900 -1.12474212949 0.86351358253 0.24768951885 -1.11164249598 0.87642566043 0.27131396202 -1.11659433053 0.88512112812 0.30073249670 -1.12001904661 0.89029672457 0.33450987912 -1.12216669618 0.89264918873 0.37121086548 -1.12328733119 0.89287525955 0.40940021202 -1.12363100361 0.89167167599 0.44764267495 -1.12344776537 0.88973517700 0.48450301050 -1.12298766844 0.88776250155 0.51854597489 -1.12250076478 0.88645038859 0.54833632433 -1.12223710633 0.93478397631 0.22921757726 -1.11418349366 0.94293554393 0.25485569850 -1.11816101495 0.94819559874 0.28653139887 -1.12064416182 0.95104500630 0.32269205176 -1.12190503694 0.95196463214 0.36178503055 -1.12221574298 0.95143534183 0.40225770863 -1.12184838259 0.94993800091 0.44255745938 -1.12107505846 0.94795347492 0.48113165618 -1.12016787323 0.94596262943 0.51642767242 -1.11939892958 0.94444632998 0.54689288148 -1.11904033017 0.32242324548 0.37385410796 -1.08872042694 0.33516599195 0.38958054930 -1.09795185681 0.34399166039 0.40840188567 -1.10512811765 0.34868067127 0.42991837320 -1.11047849423 0.34901344506 0.45373026806 -1.11423227131 0.34477040225 0.47943782640 -1.11661873364 0.33573196329 0.50664130437 -1.11786716600 0.32167854868 0.53494095812 -1.11820685313 0.30239057887 0.56393704381 -1.11786707981 0.27764847435 0.59322981759 -1.11707713080 0.38418606173 0.36538887525 -1.08771094641 0.39783262290 0.38160959041 -1.09688835581 0.40744263834 0.40100016921 -1.10402409023 0.41306348804 0.42306461894 -1.10935214859 0.41474255199 0.44730694689 -1.11310652981 0.41252721021 0.47323116035 -1.11552123284 0.40646484270 0.50034126662 -1.11683025658 0.39660282944 0.52814127299 -1.11726759997 0.38298855044 0.55613518675 -1.11706726195 0.36566938571 0.58382701520 -1.11646324143 0.45003966747 0.35519601513 -1.08701638071 0.46425282910 0.37193734977 -1.09612731790 0.47433608988 0.39201171613 -1.10320710460 0.48054823852 0.41482427904 -1.10849418706 0.48314806371 0.43978020335 -1.11222701150 0.48239435416 0.46628465391 -1.11464402414 0.47854589857 0.49374279555 -1.11598367123 0.47186148565 0.52155979313 -1.11648439900 0.46259990409 0.54914081149 -1.11638465368 0.45101994260 0.57589101548 -1.11592288149 0.51919457377 0.34342129138 -1.08669861939 0.53359403282 0.36073597781 -1.09570537688 0.54382256546 0.38162484609 -1.10268896573 0.55029596001 0.40538967405 -1.10789287471 0.55343000474 0.43133223952 -1.11156059261 0.55364048795 0.45875432035 -1.11393560819 0.55134319794 0.48695769437 -1.11526141025 0.54695392300 0.51524413941 -1.11578148756 0.54088845141 0.54291543333 -1.11573932890 0.53356257148 0.56927335395 -1.11537842305 0.59086129167 0.33021046779 -1.08681955199 0.60502365631 0.34817762497 -1.09565916658 0.61505261552 0.37002787878 -1.10248147856 0.62146768979 0.39495312452 -1.10753647661 0.62478839961 0.42214525748 -1.11107414940 0.62553426545 0.45079617297 -1.11334448562 0.62422480780 0.48009776628 -1.11459747392 0.62137954715 0.50924193271 -1.11508310300 0.61751800397 0.53742056756 -1.11505136153 0.61315969876 0.56382556613 -1.11475223817 0.66425033224 0.31570930816 -1.08744106806 0.67770912184 0.33443444167 -1.09602532081 0.68717679049 0.35740913386 -1.10259644806 0.69322446516 0.38370695099 -1.10741325783 0.69642327284 0.41240145930 -1.11073455814 0.69734434052 0.44256622505 -1.11281915704 0.69655879518 0.47327481450 -1.11392586253 0.69463776380 0.50360079389 -1.11431348266 0.69215237337 0.53261772949 -1.11424082545 0.68967375088 0.55939918754 -1.11396669891 0.73857220651 0.30006357627 -1.08862505716 0.75081785168 0.31967857835 -1.09684047340 0.75934564081 0.34395693102 -1.10304567918 0.76472732340 0.37184347402 -1.10751148342 0.76753464896 0.40228304706 -1.11050869508 0.76833936702 0.43422048989 -1.11230812308 0.76771322706 0.46660064224 -1.11318057637 0.76622797862 0.49836834384 -1.11339686389 0.76445537119 0.52846843442 -1.11322779456 0.76296715429 0.55584575371 -1.11294417734 0.81303742556 0.28341903592 -1.09043340883 0.82351726810 0.30408218544 -1.09814125816 0.83070971693 0.32985958993 -1.10384097687 0.83513730181 0.35955501415 -1.10781941846 0.83732255251 0.39197222284 -1.11036343646 0.83778799881 0.42591498078 -1.11175988438 0.83705617048 0.46018705272 -1.11229561572 0.83564959729 0.49359220342 -1.11225748402 0.83409080901 0.52493419764 -1.11193234278 0.83290233541 0.55301680015 -1.11160704552 0.88685650044 0.26592145089 -1.09292801261 0.89497479336 0.28781741338 -1.09996430891 0.90041956928 0.31530543027 -1.10499414610 0.90361543767 0.34703389193 -1.10832532802 0.90498700801 0.38165118871 -1.11026565855 0.90495888977 0.41780571099 -1.11112294155 0.90395569244 0.45414584914 -1.11120498088 0.90240202550 0.48931999351 -1.11081958041 0.90072249842 0.52197653447 -1.11027454399 0.89934172068 0.55076386239 -1.10987767550 0.95923994219 0.24771658498 -1.09617075805 0.96435784973 0.27105641260 -1.10234625947 0.96762574832 0.30048277172 -1.10651699181 0.96932276828 0.33447242791 -1.10901747716 0.96972803998 0.37150214676 -1.11018223760 0.96912069375 0.41004869383 -1.11034579523 0.96777985995 0.44858883471 -1.10984267213 0.96598466891 0.48559933498 -1.10900739039 0.96401425099 0.51955696019 -1.10817447211 0.96214773654 0.54893847595 -1.10767843937 0.32704256097 0.38432628089 -1.07036515312 0.33437288946 0.39910384025 -1.08031576358 0.33918799167 0.41677155532 -1.08805414234 0.34111289242 0.43703582101 -1.09383714671 0.33977261652 0.45960303226 -1.09792163400 0.33479218879 0.48417958400 -1.10056446152 0.32579663404 0.51047187116 -1.10202248659 0.31241097710 0.53818628866 -1.10255256651 0.29426024276 0.56702923144 -1.10241155859 0.27096945586 0.59670709443 -1.10185632016 0.39399816557 0.37647976840 -1.06978676011 0.40186296059 0.39174883362 -1.07970475006 0.40721529628 0.40996092608 -1.08741641684 0.40990669951 0.43072806125 -1.09317946438 0.40978869715 0.45366225459 -1.09725159658 0.40671281607 0.47837552158 -1.09989051736 0.40053058313 0.50447987768 -1.10135393063 0.39109352521 0.53158733837 -1.10189954032 0.37825316916 0.55930991911 -1.10178505034 0.36186104187 0.58725963536 -1.10126816459 0.46332587704 0.36706621037 -1.06942801900 0.47152733579 0.38287822154 -1.07930261936 0.47721976283 0.40175730365 -1.08697420383 0.48043464700 0.42322198444 -1.09270206228 0.48120347715 0.44679079167 -1.09674548459 0.47955774213 0.47198225307 -1.09936376063 0.47552893077 0.49831489638 -1.10081618027 0.46914853193 0.52530724935 -1.10136203338 0.46044803445 0.55247783971 -1.10126060984 0.44945892716 0.57934519520 -1.10077119951 0.53457282030 0.35619226046 -1.06936247902 0.54288838280 0.37260679022 -1.07916445743 0.54871501288 0.39228304832 -1.08676310814 0.55221918605 0.41464289701 -1.09242093516 0.55356737782 0.43910819852 -1.09640044251 0.55292606370 0.46510081509 -1.09896413419 0.55046171921 0.49204260896 -1.10037451422 0.54634081985 0.51935544235 -1.10089408662 0.54072984113 0.54646117750 -1.10078535538 0.53379525856 0.57278167666 -1.10031082454 0.60728612030 0.34396457231 -1.06966368941 0.61546846936 0.36104932588 -1.07934535021 0.62121466798 0.38166052041 -1.08681873459 0.62478276780 0.40511610537 -1.09235207773 0.62643082043 0.43073403018 -1.09621361477 0.62641687752 0.45783224428 -1.09867158088 0.62499899068 0.48572869712 -1.09999421122 0.62243521154 0.51374133813 -1.10044974096 0.61898359174 0.54118811676 -1.10030640526 0.61490218288 0.56738698245 -1.09983243927 0.68101290197 0.33048979956 -1.07040519942 0.68878996320 0.34832061472 -1.07990038365 0.69423234969 0.37001208023 -1.08717668803 0.69764784340 0.39476691592 -1.09251148470 0.69934422628 0.42178784165 -1.09618214582 0.69962928030 0.45027757725 -1.09846604353 0.69881078742 0.47943884257 -1.09964054999 0.69719652959 0.50847435746 -1.09998303734 0.69509428879 0.53658684175 -1.09977087774 0.69281184696 0.56297901529 -1.09928144332 0.75530029024 0.31587459586 -1.07166055827 0.76237523207 0.33453544297 -1.08088464368 0.76728167957 0.35746008807 -1.08787257326 0.77033686400 0.38372063509 -1.09291515081 0.77185801664 0.41238918797 -1.09630318012 0.77216236877 0.44253785063 -1.09832746501 0.77156715165 0.47323872703 -1.09927880926 0.77038959657 0.50356392108 -1.09944801670 0.76894693480 0.53258553672 -1.09912589111 0.76755639761 0.55937567789 -1.09860323630 0.82969541006 0.30022561486 -1.07350331520 0.83574664371 0.31980859684 -1.08235321626 0.83987627916 0.34412690425 -1.08894199513 0.84237228075 0.37210256929 -1.09357907077 0.84352261281 0.40265762416 -1.09657386212 0.84361523966 0.43471410106 -1.09823578813 0.84293812564 0.46719403219 -1.09887426776 0.84177923507 0.49901944975 -1.09879871995 0.84042653230 0.52911238595 -1.09831856365 0.83916798166 0.55639487297 -1.09774321782 0.90374538635 0.28364951019 -1.07600701946 0.90842656585 0.30425486253 -1.08436118732 0.91152977004 0.33013488907 -1.09042055846 0.91327654481 0.36003802493 -1.09451923930 0.91388843606 0.39271270524 -1.09699133626 0.91358698969 0.42690736514 -1.09817095576 0.91259375159 0.46137043976 -1.09839220422 0.91113026767 0.49485036424 -1.09798918804 0.90941808381 0.52609557369 -1.09729601365 0.90767874592 0.55385450325 -1.09664678747 0.97699734405 0.26625293551 -1.07924522028 0.97993736623 0.28798902627 -1.08696364280 0.98175577374 0.31560640283 -1.09234386808 0.98257210731 0.34765230842 -1.09575165113 0.98250590769 0.38267398625 -1.09755274701 0.98167671559 0.41921867952 -1.09811291074 0.98020407176 0.45583363146 -1.09779789735 0.97820751694 0.49106608529 -1.09697346189 0.97580659185 0.52346328421 -1.09600535939 0.97312083723 0.55157247144 -1.09525934489 0.33013723792 0.39474110843 -1.05551721899 0.33384539251 0.40860442563 -1.06530720909 0.33601261202 0.42518500976 -1.07291681510 0.33619432380 0.44426424822 -1.07859876721 0.33394595518 0.46562352843 -1.08260579560 0.32882293353 0.48904423778 -1.08519063046 0.32038068619 0.51430776368 -1.08660600199 0.30817464050 0.54119549355 -1.08710464036 0.29176022382 0.56948881478 -1.08693927576 0.27069286349 0.59896911478 -1.08636263839 0.40057395955 0.38733536776 -1.05522523711 0.40456663736 0.40168261340 -1.06499775363 0.40708886933 0.41879202949 -1.07258983922 0.40788125961 0.43835724881 -1.07825182071 0.40668441234 0.46007190412 -1.08223402494 0.40323893165 0.48362962820 -1.08478677873 0.39728542169 0.50872405380 -1.08616040894 0.38856448659 0.53504881370 -1.08660524237 0.37681673050 0.56229754066 -1.08637160589 0.36178275755 0.59016386745 -1.08570982630 0.47223362914 0.37848970213 -1.05507600870 0.47640734462 0.39339092705 -1.06482611979 0.47916962321 0.41115616176 -1.07239280171 0.48041072055 0.43139370603 -1.07802559394 0.48002089228 0.45371185965 -1.08197403594 0.47789039403 0.47771892240 -1.08448766720 0.47390948144 0.50302319406 -1.08581602719 0.46796841016 0.52923297441 -1.08620865539 0.45995743581 0.55595656322 -1.08591509126 0.44976681403 0.58280226029 -1.08518487429 0.54489209193 0.36829936580 -1.05513769798 0.54913062630 0.38382373989 -1.06485129233 0.55201309064 0.40237487905 -1.07237273174 0.55354441468 0.42347301374 -1.07795332958 0.55372952815 0.44663837445 -1.08184439923 0.55257336077 0.47139119164 -1.08429725406 0.55008084226 0.49725169578 -1.08556320745 0.54625690235 0.52374011735 -1.08589357277 0.54110647077 0.55037668682 -1.08553966339 0.53463447724 0.57668163466 -1.08475279270 0.61832519316 0.35685961306 -1.05547846913 0.62249959441 0.37307542523 -1.06513225601 0.62537748862 0.39254565385 -1.07257665848 0.62704405009 0.41469456580 -1.07806827035 0.62758445311 0.43894642795 -1.08186368543 0.62708387195 0.46472550715 -1.08421949751 0.62562748093 0.49145607028 -1.08539230040 0.62330045431 0.51856238420 -1.08563868789 0.62018796639 0.54546871579 -1.08521525378 0.61637519146 0.57159933190 -1.08437859189 0.69230877806 0.34426569819 -1.05616648638 0.69627736094 0.36124035637 -1.06572799557 0.69902103413 0.38176595867 -1.07305161109 0.70067133485 0.40515775607 -1.07840365894 0.70135980030 0.43073099958 -1.08205046515 0.70121796769 0.45780094018 -1.08425835574 0.70037737425 0.48568282887 -1.08529365672 0.69896955718 0.51369191663 -1.08542269411 0.69712605369 0.54114345447 -1.08491179394 0.69497840099 0.56735269337 -1.08402728222 0.76661869187 0.33061287545 -1.05726991392 0.77022703791 0.34841290661 -1.06669749579 0.77270194417 0.37013326598 -1.07384461874 0.77418797703 0.39496197841 -1.07899273805 0.77482970288 0.42208706879 -1.08242330901 0.77477168808 0.45069656198 -1.08441778693 0.77415849903 0.47997848286 -1.08525762710 0.77313470210 0.50912085631 -1.08522428481 0.77184486367 0.53731170721 -1.08459921536 0.77043355012 0.56373906041 -1.08366387404 0.84103077982 0.31599639912 -1.05885691595 0.84411173732 0.33468744927 -1.06809974142 0.84617843572 0.35774504828 -1.07500271059 0.84735568472 0.38420662667 -1.07986875037 0.84776829399 0.41310961500 -1.08300078764 0.84754107321 0.44349144379 -1.08470174930 0.84679883205 0.47438954358 -1.08527456225 0.84566638021 0.50484134492 -1.08502215337 0.84426852734 0.53388427834 -1.08424744956 0.84273008314 0.56055577438 -1.08325337772 0.91532088715 0.30051152347 -1.06099565669 0.91769457117 0.32015835764 -1.06999371721 0.91920872578 0.34469877805 -1.07657291581 0.91993616599 0.37299109472 -1.08106493860 0.91994970679 0.40389361765 -1.08380147164 0.91932216318 0.43626465686 -1.08511420102 0.91812635013 0.46896252234 -1.08533481283 0.91643508265 0.50084552413 -1.08479499314 0.91432117572 0.53077197221 -1.08382642804 0.91185744435 0.55760017661 -1.08276080361 0.98926485910 0.28425350279 -1.06375430034 0.99073865146 0.30492000503 -1.07243840792 0.99155103133 0.33109192780 -1.07860226357 0.99169112892 0.36141477641 -1.08261454544 0.99114807444 0.39453405618 -1.08484393164 0.98991099808 0.42909527243 -1.08565910030 0.98796903005 0.46374393046 -1.08542872955 0.98531130057 0.49712553560 -1.08452149751 0.98192693983 0.52788559317 -1.08330608230 0.97780507803 0.55466960847 -1.08215116206 0.33201238230 0.40486365072 -1.04365131852 0.33353225891 0.41784982415 -1.05252484948 0.33415375543 0.43341206627 -1.05941532291 0.33344165997 0.45138085201 -1.06454728134 0.33096076065 0.47158665629 -1.06814526729 0.32627584560 0.49385995402 -1.07043382328 0.31895170294 0.51803122014 -1.07163749182 0.30855312079 0.54393092956 -1.07198081545 0.29464488726 0.57138955720 -1.07168833669 0.27679179049 0.60023757799 -1.07098459806 0.40456103376 0.39776259214 -1.04353073899 0.40621030378 0.41121937343 -1.05239667411 0.40705156160 0.42730197237 -1.05927340478 0.40678851156 0.44576452264 -1.06437886115 0.40512485800 0.46636115793 -1.06793097338 0.40176430526 0.48884601191 -1.07014767163 0.39641055768 0.51297321826 -1.07124688605 0.38876731961 0.53849691066 -1.07144654679 0.37853829538 0.56517122277 -1.07096458400 0.36542718933 0.59275028829 -1.07001892786 0.47764004597 0.38931889452 -1.04349445243 0.47937369471 0.40332901370 -1.05235721185 0.48037819681 0.42005984007 -1.05922102282 0.48047474790 0.43919128060 -1.06429992012 0.47948454358 0.46040324224 -1.06780793849 0.47722877949 0.48337563194 -1.06995911271 0.47352865124 0.50778835665 -1.07096747753 0.46820535445 0.53332132333 -1.07104706771 0.46108008474 0.55965443893 -1.07041191801 0.45197403773 0.58646761039 -1.06927606320 0.55116856100 0.37963405838 -1.04359537274 0.55293575483 0.39427751605 -1.05246159191 0.55404205417 0.41178639729 -1.05931065668 0.55440271140 0.43176300546 -1.06435641535 0.55393297890 0.45380964394 -1.06781271625 0.55254810907 0.47752861609 -1.06989340769 0.55016335428 0.50252222530 -1.07081233797 0.54669396692 0.52839277494 -1.07078335542 0.54205519937 0.55474256837 -1.07002030834 0.53616230402 0.58117390897 -1.06873704505 0.62506572087 0.36880958421 -1.04388641385 0.62680980726 0.38416365157 -1.05276494353 0.62795152678 0.40258237190 -1.05959478598 0.62847474449 0.42358157677 -1.06459430397 0.62836332546 0.44667709774 -1.06798186030 0.62760113476 0.47138476637 -1.06997581774 0.62617203745 0.49722041422 -1.07079453908 0.62405989860 0.52369987284 -1.07065638710 0.62124858328 0.55033897381 -1.06977972460 0.61772195656 0.57665354868 -1.06838291436 0.69925066764 0.35694697253 -1.04442048966 0.70090917513 0.37308619132 -1.05332239593 0.70201500775 0.39254849180 -1.06012589036 0.70259318960 0.41474887410 -1.06505954309 0.70266874476 0.43910233837 -1.06835192426 0.70226669734 0.46502388475 -1.07023160403 0.70141207143 0.49192851338 -1.07092715255 0.70012989111 0.51923122440 -1.07066713996 0.69844518050 0.54634701796 -1.06968013642 0.69638296368 0.57269089418 -1.06819471208 0.77364254334 0.34414772384 -1.04525051408 0.77514718156 0.36114390641 -1.05418907834 0.77614089019 0.38178548489 -1.06095644945 0.77666038914 0.40536677703 -1.06579808980 0.77674239830 0.43118210057 -1.06895946177 0.77642363758 0.45852577324 -1.07068602774 0.77574082686 0.48669211280 -1.07122325008 0.77473068604 0.51497543698 -1.07081659118 0.77342993504 0.54267006352 -1.06971151342 0.77187529373 0.56907031016 -1.06815347917 0.84816049003 0.33051333865 -1.04642940104 0.84943714967 0.34843556790 -1.05542011996 0.85023756721 0.37039407905 -1.06213894288 0.85057868555 0.39553716511 -1.06685590123 0.85047744759 0.42301311904 -1.06984102647 0.84995079624 0.45197023383 -1.07136435004 0.84901567441 0.48155680247 -1.07169590339 0.84768902500 0.51092111793 -1.07110571797 0.84598779091 0.53921147321 -1.06986382522 0.84392891506 0.56557616127 -1.06824025658 0.92272364975 0.31614531747 -1.04801006444 0.92369240260 0.33505994688 -1.05707065004 0.92421343191 0.35847500219 -1.06372585027 0.92425042124 0.38536191791 -1.06827893448 0.92376705412 0.41469212851 -1.07103317199 0.92272701410 0.44543706851 -1.07229183211 0.92109398474 0.47656817238 -1.07235818417 0.91883164957 0.50705687462 -1.07153549750 0.91590369214 0.53587460972 -1.07012704143 0.91227379600 0.56199281218 -1.06843608527 0.99725116454 0.30114516080 -1.05004541820 0.99782626346 0.32111581443 -1.05919579778 0.99797687741 0.34612898219 -1.06576965128 0.99757793864 0.37494291499 -1.07011314667 0.99650437940 0.40631586371 -1.07257245195 0.99463113194 0.43900607926 -1.07349373511 0.99183312851 0.47177181253 -1.07322316412 0.98798530136 0.50337131440 -1.07210690698 0.98296258274 0.53256283578 -1.07049113168 0.97663990490 0.55810462756 -1.06872200620 0.33297310007 0.41445896790 -1.03424214564 0.33338224647 0.42660755453 -1.04156734088 0.33329965588 0.44122254214 -1.04724885276 0.33237159551 0.45816282956 -1.05146661474 0.33024433253 0.47728731558 -1.05440056026 0.32656413413 0.49845489903 -1.05623062277 0.32097726751 0.52152447872 -1.05713673573 0.31312999983 0.54635495347 -1.05729883258 0.30266859830 0.57280522208 -1.05689684677 0.28923933009 0.60073418338 -1.05611071174 0.40660697830 0.40756836034 -1.03420762733 0.40706061043 0.42016755739 -1.04153081907 0.40709157719 0.43529924763 -1.04719616093 0.40642979857 0.45276222376 -1.05137022925 0.40480519457 0.47235527846 -1.05421960040 0.40194768520 0.49387720443 -1.05591085071 0.39758719043 0.51712679435 -1.05661055653 0.39145363028 0.54190284092 -1.05648529421 0.38327692474 0.56800413682 -1.05570164010 0.37278699381 0.59522947474 -1.05442617055 0.48042224973 0.39940619171 -1.03421745278 0.48090722519 0.41254602888 -1.04155528818 0.48103800943 0.42831988821 -1.04721699174 0.48062501778 0.44646654496 -1.05136017893 0.47947866558 0.46672477438 -1.05414246520 0.47740936815 0.48883335171 -1.05572146600 0.47422754083 0.51253105221 -1.05625479679 0.46974359893 0.53755665112 -1.05590007302 0.46376795780 0.56364892369 -1.05481491016 0.45611103275 0.59054664519 -1.05315692366 0.55441839983 0.39008778918 -1.03430659981 0.55491875990 0.40385880792 -1.04169106651 0.55512715887 0.42040366206 -1.04736970310 0.55492514169 0.43939585337 -1.05149654984 0.55419425327 0.46050888362 -1.05422564703 0.55281603855 0.48341625457 -1.05571103493 0.55067204247 0.50779146798 -1.05610675381 0.54764380997 0.53330802562 -1.05556684396 0.54361288597 0.55963942924 -1.05424534564 0.53846081540 0.58645918063 -1.05229629913 0.62859491403 0.37972847992 -1.03451004627 0.62909188373 0.39422173342 -1.04198847237 0.62934723180 0.41166976735 -1.04771265287 0.62929805882 0.43167020921 -1.05183942806 0.62888146535 0.45382068650 -1.05452563826 0.62803455194 0.47771882672 -1.05592812377 0.62669441916 0.50296225738 -1.05620372489 0.62479816758 0.52914860598 -1.05550928193 0.62228289775 0.55587550001 -1.05400163521 0.61908571024 0.58274056698 -1.05183762502 0.70295127780 0.36844359110 -1.03486276997 0.70342326583 0.38375064430 -1.04249782408 0.70368643449 0.40223740225 -1.04830419896 0.70371165774 0.42340967268 -1.05244889967 0.70346980954 0.44677326331 -1.05509893126 0.70293176386 0.47183398188 -1.05642129880 0.70206839468 0.49809763611 -1.05658300732 0.70085057595 0.52507003375 -1.05575106189 0.69924918164 0.55225698252 -1.05409246756 0.69723508573 0.57916429014 -1.05177422938 0.77748697659 0.35634844988 -1.03539974875 0.77790957538 0.37256137949 -1.04326943992 0.77813297321 0.39222576496 -1.04920269924 0.77813382697 0.41473430401 -1.05338505073 0.77788879356 0.43947969436 -1.05600201841 0.77737452988 0.46585463375 -1.05723912629 0.77656769282 0.49325181989 -1.05728189840 0.77544493928 0.52106395050 -1.05631585875 0.77398292616 0.54868372331 -1.05452653137 0.77215831035 0.57550383604 -1.05209944027 0.85220149585 0.34355838343 -1.03615596043 0.85254748153 0.36076977788 -1.04435363822 0.85267505423 0.38175405363 -1.05046651161 0.85253245506 0.40576416341 -1.05470796733 0.85206792512 0.43205305996 -1.05729139207 0.85122970552 0.45987369605 -1.05843017253 0.84996603736 0.48847902440 -1.05833769542 0.84822516175 0.51712199778 -1.05722734745 0.84595531979 0.54505556892 -1.05531251532 0.84310475259 0.57153269058 -1.05280658574 0.92709432103 0.33018871891 -1.03716638285 0.92733365344 0.34849167841 -1.04580073727 0.92730088383 0.37094146644 -1.05215399396 0.92687543055 0.39661931109 -1.05647773553 0.92593671194 0.42460644041 -1.05902354460 0.92436414635 0.45398408248 -1.06004300378 0.92203715210 0.48383346537 -1.05978769568 0.91883514756 0.51323581715 -1.05850920292 0.91463755105 0.54127236589 -1.05645910810 0.90932378092 0.56702433967 -1.05388899384 1.00216493759 0.31635478350 -1.03846599383 1.00226476027 0.33584291998 -1.04766105538 1.00199866828 0.35990720158 -1.05432350416 1.00113064199 0.38741980726 -1.05875444142 0.99942466174 0.41725291600 -1.06125496839 0.99664470790 0.44827870676 -1.06212618633 0.99255476083 0.47936935849 -1.06166919648 0.98691880088 0.50939705017 -1.06018510009 0.97950080843 0.53723396076 -1.05797499839 0.97006476381 0.56175226922 -1.05533999264 0.33332449720 0.42329212013 -1.02676439431 0.33334411298 0.43464513550 -1.03203333942 0.33313854738 0.44838625465 -1.03611659162 0.33250082499 0.46438737802 -1.03914069301 0.33122397042 0.48252040603 -1.04123218569 0.32910100825 0.50265723908 -1.04251761177 0.32592496309 0.52466977762 -1.04312351334 0.32148885952 0.54842992205 -1.04317643251 0.31558572214 0.57380957280 -1.04280291137 0.30800857554 0.60068063029 -1.04212949202 0.40735938328 0.41655959116 -1.02676026370 0.40738420788 0.42833560897 -1.03202949608 0.40719712019 0.44259234820 -1.03608715507 0.40660646385 0.45916269317 -1.03903556858 0.40542058249 0.47787952816 -1.04097706446 0.40344781975 0.49857573746 -1.04201397063 0.40049651925 0.52108420536 -1.04224861494 0.39637502464 0.54523781616 -1.04178332530 0.39089167953 0.57086945416 -1.04072042958 0.38385482758 0.59781200364 -1.03916225567 0.48145736261 0.40860399782 -1.02677911236 0.48148877516 0.42089551997 -1.03207974143 0.48134158684 0.43578785578 -1.03613883305 0.48085981894 0.45307133590 -1.03904150848 0.47988749277 0.47253629100 -1.04087288901 0.47826862964 0.49397305174 -1.04171809592 0.47584725085 0.51717194878 -1.04166225050 0.47246737772 0.54192331278 -1.04079047402 0.46797303154 0.56801747441 -1.03918788778 0.46220823363 0.59524476433 -1.03693961304 0.55565778075 0.39955200919 -1.02684247568 0.55569463302 0.41245830470 -1.03223542645 0.55559366017 0.42811273238 -1.03634269113 0.55524277103 0.44625453870 -1.03924009042 0.55452987441 0.46662297014 -1.04100344503 0.55334287914 0.48895727317 -1.04170857565 0.55156969404 0.51299669426 -1.04143130301 0.54909822792 0.53848047990 -1.04024744779 0.54581638960 0.56514787654 -1.03823283070 0.54161208790 0.59273813067 -1.03546327245 0.62999998325 0.38953029435 -1.02697188910 0.63003859961 0.40315739932 -1.03254790210 0.62997505304 0.41970693300 -1.03676979491 0.62973720091 0.43885353406 -1.03971289210 0.62925290060 0.46027184116 -1.04145251822 0.62845000949 0.48363649300 -1.04206399782 0.62725638496 0.50862212822 -1.04162265546 0.62559988437 0.53490338552 -1.04020381571 0.62340836512 0.56215490355 -1.03788280310 0.62060968457 0.59005132100 -1.03473494221 0.70452331566 0.37866552239 -1.02718888803 0.70455749312 0.39312624003 -1.03306851935 0.70450747829 0.41071041265 -1.03749121000 0.70432498935 0.43100955446 -1.04054149123 0.70396174450 0.45361517967 -1.04230389429 0.70336946190 0.47811880247 -1.04286295042 0.70249985975 0.50411193706 -1.04230319088 0.70130465624 0.53118609765 -1.04070914689 0.69973556954 0.55893279845 -1.03816534972 0.69774431784 0.58694355365 -1.03475633060 0.77926712354 0.36708436238 -1.02751500789 0.77928813173 0.38249826299 -1.03384862916 0.77921264879 0.40126312633 -1.03857800197 0.77898801716 0.42286383241 -1.04180746551 0.77856157928 0.44678526123 -1.04364135894 0.77788067760 0.47251229282 -1.04418402146 0.77689265458 0.49952980717 -1.04353979224 0.77554485266 0.52732268430 -1.04181301046 0.77378461428 0.55537580422 -1.03910801530 0.77155928190 0.58317404694 -1.03552914595 0.85427075243 0.35491348340 -1.02797178409 0.85426733362 0.37140690439 -1.03493958251 0.85411227739 0.39150502904 -1.04010123643 0.85370816509 0.41455760038 -1.04359239264 0.85295757811 0.43991436145 -1.04554869788 0.85176309782 0.46692505530 -1.04610579893 0.85002730558 0.49493942496 -1.04539934256 0.84765278277 0.52330721347 -1.04356497552 0.84454211077 0.55137816387 -1.04073834459 0.84059787094 0.57850201921 -1.03705509654 0.92957354788 0.34227955453 -1.02858075206 0.92953191696 0.35998560041 -1.03639273036 0.92922807693 0.38157607577 -1.04213197898 0.92846731395 0.40623209086 -1.04597785032 0.92705491417 0.43313475591 -1.04810969680 0.92479616377 0.46146518115 -1.04870687083 0.92149634891 0.49040447683 -1.04794872482 0.91696075574 0.51913375316 -1.04601461119 0.91099467043 0.54683412040 -1.04308388234 0.90340337915 0.57268668877 -1.03933589069 1.00521485545 0.32930924486 -1.02936344720 1.00511869993 0.34836778722 -1.03825942368 1.00458176027 0.37161622154 -1.04474129519 1.00324734450 0.39802853635 -1.04904541626 1.00075876063 0.42657872020 -1.05140814141 0.99675931669 0.45624076162 -1.05206582516 0.99089232071 0.48598864917 -1.05125482204 0.98280108070 0.51479637138 -1.04921148657 0.97212890470 0.54163791680 -1.04617217328 0.95851910072 0.56548727397 -1.04237323669 0.33337167965 0.43112816754 -1.02069275847 0.33336661625 0.44173008576 -1.02352150124 0.33335866389 0.45467302108 -1.02571772647 0.33334604298 0.46983169459 -1.02735344178 0.33332697392 0.48708082736 -1.02850065478 0.33329967709 0.50629514048 -1.02923137307 0.33326237290 0.52734935502 -1.02961760428 0.33321328174 0.55011819208 -1.02973135601 0.33315062400 0.57447637272 -1.02964463587 0.33307262009 0.60029861803 -1.02942945148 0.40746583879 0.42454320340 -1.02069300969 0.40744774669 0.43553197184 -1.02352201272 0.40735639471 0.44898976701 -1.02567543463 0.40711985062 0.46477827189 -1.02718452267 0.40666618220 0.48275916946 -1.02808052407 0.40592345722 0.50279414269 -1.02839468605 0.40481974346 0.52474487457 -1.02815825585 0.40328310869 0.54847304807 -1.02740248071 0.40124162068 0.57384034616 -1.02615860785 0.39862334722 0.60070845183 -1.02445788451 0.48162250680 0.41676471699 -1.02071353377 0.48159918376 0.42823103438 -1.02358996427 0.48148145483 0.44231529239 -1.02574467131 0.48117744010 0.45885749022 -1.02717904686 0.48059525965 0.47769762705 -1.02789448288 0.47964303359 0.49867570205 -1.02789237133 0.47822888198 0.52163171442 -1.02717410417 0.47626092494 0.54640566332 -1.02574107338 0.47364728253 0.57283754795 -1.02359467092 0.47029607487 0.60076736748 -1.02073628875 0.55590287611 0.40791816939 -1.02077409684 0.55587836569 0.41996669562 -1.02379038207 0.55576681346 0.43479966726 -1.02602244092 0.55548666491 0.45222204266 -1.02745339445 0.55495636553 0.47203878013 -1.02806636371 0.55409436079 0.49405483800 -1.02784446974 0.55281909618 0.51807517461 -1.02677083358 0.55104901719 0.54390474829 -1.02482857630 0.54870256930 0.57134851735 -1.02200081894 0.54569819800 0.60021144013 -1.01827068254 0.63036813915 0.39812902167 -1.02089446506 0.63034273071 0.41087837781 -1.02418829228 0.63024543982 0.42659296166 -1.02660574788 0.63001537856 0.44502462227 -1.02812394556 0.62959165906 0.46592520869 -1.02871999907 0.62891339342 0.48904656998 -1.02837102211 0.62791969375 0.51414055520 -1.02705412843 0.62654967215 0.54095901340 -1.02474643174 0.62474244074 0.56925379363 -1.02142504577 0.62243711163 0.59877674495 -1.01706708425 0.70507948835 0.38752273491 -1.02109440456 0.70504971707 0.40110550321 -1.02484872109 0.70495030310 0.41784524561 -1.02759159659 0.70473143454 0.43741792212 -1.02930708030 0.70434329950 0.45949949272 -1.02997922146 0.70373608608 0.48376591742 -1.02959206930 0.70285998239 0.50989315621 -1.02812967306 0.70166517653 0.53755716909 -1.02557608197 0.70010185661 0.56643391606 -1.02191534528 0.69812021072 0.59619935711 -1.01713151221 0.78009811613 0.37622477017 -1.02139368149 0.78005676299 0.39078749404 -1.02583669466 0.77991437252 0.40870658915 -1.02907699148 0.77960268635 0.42955463528 -1.03111917879 0.77905344609 0.45290421222 -1.03196786339 0.77819839338 0.47832789977 -1.03162765212 0.77696926982 0.50539827770 -1.03010315180 0.77529781704 0.53368792582 -1.02739896926 0.77311577665 0.56276942391 -1.02351971131 0.77035489028 0.59221535176 -1.01846998479 0.85548521494 0.36436058852 -1.02181206199 0.85542130670 0.38006377257 -1.02721723916 0.85517061728 0.39932706232 -1.03115893696 0.85459698748 0.42158745483 -1.03367662112 0.85356425808 0.44628194719 -1.03480975736 0.85193626990 0.47284753645 -1.03459781142 0.84957686373 0.50072121970 -1.03308024901 0.84634988037 0.52933999400 -1.03029653588 0.84211916062 0.55814085644 -1.02628613774 0.83674854528 0.58656080407 -1.02108852032 0.93130197720 0.35205565105 -1.02236931221 0.93120078646 0.36907376104 -1.02905538077 0.93075200661 0.38985673514 -1.03393443745 0.92968219143 0.41366907384 -1.03709578742 0.92771789472 0.43977527760 -1.03862873588 0.92458567026 0.46743984691 -1.03862258802 0.92001207184 0.49592728225 -1.03716664903 0.91372365325 0.52450208410 -1.03435022410 0.90544696828 0.55242875292 -1.03026261842 0.89490857072 0.57897178921 -1.02499313717 1.00760959534 0.33943541883 -1.02308519829 1.00745264049 0.35795688169 -1.03141614567 1.00669150969 0.38044567766 -1.03750049735 1.00482615170 0.40595218536 -1.04149305780 1.00135651523 0.43352678346 -1.04354863145 0.99578254904 0.46221985059 -1.04382202277 0.98760420184 0.49108176540 -1.04246803621 0.97632142237 0.51916290653 -1.03964147620 0.96143415938 0.54551365263 -1.03549714721 0.94244236159 0.56918438233 -1.03018985368 </DataArray>
</Points>
</Piece>
</StructuredGrid>
</VTKFile>
