<?xml version="1.0"?>
<VTKFile type="StructuredGrid" version="0.1">
<StructuredGrid WholeExtent="0 9 0 9 0 9">
<Piece Extent="0 9 0 9 0 9">
<PointData>
<DataArray type="Float32" Name="Deformation" format="ascii" NumberOfComponents="3">
0.00000788151 0.00040343940 -0.00135063023 0.00000651404 0.00040170952 -0.00134809811 0.00000526725 0.00039934917 -0.00134574804 0.00000407203 0.00039627312 -0.00134333402 0.00000285934 0.00039239613 -0.00134061006 0.00000156007 0.00038763299 -0.00133733015 0.00000010515 0.00038189845 -0.00133324831 -0.00000157450 0.00037510730 -0.00132811852 -0.00000354795 0.00036717429 -0.00132169481 -0.00000588430 0.00035801421 -0.00131373116 0.00001210600 0.00040286594 -0.00135566481 0.00001145574 0.00040031838 -0.00135386733 0.00001072917 0.00039753179 -0.00135196833 0.00000992441 0.00039438979 -0.00134988891 0.00000903960 0.00039077597 -0.00134755016 0.00000807286 0.00038657393 -0.00134487317 0.00000702233 0.00038166729 -0.00134177904 0.00000588613 0.00037593964 -0.00133818884 0.00000466239 0.00036927459 -0.00133402369 0.00000334924 0.00036155575 -0.00132920466 0.00001688539 0.00040259949 -0.00136160555 0.00001683842 0.00039948051 -0.00136043821 0.00001660609 0.00039639938 -0.00135904396 0.00001623005 0.00039322776 -0.00135744221 0.00001575200 0.00038983735 -0.00135565241 0.00001521360 0.00038609981 -0.00135369399 0.00001465653 0.00038188682 -0.00135158638 0.00001412246 0.00037707007 -0.00134934903 0.00001365307 0.00037152122 -0.00134700136 0.00001329004 0.00036511195 -0.00134456281 0.00002206018 0.00040262526 -0.00136821223 0.00002252232 0.00039916654 -0.00136759897 0.00002275914 0.00039592338 -0.00136675012 0.00002283673 0.00039277070 -0.00136573002 0.00002282117 0.00038958341 -0.00136460302 0.00002277853 0.00038623643 -0.00136343346 0.00002277489 0.00038260468 -0.00136228569 0.00002287634 0.00037856306 -0.00136122406 0.00002314895 0.00037398649 -0.00136031291 0.00002365880 0.00036874988 -0.00135961659 0.00002747092 0.00040292845 -0.00137524465 0.00002836766 0.00039934706 -0.00137513782 0.00002904948 0.00039607524 -0.00137486205 0.00002959221 0.00039300224 -0.00137448846 0.00003007174 0.00039001728 -0.00137408821 0.00003056390 0.00038700962 -0.00137373244 0.00003114457 0.00038386847 -0.00137349228 0.00003188960 0.00038048310 -0.00137343890 0.00003287485 0.00037674272 -0.00137364341 0.00003417619 0.00037253659 -0.00137417698 0.00003295810 0.00040349426 -0.00138246259 0.00003423469 0.00039999270 -0.00138284297 0.00003533824 0.00039682644 -0.00138315495 0.00003634428 0.00039390604 -0.00138345364 0.00003732834 0.00039114209 -0.00138379421 0.00003836598 0.00038844516 -0.00138423178 0.00003953271 0.00038572583 -0.00138482150 0.00004090409 0.00038289466 -0.00138561851 0.00004255564 0.00037986224 -0.00138667795 0.00004456290 0.00037653915 -0.00138805496 0.00003836226 0.00040430789 -0.00138962583 0.00003998364 0.00040107407 -0.00139050264 0.00004148657 0.00039814842 -0.00139140404 0.00004294069 0.00039546577 -0.00139236168 0.00004441562 0.00039296097 -0.00139340724 0.00004598100 0.00039056889 -0.00139457235 0.00004770647 0.00038822436 -0.00139588867 0.00004966164 0.00038586224 -0.00139738787 0.00005191615 0.00038341737 -0.00139910160 0.00005453963 0.00038082461 -0.00140106150 0.00004352391 0.00040535453 -0.00139649418 0.00004547473 0.00040256179 -0.00139790503 0.00004735561 0.00040001263 -0.00139938453 0.00004922922 0.00039766506 -0.00140094869 0.00005115820 0.00039547705 -0.00140261351 0.00005320523 0.00039340660 -0.00140439500 0.00005543297 0.00039141169 -0.00140630914 0.00005790408 0.00038945030 -0.00140837195 0.00006068123 0.00038748043 -0.00141059943 0.00006382706 0.00038546006 -0.00141300758 0.00004828358 0.00040661939 -0.00140282740 0.00005056821 0.00040442646 -0.00140483836 0.00005280652 0.00040239055 -0.00140687165 0.00005505764 0.00040048758 -0.00140895079 0.00005738072 0.00039869347 -0.00141109927 0.00005983492 0.00039698411 -0.00141334058 0.00006247939 0.00039533543 -0.00141569823 0.00006537327 0.00039372333 -0.00141819572 0.00006857572 0.00039212373 -0.00142085653 0.00007214589 0.00039051253 -0.00142370417 0.00005248177 0.00040808768 -0.00140838530 0.00005512432 0.00040663870 -0.00141109083 0.00005770043 0.00040525362 -0.00141364061 0.00006027372 0.00040391699 -0.00141610408 0.00006290781 0.00040261334 -0.00141855071 0.00006566631 0.00040132723 -0.00142104996 0.00006861285 0.00040004321 -0.00142367128 0.00007181103 0.00039874581 -0.00142648414 0.00007532447 0.00039741960 -0.00142955798 0.00007921679 0.00039604911 -0.00143296227 0.00000542520 0.00040628398 -0.00134854036 0.00000313480 0.00040462849 -0.00134499373 0.00000121463 0.00040236179 -0.00134189533 -0.00000041461 0.00039937727 -0.00133899185 -0.00000183224 0.00039556835 -0.00133603000 -0.00000311760 0.00039082843 -0.00133275649 -0.00000434998 0.00038505090 -0.00132891801 -0.00000560872 0.00037812919 -0.00132426127 -0.00000697314 0.00036995668 -0.00131853297 -0.00000852255 0.00036042678 -0.00131147981 0.00000999722 0.00040617540 -0.00135416515 0.00000860876 0.00040386511 -0.00135155918 0.00000737246 0.00040125095 -0.00134912190 0.00000626100 0.00039819591 -0.00134672186 0.00000524709 0.00039456295 -0.00134422759 0.00000430341 0.00039021506 -0.00134150766 0.00000340266 0.00038501520 -0.00133843060 0.00000251753 0.00037882637 -0.00133486496 0.00000162072 0.00037151152 -0.00133067930 0.00000068492 0.00036293364 -0.00132574215 0.00001504633 0.00040625915 -0.00136056925 0.00001444778 0.00040349094 -0.00135883201 0.00001385384 0.00040064566 -0.00135709391 0.00001327111 0.00039756698 -0.00135530089 0.00001270621 0.00039409860 -0.00135339892 0.00001216575 0.00039008422 -0.00135133394 0.00001165634 0.00038536751 -0.00134905192 0.00001118459 0.00037979216 -0.00134649879 0.00001075712 0.00037320187 -0.00134362052 0.00001038054 0.00036544033 -0.00134036306 0.00002044861 0.00040652167 -0.00136755421 0.00002055072 0.00040348598 -0.00136663401 0.00002056573 0.00040052784 -0.00136562536 0.00002052033 0.00039748274 -0.00136451762 0.00002044123 0.00039418615 -0.00136330015 0.00002035514 0.00039047355 -0.00136196232 0.00002028875 0.00038618043 -0.00136049349 0.00002026877 0.00038114226 -0.00135888303 0.00002032191 0.00037519453 -0.00135712031 0.00002047486 0.00036817272 -0.00135519467 0.00002608015 0.00040694944 -0.00137492152 0.00002681644 0.00040383022 -0.00137478695 0.00002741506 0.00040087945 -0.00137453027 0.00002791325 0.00039793542 -0.00137416069 0.00002834824 0.00039483641 -0.00137368745 0.00002875727 0.00039142070 -0.00137311977 0.00002917756 0.00038752659 -0.00137246687 0.00002964636 0.00038299236 -0.00137173798 0.00003020091 0.00037765630 -0.00137094232 0.00003087842 0.00037135669 -0.00137008912 0.00003181703 0.00040752890 -0.00138247272 0.00003314379 0.00040450365 -0.00138311262 0.00003430878 0.00040168243 -0.00138362264 0.00003535447 0.00039891727 -0.00138401877 0.00003632333 0.00039606022 -0.00138431698 0.00003725784 0.00039296332 -0.00138453325 0.00003820046 0.00038947861 -0.00138468357 0.00003919368 0.00038545815 -0.00138478390 0.00004027996 0.00038075397 -0.00138485023 0.00004150177 0.00037521812 -0.00138489854 0.00003753532 0.00040824652 -0.00139000932 0.00003943163 0.00040548628 -0.00139143278 0.00004115383 0.00040291872 -0.00139271648 0.00004274859 0.00040042053 -0.00139388050 0.00004426260 0.00039786841 -0.00139494490 0.00004574256 0.00039513904 -0.00139592975 0.00004723513 0.00039210911 -0.00139685512 0.00004878702 0.00038865532 -0.00139774109 0.00005044490 0.00038465435 -0.00139860771 0.00005225546 0.00037998288 -0.00139947506 0.00004311111 0.00040908876 -0.00139733285 0.00004557882 0.00040675808 -0.00139956923 0.00004785714 0.00040457026 -0.00140162581 0.00005000020 0.00040243745 -0.00140353455 0.00005206215 0.00040027182 -0.00140532738 0.00005409712 0.00039798552 -0.00140703624 0.00005615926 0.00039549071 -0.00140869307 0.00005830269 0.00039269956 -0.00141032982 0.00006058157 0.00038952423 -0.00141197842 0.00006305003 0.00038587686 -0.00141367081 0.00004842047 0.00041004207 -0.00140424483 0.00005148422 0.00040829906 -0.00140734374 0.00005432566 0.00040661900 -0.00141016464 0.00005701391 0.00040496027 -0.00141276957 0.00005961807 0.00040328127 -0.00141522058 0.00006220723 0.00040154040 -0.00141757969 0.00006485051 0.00039969603 -0.00141990895 0.00006761700 0.00039770657 -0.00142227038 0.00007057581 0.00039553041 -0.00142472604 0.00007379603 0.00039312594 -0.00142733794 0.00005333949 0.00041109292 -0.00141054677 0.00005704668 0.00041008921 -0.00141457808 0.00006046634 0.00040904688 -0.00141814696 0.00006369432 0.00040798124 -0.00142137422 0.00006682645 0.00040690761 -0.00142438066 0.00006995859 0.00040584132 -0.00142728708 0.00007318657 0.00040479769 -0.00143021428 0.00007660624 0.00040379204 -0.00143328306 0.00008031344 0.00040283970 -0.00143661422 0.00008440401 0.00040195599 -0.00144032858 0.00000329685 0.00040942987 -0.00134697995 0.00000026737 0.00040790269 -0.00134266757 -0.00000219238 0.00040578358 -0.00133900602 -0.00000417145 0.00040294789 -0.00133573810 -0.00000575895 0.00039927095 -0.00133260658 -0.00000704395 0.00039462812 -0.00132935427 -0.00000811553 0.00038889474 -0.00132572394 -0.00000906277 0.00038194617 -0.00132145839 -0.00000997475 0.00037365775 -0.00131630041 -0.00001094056 0.00036390483 -0.00130999277 0.00000813074 0.00040967737 -0.00135305151 0.00000615286 0.00040763737 -0.00134983322 0.00000450870 0.00040523517 -0.00134699148 0.00000315093 0.00040231735 -0.00134435506 0.00000203220 0.00039873048 -0.00134175272 0.00000110517 0.00039432115 -0.00133901323 0.00000032250 0.00038893595 -0.00133596536 -0.00000036315 0.00038242146 -0.00133243785 -0.00000099912 0.00037462425 -0.00132825949 -0.00000163276 0.00036539092 -0.00132325902 0.00001338057 0.00041002803 -0.00135980944 0.00001233795 0.00040762924 -0.00135763973 0.00001145129 0.00040504496 -0.00135564500 0.00001070067 0.00040209930 -0.00135371451 0.00001006619 0.00039861636 -0.00135173750 0.00000952795 0.00039442027 -0.00134960323 0.00000906606 0.00038933512 -0.00134720095 0.00000866059 0.00038318504 -0.00134441991 0.00000829167 0.00037579414 -0.00134114936 0.00000793937 0.00036698652 -0.00133727856 0.00001894987 0.00041046906 -0.00136708587 0.00001875295 0.00040786464 -0.00136593271 0.00001858051 0.00040520239 -0.00136480799 0.00001842995 0.00040229250 -0.00136364257 0.00001829865 0.00039894517 -0.00136236733 0.00001818401 0.00039497058 -0.00136091314 0.00001808341 0.00039017895 -0.00135921088 0.00001799424 0.00038438046 -0.00135719140 0.00001791389 0.00037738531 -0.00135478558 0.00001783975 0.00036900370 -0.00135192430 0.00002474219 0.00041098769 -0.00137471296 0.00002532813 0.00040832995 -0.00137455776 0.00002584150 0.00040569693 -0.00137432181 0.00002629098 0.00040289574 -0.00137396535 0.00002668524 0.00039973347 -0.00137344862 0.00002703298 0.00039601723 -0.00137273185 0.00002734286 0.00039155412 -0.00137177528 0.00002762359 0.00038615123 -0.00137053915 0.00002788383 0.00037961567 -0.00136898368 0.00002813227 0.00037175453 -0.00136706912 0.00003066105 0.00041157114 -0.00138252286 0.00003199381 0.00040901150 -0.00138336047 0.00003317940 0.00040651802 -0.00138402785 0.00003423595 0.00040390778 -0.00138450896 0.00003518159 0.00040099786 -0.00138478777 0.00003603446 0.00039760535 -0.00138484824 0.00003681269 0.00039354733 -0.00138467432 0.00003753442 0.00038864089 -0.00138424999 0.00003821777 0.00038270311 -0.00138355920 0.00003888087 0.00037555108 -0.00138258591 0.00003661000 0.00041220661 -0.00139034770 0.00003868028 0.00040989567 -0.00139218644 0.00004053934 0.00040765512 -0.00139376749 0.00004221707 0.00040532740 -0.00139509952 0.00004374336 0.00040275490 -0.00139619120 0.00004514810 0.00039978005 -0.00139705118 0.00004646119 0.00039624527 -0.00139768815 0.00004771252 0.00039199295 -0.00139811076 0.00004893198 0.00038686553 -0.00139832768 0.00005014946 0.00038070541 -0.00139834758 0.00004249258 0.00041288135 -0.00139801965 0.00004531784 0.00041096880 -0.00140088129 0.00004786645 0.00040909769 -0.00140338213 0.00005018653 0.00040715337 -0.00140556314 0.00005232618 0.00040502118 -0.00140746530 0.00005433352 0.00040258648 -0.00140912956 0.00005625665 0.00039973462 -0.00141059690 0.00005814369 0.00039635095 -0.00141190828 0.00006004275 0.00039232083 -0.00141310467 0.00006200195 0.00038752959 -0.00141422703 0.00004821231 0.00041358255 -0.00140537084 0.00005183678 0.00041221725 -0.00140929059 0.00005510587 0.00041083517 -0.00141271313 0.00005809653 0.00040938446 -0.00141572594 0.00006088570 0.00040781327 -0.00141841650 0.00006355032 0.00040606976 -0.00142087227 0.00006616735 0.00040410209 -0.00142318074 0.00006881371 0.00040185842 -0.00142542939 0.00007156637 0.00039928690 -0.00142770569 0.00007450225 0.00039633569 -0.00143009713 0.00005367274 0.00041429744 -0.00141223342 0.00005816740 0.00041362739 -0.00141725996 0.00006220273 0.00041285702 -0.00142160190 0.00006589927 0.00041201945 -0.00142541403 0.00006937757 0.00041114775 -0.00142885119 0.00007275815 0.00041027502 -0.00143206818 0.00007616158 0.00040943436 -0.00143521982 0.00007970838 0.00040865887 -0.00143846092 0.00008351910 0.00040798164 -0.00144194631 0.00008771429 0.00040743576 -0.00144583079 0.00000152865 0.00041277064 -0.00134594970 -0.00000203806 0.00041141241 -0.00134112310 -0.00000489712 0.00040948700 -0.00133708423 -0.00000714312 0.00040685330 -0.00133357548 -0.00000887069 0.00040337019 -0.00133033926 -0.00001017443 0.00039889658 -0.00132711796 -0.00001114897 0.00039329134 -0.00132365400 -0.00001188891 0.00038641337 -0.00131968977 -0.00001248888 0.00037812155 -0.00131496767 -0.00001304347 0.00036827478 -0.00130923012 0.00000653228 0.00041328528 -0.00135232429 0.00000412093 0.00041154503 -0.00134869320 0.00000217126 0.00040939416 -0.00134558143 0.00000062308 0.00040666719 -0.00134279134 -0.00000058380 0.00040319863 -0.00134012526 -0.00000150958 0.00039882301 -0.00133738555 -0.00000221446 0.00039337483 -0.00133437456 -0.00000275863 0.00038668861 -0.00133089465 -0.00000320228 0.00037859887 -0.00132674816 -0.00000360562 0.00036894012 -0.00132173744 0.00001190965 0.00041383439 -0.00135932567 0.00001053101 0.00041182691 -0.00135686426 0.00000941761 0.00040953517 -0.00135470039 0.00000853201 0.00040677272 -0.00135268432 0.00000783673 0.00040335312 -0.00135066632 0.00000729431 0.00039908992 -0.00134849664 0.00000686729 0.00039379668 -0.00134602555 0.00000651821 0.00038728696 -0.00134310329 0.00000620959 0.00037937431 -0.00133958014 0.00000590398 0.00036987229 -0.00133530636 0.00001758345 0.00041440558 -0.00136680562 0.00001714563 0.00041224853 -0.00136549626 0.00001681599 0.00040990470 -0.00136429887 0.00001657219 0.00040717344 -0.00136310345 0.00001639188 0.00040385407 -0.00136179999 0.00001625272 0.00039974593 -0.00136027849 0.00001613236 0.00039464834 -0.00135842894 0.00001600847 0.00038836063 -0.00135614134 0.00001585871 0.00038068214 -0.00135330568 0.00001566072 0.00037141220 -0.00134981198 0.00002347633 0.00041498647 -0.00137461593 0.00002391826 0.00041280032 -0.00137444921 0.00002434045 0.00041049741 -0.00137423467 0.00002473216 0.00040787289 -0.00137389773 0.00002508262 0.00040472192 -0.00137336381 0.00002538110 0.00040083965 -0.00137255834 0.00002561683 0.00039602125 -0.00137140674 0.00002577905 0.00039006186 -0.00136983443 0.00002585703 0.00038275665 -0.00136776684 0.00002583999 0.00037390077 -0.00136512940 0.00002951096 0.00041556469 -0.00138260837 0.00003080233 0.00041347277 -0.00138358310 0.00003196503 0.00041130796 -0.00138436557 0.00003300044 0.00040887461 -0.00138491617 0.00003390994 0.00040597708 -0.00138519533 0.00003469492 0.00040241970 -0.00138516345 0.00003535675 0.00039800685 -0.00138478094 0.00003589682 0.00039254286 -0.00138400821 0.00003631651 0.00038583211 -0.00138280567 0.00003661720 0.00037767892 -0.00138113372 0.00003561001 0.00041612784 -0.00139063473 0.00003775130 0.00041425634 -0.00139275792 0.00003966377 0.00041233103 -0.00139454934 0.00004136556 0.00041018215 -0.00139600780 0.00004287480 0.00040763996 -0.00139713211 0.00004420964 0.00040453469 -0.00139792109 0.00004538822 0.00040069657 -0.00139837356 0.00004642867 0.00039595585 -0.00139848833 0.00004734914 0.00039014278 -0.00139826423 0.00004816776 0.00038308758 -0.00139770006 0.00004169614 0.00041666356 -0.00139854678 0.00004471863 0.00041514147 -0.00140183367 0.00004741073 0.00041356126 -0.00140464377 0.00004981605 0.00041179906 -0.00140702160 0.00005197819 0.00040973100 -0.00140901167 0.00005394074 0.00040723322 -0.00141065849 0.00005574730 0.00040418186 -0.00141200657 0.00005744147 0.00040045305 -0.00141310043 0.00005906686 0.00039592294 -0.00141398457 0.00006066705 0.00039046765 -0.00141470351 0.00004769203 0.00041715945 -0.00140619630 0.00005165776 0.00041611865 -0.00141067033 0.00005517995 0.00041499333 -0.00141450665 0.00005834044 0.00041372886 -0.00141780661 0.00006122107 0.00041227060 -0.00142067159 0.00006390366 0.00041056391 -0.00142320293 0.00006647006 0.00040855415 -0.00142550200 0.00006900211 0.00040618668 -0.00142767015 0.00007158164 0.00040340687 -0.00142980876 0.00007429048 0.00040016007 -0.00143201917 0.00005352033 0.00041760314 -0.00141343508 0.00005852215 0.00041717832 -0.00141912791 0.00006294549 0.00041662191 -0.00142399575 0.00006692727 0.00041597512 -0.00142821184 0.00007060442 0.00041527920 -0.00143194939 0.00007411389 0.00041457537 -0.00143538164 0.00007759259 0.00041390488 -0.00143868182 0.00008117747 0.00041330896 -0.00144202315 0.00008500544 0.00041282884 -0.00144557885 0.00008921346 0.00041250574 -0.00144952216 0.00000015281 0.00041619988 -0.00134545027 -0.00000373130 0.00041503791 -0.00134036381 -0.00000684292 0.00041334446 -0.00133613406 -0.00000927420 0.00041096185 -0.00133250672 -0.00001111733 0.00040773237 -0.00132922748 -0.00001246446 0.00040349834 -0.00132604203 -0.00001340777 0.00039810209 -0.00132269606 -0.00001403942 0.00039138590 -0.00131893526 -0.00001445158 0.00038319211 -0.00131450531 -0.00001473641 0.00037336302 -0.00130915192 0.00000522752 0.00041691261 -0.00135198383 0.00000254583 0.00041549793 -0.00134814289 0.00000039347 0.00041363761 -0.00134489614 -0.00000129367 0.00041115850 -0.00134203351 -0.00000257966 0.00040788748 -0.00133934491 -0.00000352860 0.00040365140 -0.00133662026 -0.00000420456 0.00039827713 -0.00133364948 -0.00000467164 0.00039159153 -0.00133022250 -0.00000499392 0.00038342147 -0.00132612923 -0.00000523548 0.00037359381 -0.00132115958 0.00001065511 0.00041760651 -0.00135911750 0.00000904900 0.00041601547 -0.00135650847 0.00000777200 0.00041405418 -0.00135426320 0.00000677843 0.00041153527 -0.00135221159 0.00000602264 0.00040827138 -0.00135018354 0.00000545894 0.00040407513 -0.00134800896 0.00000504167 0.00039875918 -0.00134551776 0.00000472517 0.00039213615 -0.00134253984 0.00000446377 0.00038401869 -0.00133890511 0.00000421179 0.00037421942 -0.00133444348 0.00001636881 0.00041826939 -0.00136671184 0.00001574542 0.00041658362 -0.00136532585 0.00001528469 0.00041459244 -0.00136409889 0.00001495366 0.00041209901 -0.00136289884 0.00001471935 0.00040890647 -0.00136159355 0.00001454881 0.00040481799 -0.00136005091 0.00001440908 0.00039963671 -0.00135813878 0.00001426718 0.00039316578 -0.00135572504 0.00001409015 0.00038520836 -0.00135267756 0.00001384502 0.00037556759 -0.00134886421 0.00002230187 0.00041888905 -0.00137462737 0.00002260231 0.00041719543 -0.00137446030 0.00002292354 0.00041525063 -0.00137426687 0.00002324354 0.00041285657 -0.00137395313 0.00002354027 0.00040981518 -0.00137342511 0.00002379170 0.00040592841 -0.00137258887 0.00002397580 0.00040099818 -0.00137135043 0.00002407054 0.00039482642 -0.00136961584 0.00002405389 0.00038721506 -0.00136729114 0.00002390381 0.00037796605 -0.00136428238 0.00002838753 0.00041945329 -0.00138272462 0.00002958689 0.00041784399 -0.00138377709 0.00003068057 0.00041602700 -0.00138463079 0.00003165963 0.00041381481 -0.00138523235 0.00003251517 0.00041101992 -0.00138552841 0.00003323826 0.00040745483 -0.00138546561 0.00003381999 0.00040293205 -0.00138499059 0.00003425142 0.00039726407 -0.00138404999 0.00003452366 0.00039026339 -0.00138259044 0.00003462777 0.00038174252 -0.00138055859 0.00003455904 0.00041994989 -0.00139086414 0.00003666639 0.00041852237 -0.00139314152 0.00003854777 0.00041691981 -0.00139505430 0.00004021348 0.00041498059 -0.00139659436 0.00004167384 0.00041254310 -0.00139775361 0.00004293917 0.00040944570 -0.00139852391 0.00004401979 0.00040552679 -0.00139889716 0.00004492600 0.00040062474 -0.00139886525 0.00004566813 0.00039457794 -0.00139842005 0.00004625649 0.00038722475 -0.00139755345 0.00004074964 0.00042036668 -0.00139890646 0.00004380803 0.00041922364 -0.00140241885 0.00004651715 0.00041792731 -0.00140540104 0.00004891662 0.00041636077 -0.00140789705 0.00005104606 0.00041440713 -0.00140995089 0.00005294510 0.00041194946 -0.00141160654 0.00005465335 0.00040887087 -0.00141290803 0.00005621043 0.00040505444 -0.00141389936 0.00005765597 0.00040038328 -0.00141462453 0.00005902959 0.00039474046 -0.00141512756 0.00004689257 0.00042069143 -0.00140671211 0.00005097902 0.00041994087 -0.00141147437 0.00005458072 0.00041904775 -0.00141553469 0.00005778060 0.00041796221 -0.00141899830 0.00006066162 0.00041663443 -0.00142197041 0.00006330671 0.00041501455 -0.00142455627 0.00006579882 0.00041305275 -0.00142686108 0.00006822089 0.00041069918 -0.00142899008 0.00007065586 0.00040790400 -0.00143104848 0.00007318668 0.00040461738 -0.00143314152 0.00005292108 0.00042091195 -0.00141414163 0.00005814660 0.00042066715 -0.00142017335 0.00006273048 0.00042027938 -0.00142531888 0.00006681697 0.00041979177 -0.00142975596 0.00007055030 0.00041924741 -0.00143366237 0.00007407468 0.00041868941 -0.00143721586 0.00007753435 0.00041816089 -0.00144059420 0.00008107353 0.00041770495 -0.00144397516 0.00008483646 0.00041736470 -0.00144753648 0.00008896735 0.00041718325 -0.00145145594 -0.00000079849 0.00041961117 -0.00134548237 -0.00000476217 0.00041865949 -0.00134039316 -0.00000797311 0.00041722842 -0.00133615962 -0.00001050932 0.00041514187 -0.00133253454 -0.00001244877 0.00041222374 -0.00132927071 -0.00001386947 0.00040829793 -0.00132612094 -0.00001484940 0.00040318834 -0.00132283802 -0.00001546656 0.00039671888 -0.00131917473 -0.00001579893 0.00038871345 -0.00131488389 -0.00001592451 0.00037899595 -0.00130971827 0.00000424217 0.00042047278 -0.00135203051 0.00000146047 0.00041940593 -0.00134818603 -0.00000079133 0.00041787522 -0.00134493996 -0.00000257045 0.00041570437 -0.00134208438 -0.00000393413 0.00041271710 -0.00133941136 -0.00000493961 0.00040873712 -0.00133671300 -0.00000564412 0.00040358816 -0.00133378136 -0.00000610490 0.00039709392 -0.00133040854 -0.00000637917 0.00038907814 -0.00132638660 -0.00000652418 0.00037936452 -0.00132150763 0.00000963846 0.00042127264 -0.00135918451 0.00000791400 0.00042012643 -0.00135657527 0.00000653363 0.00041853988 -0.00135433658 0.00000545324 0.00041633496 -0.00135229755 0.00000462871 0.00041333364 -0.00135028731 0.00000401594 0.00040935788 -0.00134813497 0.00000357082 0.00040422964 -0.00134566965 0.00000324924 0.00039777088 -0.00134272046 0.00000300708 0.00038980358 -0.00133911652 0.00000280025 0.00038014969 -0.00133468696 0.00001532542 0.00042199865 -0.00136680291 0.00001456895 0.00042081592 -0.00136542266 0.00001399911 0.00041922327 -0.00136420892 0.00001358095 0.00041704265 -0.00136302730 0.00001327952 0.00041409597 -0.00136174344 0.00001305986 0.00041020516 -0.00136022296 0.00001288703 0.00040519216 -0.00135833150 0.00001272606 0.00039887889 -0.00135593468 0.00001254201 0.00039108727 -0.00135289814 0.00001229992 0.00038163925 -0.00134908749 0.00002123811 0.00042263869 -0.00137474422 0.00002139581 0.00042146935 -0.00137458998 0.00002160244 0.00041992631 -0.00137441641 0.00002183189 0.00041783645 -0.00137412685 0.00002205806 0.00041502670 -0.00137362462 0.00002225484 0.00041132394 -0.00137281308 0.00002239613 0.00040655509 -0.00137159555 0.00002245582 0.00040054705 -0.00136987539 0.00002240781 0.00039312672 -0.00136755591 0.00002222598 0.00038412101 -0.00136454047 0.00002731155 0.00042318066 -0.00138286698 0.00002836508 0.00042208169 -0.00138393901 0.00002934095 0.00042064987 -0.00138481851 0.00003022526 0.00041872540 -0.00138544943 0.00003100410 0.00041614844 -0.00138577574 0.00003166356 0.00041275918 -0.00138574142 0.00003218974 0.00040839781 -0.00138529044 0.00003256874 0.00040290449 -0.00138436675 0.00003278664 0.00039611942 -0.00138291433 0.00003282955 0.00038788276 -0.00138087714 0.00003348080 0.00042361246 -0.00139102969 0.00003544727 0.00042264786 -0.00139333152 0.00003721199 0.00042139486 -0.00139527463 0.00003878026 0.00041971849 -0.00139684827 0.00004015739 0.00041748381 -0.00139804169 0.00004134869 0.00041455586 -0.00139884411 0.00004235947 0.00041079969 -0.00139924478 0.00004319504 0.00040608034 -0.00139923295 0.00004386071 0.00040026286 -0.00139879785 0.00004436179 0.00039321230 -0.00139792872 0.00003968090 0.00042392198 -0.00139909091 0.00004261289 0.00042316284 -0.00140262929 0.00004521288 0.00042216217 -0.00140564424 0.00004751609 0.00042082477 -0.00140817662 0.00004955770 0.00041905542 -0.00141026732 0.00005137292 0.00041675894 -0.00141195723 0.00005299695 0.00041384010 -0.00141328721 0.00005446497 0.00041020370 -0.00141429816 0.00005581219 0.00040575455 -0.00141503095 0.00005707382 0.00040039742 -0.00141552647 0.00004584689 0.00042409711 -0.00140690913 0.00004983243 0.00042362155 -0.00141169410 0.00005334098 0.00042295269 -0.00141578676 0.00005645196 0.00042205323 -0.00141928770 0.00005924481 0.00042088589 -0.00142229754 0.00006179894 0.00041941338 -0.00142491690 0.00006419377 0.00041759841 -0.00142724637 0.00006650874 0.00041540371 -0.00142938658 0.00006882327 0.00041279198 -0.00143143812 0.00007121678 0.00040972593 -0.00143350161 0.00005191382 0.00042412576 -0.00141434290 0.00005707640 0.00042401896 -0.00142038773 0.00006159360 0.00042376731 -0.00142556163 0.00006560707 0.00042341290 -0.00143003474 0.00006925846 0.00042299781 -0.00143397722 0.00007268941 0.00042256415 -0.00143755922 0.00007604158 0.00042215401 -0.00144095088 0.00007945660 0.00042180948 -0.00144432237 0.00008307613 0.00042157265 -0.00144784382 0.00008704181 0.00042148562 -0.00145168539 -0.00000129304 0.00042289809 -0.00134604668 -0.00000508047 0.00042215742 -0.00134121465 -0.00000823103 0.00042101131 -0.00133716503 -0.00001079307 0.00041926172 -0.00133366166 -0.00001281491 0.00041671059 -0.00133046842 -0.00001434489 0.00041315986 -0.00132734916 -0.00001543134 0.00040841150 -0.00132406776 -0.00001612261 0.00040226743 -0.00132038806 -0.00001646701 0.00039452961 -0.00131607394 -0.00001651289 0.00038499999 -0.00131088925 0.00000360192 0.00042387927 -0.00135246470 0.00000089770 0.00042317889 -0.00134882639 -0.00000134978 0.00042201670 -0.00134571727 -0.00000317838 0.00042021787 -0.00134294677 -0.00000462596 0.00041760757 -0.00134032434 -0.00000573037 0.00041401096 -0.00133765943 -0.00000652947 0.00040925321 -0.00133476147 -0.00000706113 0.00040315949 -0.00133143991 -0.00000736320 0.00039555497 -0.00132750419 -0.00000747354 0.00038626481 -0.00132276375 0.00000888124 0.00042476106 -0.00135952626 0.00000714807 0.00042409127 -0.00135706754 0.00000572169 0.00042293014 -0.00135492367 0.00000456971 0.00042111980 -0.00135294349 0.00000365975 0.00041850240 -0.00135097581 0.00000295943 0.00041492011 -0.00134886947 0.00000243635 0.00041021506 -0.00134647327 0.00000205814 0.00040422940 -0.00134363605 0.00000179241 0.00039680528 -0.00134020663 0.00000160678 0.00038778486 -0.00133603383 0.00001447277 0.00042553150 -0.00136707722 0.00001363286 0.00042489142 -0.00136578788 0.00001297175 0.00042375488 -0.00136462982 0.00001246067 0.00042197781 -0.00136348742 0.00001207083 0.00041941616 -0.00136224509 0.00001177343 0.00041592584 -0.00136078722 0.00001153970 0.00041136279 -0.00135899821 0.00001134086 0.00040558294 -0.00135676246 0.00001114811 0.00039844222 -0.00135396437 0.00001093267 0.00038979656 -0.00135048833 0.00002030434 0.00042617864 -0.00137496345 0.00002031425 0.00042557617 -0.00137483725 0.00002038877 0.00042449418 -0.00137468130 0.00002050396 0.00042280224 -0.00137441417 0.00002063588 0.00042036990 -0.00137395442 0.00002076060 0.00041706669 -0.00137322062 0.00002085418 0.00041276218 -0.00137213132 0.00002089269 0.00040732591 -0.00137060510 0.00002085218 0.00040062744 -0.00136856050 0.00002070873 0.00039253631 -0.00136591611 0.00002630379 0.00042669053 -0.00138303080 0.00002715444 0.00042614238 -0.00138406543 0.00002796109 0.00042515133 -0.00138492371 0.00002870902 0.00042360342 -0.00138555935 0.00002938352 0.00042138469 -0.00138592608 0.00002996987 0.00041838121 -0.00138597761 0.00003045337 0.00041447900 -0.00138566765 0.00003081929 0.00040956412 -0.00138494991 0.00003105293 0.00040352261 -0.00138377813 0.00003113957 0.00039624052 -0.00138210600 0.00003239898 0.00042705521 -0.00139112514 0.00003411564 0.00042658691 -0.00139332224 0.00003567709 0.00042572957 -0.00139520263 0.00003708532 0.00042439166 -0.00139675857 0.00003834236 0.00042248162 -0.00139798232 0.00003945020 0.00041990792 -0.00139886611 0.00004041085 0.00041657901 -0.00139940221 0.00004122633 0.00041240335 -0.00139958287 0.00004189864 0.00040728940 -0.00139940034 0.00004242978 0.00040114560 -0.00139884686 0.00003851774 0.00042726073 -0.00139909234 0.00004116004 0.00042690660 -0.00140245747 0.00004352512 0.00042623218 -0.00140536365 0.00004564232 0.00042517729 -0.00140784743 0.00004754101 0.00042368174 -0.00140994538 0.00004925053 0.00042168537 -0.00141169407 0.00005080023 0.00041912799 -0.00141313007 0.00005221947 0.00041594941 -0.00141428993 0.00005353760 0.00041208946 -0.00141521024 0.00005478397 0.00040748796 -0.00141592754 0.00004458793 0.00042729514 -0.00140677825 0.00004824984 0.00042709831 -0.00141132095 0.00005149355 0.00042666242 -0.00141525236 0.00005438948 0.00042597063 -0.00141866154 0.00005700808 0.00042500614 -0.00142163754 0.00005941981 0.00042375210 -0.00142426942 0.00006169509 0.00042219169 -0.00142664624 0.00006390437 0.00042030809 -0.00142885706 0.00006611811 0.00041808448 -0.00143099092 0.00006840674 0.00041550401 -0.00143313689 0.00005053737 0.00042714649 -0.00141402875 0.00005534724 0.00042715889 -0.00141976247 0.00005957073 0.00042702355 -0.00142471435 0.00006333624 0.00042678202 -0.00142903650 0.00006677219 0.00042647586 -0.00143288104 0.00007000698 0.00042614664 -0.00143640010 0.00007316901 0.00042583590 -0.00143974578 0.00007638670 0.00042558520 -0.00144307020 0.00007978845 0.00042543610 -0.00144652549 0.00008350268 0.00042543015 -0.00145026376 -0.00000129865 0.00042595423 -0.00134714388 -0.00000463602 0.00042541198 -0.00134283176 -0.00000756001 0.00042456556 -0.00133915439 -0.00001007006 0.00042318972 -0.00133589081 -0.00001216562 0.00042105918 -0.00133282005 -0.00001384614 0.00041794867 -0.00132972116 -0.00001511106 0.00041363292 -0.00132637317 -0.00001595983 0.00040788666 -0.00132255511 -0.00001639189 0.00040048462 -0.00131804601 -0.00001640670 0.00039120153 -0.00131262493 0.00000333248 0.00042704553 -0.00135328677 0.00000089041 0.00042672666 -0.00135006773 -0.00000124855 0.00042597175 -0.00134723243 -0.00000308859 0.00042461208 -0.00134462349 -0.00000463388 0.00042247897 -0.00134208354 -0.00000588860 0.00041940371 -0.00133945518 -0.00000685693 0.00041521760 -0.00133658105 -0.00000754306 0.00040975195 -0.00133330375 -0.00000795115 0.00040283805 -0.00132946590 -0.00000808539 0.00039430722 -0.00132491013 0.00000840499 0.00042800003 -0.00136014232 0.00000677328 0.00042784153 -0.00135798815 0.00000535536 0.00042716285 -0.00135602761 0.00000414115 0.00042583780 -0.00135415064 0.00000312056 0.00042374018 -0.00135224719 0.00000228350 0.00042074379 -0.00135020723 0.00000161989 0.00041672245 -0.00134792069 0.00000111963 0.00041154995 -0.00134527753 0.00000077263 0.00040510010 -0.00134216769 0.00000056881 0.00039724671 -0.00133848114 0.00001383031 0.00042880612 -0.00136753317 0.00001295379 0.00042875611 -0.00136642270 0.00001221514 0.00042814492 -0.00136536246 0.00001159943 0.00042687795 -0.00136427777 0.00001109172 0.00042486065 -0.00136309392 0.00001067708 0.00042199842 -0.00136173623 0.00001034057 0.00041819671 -0.00136013001 0.00001006726 0.00041336093 -0.00135820057 0.00000984222 0.00040739651 -0.00135587320 0.00000965052 0.00040020888 -0.00135307323 0.00001951986 0.00042945219 -0.00137528199 0.00001937315 0.00042946996 -0.00137520106 0.00001929418 0.00042892399 -0.00137505954 0.00001926650 0.00042774363 -0.00137481040 0.00001927360 0.00042585822 -0.00137440661 0.00001929902 0.00042319711 -0.00137380114 0.00001932629 0.00041968965 -0.00137294694 0.00001933891 0.00041526517 -0.00137179699 0.00001932041 0.00040985304 -0.00137030425 0.00001925432 0.00040338258 -0.00136842169 0.00002538505 0.00042992663 -0.00138321146 0.00002597255 0.00042998260 -0.00138415292 0.00002655591 0.00042950611 -0.00138494139 0.00002712263 0.00042844590 -0.00138555407 0.00002766024 0.00042675073 -0.00138596817 0.00002815626 0.00042436935 -0.00138616087 0.00002859821 0.00042125050 -0.00138610939 0.00002897360 0.00041734294 -0.00138579092 0.00002926996 0.00041259542 -0.00138518265 0.00002947481 0.00040695668 -0.00138426180 0.00003133729 0.00043021785 -0.00139114423 0.00003269322 0.00043029359 -0.00139310796 0.00003396372 0.00042989732 -0.00139483055 0.00003514810 0.00042899586 -0.00139631430 0.00003624566 0.00042755603 -0.00139756148 0.00003725569 0.00042554465 -0.00139857438 0.00003817751 0.00042292853 -0.00139935528 0.00003901040 0.00041967451 -0.00139990647 0.00003975366 0.00041574940 -0.00140023022 0.00004040661 0.00041112002 -0.00140032883 0.00003728801 0.00043031423 -0.00139890297 0.00003947634 0.00043040247 -0.00140189586 0.00004148102 0.00043010367 -0.00140454958 0.00004332317 0.00042940458 -0.00140689661 0.00004502387 0.00042829195 -0.00140896945 0.00004660423 0.00042675250 -0.00141080059 0.00004808535 0.00042477299 -0.00141242253 0.00004948834 0.00042234016 -0.00141386776 0.00005083429 0.00041944074 -0.00141516878 0.00005214430 0.00041606148 -0.00141635808 0.00004314862 0.00043020416 -0.00140631035 0.00004626312 0.00043030877 -0.00141034632 0.00004907123 0.00043013120 -0.00141392101 0.00005162810 0.00042968315 -0.00141710652 0.00005398890 0.00042897632 -0.00141997497 0.00005620878 0.00042802242 -0.00142259845 0.00005834292 0.00042683312 -0.00142504907 0.00006044648 0.00042542014 -0.00142739893 0.00006257461 0.00042379518 -0.00142972014 0.00006478249 0.00042196992 -0.00143208480 0.00004883054 0.00042987604 -0.00141318904 0.00005299478 0.00043001204 -0.00141828901 0.00005669774 0.00042998595 -0.00142276739 0.00006004316 0.00042984264 -0.00142674956 0.00006313476 0.00042962700 -0.00143036093 0.00006607626 0.00042938389 -0.00143372688 0.00006897139 0.00042915819 -0.00143697280 0.00007192386 0.00042899475 -0.00144022408 0.00007503742 0.00042893846 -0.00144360612 0.00007841578 0.00042903419 -0.00144724430 -0.00000078311 0.00042867317 -0.00134877465 -0.00000337863 0.00042830345 -0.00134524795 -0.00000590337 0.00042776362 -0.00134213181 -0.00000828490 0.00042679422 -0.00133922470 -0.00001045081 0.00042513579 -0.00133632508 -0.00001232866 0.00042252887 -0.00133323140 -0.00001384604 0.00041871399 -0.00132974214 -0.00001493051 0.00041343169 -0.00132565574 -0.00001550965 0.00040642251 -0.00132077067 -0.00001551105 0.00039742698 -0.00131488539 0.00000345953 0.00042988501 -0.00135449710 0.00000147148 0.00042995910 -0.00135191380 -0.00000045428 0.00042965006 -0.00134948982 -0.00000227219 0.00042880007 -0.00134711736 -0.00000393664 0.00042725136 -0.00134468866 -0.00000540205 0.00042484614 -0.00134209592 -0.00000662284 0.00042142661 -0.00133923136 -0.00000755341 0.00041683499 -0.00133598720 -0.00000814817 0.00041091348 -0.00133225565 -0.00000836155 0.00040350430 -0.00132792894 0.00000823123 0.00043091781 -0.00136103224 0.00000681168 0.00043130869 -0.00135934000 0.00000545383 0.00043117590 -0.00135765153 0.00000418086 0.00043043697 -0.00135592027 0.00000301595 0.00042900945 -0.00135409963 0.00000198228 0.00042681088 -0.00135214304 0.00000110305 0.00042375881 -0.00135000395 0.00000040144 0.00041977078 -0.00134763578 -0.00000009937 0.00041476434 -0.00134499196 -0.00000037620 0.00040865702 -0.00134202591 0.00001341753 0.00043176064 -0.00136816912 0.00001254838 0.00043235600 -0.00136732829 0.00001174177 0.00043235107 -0.00136640772 0.00001100381 0.00043171652 -0.00136539692 0.00001034064 0.00043042304 -0.00136428537 0.00000975836 0.00042844131 -0.00136306256 0.00000926311 0.00042574202 -0.00136171800 0.00000886100 0.00042229585 -0.00136024117 0.00000855817 0.00041807348 -0.00135862157 0.00000836072 0.00041304560 -0.00135684869 0.00001890397 0.00043240258 -0.00137569680 0.00001858801 0.00043310480 -0.00137568040 0.00001833033 0.00043318545 -0.00137554914 0.00001812627 0.00043265029 -0.00137531083 0.00001797112 0.00043150510 -0.00137497328 0.00001786019 0.00042975564 -0.00137454427 0.00001778880 0.00042740767 -0.00137403160 0.00001775226 0.00042446698 -0.00137344308 0.00001774588 0.00042093933 -0.00137278649 0.00001776497 0.00041683048 -0.00137206965 0.00002457609 0.00043283269 -0.00138340432 0.00002483697 0.00043355888 -0.00138419805 0.00002514033 0.00043368896 -0.00138486654 0.00002547781 0.00043324989 -0.00138542552 0.00002584108 0.00043226861 -0.00138589074 0.00002622179 0.00043077206 -0.00138627793 0.00002661161 0.00042878719 -0.00138660283 0.00002700219 0.00042634095 -0.00138688118 0.00002738520 0.00042346027 -0.00138712871 0.00002775228 0.00042017211 -0.00138736116 0.00003031943 0.00043304005 -0.00139108071 0.00003120170 0.00043372201 -0.00139268298 0.00003209254 0.00043387150 -0.00139415068 0.00003298802 0.00043352690 -0.00139550450 0.00003388420 0.00043272654 -0.00139676516 0.00003477717 0.00043150880 -0.00139795335 0.00003566300 0.00042991201 -0.00139908979 0.00003653777 0.00042797453 -0.00140019517 0.00003739754 0.00042573472 -0.00140129021 0.00003823840 0.00042323094 -0.00140239561 0.00003601953 0.00043301373 -0.00139851502 0.00003758862 0.00043359797 -0.00140093693 0.00003910778 0.00043374298 -0.00140319231 0.00004058648 0.00043349291 -0.00140531128 0.00004203418 0.00043289188 -0.00140732391 0.00004346035 0.00043198405 -0.00140926030 0.00004487446 0.00043081355 -0.00141115055 0.00004628597 0.00042942451 -0.00141302475 0.00004770434 0.00042786108 -0.00141491299 0.00004913905 0.00042616740 -0.00141684536 0.00004156192 0.00043274280 -0.00140549631 0.00004390414 0.00043319055 -0.00140876161 0.00004610684 0.00043331330 -0.00141178220 0.00004820278 0.00043315950 -0.00141460936 0.00005022470 0.00043277760 -0.00141729439 0.00005220534 0.00043221603 -0.00141988857 0.00005417744 0.00043152324 -0.00142244322 0.00005617376 0.00043074767 -0.00142500960 0.00005822702 0.00042993776 -0.00142763903 0.00006036999 0.00042914196 -0.00143038279 0.00004683215 0.00043221634 -0.00141181361 0.00005005468 0.00043250352 -0.00141595878 0.00005301052 0.00043259236 -0.00141971109 0.00005576651 0.00043253828 -0.00142316226 0.00005838944 0.00043239667 -0.00142640398 0.00006094615 0.00043222295 -0.00142952795 0.00006350343 0.00043207252 -0.00143262587 0.00006612812 0.00043200079 -0.00143578943 0.00006888702 0.00043206316 -0.00143911033 0.00007184695 0.00043231505 -0.00144268028 0.00000028577 0.00043094849 -0.00135093970 -0.00000125811 0.00043071211 -0.00134846672 -0.00000320445 0.00043047792 -0.00134610142 -0.00000538220 0.00042994356 -0.00134366607 -0.00000762035 0.00042880670 -0.00134098295 -0.00000974787 0.00042676499 -0.00133787436 -0.00001159373 0.00042351608 -0.00133416255 -0.00001298690 0.00041875763 -0.00132966983 -0.00001375636 0.00041218730 -0.00132421846 -0.00001373108 0.00040350274 -0.00131763073 0.00000400878 0.00043231116 -0.00135609603 0.00000267380 0.00043278607 -0.00135436836 0.00000106636 0.00043296133 -0.00135249380 -0.00000070031 0.00043269492 -0.00135043120 -0.00000251299 0.00043184483 -0.00134813941 -0.00000425847 0.00043026905 -0.00134557728 -0.00000582351 0.00042782555 -0.00134270366 -0.00000709490 0.00042437232 -0.00133947740 -0.00000795942 0.00041976734 -0.00133585735 -0.00000830384 0.00041386859 -0.00133180235 0.00000838149 0.00043344267 -0.00136219559 0.00000728534 0.00043442428 -0.00136112598 0.00000603627 0.00043490718 -0.00135979859 0.00000470211 0.00043486534 -0.00135825363 0.00000335070 0.00043427273 -0.00135653127 0.00000204987 0.00043310335 -0.00135467170 0.00000086747 0.00043133116 -0.00135271512 -0.00000012868 0.00042893015 -0.00135070172 -0.00000087073 0.00042587429 -0.00134867168 -0.00000129084 0.00042213756 -0.00134666519 0.00001325389 0.00043433324 -0.00136898349 0.00001243328 0.00043563708 -0.00136850585 0.00001156415 0.00043633099 -0.00136776647 0.00001068043 0.00043646696 -0.00136684345 0.00000981603 0.00043609694 -0.00136581486 0.00000900485 0.00043527290 -0.00136475877 0.00000828080 0.00043404683 -0.00136375329 0.00000767779 0.00043247069 -0.00136287647 0.00000722974 0.00043059645 -0.00136220642 0.00000697054 0.00042847609 -0.00136182121 0.00001847597 0.00043497308 -0.00137620483 0.00001797433 0.00043643479 -0.00137627423 0.00001750886 0.00043724830 -0.00137614811 0.00001709003 0.00043751193 -0.00137591076 0.00001672830 0.00043732397 -0.00137564651 0.00001643416 0.00043678271 -0.00137543965 0.00001621808 0.00043598646 -0.00137537451 0.00001609054 0.00043503350 -0.00137553538 0.00001606200 0.00043402213 -0.00137600657 0.00001614294 0.00043305065 -0.00137687240 0.00002389771 0.00043535243 -0.00138360474 0.00002376527 0.00043682773 -0.00138419740 0.00002372926 0.00043767463 -0.00138469415 0.00002378626 0.00043801242 -0.00138516566 0.00002393282 0.00043796037 -0.00138568256 0.00002416553 0.00043763779 -0.00138631550 0.00002448093 0.00043716394 -0.00138713514 0.00002487559 0.00043665812 -0.00138821213 0.00002534609 0.00043623962 -0.00138961710 0.00002588898 0.00043602771 -0.00139142072 0.00002936910 0.00043546151 -0.00139092833 0.00002966281 0.00043682625 -0.00139204161 0.00003008421 0.00043762551 -0.00139315528 0.00003062450 0.00043798056 -0.00139431823 0.00003127490 0.00043801268 -0.00139557933 0.00003202664 0.00043784313 -0.00139698747 0.00003287093 0.00043759319 -0.00139859154 0.00003379898 0.00043738413 -0.00140044043 0.00003480203 0.00043733721 -0.00140258300 0.00003587128 0.00043757372 -0.00140506816 0.00003474012 0.00043529052 -0.00139792071 0.00003552372 0.00043644065 -0.00139957314 0.00003643256 0.00043711645 -0.00140128216 0.00003746011 0.00043742851 -0.00140307857 0.00003859984 0.00043748741 -0.00140499316 0.00003984521 0.00043740375 -0.00140705672 0.00004118968 0.00043728810 -0.00140930007 0.00004262674 0.00043725106 -0.00141175398 0.00004414985 0.00043740321 -0.00141444926 0.00004575247 0.00043785514 -0.00141741670 0.00003986077 0.00043482971 -0.00140432700 0.00004120474 0.00043568127 -0.00140655825 0.00004263319 0.00043616299 -0.00140882545 0.00004414848 0.00043636841 -0.00141115677 0.00004575294 0.00043639111 -0.00141358037 0.00004744893 0.00043632465 -0.00141612441 0.00004923880 0.00043626258 -0.00141881707 0.00005112490 0.00043629848 -0.00142168649 0.00005310958 0.00043652591 -0.00142476085 0.00005519518 0.00043703842 -0.00142806830 0.00004458102 0.00043406927 -0.00140989232 0.00004656261 0.00043455844 -0.00141276320 0.00004854495 0.00043478065 -0.00141553582 0.00005054496 0.00043481243 -0.00141826293 0.00005257952 0.00043473031 -0.00142099730 0.00005466553 0.00043461084 -0.00142379170 0.00005681989 0.00043453054 -0.00142669890 0.00005905949 0.00043456595 -0.00142977166 0.00006140124 0.00043479361 -0.00143306275 0.00006386203 0.00043529004 -0.00143662494 </DataArray>
</PointData>
<Points>
<DataArray type="Float32" NumberOfComponents="3">
1.03349588151 0.52263543940 -0.16174663023 1.03119825753 0.52703835287 -0.15910779770 1.02778862253 0.53134049594 -0.15647519660 1.02290647944 0.53566164349 -0.15374655624 1.01619133121 0.54012157034 -0.15081960594 1.00728268078 0.54484005137 -0.14759207501 0.99582003107 0.54993686141 -0.14396169275 0.98144288503 0.55553177533 -0.13982618848 0.96379074560 0.56174456798 -0.13508329151 0.94250311570 0.56869501421 -0.12963073116 1.03432706897 0.51163496882 -0.15937536851 1.03181308171 0.51460280998 -0.15538934399 1.02840206857 0.51782243790 -0.15183346609 1.02388065133 0.52126523692 -0.14853341297 1.01803545180 0.52490259140 -0.14531486279 1.01065309175 0.52870588571 -0.14200349369 1.00152019298 0.53264650420 -0.13842498383 0.99042337729 0.53669583123 -0.13440501136 0.97714926647 0.54082525116 -0.12976925444 0.96148448230 0.54500614834 -0.12434339121 1.03495207057 0.49883838550 -0.15759908703 1.03228264315 0.50051025554 -0.15260362164 1.02889153528 0.50257424311 -0.14835663205 1.02467650222 0.50491891699 -0.14462756744 1.01953529923 0.50743284592 -0.14118587702 1.01336568156 0.51000459868 -0.13780100995 1.00606540448 0.51252274401 -0.13424241543 0.99753222324 0.51487585068 -0.13027954263 0.98766389311 0.51695248744 -0.12568184075 0.97635816933 0.51864122306 -0.12021875897 1.03537072685 0.48472873638 -0.15641754557 1.03260602290 0.48521053218 -0.15075168453 1.02925724941 0.48606855910 -0.14604985432 1.02530253769 0.48715924806 -0.14204159559 1.02072001905 0.48833902999 -0.13845644898 1.01548782481 0.48946433581 -0.13502395513 1.00958408628 0.49039159645 -0.13147365469 1.00298693477 0.49097724283 -0.12753508831 0.99567450159 0.49107770589 -0.12293779663 0.98762491806 0.49054941654 -0.11741132030 1.03558287832 0.46978906837 -0.15583050391 1.03278230204 0.46915348257 -0.14983458656 1.02949943773 0.46877803337 -0.14491829277 1.02576726335 0.46852279449 -0.14078807333 1.02161875683 0.46824783968 -0.13715037900 1.01708689609 0.46781324265 -0.13371166056 1.01220465908 0.46707907713 -0.13017836878 1.00700502373 0.46590541686 -0.12625695442 1.00152096797 0.46415233556 -0.12165386826 0.99578546974 0.46167990696 -0.11607556107 1.03558836551 0.45450242842 -0.15583772185 1.03281056161 0.45278894935 -0.14985338159 1.02961832700 0.45117531342 -0.14496710724 1.02607918480 0.44954612064 -0.14087957659 1.02226065809 0.44778597107 -0.13729146744 1.01823026999 0.44577946473 -0.13390345759 1.01405554359 0.44341120167 -0.13041622484 1.00980400200 0.44056578192 -0.12653044699 1.00554316831 0.43712780551 -0.12194680183 1.00134056565 0.43298187248 -0.11636596717 1.03538702893 0.43935186344 -0.15643895917 1.03268988269 0.43656677519 -0.15080912353 1.02961414399 0.43373304675 -0.14620145759 1.02624680763 0.43076579087 -0.14232868130 1.02267486840 0.42758012025 -0.13890351464 1.01898532109 0.42409114761 -0.13563867757 1.01526516051 0.42021398568 -0.13224689005 1.01160138145 0.41586374716 -0.12844087205 1.00808097869 0.41095554479 -0.12393334353 1.00479094704 0.40540449128 -0.11843702446 1.03497870910 0.42482042037 -0.15763397566 1.03241934633 0.42093680272 -0.15270286625 1.02948711544 0.41692388088 -0.14862650365 1.02627863744 0.41271836953 -0.14514796338 1.02289053329 0.40825698329 -0.14201032093 1.01941942401 0.40347643682 -0.13895665181 1.01596193056 0.39831344476 -0.13573003154 1.01261467395 0.39270472176 -0.13207353561 1.00947427516 0.38658698247 -0.12773023954 1.00663735518 0.37989694154 -0.12244321883 1.03436324654 0.41139114614 -0.15942253111 1.03199803359 0.40634887460 -0.15553566363 1.02923746813 0.40122046331 -0.15224740530 1.02618317982 0.39594042098 -0.14934999875 1.02293679833 0.39044325628 -0.14663568666 1.01959995331 0.38466347790 -0.14389671168 1.01627427444 0.37853559454 -0.14092531648 1.01306139138 0.37199411488 -0.13751374372 1.01006293379 0.36497354761 -0.13345423605 1.00738053135 0.35740840142 -0.12853903614 1.03354048177 0.39954708768 -0.16180438530 1.03142502555 0.39325283349 -0.15930856957 1.02886542882 0.38709544155 -0.15706932236 1.02596894039 0.38096850958 -0.15494736334 1.02284280904 0.37476563529 -0.15280341217 1.01959428360 0.36838041639 -0.15049818851 1.01633061285 0.36170645061 -0.14789241202 1.01315904560 0.35463733566 -0.14484680238 1.01018683064 0.34706666925 -0.14122207924 1.00752121679 0.33888804911 -0.13687896227 1.03432038817 0.52747887658 -0.16764124132 1.03176457315 0.53439637299 -0.16568603198 1.02808480098 0.54039790352 -0.16356126073 1.02284711214 0.54567331829 -0.16124494491 1.01561754712 0.55041246740 -0.15871510183 1.00596214639 0.55480520098 -0.15594974883 0.99344695043 0.55904136915 -0.15292690322 0.97763799972 0.56331082202 -0.14962458234 0.95810133474 0.56780340971 -0.14602080352 0.93440299597 0.57270898233 -0.14209358407 1.03564188748 0.51531079975 -0.16598117653 1.03276407666 0.52010694258 -0.16300419820 1.02894022484 0.52445265750 -0.16023051760 1.02381868401 0.52841535229 -0.15756983640 1.01704780616 0.53206243471 -0.15493185631 1.00827594327 0.53546131255 -0.15222627900 0.99715144732 0.53867939357 -0.14936280616 0.98332267031 0.54178408554 -0.14625113947 0.96643796421 0.54484279624 -0.14280098064 0.94614568101 0.54792293344 -0.13892203134 1.03663463206 0.50161146242 -0.16473831345 1.03352074753 0.50446235882 -0.16099629186 1.02960644319 0.50716106655 -0.15773823632 1.02460412262 0.50969985410 -0.15482071236 1.01822618937 0.51207098998 -0.15210028550 1.01018504700 0.51426674269 -0.14943352125 1.00019309908 0.51627938074 -0.14667698515 0.98796274917 0.51810117262 -0.14368724270 0.97320640083 0.51972438685 -0.14032085944 0.95563645761 0.52114129193 -0.13643440087 1.03729849799 0.48677031728 -0.16391245361 1.03403446219 0.48781259030 -0.15966350924 1.03008684972 0.48887593565 -0.15608971856 1.02521922469 0.48991285773 -0.15300968526 1.01919515123 0.49087586093 -0.15024201304 1.01177819343 0.49171744964 -0.14760530557 1.00273191543 0.49239012825 -0.14491816654 0.99181988134 0.49284640117 -0.14199919965 0.97880565527 0.49303877278 -0.13866700858 0.96345280133 0.49291974748 -0.13474019701 1.03763336136 0.47117681704 -0.16350339853 1.03430509710 0.47050760560 -0.15900704662 1.03038483812 0.46995006981 -0.15529026596 1.02567978697 0.46944039720 -0.15214886759 1.01999714622 0.46891477530 -0.14937866256 1.01314411841 0.46830939163 -0.14677546191 1.00492790610 0.46756043372 -0.14413507669 0.99515571185 0.46660408909 -0.14125331795 0.98363473820 0.46537654526 -0.13792599673 0.97017218772 0.46381398977 -0.13394892407 1.03763909823 0.45522041439 -0.16351094973 1.03433252867 0.45289737329 -0.15902810031 1.03050380206 0.45073627402 -0.15534518020 1.02600160618 0.44866850654 -0.15225037184 1.02067462883 0.44662546084 -0.14953185771 1.01437155778 0.44453852691 -0.14697782026 1.00694108083 0.44233909473 -0.14437644194 0.99823188574 0.43995855428 -0.14151590522 0.98809266032 0.43732829554 -0.13818439255 0.97637209233 0.43437970849 -0.13417008639 1.03731558470 0.43929056203 -0.16393490873 1.03411663335 0.43533186196 -0.15972786658 1.03044713524 0.43158735326 -0.15625976291 1.02620047907 0.42798321975 -0.15332631050 1.02127005355 0.42444564529 -0.15072322213 1.01554924740 0.42090081372 -0.14824621058 1.00893144933 0.41727490889 -0.14569098864 1.00131004805 0.41349411465 -0.14285326909 0.99257843228 0.40948461484 -0.13952876472 0.98262999071 0.40517259331 -0.13551318831 1.03666269684 0.42377671265 -0.16477507705 1.03365728758 0.41816104019 -0.16110754173 1.03021823134 0.41285611252 -0.15803931576 1.02629220235 0.40777057085 -0.15538879604 1.02182587486 0.40281305637 -0.15297437944 1.01676592311 0.39789221029 -0.15061446284 1.01105902135 0.39291667380 -0.14812744313 1.00465184382 0.38779508810 -0.14533171719 0.99749106476 0.38243609441 -0.14204568190 0.98952335842 0.37674833391 -0.13808773415 1.03568031073 0.40906831896 -0.16603125621 1.03295436780 0.40173487655 -0.16316832204 1.02982048405 0.39489535681 -0.16068914041 1.02629257276 0.38841659386 -0.15844994096 1.02238454724 0.38216542183 -0.15630695329 1.01811032076 0.37600867485 -0.15411640702 1.01348380660 0.36981318705 -0.15173453176 1.00851891807 0.36344579255 -0.14901755714 1.00322956844 0.35677332548 -0.14582171276 0.99762967100 0.34966261997 -0.14200322825 1.03436830246 0.39555483366 -0.16770324773 1.03200775043 0.38640333963 -0.16591140379 1.02925728705 0.37805789111 -0.16421453851 1.02621738705 0.37030732280 -0.16252185774 1.02298852518 0.36294046941 -0.16074256731 1.01967117619 0.35574616566 -0.15878587307 1.01636581483 0.34851324625 -0.15656098088 1.01317291585 0.34103054589 -0.15397709656 1.01019295399 0.33308689930 -0.15094342597 1.00752640401 0.32447114118 -0.14736917494 1.03493848204 0.53111246691 -0.17446043949 1.03218897686 0.53991597306 -0.17311500224 1.02830656727 0.54719212154 -0.17155517946 1.02280219480 0.55318331688 -0.16979606351 1.01518680102 0.55813196363 -0.16785274672 1.00497132749 0.56228046630 -0.16574032144 0.99166671575 0.56587122945 -0.16347388002 0.97478390736 0.56914665760 -0.16106851480 0.95383384387 0.57234915529 -0.15853931813 0.92832746685 0.57572112705 -0.15590138235 1.03662771648 0.51806869281 -0.17337451979 1.03347700220 0.52423615424 -0.17131342796 1.02934349582 0.52942651706 -0.16932735155 1.02377184601 0.53377920567 -0.16737601269 1.01630670144 0.53743364449 -0.16541913351 1.00649271077 0.54052925793 -0.16341643614 0.99387452268 0.54320547040 -0.16132764272 0.97799678584 0.54560170631 -0.15911247537 0.95840414893 0.54785739008 -0.15673065622 0.93464126060 0.55011194612 -0.15414190741 1.03789626672 0.50369229425 -0.17256228426 1.03444900896 0.50742756676 -0.16996571570 1.03014228576 0.51060239872 -0.16766231953 1.02454948668 0.51328683483 -0.16556883089 1.01724400129 0.51555091983 -0.16360198495 1.00779921917 0.51746469844 -0.16167851684 0.99578852989 0.51909821538 -0.15971516174 0.98078532301 0.52052151539 -0.15762865478 0.96236298812 0.52180464318 -0.15533573112 0.94009491479 0.52301764348 -0.15275312591 1.03874403629 0.48830252805 -0.17202356507 1.03510547258 0.48976527297 -0.16907290186 1.03070870980 0.49098268927 -0.16656454081 1.02515638687 0.49197934072 -0.16438439924 1.01805114273 0.49277979110 -0.16241839447 1.00899561632 0.49340860420 -0.16055244382 0.99759244657 0.49389034381 -0.15867246460 0.98344427241 0.49424957371 -0.15666437413 0.96615373279 0.49451085769 -0.15441408974 0.94532346663 0.49469875953 -0.15180752873 1.03917092875 0.47221865106 -0.17175819434 1.03544686850 0.47152433523 -0.16863602282 1.03104854066 0.47083031147 -0.16603847283 1.02561381664 0.47012985967 -0.16383259889 1.01878056789 0.46941625975 -0.16188545555 1.01018666584 0.46868279159 -0.16006409735 0.99946998193 0.46792273510 -0.15823557883 0.98626838759 0.46712937018 -0.15626695453 0.97021975427 0.46629597673 -0.15402527899 0.95096195339 0.46541583465 -0.15137760674 1.03917684761 0.45575992012 -0.17176600424 1.03547367217 0.45297981588 -0.16865611499 1.03116755107 0.45040818807 -0.16608857299 1.02594304606 0.44801152805 -0.16392331096 1.01948471891 0.44575632723 -0.16202026163 1.01147713136 0.44360907696 -0.16023935773 1.00160484517 0.44153626865 -0.15844053197 0.98955242210 0.43950439367 -0.15648371708 0.97500442389 0.43747994340 -0.15422884579 0.95764541230 0.43542940923 -0.15153585081 1.03876169642 0.43924559207 -0.17204682690 1.03518635901 0.43440677728 -0.16913421475 1.03107151375 0.42997924181 -0.16671929872 1.02616534520 0.42589748220 -0.16466641660 1.02021603793 0.42209599498 -0.16283990617 1.01297177651 0.41850927670 -0.16110410522 1.00418074550 0.41507182389 -0.15932335153 0.99359112947 0.41171813308 -0.15736198288 0.98095111298 0.40838270083 -0.15508433705 0.96600888060 0.40500002366 -0.15235475184 1.03792537872 0.42299492377 -0.17260049447 1.03458540448 0.41608028179 -0.17007135849 1.03076620143 0.40980639546 -0.16793510744 1.02630198412 0.40406085847 -0.16607179694 1.02102696710 0.39873126447 -0.16436148262 1.01477536491 0.39370520716 -0.16268422011 1.00738139212 0.38887028021 -0.16092006504 0.99867926326 0.38411407730 -0.15894907303 0.98850319288 0.37932419211 -0.15665129970 0.97668739553 0.37438821831 -0.15390680070 1.03666779804 0.40732717204 -0.17342683911 1.03367128401 0.39827539175 -0.17146858262 1.03025738683 0.39015257177 -0.16974045657 1.02637423288 0.38277479320 -0.16814933312 1.02196994854 0.37595813714 -0.16660208444 1.01699266020 0.36951868472 -0.16500558269 1.01139049423 0.36327251704 -0.16326670003 1.00511157701 0.35703571522 -0.16129230863 0.99810403492 0.35062436036 -0.15898928065 0.99031599435 0.34385453357 -0.15626448826 1.03498885792 0.39256159373 -0.17452569295 1.03244447304 0.38126716953 -0.17332692352 1.02955084267 0.37128069348 -0.17213980353 1.02640336155 0.36231242274 -0.17090890628 1.02309742441 0.35407261444 -0.16957880508 1.01972842599 0.34627152574 -0.16809407323 1.01639176103 0.33861941379 -0.16639928403 1.01318282427 0.33082653572 -0.16443901080 1.01019701044 0.32260314869 -0.16215782682 1.00752971429 0.31365950984 -0.15950030541 1.03535019532 0.53353610398 -0.18194020896 1.03247151886 0.54359703335 -0.18115186445 1.02845397806 0.55172302243 -0.18019784219 1.02277178281 0.55819150762 -0.17909944379 1.01489914303 0.56327992529 -0.17787797087 1.00431026864 0.56726571185 -0.17655472503 0.99047936955 0.57042630369 -0.17515100791 0.97288065567 0.57303913719 -0.17368812110 0.95098833691 0.57538164876 -0.17218736624 0.92427662319 0.57773127478 -0.17067004493 1.03728458166 0.51990856146 -0.18133049575 1.03395189123 0.52699035483 -0.18011880644 1.02961191487 0.53274392627 -0.17892423551 1.02374016621 0.53735671014 -0.17773224159 1.01581215887 0.54101614080 -0.17652828332 1.00530340650 0.54390965263 -0.17529781931 0.99168942272 0.54622468000 -0.17402630821 0.97444572117 0.54814865725 -0.17269920864 0.95304781547 0.54986901878 -0.17130197922 0.92697121926 0.55157319892 -0.16982007860 1.03873699607 0.50508080924 -0.18087543129 1.03506744952 0.50940581087 -0.17934722255 1.03049908217 0.51289817751 -0.17797403001 1.02451260769 0.51567980720 -0.17671351636 1.01658873980 0.51787259798 -0.17552334431 1.00620819217 0.51959844789 -0.17436117655 0.99285167852 0.52097925496 -0.17318467579 0.97599991252 0.52213691722 -0.17195150471 0.95513360788 0.52319333273 -0.17061932602 0.92973347828 0.52427039950 -0.16914580242 1.03970736123 0.48932530682 -0.18057486735 1.03581907071 0.49106852619 -0.17883777088 1.03112284214 0.49238877762 -0.17735013172 1.02511403081 0.49335867047 -0.17604965128 1.01728799201 0.49405081411 -0.17487403099 1.00714008103 0.49453781790 -0.17376097225 0.99416565317 0.49489229123 -0.17264817648 0.97786006372 0.49518684345 -0.17147334512 0.95771866797 0.49549408395 -0.17017417957 0.93323682121 0.49588662208 -0.16868838125 1.04019559979 0.47291451368 -0.18042865571 1.03620763177 0.47220362554 -0.17859110955 1.03149055700 0.47141872807 -0.17705544670 1.02556935911 0.47059117159 -0.17574702956 1.01796902172 0.46975230644 -0.17459122049 1.00821452844 0.46893348296 -0.17351338190 0.99583086291 0.46816605146 -0.17243887616 0.98034300874 0.46748136229 -0.17129306566 0.96127594956 0.46691076578 -0.17000131279 0.93815466898 0.46648561225 -0.16848897993 1.04020163442 0.45612088933 -0.18043664815 1.03623400966 0.45303623365 -0.17860789665 1.03160958894 0.45019103031 -0.17709288099 1.02590351614 0.44757518222 -0.17581203436 1.01869093513 0.44517859227 -0.17468578997 1.00954698978 0.44299116333 -0.17363458100 0.99804682397 0.44100279831 -0.17257884066 0.98376558158 0.43920340009 -0.17143900213 0.96627840648 0.43758287155 -0.17013549861 0.94516044254 0.43613111560 -0.16858876330 1.03972538779 0.43921689328 -0.18059869646 1.03589908137 0.43379147524 -0.17888879028 1.03148730017 0.42890868582 -0.17746534062 1.02614142546 0.42450857402 -0.17625104890 1.01951283846 0.42053118884 -0.17516861657 1.01125292042 0.41691657931 -0.17414074507 1.00101305260 0.41360479442 -0.17309013584 0.98844461623 0.41053588319 -0.17193949033 0.97319899255 0.40764989461 -0.17061150997 0.95492756282 0.40488687770 -0.16902889622 1.03876678256 0.42247498500 -0.18091465240 1.03520372385 0.41469447505 -0.17943444856 1.03113105289 0.40777469604 -0.17817573163 1.02630801060 0.40158921862 -0.17707045635 1.02049383791 0.39601161345 -0.17605057742 1.01344777574 0.39091545118 -0.17504804958 1.00492906502 0.38617430245 -0.17399482755 0.99469694667 0.38166173794 -0.17282286605 0.98251066161 0.37725132829 -0.17146411980 0.96812945077 0.37281664415 -0.16985054352 1.03732574141 0.40616762401 -0.18138436777 1.03414881409 0.39597035782 -0.18024552958 1.03054820929 0.38699206245 -0.17922696008 1.02642819512 0.37901498770 -0.17827663990 1.02169303969 0.37182138335 -0.17734254969 1.01624701110 0.36519349921 -0.17637267006 1.00999437746 0.35891358506 -0.17531498165 1.00283940689 0.35276389070 -0.17411746509 0.99468636747 0.34652666592 -0.17272810102 0.98543952734 0.33998416053 -0.17109487006 1.03540218700 0.39056726981 -0.18200769434 1.03273522905 0.37784424828 -0.18132269144 1.02974613158 0.36676378652 -0.18062193199 1.02652690257 0.35698375290 -0.17987598275 1.02316955001 0.34816201582 -0.17905541050 1.01976608188 0.33995644369 -0.17813078199 1.01640850617 0.33202490488 -0.17707266399 1.01318883087 0.32402526781 -0.17585162326 1.01019906397 0.31561540085 -0.17443822657 1.00753121346 0.30645317241 -0.17280304068 1.03555556021 0.53474968136 -0.18981653395 1.03261224934 0.54543943414 -0.18955377461 1.02852709002 0.55399047864 -0.18923013834 1.02275593156 0.56069775883 -0.18885461752 1.01475462326 0.56585621868 -0.18843620455 1.00397901443 0.56976080216 -0.18798389181 0.98988495437 0.57270645325 -0.18750667167 0.97192829239 0.57498811592 -0.18701353653 0.94956487779 0.57690073415 -0.18651347876 0.92225055988 0.57873925191 -0.18601549074 1.03761250873 0.52083031915 -0.18962420188 1.03418877662 0.52836945420 -0.18922210681 1.02974551532 0.53440479483 -0.18882143703 1.02372367348 0.53914777877 -0.18841882287 1.01556419973 0.54280984373 -0.18801089465 1.00470804273 0.54560242746 -0.18759428269 0.99059615113 0.54773696766 -0.18716561733 0.97266947356 0.54942490207 -0.18672152888 0.95036895869 0.55087766841 -0.18625864768 0.92313555515 0.55230670441 -0.18577360405 1.03915684166 0.50577693568 -0.18948218634 1.03537609127 0.51039702264 -0.18897614177 1.03067685159 0.51404834081 -0.18851851609 1.02449349895 0.51687871922 -0.18809636208 1.01626040969 0.51903598694 -0.18769673253 1.00541196012 0.52066797301 -0.18730668021 0.99138252659 0.52192250647 -0.18691325789 0.97360648543 0.52294741638 -0.18650351835 0.95151821297 0.52389053179 -0.18606451437 0.92455208554 0.52489968175 -0.18558329873 1.04018849227 0.48983859175 -0.18939034787 1.03617527322 0.49172229595 -0.18881602479 1.03132925927 0.49309415838 -0.18832230192 1.02509216313 0.49405082044 -0.18788935512 1.01690569751 0.49468892356 -0.18749736026 1.00621157513 0.49510510914 -0.18712649321 0.99245150871 0.49539601861 -0.18675692983 0.97506721095 0.49565829338 -0.18636884598 0.95350039459 0.49598857487 -0.18594241754 0.92719277232 0.49648350449 -0.18545782036 1.04070739378 0.47326434818 -0.18934854699 1.03658740239 0.47254543062 -0.18874190119 1.03171089880 0.47171528934 -0.18823372093 1.02554642114 0.47082432265 -0.18779992193 1.01756250759 0.46992292883 -0.18741641990 1.00722769628 0.46906150619 -0.18705913056 0.99401052539 0.46829045301 -0.18670396963 0.97737953307 0.46766016759 -0.18632685283 0.95680325746 0.46722104822 -0.18590369589 0.93175023674 0.46702349320 -0.18541041451 1.04071347944 0.45630326576 -0.18935664425 1.03661355872 0.45306658311 -0.18875391631 1.03182993062 0.45008477550 -0.18825369956 1.02588302814 0.44735946608 -0.18783018246 1.01829328430 0.44489227802 -0.18745755349 1.00858113211 0.44268483447 -0.18711000110 0.99626700458 0.44073875858 -0.18676171377 0.98087133472 0.43905567351 -0.18638687995 0.96191455554 0.43763720242 -0.18595968811 0.93891710005 0.43648496846 -0.18545432673 1.04020668250 0.43920440531 -0.18941450017 1.03625482213 0.43348590992 -0.18885221545 1.03169451517 0.42837565865 -0.18838316420 1.02612873926 0.42381649098 -0.18798225668 1.01916047204 0.41975124638 -0.18762440310 1.01039269114 0.41612276432 -0.18728451370 0.99942837420 0.41287388426 -0.18693749872 0.98587049886 0.40994744568 -0.18655826838 0.96932204275 0.40728628804 -0.18612173293 0.94938598351 0.40483325081 -0.18560280260 1.03918693620 0.42221682763 -0.18952197530 1.03551227255 0.41400356752 -0.18903694393 1.03131281290 0.40676098059 -0.18862304129 1.02631030965 0.40035563757 -0.18825826452 1.02022651519 0.39465410916 -0.18792061078 1.01278318191 0.38952296605 -0.18758807721 1.00370206219 0.38482877897 -0.18723866096 0.99270490844 0.38043811860 -0.18685035919 0.97951347304 0.37621755566 -0.18640116904 0.96384950838 0.37203366085 -0.18586908768 1.03765417378 0.40558959353 -0.18967893016 1.03438698990 0.39481971239 -0.18930824709 1.03069298425 0.38541378313 -0.18897425724 1.02645449445 0.37713714610 -0.18866032595 1.02155385813 0.36975514161 -0.18834981858 1.01587341293 0.36303311001 -0.18802610047 1.00929549648 0.35673639163 -0.18767253697 1.00170244640 0.35063032680 -0.18727249341 0.99297660034 0.34448025585 -0.18680933515 0.98300029591 0.33805151913 -0.18626642753 1.03560832849 0.38957176380 -0.18988522530 1.03288005413 0.37613450101 -0.18966627023 1.02984318966 0.36450710807 -0.18943773845 1.02658804880 0.35432125679 -0.18919056092 1.02320494526 0.34520861899 -0.18891566858 1.01978419275 0.33680086652 -0.18860399236 1.01641610499 0.32872967117 -0.18824646323 1.01319099570 0.32062670479 -0.18783401212 1.01019917858 0.31212363920 -0.18735756997 1.00753096735 0.30285214622 -0.18680806774 1.03555460892 0.53475309265 -0.19782539870 1.03261121847 0.54544305572 -0.19807788868 1.02852595982 0.55399436260 -0.19839295730 1.02275469644 0.56070193885 -0.19876111646 1.01475329181 0.56586071005 -0.19917287805 1.00397760942 0.56976560175 -0.19961875396 0.98988351274 0.57271153951 -0.20008925609 0.97192686525 0.57499344890 -0.20057489633 0.94956353044 0.57690625549 -0.20106618657 0.92224937179 0.57874488484 -0.20155363871 1.03761152338 0.52083387933 -0.19803073564 1.03418769125 0.52837336220 -0.19842510226 1.02974433053 0.53440903244 -0.19881922369 1.02372239670 0.53915232464 -0.19921605629 1.01556284526 0.54281467335 -0.19961855642 1.00470663172 0.54560751318 -0.20002968046 0.99059471157 0.54774227869 -0.20045238476 0.97266804030 0.54943040446 -0.20088962570 0.95036757343 0.55088332508 -0.20134435963 0.92313426645 0.55231247512 -0.20181954292 1.03915582502 0.50578060181 -0.19818698124 1.03537495627 0.51040113359 -0.19868780274 1.03067561322 0.51405282650 -0.19914092611 1.02449217376 0.51688351891 -0.19955896139 1.01625901576 0.51904104920 -0.19995451856 1.00541051712 0.52067325575 -0.20034020764 0.99138105574 0.52192797693 -0.20072863863 0.97360500950 0.52295305111 -0.20113242155 0.95151675629 0.52389631668 -0.20156416640 0.92455067400 0.52490561201 -0.20203648318 1.04018744888 0.48984232101 -0.19829399404 1.03617409675 0.49172652825 -0.19886557205 1.03132797369 0.49309878921 -0.19935686202 1.02509079042 0.49405576408 -0.19978742449 1.01690425768 0.49469411305 -0.20017682000 1.00621008618 0.49511049631 -0.20054460908 0.99244998666 0.49540157406 -0.20091035227 0.97506566984 0.49566400649 -0.20129361010 0.95349884645 0.49599445379 -0.20171394312 0.92719122722 0.49648957615 -0.20219091186 1.04070633001 0.47326809781 -0.19835163255 1.03658619589 0.47254970454 -0.19895799215 1.03170957769 0.47171996502 -0.19946582886 1.02554500949 0.47082930254 -0.19989903835 1.01756102538 0.46992814035 -0.20028151629 1.00722615943 0.46906690172 -0.20063715835 0.99400894573 0.46829600992 -0.20098986022 0.97737791835 0.46766588822 -0.20136351755 0.95680161138 0.46722695988 -0.20178202603 0.93174855891 0.46702964817 -0.20226928133 1.04071240346 0.45630699314 -0.19835975531 1.03661233690 0.45307082080 -0.19896464498 1.03182859100 0.45008939837 -0.19946662406 1.02588159376 0.44736437667 -0.19989139568 1.01829177322 0.44489740654 -0.20026466296 1.00857955741 0.44269013882 -0.20061212903 0.99626537434 0.44074422434 -0.20095949704 0.98086965203 0.43906131393 -0.20133247011 0.96191281853 0.43764305844 -0.20175675138 0.93891530184 0.43649110869 -0.20225804397 1.04020560425 0.43920806787 -0.19831822082 1.03625360300 0.43349003541 -0.19888511250 1.03169317939 0.42838013370 -0.19935804509 1.02612730604 0.42382122888 -0.19976208923 1.01915895559 0.41975618710 -0.20012231556 1.01039110066 0.41612787447 -0.20046379470 0.99942671389 0.41287915715 -0.20081159730 0.98586876791 0.40995290127 -0.20119079398 0.96932023534 0.40729197296 -0.20162645538 0.94938408881 0.40483923836 -0.20214365214 1.03918586745 0.42222038293 -0.19822688763 1.03551107740 0.41400750671 -0.19871897663 1.03131150864 0.40676521545 -0.19913888937 1.02630890912 0.40036010157 -0.19950871173 1.02022502683 0.39465875746 -0.19985052962 1.01278160973 0.38952777553 -0.20018642893 1.00370040579 0.38483374819 -0.20053849555 0.99270316298 0.38044326786 -0.20092881537 0.97951162926 0.37622292693 -0.20137947430 0.96384755261 0.37203931781 -0.20191255822 1.03765312810 0.40559299921 -0.19808561426 1.03438584331 0.39482339307 -0.19846581934 1.03069174451 0.38541768807 -0.19880795436 1.02645316581 0.37714123711 -0.19912885593 1.02155244132 0.36975939307 -0.19944536070 1.01587190516 0.36303750884 -0.19977430529 1.00929389143 0.35674093730 -0.20013252634 1.00170073426 0.35063503133 -0.20053686049 0.99297476775 0.34448514383 -0.20100414436 0.98299832601 0.33805662767 -0.20155121458 1.03560732123 0.38957497761 -0.19789425922 1.03287898394 0.37613785283 -0.19812522257 1.02984205278 0.36451059600 -0.19836403749 1.02658683890 0.35432487792 -0.19862011456 1.02320365342 0.34521236940 -0.19890286433 1.01978280748 0.33680474126 -0.19922169737 1.01641461222 0.32873366430 -0.19958602425 1.01318937876 0.32063080932 -0.20000525553 1.01019741825 0.31212784715 -0.20048880179 1.00752904181 0.30285644858 -0.20104607359 1.03534737363 0.53354623143 -0.20570278742 1.03246847646 0.54360777836 -0.20648136265 1.02845064414 0.55173454675 -0.20742718850 1.02276813286 0.55820391604 -0.20851847236 1.01489519881 0.56329326568 -0.20973342163 1.00430609818 0.56727997514 -0.21105024369 0.99047508717 0.57044142384 -0.21244714595 0.97287642197 0.57305499125 -0.21390233578 0.95098435878 0.57539805682 -0.21539402059 0.92427315377 0.57774799999 -0.21690040777 1.03728165130 0.51991915545 -0.20632519447 1.03394866800 0.52700198869 -0.20752956595 1.02960839383 0.53275654881 -0.20871786303 1.02373636474 0.53737026082 -0.20990424161 1.01580811672 0.54103054974 -0.21110285756 1.00529918572 0.54392484059 -0.21232786680 0.99168510771 0.54624055838 -0.21359342520 0.97444141867 0.54816512814 -0.21491368867 0.95304365455 0.54988597488 -0.21630281310 0.92696735133 0.55159052361 -0.21777495438 1.03873396766 0.50509173591 -0.20679424780 1.03506406659 0.50941807523 -0.20831753483 1.03049538624 0.51291157247 -0.20968640842 1.02450864540 0.51569415428 -0.21094290759 1.01658456282 0.51788774727 -0.21212907134 1.00620385729 0.51961427808 -0.21328693868 0.99284724757 0.52099567334 -0.21445854861 0.97599545245 0.52215385967 -0.21568594016 0.95512919070 0.52321076370 -0.21701115232 0.92972918108 0.52428831206 -0.21847622410 1.03970425055 0.48933643274 -0.20710979327 1.03581555794 0.49108116908 -0.20884432115 1.03111899790 0.49240262779 -0.21032962267 1.02510991929 0.49337347484 -0.21162777315 1.01728367095 0.49406637619 -0.21280084789 1.00713560174 0.49455399781 -0.21391092221 0.99416106051 0.49490900568 -0.21502007142 0.97785539610 0.49520406576 -0.21619037084 0.95771395737 0.49551184402 -0.21748389577 0.93323209316 0.49590500643 -0.21896272153 1.04019242779 0.47292570585 -0.20727167675 1.03620402776 0.47221640138 -0.20910897681 1.03148660532 0.47143272484 -0.21064430382 1.02556513091 0.47060610094 -0.21195214114 1.01796457497 0.46976795442 -0.21310697217 1.00820990794 0.46894971000 -0.21418328029 0.99582610026 0.46818279239 -0.21525554888 0.98033812237 0.46749862634 -0.21639826131 0.96127094471 0.46692863656 -0.21768590098 0.93814953772 0.46650424778 -0.21919295126 1.04019842725 0.45613201518 -0.20727974410 1.03623036178 0.45304890325 -0.20911055370 1.03160558501 0.45020487367 -0.21062724987 1.02589922473 0.44758991103 -0.21190931442 1.01868640871 0.44519399989 -0.21303622914 1.00954226474 0.44300712484 -0.21408747581 0.99804192059 0.44101927046 -0.21514253623 0.98376050405 0.43922042134 -0.21628089219 0.96627314289 0.43760056206 -0.21758202548 0.94515496490 0.43614967719 -0.21912541789 1.03972217676 0.43922782064 -0.20713384119 1.03589544571 0.43380380581 -0.20884810369 1.03148331349 0.42892208436 -0.21027525887 1.02613714522 0.42452278352 -0.21149259584 1.01950830601 0.42054603050 -0.21257740373 1.01124816098 0.41693195254 -0.21360697165 1.00100807523 0.41362067686 -0.21465858872 0.98843941389 0.41055233068 -0.21580954406 0.97319354205 0.40766704123 -0.21713712678 0.95492182485 0.40490493572 -0.21871862601 1.03876360416 0.42248558218 -0.20683381387 1.03520016527 0.41470624018 -0.20832067867 1.03112716728 0.40778736696 -0.20958512882 1.02630383687 0.40160259685 -0.21069528825 1.02048940073 0.39602556420 -0.21171928090 1.01344308553 0.39092990333 -0.21272523071 1.00492411795 0.38618924858 -0.21378126160 0.99469172467 0.38167723430 -0.21495549753 0.98250513235 0.37726749481 -0.21631606242 0.96812356769 0.37283366446 -0.21793108021 1.03732263731 0.40617775971 -0.20637950802 1.03414540617 0.39598133749 -0.20752733053 1.03054452288 0.38700373154 -0.20855365775 1.02642424416 0.37902722947 -0.20951069449 1.02168882671 0.37183411888 -0.21045064559 1.01624252724 0.36520668739 -0.21142571586 1.00998960249 0.35892722260 -0.21248811013 1.00283430915 0.35277801211 -0.21369003321 0.99468090395 0.34654134353 -0.21508368992 0.98543364359 0.33999950447 -0.21672128509 1.03539920404 0.39057681315 -0.20577076949 1.03273205415 0.37785422885 -0.20646711115 1.02974275683 0.36677418816 -0.20717764368 1.02652331155 0.35699455980 -0.20793211743 1.02316571778 0.34817321249 -0.20876028276 1.01976197497 0.33996801495 -0.20969189001 1.01640408259 0.33203683590 -0.21075668954 1.01318404011 0.32403754404 -0.21198443168 1.01019384698 0.31562800811 -0.21340486680 1.00752550268 0.30646609682 -0.21504774524 1.03493388654 0.53112899127 -0.21318468434 1.03218407348 0.53993348234 -0.21452135250 1.02830119963 0.54721090352 -0.21607372133 1.02279629619 0.55320355872 -0.21782621698 1.01518039435 0.55815375186 -0.21976326555 1.00496452529 0.56230378685 -0.22186929319 0.99165972021 0.56589596762 -0.22412872601 0.97477701029 0.56917259808 -0.22652599014 0.95382742673 0.57237598216 -0.22904551171 0.92832200071 0.57574842375 -0.23167171684 1.03662291821 0.51808606098 -0.21428267584 1.03347173975 0.52425524353 -0.21633727107 1.02933773857 0.52944725363 -0.21831762263 1.02376560649 0.53380150040 -0.22026367859 1.01630003536 0.53745739297 -0.22221538699 1.00648571700 0.54055434048 -0.22421269589 0.99386734324 0.54323175205 -0.22629555335 0.97798960593 0.54562903680 -0.22850390741 0.95839719690 0.54788560388 -0.23087770613 0.93463480797 0.55014086242 -0.23345689757 1.03789129114 0.50371026625 -0.21510841783 1.03444344429 0.50744777905 -0.21770066741 1.03013618983 0.51062451661 -0.22000011134 1.02454292717 0.51331057333 -0.22208979400 1.01723705567 0.51557604364 -0.22405275981 1.00779197472 0.51749102196 -0.22597205315 0.99578108372 0.51912560271 -0.22793071842 0.98077778204 0.52054988029 -0.23001180003 0.96235546908 0.52183394914 -0.23229834236 0.94008754422 0.52304790367 -0.23487338982 1.03873891673 0.48832086510 -0.21566173298 1.03509967343 0.48978616444 -0.21861018057 1.03070234442 0.49100563179 -0.22111639449 1.02514955634 0.49200392617 -0.22329431482 1.01804393579 0.49280570658 -0.22525788163 1.00898810938 0.49343563204 -0.22712103497 0.99758470373 0.49391836157 -0.22899771493 0.98343634544 0.49427855419 -0.23100186157 0.96614566112 0.49454086889 -0.23324741496 0.94531527740 0.49472996471 -0.23584831517 1.03916570642 0.47223711555 -0.21594244396 1.03544091352 0.47154547524 -0.21906444958 1.03104199334 0.47085353853 -0.22166167915 1.02560679216 0.47015470756 -0.22386699266 1.01877315625 0.46944238449 -0.22581325008 1.01017893189 0.46870997146 -0.22763331139 0.99946196535 0.46795087062 -0.22946003658 0.98626010291 0.46715848412 -0.23142628562 0.97021119085 0.46632621409 -0.23366491849 0.95095307543 0.46544746270 -0.23630879516 1.03917157160 0.45577827561 -0.21595037342 1.03546765091 0.45300078698 -0.21906211347 1.03116092757 0.45043117615 -0.22163117235 1.02593593274 0.44803606618 -0.22379757912 1.01947719756 0.44578208010 -0.22570136280 1.01146925316 0.44363584097 -0.22748255244 1.00159663069 0.44156397183 -0.22928117708 0.98954386128 0.43953309573 -0.23123726575 0.97499547608 0.43750983571 -0.23349084751 0.95763600624 0.43546081483 -0.23618195138 1.03875642371 0.43926360331 -0.21568534405 1.03518037194 0.43442717521 -0.21860181128 1.03106493813 0.43000148401 -0.22102008115 1.02615827623 0.42592115066 -0.22307582580 1.02020854023 0.42212079611 -0.22490471741 1.01296388410 0.41853504129 -0.22664242813 1.00417246181 0.41509850715 -0.22842463012 0.99358242734 0.41174581464 -0.23038699555 0.98094193466 0.40841158470 -0.23266519658 0.96599913775 0.40503043827 -0.23539490537 1.03792017416 0.42301235665 -0.21514717849 1.03457956298 0.41609971546 -0.21768218206 1.03075981600 0.40982740144 -0.21982361259 1.02629512075 0.40408310968 -0.22169148433 1.02101966479 0.39875453524 -0.22340581154 1.01476763563 0.39372937318 -0.22508660849 1.00737322082 0.38889531858 -0.22685388942 0.99867060790 0.38414006650 -0.22882766859 0.98849398441 0.37935131202 -0.23112796027 0.97667753789 0.37441675020 -0.23387477871 1.03666273435 0.40734379365 -0.21433569942 1.03366571035 0.39829348327 -0.21630186483 1.03025135219 0.39017186779 -0.21803697371 1.02636776445 0.38279509189 -0.21963430630 1.02196305174 0.37597930020 -0.22118714283 1.01698531866 0.36954063738 -0.22278876354 1.01138266980 0.36329524807 -0.22453244867 1.00510320977 0.35705927694 -0.22651147846 0.99809504317 0.35064886864 -0.22881913314 0.99030627459 0.34388016781 -0.23154869296 1.03498401572 0.39257717234 -0.21325072950 1.03243930042 0.38128355418 -0.21445949864 1.02954533769 0.37129782240 -0.21565537157 1.02639750544 0.36233024594 -0.21689404332 1.02309118160 0.35409109370 -0.21823120890 1.01972174410 0.34629063462 -0.21972256331 1.01638457084 0.33863913761 -0.22142380159 1.01317503975 0.33084687160 -0.22339061873 1.01018852876 0.32262410551 -0.22567870976 1.00752041578 0.31368110826 -0.22834376968 1.03431417985 0.52750126576 -0.22000707369 1.03175805972 0.53442004795 -0.22195501421 1.02807768298 0.54042330536 -0.22407344522 1.02283924185 0.54570073524 -0.22638388207 1.01560892855 0.55044203484 -0.22890784010 1.00595293532 0.55483690142 -0.23166683465 0.99343745438 0.55907503223 -0.23468238106 0.97762867794 0.56334612452 -0.23797599467 0.95809279823 0.56783987554 -0.24156919082 0.93439600747 0.57274598254 -0.24548348485 1.03563534979 0.51533450935 -0.22167827721 1.03275693938 0.52013303657 -0.22464999078 1.02893239810 0.52448105660 -0.22741877004 1.02381015082 0.52844595645 -0.23007466700 1.01703862244 0.53209512312 -0.23270773363 1.00826623781 0.53549594363 -0.23540802193 0.99714142183 0.53871580497 -0.23826558389 0.98331259937 0.54182209416 -0.24137047150 0.96642819532 0.54488219820 -0.24481273676 0.94613663454 0.54796350409 -0.24868243165 1.03662781696 0.50163612108 -0.22293392316 1.03351311142 0.50449017658 -0.22667252987 1.02959804318 0.50719159679 -0.22992718320 1.02459503236 0.50973272409 -0.23284121395 1.01821649910 0.51210590082 -0.23555795292 1.01017486353 0.51430346935 -0.23822073088 1.00018254579 0.51631777204 -0.24097287865 0.98795196601 0.51814115124 -0.24395772701 0.97319554433 0.51976594931 -0.24731860676 0.95562570087 0.52118450862 -0.25119884869 1.03729146691 0.48679555625 -0.22377380058 1.03402645985 0.48784146032 -0.22802105879 1.03007802576 0.48890775888 -0.23159298812 1.02520970818 0.48994709151 -0.23467096326 1.01918505063 0.49091209782 -0.23743635890 1.01176759666 0.49175541740 -0.24007054973 1.00272088979 0.49242968985 -0.24275491042 0.99180847357 0.49288755476 -0.24567081567 0.97879389153 0.49308165173 -0.24899964015 0.96344068720 0.49296462036 -0.25292275856 1.03762618518 0.47120227018 -0.22419769853 1.03429686866 0.47053688018 -0.22869400483 1.03037575339 0.46998237581 -0.23241048820 1.02566999999 0.46947511208 -0.23555135523 1.01998676910 0.46895144400 -0.23832081252 1.01313322134 0.46834772657 -0.24092306667 1.00491651734 0.46760031480 -0.24356232429 0.99514381775 0.46664556371 -0.24644279197 0.98362228318 0.46541982829 -0.24976867630 0.97015907427 0.46385946357 -0.25374418389 1.03763185730 0.45524571818 -0.22420540604 1.03432422185 0.45292642852 -0.22868979531 1.03049463361 0.45076828055 -0.23237398686 1.02599172952 0.44870283916 -0.23546983017 1.02066414658 0.44666166924 -0.23818917470 1.01436052174 0.44457633566 -0.24074386993 1.00692949197 0.44237840331 -0.24334576533 0.99821969426 0.43999943707 -0.24620671038 0.98807976556 0.43737100184 -0.24953855454 0.97635834284 0.43442466248 -0.25355314729 1.03730836881 0.43931535555 -0.22379671217 1.03410840343 0.43536009769 -0.22800685754 1.03043807395 0.43161830604 -0.23147778754 1.02619071849 0.42801632612 -0.23441382840 1.02125967515 0.42448050342 -0.23701930638 1.01553828202 0.42093718347 -0.23949854771 1.00891987720 0.41731271178 -0.24205587864 1.00129779880 0.41353343386 -0.24489562540 0.99256538492 0.40952569521 -0.24822211423 0.98261597365 0.40521584136 -0.25223967138 1.03665560526 0.42380063762 -0.22297140595 1.03364929738 0.41818788008 -0.22664361881 1.03020948198 0.41288528525 -0.22971619363 1.02628278862 0.40780162631 -0.23237079024 1.02181584689 0.40284567644 -0.23478906849 1.01675528634 0.39792620882 -0.23715268822 1.01104773655 0.39295199663 -0.23964330928 1.00463982709 0.38783181305 -0.24244259149 0.99747818753 0.38247443126 -0.24573219471 0.98950944744 0.37678862445 -0.24969377877 1.03567345218 0.40909101969 -0.22172927643 1.03294678772 0.40175976804 -0.22459850644 1.02981226522 0.39492205111 -0.22708350856 1.02628376163 0.38844479309 -0.22932815600 1.02237515387 0.38219491816 -0.23147632197 1.01810031886 0.37603935049 -0.23367187968 1.01347313354 0.36984501426 -0.23605870233 1.00850747483 0.36347883365 -0.23878066314 1.00321721966 0.35680773283 -0.24198163532 0.99761624496 0.34969863599 -0.24580549208 1.03436179511 0.39557595708 -0.22007011265 1.03200075843 0.38642575393 -0.22186994773 1.02924983123 0.37808143659 -0.22357403575 1.02620945924 0.37033187984 -0.22527336599 1.02298008817 0.36296595848 -0.22705892775 1.01966216375 0.35577254729 -0.22902171028 1.01635613169 0.34854052108 -0.23125270289 1.01316243773 0.34105875464 -0.23384289484 1.01018152757 0.33311612276 -0.23688327542 1.00751384695 0.32450150023 -0.24046483392 1.03348828577 0.52266294849 -0.22590593970 1.03119048537 0.52706735546 -0.22853950376 1.02778015084 0.53137162470 -0.23116724957 1.02289702521 0.53569531394 -0.23389099940 1.01618085153 0.54015798091 -0.23681257555 1.00727137284 0.54487918337 -0.24003380028 0.99580833220 0.54997847904 -0.24365649589 0.98143147263 0.55557542567 -0.24778248464 0.96378053719 0.56178958099 -0.25251358883 0.94249526892 0.56874050274 -0.25795163073 1.03431897174 0.51166441404 -0.22828709603 1.03180429976 0.51463527767 -0.23226949826 1.02839240576 0.51785786743 -0.23582157283 1.02387002661 0.52130354205 -0.23911750659 1.01802389920 0.52494366027 -0.24233148639 1.01064076042 0.52874958083 -0.24563769908 1.00150734715 0.53269266246 -0.24921033151 0.99041039627 0.53674426391 -0.25322357054 0.97713664466 0.54087574390 -0.25785160302 0.96147282922 0.54505846119 -0.26326861579 1.03494356668 0.49886922867 -0.23007519559 1.03227309007 0.50054519930 -0.23506845157 1.02888096546 0.50261275091 -0.23931277236 1.02466497428 0.50496055456 -0.24303876076 1.01952289793 0.50747728131 -0.24647701961 1.01335251784 0.51005160222 -0.24985815171 1.00605161542 0.51257218835 -0.25341275988 0.99751797211 0.51492771076 -0.25737144695 0.98764936931 0.51700684051 -0.26196481572 0.97634358844 0.51869824867 -0.26742346903 1.03536192056 0.48476044435 -0.23126998349 1.03259593386 0.48524700272 -0.23693486428 1.02924605442 0.48610896672 -0.24163521417 1.02529038139 0.48720294432 -0.24564163220 1.02070701392 0.48838554351 -0.24922471741 1.01547405113 0.48951337228 -0.25265506884 1.00956959218 0.49044303860 -0.25620328552 1.00297173622 0.49103115047 -0.26013996650 0.99565858238 0.49113431586 -0.26473571082 0.98760822980 0.49060914276 -0.27026111751 1.03557388338 0.46982111300 -0.23187120483 1.03277190871 0.46919057029 -0.23786723697 1.02948789712 0.46881920643 -0.24278326430 1.02575476116 0.46856730419 -0.24691299119 1.02160541339 0.46829514637 -0.25055012201 1.01707276635 0.46786301575 -0.25398836115 1.01218973259 0.46713119512 -0.25752141297 1.00698922466 0.46595996726 -0.26144298185 1.00150415511 0.46420961497 -0.26604677217 0.99576743649 0.46174042102 -0.27162648831 1.03557930512 0.45453428659 -0.23187860474 1.03280009218 0.45282578439 -0.23786407025 1.02960671803 0.45121616161 -0.24275128878 1.02606662678 0.44959022702 -0.24683970800 1.02224726257 0.44783278935 -0.25042877562 1.01821606953 0.44582865736 -0.25381793930 1.01404049180 0.44346263978 -0.25730664675 1.00978797350 0.44061954538 -0.26119434564 1.00552595876 0.43718418288 -0.26578048367 1.00132189172 0.43304136104 -0.27136450851 1.03537803577 0.43938301706 -0.23129192833 1.03267956186 0.43660252736 -0.23692386471 1.02960274163 0.43377252385 -0.24153365363 1.02623449144 0.43080830566 -0.24540865293 1.02266172768 0.42762517195 -0.24883622044 1.01897136673 0.42413842185 -0.25210371399 1.01525032497 0.42026335451 -0.25549849141 1.01158551879 0.41591526905 -0.25930791053 1.00806386457 0.41100946463 -0.26381932918 1.00477227869 0.40546124038 -0.26932010520 1.03496992531 0.42485035637 -0.23011092071 1.03240939532 0.42097068158 -0.23504512094 1.02947619240 0.41696098470 -0.23912472489 1.02626686833 0.41275813297 -0.24260669626 1.02287797493 0.40829899365 -0.24574799869 1.01940606398 0.40352043397 -0.24880559587 1.01594768727 0.39835932118 -0.25203645147 1.01259939661 0.39275252252 -0.25569752915 1.00945774379 0.38663690526 -0.26004579258 1.00661928059 0.37994933662 -0.26533820545 1.03435482373 0.41141935645 -0.22833532700 1.03198867012 0.40638012942 -0.23222633953 1.02922729481 0.40125423575 -0.23551886860 1.02617227066 0.39597630181 -0.23842070826 1.02292517055 0.39048095392 -0.24113965258 1.01958756732 0.38470281844 -0.24388349563 1.01626103386 0.37857652169 -0.24686003146 1.01304714301 0.37203669003 -0.25027705415 1.01004746765 0.36501794979 -0.25434235775 1.00736358064 0.35745492731 -0.25926373634 1.03353258102 0.39957306927 -0.22596489232 1.03141646384 0.39328075323 -0.22846602109 1.02885627335 0.38712496858 -0.23071045077 1.02595921162 0.38099940502 -0.23283755922 1.02283248075 0.37479775226 -0.23498672432 1.01958328281 0.36841370000 -0.23729732393 1.01631881989 0.36174093795 -0.23990873593 1.01314629406 0.35467315580 -0.24296033819 1.01017290741 0.34710404327 -0.24659150857 1.00750586203 0.33892729004 -0.25094162494 </DataArray>
</Points>
</Piece>
</StructuredGrid>
</VTKFile>
