<?xml version="1.0"?>
<VTKFile type="StructuredGrid" version="0.1">
<StructuredGrid WholeExtent="0 9 0 9 0 9">
<Piece Extent="0 9 0 9 0 9">
<PointData>
<DataArray type="Float32" Name="Deformation" format="ascii" NumberOfComponents="3">
-0.00020065097 0.00041292543 -0.00018953544 -0.00020433709 0.00033148639 -0.00015736802 -0.00020176290 0.00025782116 -0.00013398934 -0.00019376421 0.00019204156 -0.00011880932 -0.00018117682 0.00013425940 -0.00011123790 -0.00016483654 0.00008458651 -0.00011068503 -0.00014557917 0.00004313469 -0.00011656065 -0.00012424051 0.00001001576 -0.00012827470 -0.00010165638 -0.00001465845 -0.00014523711 -0.00007866257 -0.00003077614 -0.00016685783 -0.00017085620 0.00041594479 -0.00025197024 -0.00017065876 0.00034246360 -0.00022827201 -0.00016623485 0.00027384255 -0.00020998398 -0.00015824962 0.00021113778 -0.00019716392 -0.00014736823 0.00015540543 -0.00018986960 -0.00013425582 0.00010770166 -0.00018815878 -0.00011957754 0.00006908259 -0.00019208924 -0.00010399856 0.00004060438 -0.00020171874 -0.00008818402 0.00002332316 -0.00021710505 -0.00007279908 0.00001829507 -0.00023830594 -0.00014384536 0.00042049496 -0.00031685578 -0.00014158658 0.00035245193 -0.00029826571 -0.00013637036 0.00028761180 -0.00028309417 -0.00012876423 0.00022758497 -0.00027175442 -0.00011933571 0.00017398187 -0.00026465976 -0.00010865233 0.00012841290 -0.00026222345 -0.00009728164 0.00009248849 -0.00026485877 -0.00008579114 0.00006781903 -0.00027297901 -0.00007474838 0.00005601496 -0.00028699744 -0.00006472088 0.00005868667 -0.00030732733 -0.00011951939 0.00042618297 -0.00038299146 -0.00011657732 0.00036157823 -0.00036691905 -0.00011135299 0.00029949329 -0.00035335211 -0.00010437062 0.00024178410 -0.00034283323 -0.00009615442 0.00019030662 -0.00033590497 -0.00008722861 0.00014691682 -0.00033310990 -0.00007811741 0.00011347064 -0.00033499058 -0.00006934503 0.00009182405 -0.00034208959 -0.00006143569 0.00008383301 -0.00035494949 -0.00005491360 0.00009135347 -0.00037411286 -0.00009777921 0.00043261582 -0.00044917667 -0.00009508773 0.00036996932 -0.00043380192 -0.00009036629 0.00030985138 -0.00042079003 -0.00008413138 0.00025413610 -0.00041065276 -0.00007689951 0.00020469760 -0.00040390183 -0.00006918716 0.00016340997 -0.00040104900 -0.00006151083 0.00013214732 -0.00040260600 -0.00005438702 0.00011278375 -0.00040908457 -0.00004833220 0.00010719337 -0.00042099646 -0.00004386289 0.00011725029 -0.00043885341 -0.00007852576 0.00043940054 -0.00051421080 -0.00007657459 0.00037775204 -0.00049848424 -0.00007259383 0.00031905044 -0.00048544014 -0.00006710913 0.00026504194 -0.00047546541 -0.00006064614 0.00021747271 -0.00046894693 -0.00005373050 0.00017808893 -0.00046627161 -0.00004688786 0.00014863679 -0.00046782634 -0.00004064386 0.00013086245 -0.00047399803 -0.00003552415 0.00012651210 -0.00048517356 -0.00003205437 0.00013733192 -0.00050173984 -0.00006165997 0.00044614415 -0.00057689323 -0.00006049466 0.00038505321 -0.00056053592 -0.00005721917 0.00032745484 -0.00054733466 -0.00005236645 0.00027490256 -0.00053752360 -0.00004646946 0.00022894987 -0.00053133686 -0.00004006114 0.00019115028 -0.00052900860 -0.00003367445 0.00016305730 -0.00053077295 -0.00002784234 0.00014622445 -0.00053686405 -0.00002309777 0.00014220524 -0.00054751604 -0.00001997367 0.00015255318 -0.00056296305 -0.00004708278 0.00045245367 -0.00063602337 -0.00004630472 0.00039199968 -0.00061952687 -0.00004342587 0.00033542895 -0.00060650580 -0.00003896594 0.00028411891 -0.00059707973 -0.00003344462 0.00023944697 -0.00059136822 -0.00002738159 0.00020279057 -0.00058949084 -0.00002129657 0.00017552714 -0.00059156715 -0.00001570923 0.00015903409 -0.00059771672 -0.00001113929 0.00015468886 -0.00060805911 -0.00000810642 0.00016386888 -0.00062271389 -0.00003469511 0.00045793610 -0.00069040061 -0.00003346152 0.00039871827 -0.00067502701 -0.00003039750 0.00034333713 -0.00066298578 -0.00002597020 0.00029309194 -0.00065438622 -0.00002064677 0.00024928194 -0.00064933759 -0.00001489438 0.00021320640 -0.00064794918 -0.00000918017 0.00018616456 -0.00065033026 -0.00000397132 0.00016945568 -0.00065659012 0.00000026504 0.00016437902 -0.00066683802 0.00000306174 0.00017223383 -0.00068118325 -0.00002439789 0.00046219849 -0.00073882433 -0.00002142184 0.00040533582 -0.00072660623 -0.00001731761 0.00035154375 -0.00071680682 -0.00001244181 0.00030222260 -0.00070969548 -0.00000715108 0.00025877268 -0.00070554158 -0.00000180201 0.00022259431 -0.00070461450 0.00000324877 0.00019508782 -0.00070718362 0.00000764464 0.00017765354 -0.00071351833 0.00001102899 0.00017169177 -0.00072388800 0.00001304520 0.00017860284 -0.00073856200 -0.00020561160 0.00049172276 -0.00020471652 -0.00020412446 0.00042804447 -0.00018823250 -0.00019838652 0.00036693974 -0.00017768307 -0.00018884240 0.00030890863 -0.00017268946 -0.00017593670 0.00025445121 -0.00017287290 -0.00016011403 0.00020406754 -0.00017785464 -0.00014181901 0.00015825769 -0.00018725591 -0.00012149623 0.00011752171 -0.00020069795 -0.00009959031 0.00008235967 -0.00021780198 -0.00007654587 0.00005327163 -0.00023818925 -0.00017227912 0.00049189394 -0.00027198309 -0.00016949450 0.00043127974 -0.00025959669 -0.00016359281 0.00037257491 -0.00025082633 -0.00015500494 0.00031663043 -0.00024573005 -0.00014416179 0.00026429728 -0.00024436588 -0.00013149425 0.00021642644 -0.00024679184 -0.00011743321 0.00017386889 -0.00025306596 -0.00010240957 0.00013747561 -0.00026324626 -0.00008685421 0.00010809758 -0.00027739079 -0.00007119804 0.00008658578 -0.00029555755 -0.00014347360 0.00049335133 -0.00033889690 -0.00014002764 0.00043487665 -0.00032879003 -0.00013424767 0.00037802692 -0.00032092168 -0.00012655258 0.00032385547 -0.00031558501 -0.00011736128 0.00027341564 -0.00031307318 -0.00010709266 0.00022776075 -0.00031367936 -0.00009616562 0.00018794413 -0.00031769672 -0.00008499908 0.00015501911 -0.00032541841 -0.00007401192 0.00013003902 -0.00033713761 -0.00006362304 0.00011405719 -0.00035314748 -0.00011868048 0.00049586810 -0.00040496777 -0.00011504849 0.00043880590 -0.00039576337 -0.00010958506 0.00038336557 -0.00038815370 -0.00010269760 0.00033068545 -0.00038251183 -0.00009479351 0.00028190387 -0.00037921081 -0.00008628019 0.00023815917 -0.00037862371 -0.00007756503 0.00020058968 -0.00038112361 -0.00006905544 0.00017033375 -0.00038708355 -0.00006115881 0.00014852970 -0.00039687660 -0.00005428255 0.00013631589 -0.00041087584 -0.00009738522 0.00049921742 -0.00046970552 -0.00009388164 0.00044303822 -0.00046046751 -0.00008883894 0.00038866070 -0.00045270695 -0.00008265229 0.00033722207 -0.00044676799 -0.00007571684 0.00028985957 -0.00044299475 -0.00006842776 0.00024771042 -0.00044173139 -0.00006118020 0.00021191185 -0.00044332203 -0.00005436932 0.00018360109 -0.00044811083 -0.00004839028 0.00016391537 -0.00045644192 -0.00004363825 0.00015399191 -0.00046865944 -0.00007907327 0.00050317246 -0.00053261995 -0.00007585170 0.00044754433 -0.00052285327 -0.00007124327 0.00039398212 -0.00051476601 -0.00006562892 0.00034356704 -0.00050861099 -0.00005938961 0.00029738033 -0.00050464101 -0.00005290629 0.00025650322 -0.00050310887 -0.00004655990 0.00022201693 -0.00050426741 -0.00004073140 0.00019500269 -0.00050836941 -0.00003580172 0.00017654173 -0.00051566770 -0.00003215183 0.00016771528 -0.00052641508 -0.00006323009 0.00050750639 -0.00059322090 -0.00006028328 0.00045229494 -0.00058287148 -0.00005603200 0.00039939964 -0.00057451546 -0.00005083979 0.00034982206 -0.00056829833 -0.00004507018 0.00030456375 -0.00056436557 -0.00003908671 0.00026462629 -0.00056286268 -0.00003325292 0.00023101122 -0.00056393514 -0.00002793234 0.00020472011 -0.00056772845 -0.00002348852 0.00018675453 -0.00057438810 -0.00002028497 0.00017811604 -0.00058405957 -0.00004934111 0.00051199239 -0.00065101817 -0.00004650097 0.00045726077 -0.00064047296 -0.00004243909 0.00040498310 -0.00063213987 -0.00003749717 0.00035608883 -0.00062608749 -0.00003201689 0.00031150742 -0.00062238444 -0.00002633995 0.00027216833 -0.00062109929 -0.00002080803 0.00023900100 -0.00062230065 -0.00001576283 0.00021293490 -0.00062605711 -0.00001154605 0.00019489949 -0.00063243726 -0.00000849937 0.00018582421 -0.00064150972 -0.00003689180 0.00051640361 -0.00070552157 -0.00003382938 0.00046241253 -0.00069560851 -0.00002969851 0.00041080231 -0.00068782380 -0.00002481335 0.00036246906 -0.00068223598 -0.00001948809 0.00031830894 -0.00067891360 -0.00001403691 0.00027921807 -0.00067792520 -0.00000877400 0.00024609258 -0.00067933933 -0.00000401354 0.00021982863 -0.00068322453 -0.00000006972 0.00020132233 -0.00068964934 0.00000274329 0.00019146982 -0.00069868232 -0.00002536760 0.00052051323 -0.00075624093 -0.00002159312 0.00046772095 -0.00074822898 -0.00001704420 0.00041692708 -0.00074175185 -0.00001200060 0.00036906446 -0.00073700129 -0.00000674212 0.00032506589 -0.00073416906 -0.00000154853 0.00028586421 -0.00073344692 0.00000330039 0.00025239225 -0.00073502661 0.00000752486 0.00022558283 -0.00073909988 0.00001084510 0.00020636878 -0.00074585849 0.00001298132 0.00019568291 -0.00075549419 -0.00020310851 0.00056221833 -0.00022401624 -0.00019868332 0.00051114820 -0.00021823165 -0.00019138934 0.00045919822 -0.00021631104 -0.00018142561 0.00040704435 -0.00021807525 -0.00016899122 0.00035536255 -0.00022334514 -0.00015428521 0.00030482878 -0.00023194157 -0.00013750666 0.00025611899 -0.00024368540 -0.00011885462 0.00020990917 -0.00025839748 -0.00009852817 0.00016687525 -0.00027589868 -0.00007672635 0.00012769322 -0.00029600984 -0.00016956302 0.00056089791 -0.00029279453 -0.00016541568 0.00050973561 -0.00028838973 -0.00015895782 0.00045839671 -0.00028625896 -0.00015046334 0.00040754814 -0.00028649254 -0.00014020610 0.00035785687 -0.00028918077 -0.00012845999 0.00030998984 -0.00029441398 -0.00011549887 0.00026461402 -0.00030228247 -0.00010159664 0.00022239636 -0.00031287656 -0.00008702716 0.00018400380 -0.00032628656 -0.00007206432 0.00015010332 -0.00034260278 -0.00014115565 0.00056037928 -0.00035982001 -0.00013720656 0.00050920021 -0.00035592885 -0.00013140716 0.00045839374 -0.00035336466 -0.00012406794 0.00040861592 -0.00035235280 -0.00011549942 0.00036052281 -0.00035311865 -0.00010601212 0.00031477048 -0.00035588757 -0.00009591655 0.00027201499 -0.00036088494 -0.00008552323 0.00023291239 -0.00036833614 -0.00007514266 0.00019811874 -0.00037846653 -0.00006508536 0.00016829010 -0.00039150148 -0.00011718222 0.00056061393 -0.00042500540 -0.00011336170 0.00050948687 -0.00042099682 -0.00010806277 0.00045914266 -0.00041787041 -0.00010160292 0.00041022519 -0.00041588457 -0.00009429962 0.00036337837 -0.00041529769 -0.00008647036 0.00031924610 -0.00041636815 -0.00007843260 0.00027847229 -0.00041935435 -0.00007050383 0.00024170083 -0.00042451468 -0.00006300152 0.00020957562 -0.00043210753 -0.00005624316 0.00018274057 -0.00044239129 -0.00009693858 0.00056155338 -0.00048826344 -0.00009318679 0.00051054050 -0.00048374143 -0.00008825011 0.00046059683 -0.00048001850 -0.00008243180 0.00041235347 -0.00047731639 -0.00007603514 0.00036644153 -0.00047585682 -0.00006936342 0.00032349211 -0.00047586152 -0.00006271990 0.00028413632 -0.00047755222 -0.00005640786 0.00024900525 -0.00048115064 -0.00005073059 0.00021873002 -0.00048687851 -0.00004599134 0.00019394173 -0.00049495756 -0.00007972057 0.00056314913 -0.00054950688 -0.00007598757 0.00051230597 -0.00054431047 -0.00007129461 0.00046270958 -0.00054005119 -0.00006591809 0.00041497825 -0.00053687678 -0.00006013443 0.00036973026 -0.00053493497 -0.00005422005 0.00032758391 -0.00053437349 -0.00004845135 0.00028915747 -0.00053534008 -0.00004310477 0.00025506925 -0.00053798248 -0.00003845670 0.00022593752 -0.00054244842 -0.00003478358 0.00020238057 -0.00054888565 -0.00006482400 0.00056535268 -0.00060864843 -0.00006106975 0.00051472819 -0.00060285175 -0.00005652171 0.00046543428 -0.00059821078 -0.00005142530 0.00041807705 -0.00059479428 -0.00004602592 0.00037326256 -0.00059267105 -0.00004056897 0.00033159690 -0.00059190985 -0.00003529985 0.00029368615 -0.00059257945 -0.00003046397 0.00026013638 -0.00059474865 -0.00002630672 0.00023155367 -0.00059848621 -0.00002307351 0.00020854410 -0.00060386091 -0.00005154474 0.00056811554 -0.00066560085 -0.00004773903 0.00051775203 -0.00065951307 -0.00004325686 0.00046872426 -0.00065473953 -0.00003831696 0.00042162736 -0.00065129744 -0.00003313806 0.00037705640 -0.00064920399 -0.00002793893 0.00033560650 -0.00064847641 -0.00002293829 0.00029787274 -0.00064913188 -0.00001835490 0.00026445023 -0.00065118761 -0.00001440748 0.00023593405 -0.00065466082 -0.00001131480 0.00021291931 -0.00065956869 -0.00003917860 0.00057138922 -0.00072027686 -0.00003530115 0.00052132238 -0.00071444221 -0.00003082549 0.00047253288 -0.00070987972 -0.00002595656 0.00042560669 -0.00070661477 -0.00002089930 0.00038112978 -0.00070467272 -0.00001585866 0.00033968811 -0.00070407897 -0.00001103957 0.00030186765 -0.00070485887 -0.00000664699 0.00026825437 -0.00070703782 -0.00000288585 0.00023943423 -0.00071064119 0.00000003891 0.00021599321 -0.00071569435 -0.00002702142 0.00057512521 -0.00077258920 -0.00002306181 0.00052538414 -0.00076778698 -0.00001855304 0.00047681348 -0.00076387364 -0.00001370763 0.00042999255 -0.00076097481 -0.00000873807 0.00038550067 -0.00075921616 -0.00000385689 0.00034391713 -0.00075872333 0.00000072342 0.00030582126 -0.00075962197 0.00000479033 0.00027179237 -0.00076203774 0.00000813135 0.00024240978 -0.00076609628 0.00001053396 0.00021825279 -0.00077192324 -0.00019439980 0.00062391199 -0.00024594165 -0.00018872887 0.00058126114 -0.00024697982 -0.00018110350 0.00053564434 -0.00025038455 -0.00017158779 0.00048777126 -0.00025616201 -0.00016024588 0.00043835161 -0.00026431835 -0.00014714188 0.00038809507 -0.00027485974 -0.00013233993 0.00033771133 -0.00028779233 -0.00011590415 0.00028791009 -0.00030312230 -0.00009789866 0.00023940103 -0.00032085579 -0.00007838758 0.00019289385 -0.00034099898 -0.00016334632 0.00062205334 -0.00031361682 -0.00015873267 0.00057759218 -0.00031454191 -0.00015239897 0.00053153412 -0.00031673399 -0.00014452027 0.00048440374 -0.00032033997 -0.00013527160 0.00043672561 -0.00032550680 -0.00012482801 0.00038902429 -0.00033238140 -0.00011336454 0.00034182435 -0.00034111070 -0.00010105623 0.00029565035 -0.00035184164 -0.00008807813 0.00025102686 -0.00036472113 -0.00007460527 0.00020847844 -0.00037989612 -0.00013712020 0.00062040239 -0.00037925988 -0.00013314198 0.00057472798 -0.00037971561 -0.00012770709 0.00052840823 -0.00038079231 -0.00012104735 0.00048185279 -0.00038269116 -0.00011339459 0.00043547133 -0.00038561333 -0.00010498061 0.00038967348 -0.00038976002 -0.00009603723 0.00034486891 -0.00039533241 -0.00008679626 0.00030146728 -0.00040253168 -0.00007748953 0.00025987824 -0.00041155902 -0.00006834885 0.00022051144 -0.00042261561 -0.00011501150 0.00061908226 -0.00044294076 -0.00011133775 0.00057267608 -0.00044269440 -0.00010648051 0.00052623143 -0.00044277688 -0.00010068661 0.00048009867 -0.00044337992 -0.00009420288 0.00043462814 -0.00044469528 -0.00008727614 0.00039017020 -0.00044691466 -0.00008015322 0.00034707520 -0.00045022982 -0.00007308095 0.00030569350 -0.00045483248 -0.00006630615 0.00026637544 -0.00046091437 -0.00006007565 0.00022947139 -0.00046866723 -0.00009631025 0.00061821609 -0.00050472942 -0.00009270092 0.00057144399 -0.00050367176 -0.00008817188 0.00052496848 -0.00050290504 -0.00008295559 0.00047912161 -0.00050257065 -0.00007728450 0.00043423543 -0.00050280996 -0.00007139106 0.00039064200 -0.00050376438 -0.00006550774 0.00034867338 -0.00050557528 -0.00005986698 0.00030866160 -0.00050838406 -0.00005470125 0.00027093874 -0.00051233209 -0.00005024299 0.00023583684 -0.00051756076 -0.00008030651 0.00061792703 -0.00056469582 -0.00007661245 0.00057103924 -0.00056284119 -0.00007223387 0.00052458414 -0.00056139416 -0.00006737186 0.00047890187 -0.00056042769 -0.00006222749 0.00043433260 -0.00056001473 -0.00005700185 0.00039121646 -0.00056022824 -0.00005189601 0.00034989361 -0.00056114117 -0.00004711107 0.00031070421 -0.00056282646 -0.00004284811 0.00027398840 -0.00056535709 -0.00003930820 0.00024008634 -0.00056880599 -0.00006629032 0.00061833822 -0.00062290991 -0.00006245329 0.00057146935 -0.00062039617 -0.00005811914 0.00052504317 -0.00061846159 -0.00005345298 0.00047941971 -0.00061711542 -0.00004861989 0.00043495901 -0.00061636691 -0.00004378495 0.00039202112 -0.00061622530 -0.00003911327 0.00035096608 -0.00061669982 -0.00003476992 0.00031215392 -0.00061779974 -0.00003092000 0.00027594470 -0.00061953428 -0.00002772859 0.00024269844 -0.00062191271 -0.00005355173 0.00061957279 -0.00067944163 -0.00004960436 0.00057274184 -0.00067653018 -0.00004528034 0.00052631032 -0.00067432469 -0.00004071651 0.00048065536 -0.00067279822 -0.00003604972 0.00043615406 -0.00067192383 -0.00003141685 0.00039318355 -0.00067167461 -0.00002695473 0.00035212095 -0.00067202361 -0.00002280023 0.00031334336 -0.00067294392 -0.00001909019 0.00027722790 -0.00067440859 -0.00001596148 0.00024415170 -0.00067639069 -0.00004138078 0.00062175388 -0.00073436094 -0.00003744664 0.00057486423 -0.00073143673 -0.00003317013 0.00052835037 -0.00072920081 -0.00002868001 0.00048258908 -0.00072764044 -0.00002410504 0.00043795714 -0.00072674284 -0.00001957399 0.00039483132 -0.00072649524 -0.00001521562 0.00035358838 -0.00072688490 -0.00001115869 0.00031460511 -0.00072789904 -0.00000753197 0.00027825828 -0.00072952490 -0.00000446421 0.00024492466 -0.00073174973 -0.00002906751 0.00062500464 -0.00078773779 -0.00002536105 0.00057784404 -0.00078530928 -0.00002124116 0.00053112806 -0.00078330732 -0.00001686104 0.00048520113 -0.00078180645 -0.00001237387 0.00044040763 -0.00078088125 -0.00000793285 0.00039709197 -0.00078060626 -0.00000369117 0.00035559856 -0.00078105604 0.00000019798 0.00031627181 -0.00078230515 0.00000358140 0.00027945611 -0.00078442815 0.00000630591 0.00024549586 -0.00078749960 -0.00018074360 0.00067630360 -0.00026899982 -0.00017497633 0.00063884684 -0.00027409134 -0.00016786117 0.00059732580 -0.00028041492 -0.00015940287 0.00055241191 -0.00028814506 -0.00014960619 0.00050477659 -0.00029745628 -0.00013847586 0.00045509129 -0.00030852308 -0.00012601664 0.00040402742 -0.00032151995 -0.00011223328 0.00035225642 -0.00033662140 -0.00009713051 0.00030044972 -0.00035400193 -0.00008071310 0.00024927875 -0.00037383606 -0.00015426744 0.00067445689 -0.00033366222 -0.00014975585 0.00063461038 -0.00033794401 -0.00014398532 0.00059221335 -0.00034270354 -0.00013707117 0.00054771010 -0.00034816097 -0.00012912872 0.00050154495 -0.00035453651 -0.00012027330 0.00045416222 -0.00036205032 -0.00011062022 0.00040600624 -0.00037092260 -0.00010028482 0.00035752131 -0.00038137352 -0.00008938240 0.00030915177 -0.00039362328 -0.00007802829 0.00026134191 -0.00040789205 -0.00013159595 0.00067224424 -0.00039685127 -0.00012785250 0.00063076532 -0.00040018376 -0.00012300573 0.00058776638 -0.00040357386 -0.00011722788 0.00054355259 -0.00040723345 -0.00011069122 0.00049842911 -0.00041137444 -0.00010356799 0.00045270110 -0.00041620869 -0.00009603045 0.00040667374 -0.00042194810 -0.00008825085 0.00036065220 -0.00042880455 -0.00008040146 0.00031494163 -0.00043698993 -0.00007265451 0.00026984721 -0.00044671613 -0.00011215519 0.00066993486 -0.00045861026 -0.00010879742 0.00062742845 -0.00046093111 -0.00010453265 0.00058403878 -0.00046314771 -0.00009954870 0.00054000122 -0.00046542633 -0.00009403339 0.00049555117 -0.00046793324 -0.00008817455 0.00045092402 -0.00047083471 -0.00008215999 0.00040635515 -0.00047429702 -0.00007617754 0.00036207996 -0.00047848643 -0.00007041502 0.00031833384 -0.00048356922 -0.00006506025 0.00027535217 -0.00048971167 -0.00009537119 0.00066779793 -0.00051898243 -0.00009212174 0.00062471656 -0.00052030661 -0.00008817636 0.00058108438 -0.00052154695 -0.00008370933 0.00053711781 -0.00052280345 -0.00007889498 0.00049303324 -0.00052417611 -0.00007390760 0.00044904706 -0.00052576495 -0.00006892151 0.00040537568 -0.00052766995 -0.00006411101 0.00036223550 -0.00052999113 -0.00005965041 0.00031984290 -0.00053282849 -0.00005571401 0.00027841430 -0.00053628202 -0.00008066999 0.00066610264 -0.00057801106 -0.00007735659 0.00062274642 -0.00057843078 -0.00007354709 0.00057895707 -0.00057889339 -0.00006938546 0.00053496420 -0.00057942863 -0.00006501570 0.00049099742 -0.00058006623 -0.00006058178 0.00044728634 -0.00058083593 -0.00005622769 0.00040406056 -0.00058176747 -0.00005209742 0.00036154969 -0.00058289060 -0.00004833494 0.00031998334 -0.00058423505 -0.00004508426 0.00027959111 -0.00058583056 -0.00006747763 0.00066511819 -0.00063573940 -0.00006403311 0.00062163484 -0.00063542416 -0.00006025512 0.00057771071 -0.00063530888 -0.00005625280 0.00053360223 -0.00063536570 -0.00005213528 0.00048956583 -0.00063556676 -0.00004801170 0.00044585794 -0.00063588420 -0.00004399120 0.00040273499 -0.00063629017 -0.00004018291 0.00036045342 -0.00063675680 -0.00003669596 0.00031926966 -0.00063725624 -0.00003363949 0.00027944013 -0.00063776063 -0.00005522016 0.00066511376 -0.00069221072 -0.00005168242 0.00062149860 -0.00069140729 -0.00004791070 0.00057739916 -0.00069091525 -0.00004398703 0.00053309371 -0.00069067850 -0.00003999345 0.00048886055 -0.00069064090 -0.00003601200 0.00044497796 -0.00069074632 -0.00003212471 0.00040172421 -0.00069093862 -0.00002841362 0.00035937759 -0.00069116169 -0.00002496078 0.00031821638 -0.00069135940 -0.00002184821 0.00027851887 -0.00069147560 -0.00004332361 0.00066635854 -0.00074746829 -0.00003983567 0.00062245449 -0.00074650069 -0.00003612409 0.00057807628 -0.00074583435 -0.00003226386 0.00053350050 -0.00074543086 -0.00002832993 0.00048900371 -0.00074525182 -0.00002439728 0.00044486250 -0.00074525881 -0.00002054088 0.00040135343 -0.00074541342 -0.00001683571 0.00035875308 -0.00074567723 -0.00001335672 0.00031733802 -0.00074601184 -0.00001017889 0.00027738483 -0.00074637883 -0.00003121402 0.00066912173 -0.00080155537 -0.00002802397 0.00062461929 -0.00080082490 -0.00002450555 0.00057979594 -0.00080018800 -0.00002075897 0.00053488440 -0.00079968662 -0.00001688445 0.00049011740 -0.00079936271 -0.00001298219 0.00044572765 -0.00079925823 -0.00000915240 0.00040194787 -0.00079941513 -0.00000549531 0.00035901078 -0.00079987537 -0.00000211111 0.00031714910 -0.00080068090 0.00000089998 0.00027659554 -0.00080187369 -0.00016339803 0.00071889304 -0.00029169783 -0.00015814088 0.00068436886 -0.00029918055 -0.00015199451 0.00064529034 -0.00030691343 -0.00014494480 0.00060228883 -0.00031521973 -0.00013697766 0.00055599570 -0.00032442268 -0.00012807896 0.00050704229 -0.00033484552 -0.00011823460 0.00045605998 -0.00034681147 -0.00010743047 0.00040368012 -0.00036064379 -0.00009565246 0.00035053406 -0.00037666571 -0.00008288647 0.00029725316 -0.00039520046 -0.00014296480 0.00071720518 -0.00035214296 -0.00013879560 0.00068055120 -0.00035848679 -0.00013378594 0.00064066058 -0.00036461973 -0.00012801149 0.00059798005 -0.00037084415 -0.00012154791 0.00055295631 -0.00037746243 -0.00011447083 0.00050603608 -0.00038477695 -0.00010685593 0.00045766607 -0.00039309010 -0.00009877885 0.00040829299 -0.00040270424 -0.00009031524 0.00035836356 -0.00041392176 -0.00008154077 0.00030832448 -0.00042704504 -0.00012481160 0.00071472842 -0.00041222896 -0.00012135677 0.00067661760 -0.00041736674 -0.00011716134 0.00063616417 -0.00042207852 -0.00011234657 0.00059370179 -0.00042661307 -0.00010703375 0.00054956408 -0.00043121915 -0.00010134414 0.00050408471 -0.00043614553 -0.00009539902 0.00045759732 -0.00044164097 -0.00008931967 0.00041043554 -0.00044795423 -0.00008322735 0.00036293304 -0.00045533410 -0.00007724336 0.00031542344 -0.00046402931 -0.00010860018 0.00071183353 -0.00047185029 -0.00010556153 0.00067279892 -0.00047578197 -0.00010191360 0.00063197157 -0.00047925756 -0.00009778924 0.00058962818 -0.00048245226 -0.00009332130 0.00054604546 -0.00048554126 -0.00008864260 0.00050150013 -0.00048869976 -0.00008388600 0.00045626888 -0.00049210296 -0.00007918434 0.00041062843 -0.00049592604 -0.00007467045 0.00036485549 -0.00050034420 -0.00007047718 0.00031922677 -0.00050553263 -0.00009399235 0.00070889128 -0.00053090143 -0.00009114698 0.00066932604 -0.00053369406 -0.00008783562 0.00062825325 -0.00053612459 -0.00008417870 0.00058593339 -0.00053828748 -0.00008029666 0.00054262690 -0.00054027719 -0.00007630996 0.00049859425 -0.00054218819 -0.00007233901 0.00045409589 -0.00054411495 -0.00006850428 0.00040939229 -0.00054615191 -0.00006492619 0.00036474391 -0.00054839355 -0.00006172519 0.00032041120 -0.00055093433 -0.00008064987 0.00070627245 -0.00058927684 -0.00007785024 0.00066642980 -0.00059106460 -0.00007472028 0.00062517968 -0.00059264736 -0.00007135413 0.00058279154 -0.00059404449 -0.00006784597 0.00053953484 -0.00059527537 -0.00006428993 0.00049567901 -0.00059635935 -0.00006078019 0.00045149351 -0.00059731581 -0.00005741091 0.00040724778 -0.00059816413 -0.00005427623 0.00036321128 -0.00059892366 -0.00005147032 0.00031965344 -0.00059961378 -0.00006823452 0.00070434780 -0.00064687099 -0.00006540843 0.00066434106 -0.00064785517 -0.00006236048 0.00062292132 -0.00064879362 -0.00005915474 0.00058037680 -0.00064964906 -0.00005585531 0.00053699573 -0.00065038420 -0.00005252626 0.00049306635 -0.00065096176 -0.00004923168 0.00044887687 -0.00065134443 -0.00004603564 0.00040471555 -0.00065149494 -0.00004300223 0.00036087059 -0.00065137600 -0.00004019553 0.00031763024 -0.00065095032 -0.00005640810 0.00070348811 -0.00070357835 -0.00005355867 0.00066329070 -0.00070402735 -0.00005054911 0.00062164865 -0.00070453112 -0.00004741973 0.00057886330 -0.00070502695 -0.00004421082 0.00053523603 -0.00070545213 -0.00004096267 0.00049106818 -0.00070574394 -0.00003771560 0.00044666113 -0.00070583968 -0.00003450989 0.00040231623 -0.00070567662 -0.00003138584 0.00035833484 -0.00070519206 -0.00002838375 0.00031501832 -0.00070432329 -0.00004483237 0.00070406415 -0.00075929339 -0.00004203806 0.00066350957 -0.00075954272 -0.00003907906 0.00062153212 -0.00075982760 -0.00003598828 0.00057842519 -0.00076010392 -0.00003279859 0.00053448217 -0.00076032757 -0.00002954290 0.00048999645 -0.00076045444 -0.00002625410 0.00044526142 -0.00076044043 -0.00002296507 0.00040057048 -0.00076024143 -0.00001970872 0.00035621701 -0.00075981334 -0.00001651793 0.00031249440 -0.00075911205 -0.00003316912 0.00070644670 -0.00081391058 -0.00003058373 0.00066522854 -0.00081436287 -0.00002774323 0.00062274222 -0.00081465081 -0.00002469959 0.00057923662 -0.00081480573 -0.00002150475 0.00053496061 -0.00081485893 -0.00001821067 0.00049016308 -0.00081484177 -0.00001486931 0.00044509290 -0.00081478556 -0.00001153261 0.00039999894 -0.00081472164 -0.00000825253 0.00035513009 -0.00081468132 -0.00000508102 0.00031073523 -0.00081469595 -0.00014362121 0.00075118017 -0.00031254274 -0.00013893775 0.00071829075 -0.00032186179 -0.00013383568 0.00068058567 -0.00033039141 -0.00012828753 0.00063872457 -0.00033858134 -0.00012226579 0.00059336712 -0.00034688129 -0.00011574298 0.00054517296 -0.00035574099 -0.00010869161 0.00049480174 -0.00036561014 -0.00010108419 0.00044291312 -0.00037693848 -0.00009289322 0.00039016675 -0.00039017572 -0.00008409123 0.00033722228 -0.00040577158 -0.00013007684 0.00074939487 -0.00036827131 -0.00012616228 0.00071517558 -0.00037606103 -0.00012186990 0.00067710202 -0.00038293468 -0.00011723668 0.00063572646 -0.00038927810 -0.00011229958 0.00059160113 -0.00039547710 -0.00010709559 0.00054527829 -0.00040191750 -0.00010166167 0.00049731020 -0.00040898513 -0.00009603479 0.00044824910 -0.00041706580 -0.00009025194 0.00039864725 -0.00042654535 -0.00008435008 0.00034905690 -0.00043780959 -0.00011699582 0.00074667849 -0.00042502770 -0.00011367341 0.00071159017 -0.00043129799 -0.00011003218 0.00067329758 -0.00043667551 -0.00010614048 0.00063228687 -0.00044146337 -0.00010206662 0.00058904419 -0.00044596466 -0.00009787894 0.00054405568 -0.00045048250 -0.00009364574 0.00049780747 -0.00045531999 -0.00008943537 0.00045078572 -0.00046078024 -0.00008531615 0.00040347657 -0.00046716635 -0.00008135639 0.00035636615 -0.00047478144 -0.00010433336 0.00074344004 -0.00048249727 -0.00010145085 0.00070784243 -0.00048732196 -0.00009831773 0.00066943671 -0.00049138103 -0.00009500827 0.00062867491 -0.00049488614 -0.00009159671 0.00058600903 -0.00049804900 -0.00008815732 0.00054189109 -0.00050108127 -0.00008476436 0.00049677311 -0.00050419464 -0.00008149209 0.00045110710 -0.00050760078 -0.00007841477 0.00040534507 -0.00051151139 -0.00007560666 0.00035993905 -0.00051613813 -0.00009204468 0.00074008852 -0.00054036540 -0.00008947435 0.00070424028 -0.00054388221 -0.00008672176 0.00066578381 -0.00054681833 -0.00008384936 0.00062515965 -0.00054929542 -0.00008091963 0.00058280837 -0.00055143513 -0.00007799504 0.00053917052 -0.00055335910 -0.00007513805 0.00049468667 -0.00055518900 -0.00007241112 0.00044979736 -0.00055704646 -0.00006987674 0.00040494315 -0.00055905314 -0.00006759736 0.00036056461 -0.00056133068 -0.00008008502 0.00073703292 -0.00059831744 -0.00007772365 0.00070109164 -0.00060072801 -0.00007523946 0.00066260325 -0.00060275455 -0.00007267310 0.00062201019 -0.00060444020 -0.00007006519 0.00057975494 -0.00060582807 -0.00006745639 0.00053627995 -0.00060696130 -0.00006488733 0.00049202768 -0.00060788299 -0.00006239864 0.00044744061 -0.00060863627 -0.00006003098 0.00040296118 -0.00060926427 -0.00005782497 0.00035903187 -0.00060981011 -0.00006840959 0.00073468224 -0.00065603876 -0.00006617847 0.00069870442 -0.00065760863 -0.00006386605 0.00066015941 -0.00065895680 -0.00006148880 0.00061949561 -0.00066006947 -0.00005906319 0.00057716145 -0.00066093285 -0.00005660567 0.00053360534 -0.00066153313 -0.00005413273 0.00048927571 -0.00066185653 -0.00005166082 0.00044462097 -0.00066188924 -0.00004920642 0.00040008954 -0.00066161747 -0.00004678599 0.00035612984 -0.00066102743 -0.00005697362 0.00073344549 -0.00071321473 -0.00005481856 0.00069738654 -0.00071427336 -0.00005259674 0.00065871667 -0.00071519219 -0.00005030581 0.00061788499 -0.00071593223 -0.00004794341 0.00057534063 -0.00071645446 -0.00004550718 0.00053153269 -0.00071671990 -0.00004299477 0.00048691030 -0.00071668954 -0.00004040382 0.00044192257 -0.00071632438 -0.00003773198 0.00039701862 -0.00071558541 -0.00003497689 0.00035264756 -0.00071443364 -0.00004573233 0.00073373165 -0.00076953072 -0.00004362364 0.00069744591 -0.00077047147 -0.00004142672 0.00065853942 -0.00077122784 -0.00003913344 0.00061744743 -0.00077177746 -0.00003673565 0.00057460520 -0.00077209794 -0.00003422521 0.00053044797 -0.00077216690 -0.00003159399 0.00048541099 -0.00077196194 -0.00002883383 0.00043992951 -0.00077146069 -0.00002593660 0.00039443878 -0.00077064076 -0.00002289416 0.00034937405 -0.00076947977 -0.00003464095 0.00073594975 -0.00082467208 -0.00003257345 0.00069919044 -0.00082595223 -0.00003035120 0.00065989202 -0.00082683087 -0.00002798102 0.00061845201 -0.00082735418 -0.00002546971 0.00057526789 -0.00082756830 -0.00002282407 0.00053073717 -0.00082751941 -0.00002005090 0.00048525735 -0.00082725365 -0.00001715701 0.00043922593 -0.00082681720 -0.00001414921 0.00039304042 -0.00082625620 -0.00001103429 0.00034709832 -0.00082561682 -0.00012267125 0.00077266484 -0.00033004163 -0.00011808213 0.00074107607 -0.00034174940 -0.00011371685 0.00070425952 -0.00035136016 -0.00010950499 0.00066304169 -0.00035942521 -0.00010537610 0.00061824907 -0.00036649586 -0.00010125975 0.00057070815 -0.00037312342 -0.00009708549 0.00052124542 -0.00037985918 -0.00009278289 0.00047068739 -0.00038725446 -0.00008828152 0.00041986053 -0.00039586056 -0.00008351093 0.00036959135 -0.00040622879 -0.00011624198 0.00077012259 -0.00038125952 -0.00011216628 0.00073824448 -0.00039055749 -0.00010830628 0.00070176386 -0.00039810053 -0.00010464218 0.00066146216 -0.00040435144 -0.00010115420 0.00061812083 -0.00040977305 -0.00009782255 0.00057252130 -0.00041482817 -0.00009462745 0.00052544501 -0.00041997963 -0.00009154912 0.00047767339 -0.00042569024 -0.00008856776 0.00042998789 -0.00043242281 -0.00008566361 0.00038316994 -0.00044064017 -0.00010837731 0.00076691805 -0.00043488226 -0.00010482103 0.00073498839 -0.00044201098 -0.00010147653 0.00069886258 -0.00044773406 -0.00009834666 0.00065929433 -0.00045241773 -0.00009543429 0.00061703735 -0.00045642816 -0.00009274226 0.00057284536 -0.00046013156 -0.00009027343 0.00052747205 -0.00046389413 -0.00008803064 0.00048167115 -0.00046808205 -0.00008601676 0.00043619634 -0.00047306153 -0.00008423463 0.00039180135 -0.00047919876 -0.00009934159 0.00076341620 -0.00049038761 -0.00009628619 0.00073161390 -0.00049562611 -0.00009343944 0.00069584108 -0.00049979275 -0.00009080581 0.00065683673 -0.00050315645 -0.00008838975 0.00061533987 -0.00050598612 -0.00008619572 0.00057208949 -0.00050855069 -0.00008422816 0.00052782459 -0.00051111906 -0.00008249154 0.00048328418 -0.00051396016 -0.00008099030 0.00043920726 -0.00051734289 -0.00007972890 0.00039633283 -0.00052153619 -0.00008939915 0.00075998203 -0.00054725330 -0.00008680159 0.00072842715 -0.00055091915 -0.00008440687 0.00069298477 -0.00055380855 -0.00008220700 0.00065438792 -0.00055609997 -0.00008019396 0.00061336961 -0.00055797185 -0.00007835977 0.00057066285 -0.00055960265 -0.00007669641 0.00052700066 -0.00056117082 -0.00007519588 0.00048311604 -0.00056285481 -0.00007385018 0.00043974202 -0.00056483307 -0.00007265131 0.00039761161 -0.00056728406 -0.00007881431 0.00075698054 -0.00060495711 -0.00007660706 0.00072573425 -0.00060740635 -0.00007459067 0.00069057907 -0.00060931344 -0.00007273759 0.00065224645 -0.00061078065 -0.00007102029 0.00061146781 -0.00061191027 -0.00006941124 0.00056897460 -0.00061280456 -0.00006788290 0.00052549827 -0.00061356580 -0.00006640773 0.00048177026 -0.00061429627 -0.00006495820 0.00043852199 -0.00061509824 -0.00006350677 0.00039648493 -0.00061607399 -0.00006785142 0.00075477671 -0.00066297679 -0.00006594244 0.00072384133 -0.00066460398 -0.00006420268 0.00068890938 -0.00066583939 -0.00006258496 0.00065071085 -0.00066673087 -0.00006104211 0.00060997570 -0.00066732629 -0.00005952698 0.00056743392 -0.00066767351 -0.00005799238 0.00052381548 -0.00066782039 -0.00005639116 0.00047985036 -0.00066781480 -0.00005467614 0.00043626855 -0.00066770458 -0.00005280017 0.00039380001 -0.00066753761 -0.00005677479 0.00075373553 -0.00072079008 -0.00005504755 0.00072305450 -0.00072202829 -0.00005345475 0.00068826111 -0.00072291837 -0.00005193647 0.00065007967 -0.00072348299 -0.00005043280 0.00060923451 -0.00072374484 -0.00004888381 0.00056644995 -0.00072372661 -0.00004722960 0.00052245031 -0.00072345098 -0.00004541024 0.00047795990 -0.00072294064 -0.00004336581 0.00043370306 -0.00072221826 -0.00004103641 0.00039040410 -0.00072130653 -0.00004584877 0.00075422199 -0.00077787474 -0.00004416222 0.00072367990 -0.00077919554 -0.00004255873 0.00068891967 -0.00078008234 -0.00004097950 0.00065065147 -0.00078056937 -0.00003936573 0.00060958549 -0.00078069084 -0.00003765859 0.00056643187 -0.00078048096 -0.00003579930 0.00052190078 -0.00077997396 -0.00003372903 0.00047670240 -0.00077920405 -0.00003138900 0.00043154690 -0.00077820545 -0.00002872039 0.00038714442 -0.00077701237 -0.00003533768 0.00075660109 -0.00083370853 -0.00003352627 0.00072602363 -0.00083562199 -0.00003172647 0.00069117046 -0.00083686329 -0.00002990142 0.00065272480 -0.00083752239 -0.00002801426 0.00061136985 -0.00083768920 -0.00002602815 0.00056778883 -0.00083745367 -0.00002390622 0.00052266494 -0.00083690572 -0.00002161162 0.00047668141 -0.00083613530 -0.00001910750 0.00043052143 -0.00083523233 -0.00001635701 0.00038486822 -0.00083428674 -0.00010180629 0.00078284692 -0.00034270156 -0.00009628923 0.00075318837 -0.00035845773 -0.00009197018 0.00071735961 -0.00037033098 -0.00008867113 0.00067656271 -0.00037894666 -0.00008621409 0.00063199973 -0.00038493013 -0.00008442106 0.00058487272 -0.00038890673 -0.00008311405 0.00053638375 -0.00039150182 -0.00008211505 0.00048773486 -0.00039334074 -0.00008124608 0.00044012812 -0.00039504885 -0.00008032913 0.00039476560 -0.00039725149 -0.00010209863 0.00077848500 -0.00039031985 -0.00009711798 0.00074951887 -0.00040186696 -0.00009316414 0.00071487229 -0.00041056938 -0.00009012343 0.00067570002 -0.00041695277 -0.00008788218 0.00063315685 -0.00042154282 -0.00008632669 0.00058839754 -0.00042486518 -0.00008534328 0.00054257686 -0.00042744554 -0.00008481828 0.00049684959 -0.00042980956 -0.00008463799 0.00045237049 -0.00043248291 -0.00008468874 0.00041029433 -0.00043599127 -0.00009918477 0.00077427067 -0.00044142741 -0.00009481826 0.00074611762 -0.00044953913 -0.00009135262 0.00071255515 -0.00045562339 -0.00008870216 0.00067471064 -0.00046010952 -0.00008678118 0.00063371151 -0.00046342685 -0.00008550398 0.00059068513 -0.00046600468 -0.00008478487 0.00054675890 -0.00046827235 -0.00008453815 0.00050306022 -0.00047065918 -0.00008467812 0.00046071647 -0.00047359447 -0.00008511908 0.00042085506 -0.00047750757 -0.00009361178 0.00077042378 -0.00049535769 -0.00008988833 0.00074316827 -0.00050076940 -0.00008697310 0.00071059155 -0.00050476735 -0.00008478191 0.00067380900 -0.00050769163 -0.00008323055 0.00063393598 -0.00050988231 -0.00008223482 0.00059208788 -0.00051167948 -0.00008171051 0.00054938005 -0.00051342324 -0.00008157342 0.00050692788 -0.00051545365 -0.00008173937 0.00046584673 -0.00051811082 -0.00008212413 0.00042725198 -0.00052173482 -0.00008592671 0.00076716421 -0.00055144412 -0.00008282640 0.00074085448 -0.00055485297 -0.00008046305 0.00070916487 -0.00055727561 -0.00007873727 0.00067320951 -0.00055897380 -0.00007754973 0.00063410257 -0.00056020929 -0.00007680105 0.00059295819 -0.00056124382 -0.00007639189 0.00055089052 -0.00056233915 -0.00007622288 0.00050901371 -0.00056375703 -0.00007619466 0.00046844192 -0.00056575921 -0.00007620787 0.00043028928 -0.00056860744 -0.00007667663 0.00076471179 -0.00060902013 -0.00007413074 0.00073935990 -0.00061108499 -0.00007225992 0.00070845845 -0.00061242251 -0.00007094284 0.00067312660 -0.00061323076 -0.00007005816 0.00063448355 -0.00061370787 -0.00006948457 0.00059364845 -0.00061405194 -0.00006910071 0.00055174049 -0.00061446107 -0.00006878527 0.00050987884 -0.00061513336 -0.00006841690 0.00046918267 -0.00061626693 -0.00006787429 0.00043077116 -0.00061805987 -0.00006640860 0.00076328640 -0.00066741914 -0.00006429956 0.00073886819 -0.00066876065 -0.00006280119 0.00070865565 -0.00066948237 -0.00006177319 0.00067377470 -0.00066973722 -0.00006107530 0.00063535121 -0.00066967815 -0.00006056722 0.00059451107 -0.00066945808 -0.00006010867 0.00055238017 -0.00066922995 -0.00005955936 0.00051008440 -0.00066914670 -0.00005877902 0.00046874965 -0.00066936124 -0.00005762736 0.00042950181 -0.00067002652 -0.00005566968 0.00076310789 -0.00072597460 -0.00005383111 0.00073956299 -0.00072717512 -0.00005252432 0.00070993985 -0.00072772955 -0.00005160293 0.00067536822 -0.00072776790 -0.00005092058 0.00063697783 -0.00072742021 -0.00005033087 0.00059589843 -0.00072681649 -0.00004968745 0.00055325975 -0.00072608677 -0.00004884393 0.00051019153 -0.00072536108 -0.00004765393 0.00046782351 -0.00072476942 -0.00004597108 0.00042728543 -0.00072444184 -0.00004500695 0.00076439612 -0.00078401994 -0.00004322363 0.00074162796 -0.00078562357 -0.00004186679 0.00071249439 -0.00078643838 -0.00004080665 0.00067812158 -0.00078659751 -0.00003991345 0.00063963571 -0.00078623414 -0.00003905740 0.00059816293 -0.00078548141 -0.00003810875 0.00055482942 -0.00078447250 -0.00003693772 0.00051076136 -0.00078334056 -0.00003541454 0.00046708489 -0.00078221875 -0.00003340943 0.00042492621 -0.00078124024 -0.00003496745 0.00076737094 -0.00084088858 -0.00003297535 0.00074524675 -0.00084340118 -0.00003126605 0.00071650264 -0.00084488320 -0.00002975893 0.00068224922 -0.00084550077 -0.00002837335 0.00064359712 -0.00084542002 -0.00002702868 0.00060165697 -0.00084480708 -0.00002564427 0.00055753939 -0.00084382809 -0.00002413952 0.00051235501 -0.00084264918 -0.00002243376 0.00046721445 -0.00084143649 -0.00002044639 0.00042322834 -0.00084035614 -0.00008228444 0.00078122628 -0.00034902961 -0.00007427427 0.00075509121 -0.00037160111 -0.00006892782 0.00072093367 -0.00038781517 -0.00006585989 0.00068061020 -0.00039834102 -0.00006468527 0.00063597731 -0.00040384784 -0.00006501874 0.00058889155 -0.00040500487 -0.00006647509 0.00054120944 -0.00040248129 -0.00006866912 0.00049478749 -0.00039694632 -0.00007121562 0.00045148225 -0.00038906918 -0.00007372937 0.00041315024 -0.00037951906 -0.00008828523 0.00077357873 -0.00039466453 -0.00008132774 0.00074875970 -0.00040988020 -0.00007651255 0.00071665350 -0.00042079336 -0.00007357589 0.00067895289 -0.00042797071 -0.00007225396 0.00063735062 -0.00043197894 -0.00007228298 0.00059353945 -0.00043338474 -0.00007339917 0.00054921213 -0.00043275479 -0.00007533874 0.00050606142 -0.00043065578 -0.00007783790 0.00046578008 -0.00042765441 -0.00008063287 0.00043006085 -0.00042431736 -0.00008964689 0.00076755992 -0.00044429791 -0.00008368374 0.00074428323 -0.00045391589 -0.00007951875 0.00071407127 -0.00046071271 -0.00007694404 0.00067852230 -0.00046517213 -0.00007575174 0.00063923458 -0.00046777791 -0.00007573398 0.00059780634 -0.00046901383 -0.00007668288 0.00055583585 -0.00046936364 -0.00007839055 0.00051492134 -0.00046931111 -0.00008064914 0.00047666108 -0.00046934002 -0.00008325076 0.00044265331 -0.00046993412 -0.00008713079 0.00076312458 -0.00049724394 -0.00008207807 0.00074156047 -0.00050282686 -0.00007861311 0.00071309502 -0.00050657947 -0.00007653661 0.00067928705 -0.00050892013 -0.00007564922 0.00064169538 -0.00051026722 -0.00007575163 0.00060187883 -0.00051103911 -0.00007664449 0.00056139622 -0.00051165417 -0.00007812849 0.00052180639 -0.00051253076 -0.00008000429 0.00048466816 -0.00051408726 -0.00008207257 0.00045154034 -0.00051674204 -0.00008149831 0.00076022742 -0.00055281681 -0.00007724652 0.00074049013 -0.00055573177 -0.00007446237 0.00071363281 -0.00055739989 -0.00007292586 0.00068121574 -0.00055818961 -0.00007241701 0.00064479920 -0.00055846937 -0.00007271582 0.00060594350 -0.00055860759 -0.00007360230 0.00056620891 -0.00055897271 -0.00007485645 0.00052715572 -0.00055993317 -0.00007625830 0.00049034422 -0.00056185739 -0.00007758784 0.00045733470 -0.00056511382 -0.00007351083 0.00075882316 -0.00061033074 -0.00006992491 0.00074097088 -0.00061174929 -0.00006773323 0.00071559266 -0.00061218022 -0.00006668407 0.00068427697 -0.00061195543 -0.00006652571 0.00064861225 -0.00061140681 -0.00006700645 0.00061018695 -0.00061086623 -0.00006787458 0.00057058954 -0.00061066559 -0.00006887837 0.00053140846 -0.00061113678 -0.00006976611 0.00049423217 -0.00061261168 -0.00007028610 0.00046064912 -0.00061542218 -0.00006392972 0.00075886652 -0.00066909991 -0.00006084904 0.00074290140 -0.00066999809 -0.00005909241 0.00071888263 -0.00066992672 -0.00005838349 0.00068843935 -0.00066919248 -0.00005844595 0.00065320070 -0.00066810203 -0.00005900344 0.00061479579 -0.00066696202 -0.00005977961 0.00057485376 -0.00066607914 -0.00006049814 0.00053500376 -0.00066576003 -0.00006088267 0.00049687490 -0.00066631137 -0.00006065687 0.00046209632 -0.00066803981 -0.00005351637 0.00076031222 -0.00072843853 -0.00005075469 0.00074618038 -0.00072959683 -0.00004920661 0.00072341076 -0.00072964564 -0.00004859639 0.00069367150 -0.00072887563 -0.00004864832 0.00065863073 -0.00072757750 -0.00004908666 0.00061995660 -0.00072604196 -0.00004963569 0.00057931722 -0.00072455968 -0.00005001969 0.00053838075 -0.00072342138 -0.00004996294 0.00049881532 -0.00072291773 -0.00004918969 0.00046228906 -0.00072333944 -0.00004303214 0.00076311497 -0.00078766079 -0.00004037768 0.00075070651 -0.00078966420 -0.00003874255 0.00072908510 -0.00079034321 -0.00003789504 0.00069994202 -0.00078997975 -0.00003760343 0.00066496855 -0.00078885571 -0.00003763602 0.00062585597 -0.00078725301 -0.00003776109 0.00058429555 -0.00078545355 -0.00003774694 0.00054197858 -0.00078373925 -0.00003736184 0.00050059633 -0.00078239201 -0.00003637410 0.00046184007 -0.00078169375 -0.00003323843 0.00076722950 -0.00084608089 -0.00003045381 0.00075637846 -0.00084931885 -0.00002836695 0.00073581368 -0.00085102571 -0.00002685170 0.00070721951 -0.00085147972 -0.00002578191 0.00067228033 -0.00085095913 -0.00002503142 0.00063268051 -0.00084974216 -0.00002447410 0.00059010441 -0.00084810707 -0.00002398379 0.00054623639 -0.00084633210 -0.00002343435 0.00050276083 -0.00084469549 -0.00002269961 0.00046136208 -0.00084347547 </DataArray>
</PointData>
<Points>
<DataArray type="Float32" NumberOfComponents="3">
0.88695734903 0.54467492543 -2.33128053544 0.91942988651 0.54505860985 -2.33939580698 0.94430150733 0.54629636437 -2.34931205655 0.96201093949 0.54826237490 -2.36066066117 0.97299691097 0.55083082731 -2.37307299785 0.97769814974 0.55387590749 -2.38618044361 0.97655338379 0.55727180135 -2.39961437547 0.97000134110 0.56089269477 -2.41300617044 0.95848074965 0.56461277365 -2.42598720556 0.94243033743 0.56830622386 -2.43818885783 0.88633578989 0.57177846605 -2.33134297024 0.91860291811 0.57195330292 -2.33945060289 0.94323375098 0.57259574782 -2.34929869786 0.96057307025 0.57365602453 -2.36048189841 0.97096565764 0.57508435684 -2.37259484784 0.97475629490 0.57683096851 -2.38523218943 0.97228976377 0.57884608335 -2.39798856645 0.96391084597 0.58107992513 -2.41045862220 0.94996432325 0.58348271764 -2.42223699995 0.93079497733 0.58600468465 -2.43291834298 0.88551976780 0.59640696136 -2.33140785578 0.91754924099 0.59643778438 -2.33949101073 0.94191784826 0.59666843598 -2.34924101129 0.95888807868 0.59709886694 -2.36023417631 0.96872242131 0.59772902803 -2.37204682463 0.97168336522 0.59855887002 -2.38425527510 0.96803339946 0.59958834369 -2.39643584658 0.95803501310 0.60081739982 -2.40816485790 0.94195069520 0.60224598917 -2.41901862792 0.92004293482 0.60387406253 -2.42857347548 0.88444592505 0.61886959038 -2.33147399146 0.91621905440 0.61881057930 -2.33952070521 0.94031614653 0.61878271170 -2.34915290203 0.95692889550 0.61881399809 -2.35994323241 0.96624899536 0.61893244898 -2.37146434682 0.96846814013 0.61916607487 -2.38328889575 0.96377802388 0.61954288628 -2.39498952968 0.95237034063 0.62009089371 -2.40613889907 0.93443678445 0.62083810767 -2.41630965442 0.91016904936 0.62181253866 -2.42507444619 0.88305090391 0.63947553215 -2.33154017667 0.91456255756 0.63937021275 -2.33954336102 0.93839099313 0.63920685781 -2.34904827523 0.95466845140 0.63902451394 -2.35963480426 0.96352717313 0.63886222778 -2.37088283303 0.96509939909 0.63875904593 -2.38237224649 0.95951737003 0.63875401502 -2.39368292958 0.94691332672 0.63888618168 -2.40439476723 0.92741950993 0.63919459253 -2.41408764439 0.90116816043 0.63971829418 -2.42234144600 0.88127134666 0.65853396570 -2.33160521080 0.91252994971 0.65841520982 -2.33956265287 0.93610473542 0.65820915716 -2.34894103608 0.95207967708 0.65795351047 -2.35933462941 0.96053874802 0.65768597251 -2.37033770186 0.96156592153 0.65744424605 -2.38154452243 0.95524517092 0.65726603383 -2.39254936010 0.94166046951 0.65718903862 -2.40294648389 0.92089579060 0.65725096317 -2.41233016278 0.89303510749 0.65748951024 -2.42029466577 0.87904389558 0.67635407008 -2.33166789323 0.91007143010 0.67624409558 -2.33958225547 0.93341972073 0.67605789258 -2.34884508973 0.94913550323 0.67582408363 -2.35906844541 0.95726551337 0.67557129128 -2.36986437192 0.95785648690 0.67532813808 -2.38084491868 0.95095515957 0.67512324660 -2.39162213509 0.93660826714 0.67498523939 -2.40180807057 0.91486254538 0.67494273900 -2.41101477453 0.88576473003 0.67502436799 -2.41885429638 0.87630519294 0.69324502431 -2.33172702337 0.90713719794 0.69315539512 -2.33960584353 0.93029829642 0.69302134693 -2.34877434136 0.94580886056 0.69285932939 -2.35886198981 0.95368926257 0.69268579217 -2.36949826182 0.95395987464 0.69251718490 -2.38031263036 0.94664106898 0.69236995726 -2.39093456837 0.93175321777 0.69226055888 -2.40099354880 0.90931669321 0.69220543944 -2.41011904459 0.87935186751 0.69222104858 -2.41794052871 0.87299188103 0.70951600743 -2.33178140061 0.90367745249 0.70944763351 -2.33963709174 0.92670280983 0.70936780304 -2.34874269613 0.94207267975 0.70928234373 -2.35874100015 0.94979178898 0.70919708327 -2.36927479018 0.94986486420 0.70911784936 -2.37998685259 0.94229663215 0.70905046969 -2.39051997376 0.92709181953 0.70900077197 -2.40051694008 0.90425515304 0.70897458389 -2.40962053790 0.87379135941 0.70897773314 -2.41747355362 0.86904060211 0.72547619849 -2.33182982433 0.89964239297 0.72541933582 -2.33967967482 0.92259560832 0.72536554375 -2.34876405922 0.93789989152 0.72531622260 -2.35873121400 0.94555488596 0.72527277268 -2.36922937560 0.94556023503 0.72523659431 -2.37990678048 0.93791558210 0.72520908782 -2.39041166511 0.92262057057 0.72519165354 -2.40039226593 0.89967484381 0.72518569177 -2.40949681941 0.86907804520 0.72519260284 -2.41737356200 0.84527019087 0.54522517132 -2.32493158209 0.86846043989 0.54621878713 -2.33488537812 0.88630840951 0.54789961765 -2.34614846288 0.89920988010 0.55025958125 -2.35850411505 0.90756063203 0.55329059625 -2.37173561332 0.91175644567 0.55698458100 -2.38562623636 0.91219310138 0.56133345385 -2.39995926287 0.90926637954 0.56632913313 -2.41451797153 0.90337206050 0.57196353720 -2.42908564102 0.89490592464 0.57822858439 -2.44344555002 0.84497794294 0.57210717559 -2.32500564196 0.86800978415 0.57275556463 -2.33494815719 0.88567484466 0.57378373387 -2.34614513326 0.89829981583 0.57520796869 -2.35834122937 0.90621138904 0.57704455448 -2.37128110474 0.90973625563 0.57930977664 -2.38470941859 0.90920110698 0.58201992056 -2.39837083012 0.90493263444 0.58519127165 -2.41200999857 0.89725752938 0.58884011528 -2.42537158313 0.88650248315 0.59298273685 -2.43820024303 0.84459852778 0.59658165978 -2.32507819422 0.86742483268 0.59696924866 -2.33499910019 0.88486828998 0.59752291154 -2.34611304311 0.89718969509 0.59827252710 -2.35814185620 0.90464984339 0.59924797405 -2.37080737271 0.90750953030 0.60047913105 -2.38383142586 0.90602955121 0.60199587681 -2.39693584891 0.90047070151 0.60382808999 -2.40984247508 0.89109377662 0.60600564930 -2.42227313762 0.87815957193 0.60855843342 -2.43394966976 0.84403161795 0.61894674327 -2.32514884365 0.86662173869 0.61914630708 -2.33504100840 0.88382016253 0.61937657983 -2.34606164496 0.89582630090 0.61967237365 -2.35792255644 0.90283956522 0.62006850063 -2.37033554596 0.90505936691 0.62059977289 -2.38301241661 0.90268511742 0.62130100251 -2.39566497152 0.89591622815 0.62220700162 -2.40800501379 0.88495211054 0.62335258232 -2.41974434653 0.86999217602 0.62477255670 -2.43059477286 0.84317688602 0.63950054540 -2.32521719503 0.86551665538 0.63957320776 -2.33507668309 0.88246187935 0.63960416795 -2.34600039135 0.89415641631 0.63962662549 -2.35769989101 0.90074412464 0.63967377992 -2.36988675325 0.90236886274 0.63977883079 -2.38227254927 0.89917448898 0.63997497763 -2.39456885026 0.89130486175 0.64029541996 -2.40648722741 0.87890383945 0.64077335734 -2.41773925191 0.86211528045 0.64144198929 -2.42803649496 0.84193400457 0.65854118554 -2.32528285314 0.86402573596 0.65853641860 -2.33510892555 0.88072485749 0.65846510505 -2.34593873482 0.89212682436 0.65835439977 -2.35749042080 0.89832709179 0.65823145760 -2.36948212333 0.89942111502 0.65812343342 -2.38163198226 0.89550434925 0.65805748209 -2.39365813741 0.88667224972 0.65806075846 -2.40527872865 0.87302027164 0.65816041741 -2.41621189580 0.85464387024 0.65838361379 -2.42617577871 0.84020264615 0.67636678303 -2.32534542275 0.86206513364 0.67632240746 -2.33514053705 0.87854051399 0.67621882034 -2.34588612791 0.88968430808 0.67607481365 -2.35731070674 0.89555203680 0.67590917935 -2.36914278497 0.89619922101 0.67574070943 -2.38111087401 0.89168138160 0.67558819584 -2.39294348529 0.88205403945 0.67547043056 -2.40436913022 0.86737271544 0.67540620556 -2.41511632024 0.84769293044 0.67541431281 -2.42491356676 0.83788248335 0.69327545724 -2.32540450864 0.85955100162 0.69321764222 -2.33517431888 0.87584026591 0.69312474299 -2.34585202315 0.88677565053 0.69300698429 -2.35717730973 0.89238252979 0.69287459086 -2.36888986690 0.89268627797 0.69273778746 -2.38072938295 0.88771226940 0.69260679882 -2.39243554618 0.87748587835 0.69249184969 -2.40374804486 0.86203247915 0.69240316481 -2.41440656728 0.84137744608 0.69235096893 -2.42415080174 0.83487318874 0.70956532752 -2.32545971557 0.85639949310 0.70950859076 -2.33521307232 0.87255553029 0.70944230217 -2.34584587308 0.88334763474 0.70937002884 -2.35710679067 0.88878214089 0.70929533781 -2.36874449788 0.88886538316 0.70922179617 -2.38050766752 0.88360369599 0.70915297098 -2.39214497237 0.87300341381 0.70909242930 -2.40340508526 0.85707087107 0.70904373821 -2.41403667897 0.83581240218 0.70901046477 -2.42378842630 0.83107443487 0.72553451323 -2.32551064834 0.85252676130 0.72548172095 -2.33525959864 0.86861772418 0.72543092708 -2.34587713024 0.87934704375 0.72538306446 -2.35711571048 0.88471444022 0.72533906589 -2.36872780667 0.88471963381 0.72529986421 -2.38046588613 0.87936234474 0.72526639225 -2.39208241618 0.86864229324 0.72523958283 -2.40332986414 0.85255919951 0.72522036878 -2.41396069734 0.83111278379 0.72520968291 -2.42372738308 0.79433005199 0.54665136236 -2.32000564450 0.81075414802 0.54807638868 -2.33137095888 0.82345636468 0.55005751478 -2.34367381719 0.83277707457 0.55267160357 -2.35681129071 0.83905665025 0.55599551798 -2.37068045075 0.84263546432 0.56010612094 -2.38517836860 0.84385388937 0.56508027537 -2.40020211556 0.84305229798 0.57099484420 -2.41564876294 0.84057106274 0.57792669036 -2.43141538203 0.83675055622 0.58595267676 -2.44739904414 0.79469342657 0.57291834176 -2.32012876919 0.81097426580 0.57394376430 -2.33146859326 0.82352339129 0.57527117549 -2.34369782985 0.83263229331 0.57696486255 -2.35667319811 0.83859246209 0.57908911270 -2.37025141724 0.84169538789 0.58170821317 -2.38428920641 0.84223256096 0.58488645118 -2.39864328481 0.84049547156 0.58868811395 -2.41317037162 0.83677560993 0.59317748871 -2.42772718601 0.83136446633 0.59841886267 -2.44217044717 0.79516559429 0.59696501153 -2.32024090227 0.81120099466 0.59766940576 -2.33155274589 0.82351359992 0.59849992485 -2.34370324372 0.83234383855 0.59950855498 -2.35652275156 0.83793213903 0.60074728234 -2.36984162524 0.84051892986 0.60226809312 -2.38349022057 0.84034463950 0.60412297351 -2.39729889335 0.83764969645 0.60636390968 -2.41109799942 0.83267452918 0.60904288784 -2.42471789457 0.82565956619 0.61221189415 -2.43798893463 0.79557561263 0.61905882518 -2.32034271616 0.81129445058 0.61951234930 -2.33162560197 0.82331364758 0.61998146715 -2.34369595133 0.83182250775 0.62050646007 -2.35636928276 0.83701033523 0.62112760944 -2.36946111479 0.83906643416 0.62188519660 -2.38278696594 0.83818010867 0.62281950293 -2.39616235475 0.83454066289 0.62397080979 -2.40940279973 0.82833740097 0.62537939853 -2.42232381941 0.81975962704 0.62708555051 -2.43474093231 0.79575253909 0.63946723622 -2.32043488329 0.81111474954 0.63973163118 -2.33168934671 0.82281019127 0.63995350669 -2.34368184519 0.83097909834 0.64016235704 -2.35622212338 0.83576170481 0.64038767652 -2.36911992591 0.83729824474 0.64065895943 -2.38218499743 0.83572895217 0.64100570005 -2.39522708256 0.83119406117 0.64145739266 -2.40805592595 0.82383380579 0.64204353157 -2.42048127223 0.81378842008 0.64279361106 -2.43231286605 0.79552543118 0.65845769817 -2.32051807607 0.81052200751 0.65858628763 -2.33174616531 0.82188988801 0.65865374777 -2.34366681783 0.82972440779 0.65868002510 -2.35609060512 0.83412090193 0.65868506614 -2.36882809866 0.83517470553 0.65868881741 -2.38168986991 0.83298115370 0.65871122542 -2.39448649036 0.82763558153 0.65877223670 -2.40702853148 0.81923332411 0.65889179776 -2.41912656474 0.80786971655 0.65908985512 -2.43059116164 0.79472334640 0.67629766453 -2.32059296693 0.80937634048 0.67633535490 -2.33179824298 0.82043939482 0.67631989469 -2.34365676177 0.82796923353 0.67626324346 -2.35598405967 0.83202258071 0.67617736082 -2.36859567305 0.83265616049 0.67607420636 -2.38130713827 0.82992669696 0.67596573965 -2.39393399170 0.82389091424 0.67586392030 -2.40629176970 0.81460553644 0.67578070789 -2.41819600864 0.80212728766 0.67572806201 -2.42946224489 0.79317534223 0.69325458881 -2.32066022828 0.80753786441 0.69323786925 -2.33184776492 0.81834536869 0.69318965175 -2.34365756951 0.82562437301 0.69311579135 -2.35591181870 0.82940139531 0.69302214311 -2.36843268912 0.82970295354 0.69291456208 -2.38104235739 0.82655556564 0.69279890331 -2.39356300014 0.81998574956 0.69268102185 -2.40581679402 0.81002002325 0.69256677274 -2.41762591563 0.79668490465 0.69246201104 -2.42881254163 0.79071047618 0.70959592454 -2.32072053255 0.80486669530 0.70955286691 -2.33189691634 0.81549446665 0.70950072324 -2.34367513360 0.82260062368 0.70944144798 -2.35588321392 0.82619199986 0.70937699555 -2.36834918691 0.82627542862 0.70930932040 -2.38090108216 0.82285774344 0.70924037699 -2.39336692926 0.81594577775 0.70917211974 -2.40557475782 0.80554636503 0.70910650311 -2.41735259742 0.79166633873 0.70904548153 -2.42852847766 0.78715780574 0.72558912521 -2.32077455216 0.80122294911 0.72553938414 -2.33194788245 0.81177334570 0.72549081348 -2.34371534653 0.81880878300 0.72544399255 -2.35590757701 0.82232904850 0.72539950067 -2.36835520646 0.82233392968 0.72535791713 -2.38088886746 0.81882321405 0.72531982126 -2.39333919262 0.81179668908 0.72528579237 -2.40553681450 0.80125414227 0.72525640978 -2.41731236570 0.78719536112 0.72523225279 -2.42849647880 0.73601360020 0.54886502310 -2.31633597868 0.74740733702 0.55065000234 -2.32871925315 0.75626052380 0.55286556295 -2.34178513500 0.76285006790 0.55564632682 -2.35550620865 0.76745287672 0.55912691585 -2.36985505853 0.77034585761 0.56344195195 -2.38480426907 0.77180591796 0.56872605701 -2.40032642470 0.77210996513 0.57511385293 -2.41639410985 0.77153490650 0.58273996162 -2.43297990893 0.77035764945 0.59173900496 -2.45005640639 0.73754837507 0.57418688279 -2.31658707295 0.74879127298 0.57555185377 -2.32890809385 0.75750046264 0.57713475252 -2.34187378613 0.76392006738 0.57903294033 -2.35541450056 0.76829421055 0.58134377845 -2.36946058792 0.77086701546 0.58416462818 -2.38394239898 0.77188260545 0.58759285077 -2.39879028450 0.77158510385 0.59172580752 -2.41393459526 0.77021863400 0.59666085969 -2.42930568202 0.76802731923 0.60249536855 -2.44483389556 0.73937526541 0.59757203659 -2.31680495418 0.75028590543 0.59857895177 -2.32907358098 0.75870690683 0.59965909938 -2.34194680257 0.76484456901 0.60088016166 -2.35532588675 0.76890519140 0.60230982086 -2.36911210128 0.77109507340 0.60401575922 -2.38320671393 0.77162051442 0.60606565898 -2.39751099250 0.77068781387 0.60852720240 -2.41192620475 0.76850327117 0.61146807172 -2.42635361846 0.76527318572 0.61495594918 -2.44069450140 0.74124008315 0.61924189707 -2.31699225626 0.75168980379 0.61994934757 -2.32921769625 0.75972113479 0.62064183206 -2.34200726405 0.76549988597 0.62136407977 -2.35524411452 0.76919186710 0.62216081992 -2.36881140249 0.77096288799 0.62307678175 -2.38259228284 0.77097875843 0.62415669447 -2.39646991041 0.76940528821 0.62544528730 -2.41032744005 0.76640828712 0.62698728948 -2.42404802662 0.76215356495 0.62882743023 -2.43751482498 0.74288864021 0.63941787681 -2.31715161308 0.75280153746 0.63988109237 -2.32934242140 0.76038442498 0.64028617908 -2.34205825030 0.76576233143 0.64066078358 -2.35517293119 0.76906028548 0.64103255249 -2.36856029548 0.77040331580 0.64142913244 -2.38209417458 0.76991645104 0.64187817005 -2.39564839991 0.76772471987 0.64240731195 -2.40909680288 0.76395315096 0.64304420477 -2.42231321490 0.75872677296 0.64381649512 -2.43517146738 0.74406674851 0.65832138840 -2.31728565853 0.75341967586 0.65859223739 -2.32944973813 0.76053805582 0.65879536898 -2.34210284102 0.76550821858 0.65894636204 -2.35511608407 0.76841649436 0.65906079542 -2.36836058412 0.76934921336 0.65915424797 -2.38170745805 0.76839270580 0.65924229857 -2.39502782271 0.76563330187 0.65934052608 -2.40819279496 0.76115733180 0.65946450934 -2.42107349167 0.75505112578 0.65962982723 -2.43354102969 0.74452021996 0.67617384439 -2.31739702650 0.75334278841 0.67630083385 -2.32954162817 0.76002330575 0.67637263030 -2.34214411596 0.76461386059 0.67639690408 -2.35507732047 0.76716654155 0.67638132554 -2.36821407233 0.76773343724 0.67633356502 -2.38142720214 0.76636663626 0.67626129286 -2.39458954050 0.76311822723 0.67617217940 -2.40757391802 0.75804029876 0.67607389499 -2.42025316531 0.75118493945 0.67597410996 -2.43250011298 0.74399486650 0.69319665738 -2.31748835089 0.75236944451 0.69322493297 -2.32962007323 0.75868145321 0.69322119156 -2.34218515482 0.76295557065 0.69318849865 -2.35506038772 0.76521647489 0.69312991972 -2.36812256400 0.76548884399 0.69304852025 -2.38124847573 0.76379735599 0.69294736573 -2.39431491497 0.76016668896 0.69282952164 -2.40719867377 0.75462152095 0.69269805348 -2.41977654421 0.74718653001 0.69255602672 -2.43192531835 0.74223650004 0.70961123994 -2.31756226558 0.75029821357 0.70958258596 -2.32968705502 0.75635377663 0.70954428131 -2.34222903733 0.76040966193 0.70949723469 -2.35506903312 0.76247234220 0.70944235480 -2.36808786304 0.76254829016 0.70938055034 -2.38116634773 0.76064397854 0.70931273002 -2.39418530781 0.75676588007 0.70923980254 -2.40702556394 0.75092046748 0.70916267659 -2.41956793674 0.74311421348 0.70908226088 -2.43169324686 0.73899093249 0.72563900464 -2.31762140446 0.74692766501 0.72559184404 -2.32974455528 0.75288155445 0.72554512806 -2.34227884321 0.75685244761 0.72549920113 -2.35510700398 0.75884019129 0.72545440763 -2.36811177334 0.75884463231 0.72541109197 -2.38117588701 0.75686561747 0.72536959856 -2.39418208073 0.75290299359 0.72533027181 -2.40701309025 0.74695660746 0.72529345611 -2.41955165129 0.73902630591 0.72525949586 -2.43168049960 0.67219750331 0.55177767809 -2.31375584070 0.67951633300 0.55395821592 -2.32679696481 0.68523603778 0.55641926937 -2.34037943182 0.68956640514 0.55933163596 -2.35451288936 0.69271722253 0.56286611321 -2.36920698506 0.69489827744 0.56719349866 -2.38447136655 0.69631935734 0.57248458983 -2.40031568146 0.69719024968 0.57891018426 -2.41674957741 0.69772074195 0.58664107947 -2.43378270205 0.69812062160 0.59584807299 -2.45142470300 0.67560892272 0.57588771689 -2.31425527428 0.68275571559 0.57761378488 -2.32716284169 0.68832713043 0.57945114481 -2.34059000063 0.69251270278 0.58151843622 -2.35450183266 0.69550196816 0.58393429867 -2.36886341938 0.69748446211 0.58681737171 -2.38363984235 0.69864972016 0.59028629491 -2.39879618316 0.69918727784 0.59445970780 -2.41429752338 0.69928667069 0.59945624995 -2.43010894459 0.69913743422 0.60539456091 -2.44619552836 0.67938183925 0.59841775495 -2.31467932419 0.68608774347 0.59973858279 -2.32748323860 0.69130133943 0.60106005861 -2.34077890912 0.69518594639 0.60246055825 -2.35450028610 0.69790488364 0.60401845754 -2.36858131984 0.69962147043 0.60581213232 -2.38295596068 0.70049902606 0.60791995841 -2.39755815893 0.70070086978 0.61042031166 -2.41232186492 0.70039032089 0.61339156789 -2.42718102897 0.69973069864 0.61691210294 -2.44206960140 0.68318720360 0.61953201991 -2.31503411120 0.68926041201 0.62049794346 -2.32776050158 0.69396715729 0.62140213299 -2.34094702607 0.69744080546 0.62229305517 -2.35450775488 0.69981472254 0.62321917663 -2.36835675825 0.70122227455 0.62422896403 -2.38240810639 0.70179682751 0.62537088402 -2.39657586954 0.70167174744 0.62669340325 -2.41077411791 0.70098040037 0.62824498837 -2.42491692174 0.69985615231 0.63007410602 -2.43891835125 0.68669596646 0.63939473939 -2.31532575603 0.69202171657 0.64005720071 -2.32799697671 0.69613307655 0.64063349018 -2.34109522022 0.69913194948 0.64115098011 -2.35452374423 0.70112023847 0.64163704276 -2.36818580638 0.70219984662 0.64211905043 -2.38198466433 0.70247267701 0.64262437542 -2.39582357572 0.70204063277 0.64318039000 -2.40960579821 0.70100561697 0.64381446646 -2.42323458945 0.69946953272 0.64455397710 -2.43661320708 0.68957907853 0.65817014102 -2.31556037945 0.69411965252 0.65858168836 -2.32819501001 0.69760758972 0.65891025240 -2.34122436033 0.70011404794 0.65916938618 -2.35454775935 0.70171018501 0.65937264274 -2.36806453603 0.70246715878 0.65953357509 -2.38167401935 0.70245612706 0.65966573627 -2.39527553825 0.70174824769 0.65978267932 -2.40876842168 0.70041467850 0.65989795726 -2.42205199862 0.69852657732 0.66002512312 -2.43502559802 0.69150749051 0.67602245244 -2.31574410220 0.69530221523 0.67623674022 -2.32835694756 0.69819918932 0.67638854187 -2.34133531514 0.70024177032 0.67648332653 -2.35457930545 0.70147331576 0.67652656338 -2.36798901900 0.70193718318 0.67652372157 -2.38146455630 0.70167673014 0.67648027027 -2.39490601786 0.70073531416 0.67640167864 -2.40821350420 0.69915629279 0.67629341584 -2.42128711582 0.69698302357 0.67616095103 -2.43402695323 0.69215215310 0.69311590128 -2.31588304502 0.69531740007 0.69318769012 -2.32848513540 0.69771636789 0.69322448080 -2.34142895342 0.69936978611 0.69322785427 -2.35461788776 0.70029838429 0.69319939149 -2.36795532707 0.70052289198 0.69314067345 -2.38134466004 0.70006403874 0.69305328108 -2.39468927533 0.69894255411 0.69293879538 -2.40789256162 0.69717916766 0.69279879728 -2.42085790757 0.69479460894 0.69263486777 -2.43348870185 0.69118401699 0.70961471516 -2.31598332867 0.69391320240 0.70959987187 -2.32858191959 0.69596761794 0.70957419141 -2.34150614392 0.69735276481 0.70953802252 -2.35466301147 0.69807414421 0.70949171390 -2.36795953204 0.69813725733 0.70943561428 -2.38130271542 0.69754760536 0.70937007239 -2.39459957141 0.69631068950 0.70929543695 -2.40775710981 0.69443201094 0.70921205668 -2.42068234041 0.69191707089 0.70912028030 -2.43328227302 0.68827403289 0.72568312173 -2.31605107389 0.69083761760 0.72563861929 -2.32864964617 0.69276143201 0.72559379594 -2.34156775540 0.69404537591 0.72554888440 -2.35471418182 0.69468934910 0.72550411740 -2.36799770570 0.69469325136 0.72545972765 -2.38132710729 0.69405698248 0.72541594787 -2.39461116685 0.69278044225 0.72537301078 -2.40775866463 0.69086353046 0.72533114910 -2.42067838090 0.68830614689 0.72529059554 -2.43327909591 0.60475842913 0.55530085189 -2.31209848658 0.60817746206 0.55801961726 -2.32547079775 0.61089805757 0.56081414126 -2.33935372318 0.61306363128 0.56387541594 -2.35375535335 0.61481759880 0.56739443340 -2.36868377873 0.61630337573 0.57156218570 -2.38414708978 0.61766437771 0.57656966492 -2.40015337699 0.61904402032 0.58260786313 -2.41671073081 0.62058571920 0.58986777242 -2.43382724172 0.62243288994 0.59854038484 -2.45151100019 0.61094120382 0.57799576228 -2.31300809418 0.61416250355 0.58016350948 -2.32612901954 0.61672446643 0.58229703217 -2.33976347186 0.61875976422 0.58452758443 -2.35387189035 0.62040106870 0.58698642030 -2.36841471421 0.62178105165 0.58980479386 -2.38335238262 0.62303238485 0.59311395916 -2.39864533478 0.62428774006 0.59704517027 -2.41425400989 0.62567978907 0.60172968126 -2.43013884714 0.62734120365 0.60729874619 -2.44626028573 0.61733961389 0.59951718661 -2.31377298654 0.62001468729 0.60118899488 -2.32670335190 0.62215002648 0.60276242598 -2.34013475283 0.62386203063 0.60432295582 -2.35399497397 0.62526709890 0.60595606032 -2.36821179999 0.62648163047 0.60774721541 -2.38271301552 0.62762202450 0.60978189699 -2.39742640524 0.62880468016 0.61214558098 -2.41227975378 0.63014599663 0.61492374331 -2.42720084580 0.63176237306 0.61820185989 -2.44211746595 0.62357914803 0.61996525465 -2.31440492823 0.62545888898 0.62119877855 -2.32719722830 0.62697624820 0.62230682837 -2.34046668030 0.62822763614 0.62334120869 -2.35412090702 0.62930946325 0.62435372410 -2.36806753122 0.63031813996 0.62539617918 -2.38221417569 0.63135007671 0.62652037853 -2.39646846318 0.63250168395 0.62777812672 -2.41073801647 0.63386937213 0.62922122836 -2.42493045834 0.63554955167 0.63090148801 -2.43895341156 0.62928529491 0.63944009614 -2.31491568379 0.63021998431 0.64029556557 -2.32761408216 0.63100464206 0.64102674505 -2.34075836851 0.63171378641 0.64166202160 -2.35424599231 0.63242193561 0.64222978225 -2.36797440307 0.63320360790 0.64275841401 -2.38184105027 0.63413332154 0.64327630391 -2.39574338340 0.63528559476 0.64381183896 -2.40957885195 0.63673494583 0.64439340620 -2.42324490541 0.63855589299 0.64504939263 -2.43663899327 0.63408354324 0.65804184084 -2.31531701778 0.63402284900 0.65858206101 -2.32795734694 0.63403671853 0.65901868171 -2.34100893166 0.63417768706 0.65936507312 -2.35436653267 0.63449828982 0.65963460540 -2.36792491069 0.63505106207 0.65984064873 -2.38157882647 0.63588853902 0.65999657326 -2.39522304073 0.63706325592 0.66011574917 -2.40875231422 0.63862774801 0.66021154662 -2.42206140766 0.64063455052 0.66029733579 -2.43504508180 0.63759938169 0.67587061849 -2.31562069475 0.63659235876 0.67616096994 -2.32823045609 0.63587398808 0.67637914406 -2.34121748399 0.63547654373 0.67653004182 -2.35447883089 0.63543229976 0.67661856419 -2.36791154923 0.63577353024 0.67664961216 -2.38141269144 0.63653250921 0.67662808671 -2.39487930998 0.63774151075 0.67655888880 -2.40820845726 0.63943280892 0.67644691943 -2.42129718573 0.64163867776 0.67629707956 -2.43404254784 0.63945829896 0.69302655885 -2.31583847926 0.63765338928 0.69313499746 -2.32843684304 0.63631796119 0.69320463780 -2.34138313971 0.63546756206 0.69323660625 -2.35457918980 0.63511773927 0.69323202924 -2.36792681384 0.63528404018 0.69319203314 -2.38132783238 0.63598201217 0.69311774438 -2.39468406594 0.63722720259 0.69301028933 -2.40789733506 0.63903515882 0.69287079441 -2.42086946027 0.64142142822 0.69270038602 -2.43350226211 0.63928578374 0.70960979167 -2.31598213585 0.63693081627 0.70960684863 -2.32857994124 0.63517014832 0.70959166862 -2.34150501304 0.63400794770 0.70956444500 -2.35466391220 0.63344838221 0.70952537117 -2.36796319969 0.63349561969 0.70947464051 -2.38130943645 0.63415382793 0.70941244640 -2.39460918344 0.63542717475 0.70933898222 -2.40776900161 0.63731982797 0.70925444137 -2.42069545192 0.63983595540 0.70915901722 -2.43329509532 0.63670732471 0.72572044670 -2.31606342910 0.63414951545 0.72567922854 -2.32866318414 0.63223205995 0.72563674222 -2.34158221821 0.63095490626 0.72559323662 -2.35472930092 0.63031800244 0.72554896061 -2.36801320192 0.63032129652 0.72550416308 -2.38134269083 0.63096473655 0.72545909290 -2.39462653728 0.63224827057 0.72541399894 -2.40777351090 0.63417184664 0.72536913009 -2.42069238132 0.63673541280 0.72532473523 -2.43329191817 0.53557304546 0.55934606905 -2.31119717237 0.53448705031 0.56285279418 -2.32460745585 0.53376173410 0.56614568580 -2.33860502460 0.53347929135 0.56942555173 -2.35315762112 0.53372191660 0.57289319977 -2.36823298793 0.53457180439 0.57674943771 -2.38379886754 0.53611114927 0.58119507335 -2.39982300246 0.53842214576 0.58643091449 -2.41627313519 0.54158698840 0.59265776895 -2.43311700826 0.54568787174 0.60007644450 -2.45032236417 0.54561135266 0.58048593716 -2.31272025368 0.54430654678 0.58323497941 -2.32570281013 0.54341354236 0.58574909447 -2.33931119836 0.54301081641 0.58816661916 -2.35346136957 0.54317684591 0.59062589029 -2.36806927500 0.54399010785 0.59326524467 -2.38305086585 0.54552907923 0.59622301910 -2.39832209334 0.54787223703 0.59963755039 -2.41379890868 0.55109805826 0.60364717536 -2.42939726310 0.55528501989 0.60839023081 -2.44503310782 0.55540288743 0.60088535156 -2.31399491547 0.55347491537 0.60297088415 -2.32665555405 0.55210609671 0.60482582497 -2.33994952314 0.55136688164 0.60654056548 -2.35375897471 0.55132772034 0.60820549716 -2.36796606074 0.55205906300 0.60991101147 -2.38245293318 0.55363135982 0.61174749989 -2.39710174400 0.55611506099 0.61380535388 -2.41179464516 0.55958061669 0.61617496492 -2.42641378863 0.56409847712 0.61894672448 -2.44084132637 0.56457809051 0.62057766227 -2.31504135461 0.56173784839 0.62209249445 -2.32747108672 0.55967294063 0.62340037662 -2.34051766968 0.55844274792 0.62455636276 -2.35404427409 0.55810665093 0.62561550686 -2.36791407060 0.55872403034 0.62663286291 -2.38199022981 0.56035426683 0.62766348490 -2.39613592237 0.56305674108 0.62876242681 -2.41021431889 0.56689083377 0.62998474264 -2.42408858999 0.57191592558 0.63138548637 -2.43762190631 0.57276740266 0.63959621929 -2.31587976798 0.56884103810 0.64063179633 -2.32815480730 0.56594761759 0.64149724873 -2.34101330870 0.56413367613 0.64222298306 -2.35431110525 0.56344574871 0.64283940588 -2.36790403000 0.56393037035 0.64337692377 -2.38164791602 0.56563407603 0.64386594330 -2.39539859638 0.56860340077 0.64433687102 -2.40901190413 0.57288487956 0.64482011351 -2.42234367234 0.57852504741 0.64534607734 -2.43524973408 0.57960126462 0.65797437265 -2.31653035244 0.57453017680 0.65862077582 -2.32871211491 0.57076367108 0.65914094061 -2.34143411095 0.56833492715 0.65954939844 -2.35455330573 0.56727712473 0.65986068072 -2.36792666439 0.56762344351 0.66008931885 -2.38141115208 0.56940706320 0.66024984426 -2.39486373395 0.57266116351 0.66035678836 -2.40814137515 0.57741892413 0.66042468254 -2.42110104084 0.58371352477 0.66046805824 -2.43359969616 0.58471011716 0.67574547236 -2.31701330488 0.57855095677 0.67609141894 -2.32914840867 0.57395464457 0.67635595157 -2.34177774715 0.57094176187 0.67654458096 -2.35476471307 0.56953289001 0.67666281785 -2.36797269919 0.56974861032 0.67671617294 -2.38126509825 0.57160950412 0.67671015698 -2.39450530301 0.57513615275 0.67665028067 -2.40755670622 0.58034913753 0.67654205475 -2.42028270063 0.58726903980 0.67639098993 -2.43254667901 0.58772440102 0.69294286844 -2.31734882216 0.58064907030 0.69307571174 -2.32946908772 0.57535408154 0.69316678092 -2.34204188803 0.57184944116 0.69321750269 -2.35493916482 0.57014515559 0.69322930376 -2.36803285983 0.57025123125 0.69320361083 -2.38119491480 0.57217767456 0.69314185061 -2.39429727147 0.57593449195 0.69304544981 -2.40721187159 0.58153168983 0.69291583512 -2.41981065688 0.58897927465 0.69275443327 -2.43196556909 0.58827455695 0.70959991090 -2.31755710116 0.58057020967 0.70960564022 -2.32967955120 0.57479552548 0.70959792797 -2.34222420433 0.57095322591 0.70957713568 -2.35507049852 0.56904603251 0.70954362494 -2.36809787176 0.56907666679 0.70949775731 -2.38118576202 0.57104785030 0.70943989434 -2.39421360728 0.57496230456 0.70937039761 -2.40706084552 0.58082275110 0.70928962868 -2.41960691473 0.58863191146 0.70919794911 -2.43173125287 0.58599102571 0.72574994975 -2.31765833875 0.57806006716 0.72571319044 -2.32978519822 0.57211251985 0.72567389202 -2.34232236677 0.56814837700 0.72563245201 -2.35515255171 0.56616763180 0.72558926789 -2.36815846039 0.56617027744 0.72554473717 -2.38122280016 0.56815630712 0.72549925735 -2.39422827835 0.57212571404 0.72545322593 -2.40705760229 0.57807849140 0.72540704042 -2.41959347934 0.58601463238 0.72536109832 -2.43171861682 0.46651802011 0.56382485414 -2.31088515411 0.45954142388 0.56847633450 -2.32407364301 0.45434221830 0.57250941022 -2.33803035160 0.45095093036 0.57612992829 -2.35264371318 0.44939808704 0.57954373566 -2.36780216107 0.44971421533 0.58295667931 -2.38339412858 0.45192984221 0.58657460619 -2.39930804904 0.45607549467 0.59060336328 -2.41543235574 0.46218169970 0.59524879755 -2.43165548201 0.47027898427 0.60071675596 -2.44786586116 0.48168550353 0.58333315976 -2.31326647381 0.47448275517 0.58686214650 -2.32578039622 0.46911542999 0.58988401152 -2.33915017863 0.46561542407 0.59254177462 -2.35320696625 0.46401463354 0.59497845558 -2.36778190434 0.46434495449 0.59733707421 -2.38270613811 0.46663828304 0.59976065029 -2.39781081281 0.47092651529 0.60239220362 -2.41292707367 0.47724154733 0.60537475400 -2.42788606592 0.48561527529 0.60885132121 -2.44251893479 0.49572595795 0.60253726979 -2.31525408522 0.48787660621 0.60512494669 -2.32726147817 0.48202267887 0.60730987904 -2.34015840950 0.47819455936 0.60918659832 -2.35374131267 0.47642263111 0.61084963598 -2.36780662114 0.47673727755 0.61239352349 -2.38215076836 0.47916888212 0.61391279230 -2.39657018780 0.48374782825 0.61550197388 -2.41086131291 0.49050449938 0.61725559968 -2.42482057716 0.49946927892 0.61926820116 -2.43824441399 0.50834620512 0.62140530372 -2.31688003761 0.49954990396 0.62321973274 -2.32852528721 0.49298176770 0.62472723617 -2.34105143712 0.48866851069 0.62598633980 -2.35423855926 0.48663684728 0.62705556946 -2.36786672554 0.48691349183 0.62799345094 -2.38171600787 0.48952515868 0.62885851005 -2.39556647816 0.49449856219 0.62970927260 -2.40919820832 0.50186041670 0.63060426439 -2.42239127026 0.51163743657 0.63160201123 -2.43492573590 0.51925306678 0.63990538104 -2.31817638024 0.50932957538 0.64110150237 -2.32958022166 0.50191049922 0.64207630628 -2.34182565436 0.49701745255 0.64286293947 -2.35469051284 0.49467204962 0.64349454859 -2.36795263161 0.49489590467 0.64400428032 -2.38138984518 0.49771063194 0.64442528135 -2.39477998806 0.50313784569 0.64479069833 -2.40790089475 0.51119916017 0.64513367794 -2.42053039977 0.52191618961 0.64548736686 -2.43244633762 0.52815336468 0.65800562126 -2.31917516239 0.51704254744 0.65872525327 -2.33043467990 0.50872667618 0.65929731279 -2.34247745412 0.50322155942 0.65973833773 -2.35508898024 0.50054300566 0.66006486598 -2.36805475342 0.50070682339 0.66029343544 -2.38116026884 0.50372882113 0.66044058402 -2.39419102166 0.50962480739 0.66052284962 -2.40693250706 0.51841059065 0.66055677013 -2.41917022020 0.53010197944 0.66055888347 -2.43068965626 0.53475392057 0.67567414388 -2.31990843332 0.52251574709 0.67604598315 -2.33109706024 0.51334810132 0.67633047907 -2.34300322929 0.50726100577 0.67653447498 -2.35542576829 0.50426448294 0.67666481420 -2.36816350505 0.50436855534 0.67672834007 -2.38101526739 0.50758324548 0.67673189590 -2.39377988313 0.51391857587 0.67668232503 -2.40625618009 0.52338456902 0.67658647078 -2.41824298609 0.53599124744 0.67645117648 -2.42953912894 0.53876155620 0.69287906839 -2.32040824230 0.52557610132 0.69301868970 -2.33157576106 0.51569257739 0.69311602852 -2.34339937277 0.50911596607 0.69317329164 -2.35569268381 0.50585124901 0.69319268586 -2.36826930056 0.50590340783 0.69317641799 -2.38094282937 0.50927742420 0.69312669480 -2.39352687663 0.51597827975 0.69304572309 -2.40583504870 0.52601095614 0.69293570967 -2.41768095195 0.53938043500 0.69279886132 -2.42887819276 0.53988309332 0.70958851429 -2.32070663860 0.52605053707 0.70959837062 -2.33187918068 0.51567790714 0.70959418452 -2.34366227744 0.50876661482 0.70957672811 -2.35588153363 0.50531807141 0.70954677355 -2.36836255402 0.50533368821 0.70950509298 -2.38093094333 0.50881487652 0.70945245854 -2.39341230632 0.51576304764 0.70938964237 -2.40563224774 0.52617961287 0.70931741662 -2.41741637233 0.54006598350 0.70923655343 -2.42859028484 0.53782535368 0.72577060109 -2.32083567149 0.52376598132 0.72574002363 -2.33201571745 0.51322189330 0.72570517046 -2.34378833619 0.50619312647 0.72566672480 -2.35598412458 0.50267971769 0.72562536985 -2.36843367950 0.50268170381 0.72558178883 -2.38096759780 0.50619912168 0.72553666494 -2.39341647637 0.51323200815 0.72549068141 -2.40561091206 0.52378040009 0.72544452143 -2.41738150175 0.53784433435 0.72539886822 -2.42855884230 0.39947002087 0.56864873170 -2.31099568785 0.38443690885 0.57490882604 -2.32373606311 0.37315466111 0.58000082172 -2.33752671969 0.36561609334 0.58413643057 -2.35213765001 0.36181402122 0.58752736443 -2.36733884653 0.36174126046 0.59038533514 -2.38290030167 0.36539062674 0.59292205453 -2.39859200789 0.37275493577 0.59534923445 -2.41418395762 0.38382700323 0.59787858673 -2.42944614331 0.39859964481 0.60072182321 -2.44414855739 0.42122979072 0.58651234830 -2.31452147559 0.40598603865 0.59107896262 -2.32625796056 0.39455120104 0.59477846318 -2.33919741120 0.38692315193 0.59775928501 -2.35304537634 0.38309976535 0.60016986312 -2.36750740483 0.38307891537 0.60215863255 -2.38228904550 0.38685847602 0.60387402831 -2.39709584719 0.39443632134 0.60546448543 -2.41163335874 0.40581032540 0.60707843892 -2.42560712900 0.42097836222 0.60886432382 -2.43872270680 0.44046312356 0.60448796130 -2.31745947003 0.42462793830 0.60769187856 -2.32844275744 0.41275290169 0.61027421166 -2.34069660138 0.40483912371 0.61233426543 -2.35389101220 0.40088771436 0.61397134474 -2.36769600022 0.40089978361 0.61528475445 -2.38178157579 0.40487644148 0.61637379941 -2.39581774923 0.41281879794 0.61733778448 -2.40947453087 0.42472796298 0.61827601452 -2.42242193107 0.44060504661 0.61928779438 -2.43432996014 0.45704566592 0.62248423997 -2.31985762447 0.44034766941 0.62462113500 -2.33030304007 0.42782726253 0.62633186542 -2.34201942556 0.41948729438 0.62767896223 -2.35466446569 0.41533061402 0.62872495642 -2.36789584523 0.41536007056 0.62953237898 -2.38137124894 0.41957851306 0.63016376090 -2.39474836159 0.42798879061 0.63068163317 -2.40768486793 0.44059375230 0.63114852680 -2.41983845273 0.45739624720 0.63162697276 -2.43086680076 0.47085306435 0.64040985360 -2.32176389221 0.45313029357 0.64174029305 -2.33185139478 0.43984178303 0.64279522276 -2.34316101902 0.43099094960 0.64361096581 -2.35535564489 0.42658121015 0.64422384529 -2.36809815235 0.42661598156 0.64467018427 -2.38105142135 0.43109868070 0.64498630583 -2.39387833186 0.44003272444 0.64520853306 -2.40624176384 0.45342152966 0.64537318903 -2.41780459724 0.47126851323 0.64551659683 -2.42822971202 0.48176096539 0.65817347147 -2.32322622656 0.46296087241 0.65892291384 -2.33310040790 0.44886396266 0.65950808194 -2.34411651710 0.43947337507 0.65994786657 -2.35595445791 0.43479224854 0.66026115848 -2.36829413410 0.43482372199 0.66046684846 -2.38081544943 0.43957093434 0.66058382727 -2.39319830765 0.44903702450 0.66063098570 -2.40512261252 0.46322513138 0.66062721451 -2.41626826780 0.48213839389 0.66059140448 -2.42631517726 0.48964501558 0.67568376286 -2.32429258081 0.46982446751 0.67604255848 -2.33406266574 0.45496130089 0.67631424125 -2.34488105508 0.44505785646 0.67650725489 -2.35645081283 0.44011647498 0.67663004313 -2.36847500299 0.44013949722 0.67669104968 -2.38065668956 0.44512926392 0.67669871828 -2.39269893653 0.45508811585 0.67666149265 -2.40430480790 0.47001839377 0.67658781651 -2.41517736766 0.48992243843 0.67648613358 -2.42501967983 0.49438086144 0.69284939704 -2.32501090826 0.47370614050 0.69297278809 -2.33475075462 0.45820129718 0.69305749894 -2.34544976829 0.44786767946 0.69310672117 -2.35683461775 0.44270663528 0.69312364636 -2.36863197154 0.44271951260 0.69311146609 -2.38056849815 0.44790765938 0.69307337193 -2.39237086610 0.45827242357 0.69301255548 -2.40376574390 0.47381515315 0.69293220831 -2.41447980005 0.49453719605 0.69283552200 -2.42423970308 0.49584414953 0.70957904331 -2.32542916222 0.47459095297 0.70958716381 -2.33517726088 0.45865145102 0.70958165332 -2.34581779202 0.44802612975 0.70956385582 -2.35709578076 0.44271547522 0.70953511531 -2.36875625224 0.44271997350 0.70949677580 -2.38054423159 0.44804011065 0.70945018128 -2.39220474395 0.45867637273 0.70939667575 -2.40348281444 0.47462924582 0.70933760320 -2.41412346820 0.49589921598 0.70927430763 -2.42387173037 0.49391052638 0.72578137094 -2.32559529599 0.47246396653 0.72575924675 -2.33535477084 0.45637926186 0.72573050264 -2.34598026160 0.44565649301 0.72569624922 -2.35722420996 0.44029574061 0.72565759712 -2.36883905762 0.44029708528 0.72561565697 -2.38057724629 0.44566060767 0.72557153939 -2.39219121767 0.45638638840 0.72552635501 -2.40343341345 0.47247450811 0.72548121445 -2.41405627534 0.49392504744 0.72543722834 -2.42381224503 0.33630571556 0.57372922628 -2.31136202961 0.31026983136 0.58216885664 -2.32346142004 0.29071421347 0.58871542750 -2.33699114439 0.27761232529 0.59359294353 -2.35156345213 0.27093763023 0.59702540941 -2.36679059270 0.27066359169 0.59923682982 -2.38228481556 0.27676367306 0.60045120944 -2.39765837018 0.28921133773 0.60089255292 -2.41252350599 0.30798004913 0.60078486497 -2.42649247247 0.33304327063 0.60035215024 -2.43917751906 0.36631034851 0.58999842098 -2.31635998003 0.34011130713 0.59591937959 -2.32703168588 0.32044192728 0.60050912927 -2.33936989458 0.30728356469 0.60392538453 -2.35291329576 0.30061757510 0.60632585986 -2.36720057905 0.30042531426 0.60786826976 -2.38177043407 0.30668813789 0.60871032873 -2.39616155045 0.31938740174 0.60900975127 -2.40991261781 0.33850446154 0.60892425189 -2.42256232579 0.36402067303 0.60861154507 -2.43364936400 0.39176868233 0.60675244607 -2.32052004414 0.36513709014 0.61071237588 -2.33012102499 0.34514989392 0.61377844628 -2.34149928823 0.33179463463 0.61605677790 -2.35415709764 0.32505885324 0.61765349138 -2.36759671703 0.32493009070 0.61867470734 -2.38132041017 0.33139588797 0.61922654641 -2.39483044086 0.34444378602 0.61941512922 -2.40762907289 0.36406132580 0.61934657640 -2.41921857005 0.39023604828 0.61912700859 -2.42910119612 0.41283864699 0.62385053198 -2.32391076246 0.38558375844 0.62633734283 -2.33274755566 0.36513395824 0.62825872283 -2.34337307792 0.35148146888 0.62968205248 -2.35528269654 0.34461851285 0.63067471229 -2.36797177883 0.34453731264 0.63130408276 -2.38093569211 0.35123009076 0.63163754437 -2.39366980369 0.36468906970 0.63174247763 -2.40566948087 0.38490647196 0.63168626304 -2.41643009097 0.41187452002 0.63153628109 -2.42544700130 0.42967817247 0.64115190917 -2.32660067553 0.40168789012 0.64258377776 -2.33492939620 0.38068996510 0.64368530322 -2.34498501624 0.36668000118 0.64449613709 -2.35627793121 0.35965360213 0.64505593091 -2.36831853666 0.35960637173 0.64540433621 -2.38061722814 0.36653391373 0.64558100452 -2.39268440120 0.38043183192 0.64562558738 -2.40403045140 0.40129573004 0.64557773632 -2.41416577428 0.42912121189 0.64547710288 -2.42260076540 0.44244518876 0.65851580807 -2.32865832388 0.41368606322 0.65924117799 -2.33668466490 0.39211375933 0.65979353176 -2.34632885580 0.37772616529 0.66019396055 -2.35713064044 0.37052116931 0.66046355553 -2.36862976272 0.37049665959 0.66062340787 -2.38036596650 0.37765052435 0.66069460875 -2.39187899567 0.39198065178 0.66069824932 -2.40270859411 0.41348493010 0.66065542077 -2.41239450570 0.44216124751 0.66058721427 -2.42047647430 0.45129762583 0.67580145911 -2.33015224806 0.42181485584 0.67609904086 -2.33803148008 0.39970118580 0.67631875277 -2.34739834917 0.38495589497 0.67647045170 -2.35782866299 0.37757826258 0.67656399448 -2.36889822919 0.37756756787 0.67660923795 -2.38018285544 0.38492309007 0.67661603895 -2.39125834937 0.39964410842 0.67659425433 -2.40170051866 0.42172990217 0.67655374093 -2.41108517094 0.45117975054 0.67650435558 -2.41898811389 0.45639341367 0.69286809274 -2.33115098860 0.42631084602 0.69294686368 -2.33898796002 0.40374808936 0.69299631056 -2.34818724895 0.38870512398 0.69302053936 -2.35835983762 0.38118193016 0.69302365605 -2.36911670829 0.38117848820 0.69300976662 -2.38006884319 0.38869477837 0.69298297703 -2.39082722457 0.40373078097 0.69294739327 -2.40100283467 0.42628647629 0.69290712130 -2.41020665574 0.45636184460 0.69286626711 -2.41804967003 0.45789048226 0.70957493939 -2.33172308603 0.42741061184 0.70957414377 -2.33957222304 0.40455031485 0.70956154942 -2.34868930773 0.38930978606 0.70953915235 -2.35871200312 0.38168922025 0.70950894857 -2.36927797221 0.38168881221 0.70947293408 -2.38002487801 0.38930875671 0.70943310488 -2.39059038354 0.40454924855 0.70939145700 -2.40061215181 0.42741048250 0.70934998643 -2.40972784582 0.45789265334 0.70931068918 -2.41757512860 0.45594676157 0.72578122950 -2.33193708089 0.42535073138 0.72577037846 -2.33980238743 0.40240370712 0.72574981368 -2.34889827811 0.38710581497 0.72572121951 -2.35887299824 0.37945718106 0.72568628033 -2.36937479315 0.37945793154 0.72564668051 -2.38005190814 0.38710819257 0.72560410441 -2.39055258856 0.40240809028 0.72556023639 -2.40052507970 0.42535775084 0.72551676083 -2.40961762690 0.45595730039 0.72547536208 -2.41747847547 </DataArray>
</Points>
</Piece>
</StructuredGrid>
</VTKFile>
