<?xml version="1.0"?>
<VTKFile type="StructuredGrid" version="0.1">
<StructuredGrid WholeExtent="0 9 0 9 0 9">
<Piece Extent="0 9 0 9 0 9">
<PointData>
<DataArray type="Float32" Name="Deformation" format="ascii" NumberOfComponents="3">
-0.00000394291 0.07729376937 -0.02717371155 -0.00000536446 0.07746713410 -0.02700915162 -0.00000656198 0.07765268333 -0.02680384352 -0.00000815519 0.07785459719 -0.02657869524 -0.00001076381 0.07807705580 -0.02635461474 -0.00001500757 0.07832423929 -0.02615251002 -0.00002150619 0.07860032779 -0.02599328904 -0.00003087939 0.07890950142 -0.02589785980 -0.00004374690 0.07925594031 -0.02588713026 -0.00006072842 0.07964382459 -0.02598200841 -0.00000756422 0.07694313168 -0.02723959083 -0.00000946840 0.07707302400 -0.02706132993 -0.00001181861 0.07722350669 -0.02684413883 -0.00001495775 0.07739382623 -0.02660646453 -0.00001922871 0.07758322912 -0.02636675405 -0.00002497438 0.07779096186 -0.02614345438 -0.00003253766 0.07801627095 -0.02595501254 -0.00004226142 0.07825840288 -0.02581987553 -0.00005448858 0.07851660414 -0.02575649034 -0.00006956201 0.07879012124 -0.02578330400 -0.00001178465 0.07654342994 -0.02728420537 -0.00001447127 0.07663233922 -0.02709534299 -0.00001784482 0.07674226128 -0.02686859070 -0.00002206897 0.07687033702 -0.02662064246 -0.00002730742 0.07701370736 -0.02636819221 -0.00003372386 0.07716951322 -0.02612793390 -0.00004148197 0.07733489551 -0.02591656149 -0.00005074545 0.07750699515 -0.02575076893 -0.00006167798 0.07768295306 -0.02564725016 -0.00007444325 0.07785991014 -0.02562269915 -0.00001633854 0.07610910186 -0.02730807818 -0.00001995506 0.07615901851 -0.02711170239 -0.00002421346 0.07622463695 -0.02687780948 -0.00002916163 0.07630301398 -0.02662200653 -0.00003484743 0.07639120638 -0.02635990062 -0.00004131874 0.07648627093 -0.02610709880 -0.00004862343 0.07658526444 -0.02587920816 -0.00005680937 0.07668524368 -0.02569183576 -0.00006592444 0.07678326544 -0.02556058868 -0.00007601650 0.07687638651 -0.02550107397 -0.00002096026 0.07565458513 -0.02731173225 -0.00002550174 0.07566700059 -0.02711091967 -0.00003049743 0.07568632355 -0.02687240548 -0.00003590853 0.07571074152 -0.02661133428 -0.00004169624 0.07573844203 -0.02634285069 -0.00004782176 0.07576761258 -0.02608209934 -0.00005424631 0.07579644069 -0.02584422484 -0.00006093108 0.07582311388 -0.02564437180 -0.00006783727 0.07584581966 -0.02549768485 -0.00007492609 0.07586274555 -0.02541930860 -0.00002538413 0.07519431746 -0.02729569058 -0.00003069330 0.07517022422 -0.02709350642 -0.00003626959 0.07514301092 -0.02685298901 -0.00004198245 0.07511240407 -0.02658940321 -0.00004770133 0.07507813017 -0.02631801384 -0.00005329566 0.07503991572 -0.02605408575 -0.00005863489 0.07499748723 -0.02581288380 -0.00006358845 0.07495057119 -0.02560967281 -0.00006802580 0.07489889411 -0.02545971764 -0.00007181637 0.07484218250 -0.02537828313 -0.00002934452 0.07474273655 -0.02726047616 -0.00003511171 0.07468262814 -0.02705997419 -0.00004110282 0.07461038892 -0.02682017042 -0.00004705620 0.07452688605 -0.02655699084 -0.00005271020 0.07443298667 -0.02628636146 -0.00005780317 0.07432955795 -0.02602420828 -0.00006207345 0.07421746702 -0.02578645732 -0.00006525940 0.07409758104 -0.02558903456 -0.00006709936 0.07397076717 -0.02544786602 -0.00006733168 0.07383789256 -0.02537887770 -0.00003257576 0.07431428009 -0.02720661198 -0.00003833896 0.07421815109 -0.02701083456 -0.00004457000 0.07410414739 -0.02677456001 -0.00005080256 0.07397307187 -0.02651487470 -0.00005657034 0.07382572739 -0.02624886497 -0.00006140702 0.07366291682 -0.02599361718 -0.00006484627 0.07348544303 -0.02576621767 -0.00006642179 0.07329410887 -0.02558375281 -0.00006566726 0.07308971723 -0.02546330894 -0.00006211637 0.07287307096 -0.02542197242 -0.00003481221 0.07392338578 -0.02713462106 -0.00003995702 0.07379073180 -0.02694659908 -0.00004624400 0.07363997618 -0.02671676812 -0.00005289434 0.07346984596 -0.02646383230 -0.00005912925 0.07327906819 -0.02620649577 -0.00006416995 0.07306636993 -0.02596346267 -0.00006723764 0.07283047822 -0.02575343715 -0.00006755354 0.07257012011 -0.02559512333 -0.00006433884 0.07228402265 -0.02550722537 -0.00005681477 0.07197091290 -0.02550844740 -0.00003578821 0.07358449132 -0.02704502638 -0.00003954789 0.07341430903 -0.02686777934 -0.00004569770 0.07323356513 -0.02664740506 -0.00005300431 0.07303609273 -0.02640464116 -0.00006023442 0.07281572493 -0.02616022527 -0.00006615470 0.07256629483 -0.02593489502 -0.00006953184 0.07228163555 -0.02574938801 -0.00006913252 0.07195558018 -0.02562444189 -0.00006372342 0.07158196183 -0.02558079427 -0.00005207123 0.07115461361 -0.02563918277 -0.00000126114 0.07743258861 -0.02722411796 -0.00000121646 0.07768815558 -0.02703700733 -0.00000150903 0.07793293670 -0.02681063485 -0.00000233273 0.07817492659 -0.02656315399 -0.00000388145 0.07842211982 -0.02631271820 -0.00000634906 0.07868251100 -0.02607748096 -0.00000992943 0.07896409471 -0.02587559572 -0.00001481645 0.07927486556 -0.02572521597 -0.00002120398 0.07962281814 -0.02564449515 -0.00002928592 0.08001594704 -0.02565158674 -0.00000421131 0.07703908660 -0.02732526217 -0.00000493814 0.07723380864 -0.02711248020 -0.00000619892 0.07742806002 -0.02686422930 -0.00000810326 0.07762504781 -0.02659517859 -0.00001076077 0.07782797910 -0.02631999720 -0.00001428107 0.07804006096 -0.02605335422 -0.00001877376 0.07826450046 -0.02580991879 -0.00002434846 0.07850450467 -0.02560436002 -0.00003111477 0.07876328069 -0.02545134701 -0.00003918231 0.07904403557 -0.02536554890 -0.00000768097 0.07660684972 -0.02739637078 -0.00000941156 0.07674379301 -0.02716387407 -0.00001166912 0.07688487015 -0.02689854082 -0.00001452200 0.07703065604 -0.02661249823 -0.00001803854 0.07718172560 -0.02631787349 -0.00002228711 0.07733865372 -0.02602679379 -0.00002733604 0.07750201531 -0.02575138632 -0.00003325369 0.07767238528 -0.02550377828 -0.00004010840 0.07785033854 -0.02529609686 -0.00004796852 0.07803644999 -0.02514046925 -0.00001146794 0.07614733723 -0.02743784925 -0.00001430541 0.07622877948 -0.02719157665 -0.00001754077 0.07631487232 -0.02691402560 -0.00002122462 0.07640509481 -0.02661568703 -0.00002540754 0.07649892600 -0.02630705186 -0.00003014014 0.07659584494 -0.02599861102 -0.00003547301 0.07669533069 -0.02570085543 -0.00004145675 0.07679686230 -0.02542427601 -0.00004814196 0.07689991882 -0.02517936370 -0.00005557922 0.07700397930 -0.02497660942 -0.00001537003 0.07567200842 -0.02745010308 -0.00001928840 0.07569943883 -0.02719597565 -0.00002343503 0.07572957174 -0.02691113982 -0.00002784679 0.07576170764 -0.02660531911 -0.00003256053 0.07579514700 -0.02628823707 -0.00003761311 0.07582919030 -0.02596961725 -0.00004304139 0.07586313801 -0.02565918320 -0.00004888224 0.07589629063 -0.02536665845 -0.00005517252 0.07592794863 -0.02510176655 -0.00006194908 0.07595741248 -0.02487423105 -0.00001918507 0.07519232256 -0.02743353775 -0.00002402923 0.07516644186 -0.02717745880 -0.00002897305 0.07514047364 -0.02689033966 -0.00003402419 0.07511383807 -0.02658196860 -0.00003919028 0.07508595528 -0.02626213391 -0.00004447898 0.07505624544 -0.02594062386 -0.00004989793 0.07502412869 -0.02562722675 -0.00005545478 0.07498902519 -0.02533173084 -0.00006115717 0.07495035508 -0.02506392443 -0.00006701276 0.07490753853 -0.02483359579 -0.00002271088 0.07471973893 -0.02738855874 -0.00002819659 0.07464045936 -0.02713641380 -0.00003377597 0.07455908324 -0.02685208131 -0.00003939248 0.07447482963 -0.02654620963 -0.00004498957 0.07438691754 -0.02622944714 -0.00005051070 0.07429456603 -0.02591244220 -0.00005589935 0.07419699413 -0.02560584317 -0.00006109896 0.07409342087 -0.02532029843 -0.00006605300 0.07398306530 -0.02506645634 -0.00007070492 0.07386514644 -0.02485496527 -0.00002574527 0.07426571681 -0.02731557154 -0.00003145920 0.07413216212 -0.02707322836 -0.00003746495 0.07399690576 -0.02679682094 -0.00004358733 0.07385802585 -0.02649861633 -0.00004965116 0.07371360047 -0.02619088154 -0.00005548124 0.07356170774 -0.02588588362 -0.00006090238 0.07340042575 -0.02559588958 -0.00006573939 0.07322783259 -0.02533316647 -0.00006981708 0.07304200638 -0.02510998130 -0.00007296024 0.07284102521 -0.02493860112 -0.00002808608 0.07384171547 -0.02721498164 -0.00003348574 0.07365222092 -0.02698829019 -0.00003966112 0.07346544642 -0.02672501475 -0.00004624442 0.07327677026 -0.02643976282 -0.00005286783 0.07308157076 -0.02614714189 -0.00005916355 0.07287522623 -0.02586175947 -0.00006476377 0.07265311496 -0.02559822307 -0.00006930068 0.07241061526 -0.02537114019 -0.00007240649 0.07214310545 -0.02519511833 -0.00007371338 0.07184596383 -0.02508476500 -0.00002953111 0.07345919418 -0.02708719451 -0.00003394492 0.07321130657 -0.02688198702 -0.00003998565 0.07297621044 -0.02663711892 -0.00004699942 0.07274440641 -0.02637022322 -0.00005433235 0.07250639511 -0.02609893296 -0.00006133058 0.07225267715 -0.02584088113 -0.00006734024 0.07197375317 -0.02561370075 -0.00007170744 0.07166012379 -0.02543502485 -0.00007377832 0.07130228962 -0.02532248643 -0.00007289901 0.07089075129 -0.02529371852 0.00000115068 0.07753675351 -0.02726182357 0.00000180317 0.07785397346 -0.02705779467 0.00000193860 0.07814318196 -0.02681561494 0.00000157337 0.07841523381 -0.02655137303 0.00000072384 0.07868098383 -0.02628115758 -0.00000059360 0.07895128679 -0.02602105725 -0.00000236258 0.07923699750 -0.02578716069 -0.00000456671 0.07954897077 -0.02559555654 -0.00000718962 0.07989806138 -0.02546233344 -0.00001021492 0.08029512414 -0.02540358006 -0.00000103394 0.07711110505 -0.02738941500 -0.00000114702 0.07735445228 -0.02715073442 -0.00000174312 0.07758153444 -0.02687917907 -0.00000281608 0.07779852858 -0.02658658532 -0.00000435971 0.07801161181 -0.02628478954 -0.00000636783 0.07822696120 -0.02598562810 -0.00000883427 0.07845075384 -0.02570093737 -0.00001175283 0.07868916680 -0.02544255373 -0.00001511734 0.07894837718 -0.02522231354 -0.00001892161 0.07923456206 -0.02505205317 -0.00000361913 0.07665446847 -0.02748039305 -0.00000466286 0.07682744168 -0.02721516089 -0.00000608003 0.07699189015 -0.02692088186 -0.00000788768 0.07715096403 -0.02660625843 -0.00001010286 0.07730781350 -0.02627999312 -0.00001274261 0.07746558870 -0.02595078842 -0.00001582398 0.07762743979 -0.02562734682 -0.00001936402 0.07779651693 -0.02531837083 -0.00002337976 0.07797597028 -0.02503256294 -0.00002788827 0.07816895000 -0.02477862565 -0.00000646277 0.07617606924 -0.02753507505 -0.00000850439 0.07628116138 -0.02725136891 -0.00001077649 0.07638261574 -0.02694106388 -0.00001332228 0.07648172796 -0.02661081396 -0.00001618496 0.07657979370 -0.02626727314 -0.00001940776 0.07667810861 -0.02591709541 -0.00002303386 0.07677796833 -0.02556693477 -0.00002710650 0.07688066853 -0.02522344522 -0.00003166887 0.07698750486 -0.02489328074 -0.00003676418 0.07709977296 -0.02458309533 -0.00000942273 0.07568513282 -0.02755377837 -0.00001243162 0.07572383116 -0.02725965328 -0.00001553688 0.07576207788 -0.02694006570 -0.00001880073 0.07580000818 -0.02660067346 -0.00002228540 0.07583775724 -0.02624713438 -0.00002605311 0.07587546026 -0.02588510628 -0.00003016606 0.07591325244 -0.02552024697 -0.00003468649 0.07595126898 -0.02515821429 -0.00003967662 0.07598964506 -0.02480466604 -0.00004519865 0.07602851590 -0.02446526004 -0.00001235690 0.07519088466 -0.02753682036 -0.00001620455 0.07516367076 -0.02724030883 -0.00002006555 0.07513864322 -0.02691822791 -0.00002400389 0.07511499247 -0.02657625854 -0.00002808354 0.07509190892 -0.02622008167 -0.00003236849 0.07506858298 -0.02585537823 -0.00003692272 0.07504420509 -0.02548782916 -0.00004181022 0.07501796564 -0.02512311541 -0.00004709498 0.07498905507 -0.02476691792 -0.00005284096 0.07495666379 -0.02442491762 -0.00001512315 0.07470255023 -0.02748451838 -0.00001958321 0.07460889993 -0.02719363038 -0.00002406689 0.07452067842 -0.02687589108 -0.00002861260 0.07443586865 -0.02653799078 -0.00003325874 0.07435245356 -0.02618661980 -0.00003804374 0.07426841611 -0.02582846847 -0.00004300599 0.07418173924 -0.02547022709 -0.00004818391 0.07409040590 -0.02511858599 -0.00005361592 0.07399239904 -0.02478023548 -0.00005934040 0.07388570161 -0.02446186589 -0.00001757937 0.07422935499 -0.02739718977 -0.00002232761 0.07406773843 -0.02711991276 -0.00002724525 0.07391655013 -0.02681339578 -0.00003230771 0.07377182451 -0.02648629174 -0.00003749039 0.07362959598 -0.02614725358 -0.00004276868 0.07348589897 -0.02580493419 -0.00004811802 0.07333676787 -0.02546798649 -0.00005351379 0.07317823713 -0.02514506340 -0.00005893140 0.07300634114 -0.02484481783 -0.00006434627 0.07281711433 -0.02457590269 -0.00001958343 0.07378052439 -0.02727515190 -0.00002419776 0.07354840601 -0.02701945077 -0.00002930502 0.07333462502 -0.02673108258 -0.00003477008 0.07313204786 -0.02642158303 -0.00004045783 0.07293354100 -0.02610248780 -0.00004623316 0.07273197088 -0.02578533260 -0.00005196094 0.07252020396 -0.02548165311 -0.00005750606 0.07229110670 -0.02520298503 -0.00006273340 0.07203754554 -0.02496086405 -0.00006750785 0.07175238694 -0.02476682586 -0.00002099322 0.07336528390 -0.02711872212 -0.00002495368 0.07305912242 -0.02689253925 -0.00002995054 0.07278326973 -0.02662929208 -0.00003568055 0.07252572649 -0.02634428622 -0.00004184045 0.07227449342 -0.02605282729 -0.00004812699 0.07201757118 -0.02577022091 -0.00005423691 0.07174296047 -0.02551177269 -0.00005986696 0.07143866198 -0.02529278826 -0.00006471388 0.07109267639 -0.02512857324 -0.00006847443 0.07069300439 -0.02503443322 0.00000336806 0.07760625922 -0.02728683934 0.00000401456 0.07796458369 -0.02707152411 0.00000423688 0.07828341497 -0.02681879529 0.00000410763 0.07857551412 -0.02654336584 0.00000369940 0.07885364217 -0.02625994872 0.00000308480 0.07913056017 -0.02598325687 0.00000233641 0.07941902916 -0.02572800324 0.00000152684 0.07973181019 -0.02550890079 0.00000072868 0.08008166430 -0.02534066246 0.00000001454 0.08048135254 -0.02523800121 0.00000201651 0.07715918285 -0.02743205861 0.00000211418 0.07743495166 -0.02717610120 0.00000187899 0.07768392680 -0.02688899715 0.00000134899 0.07791426504 -0.02658069476 0.00000056219 0.07813412315 -0.02626114233 -0.00000044337 0.07835165790 -0.02594028818 -0.00000162966 0.07857502607 -0.02562808060 -0.00000295865 0.07881238445 -0.02533446791 -0.00000439232 0.07907188979 -0.02506939841 -0.00000589263 0.07936169887 -0.02484282041 0.00000041139 0.07668628256 -0.02753628023 -0.00000013805 0.07688328246 -0.02724921068 -0.00000091191 0.07706331877 -0.02693562095 -0.00000190741 0.07723125836 -0.02660193054 -0.00000312176 0.07739196811 -0.02625455893 -0.00000455215 0.07755031491 -0.02589992561 -0.00000619580 0.07771116562 -0.02554445008 -0.00000804990 0.07787938714 -0.02519455182 -0.00001011165 0.07805984634 -0.02485665033 -0.00001237828 0.07825741010 -0.02453716509 -0.00000136280 0.07619529458 -0.02759976281 -0.00000259670 0.07631616170 -0.02729108543 -0.00000394836 0.07642786501 -0.02695893019 -0.00000544638 0.07653291127 -0.02660739307 -0.00000711936 0.07663380721 -0.02624057000 -0.00000899590 0.07673305962 -0.02586255694 -0.00001110458 0.07683317524 -0.02547744985 -0.00001347400 0.07693666084 -0.02508934468 -0.00001613276 0.07704602316 -0.02470233738 -0.00001910946 0.07716376897 -0.02432052392 -0.00000322155 0.07569395511 -0.02762276495 -0.00000511638 0.07574017500 -0.02730195833 -0.00000704290 0.07578383968 -0.02695918838 -0.00000905274 0.07582564094 -0.02659740222 -0.00001119754 0.07586627060 -0.02621954703 -0.00001352893 0.07590642048 -0.02582856993 -0.00001609856 0.07594678237 -0.02542741809 -0.00001895806 0.07598804808 -0.02501903865 -0.00002215907 0.07603090943 -0.02460637876 -0.00002575323 0.07607605822 -0.02419238556 -0.00000508033 0.07519000038 -0.02760554524 -0.00000755168 0.07516190798 -0.02728206228 -0.00001000805 0.07513751689 -0.02693665899 -0.00001251128 0.07511586457 -0.02657227789 -0.00001512319 0.07509598843 -0.02619186150 -0.00001790559 0.07507692590 -0.02579835236 -0.00002092032 0.07505771443 -0.02539469298 -0.00002422919 0.07503739143 -0.02498382589 -0.00002789403 0.07501499435 -0.02456869362 -0.00003197667 0.07498956060 -0.02415223870 -0.00000685464 0.07469116661 -0.02754836229 -0.00000975719 0.07458794624 -0.02723163017 -0.00001265637 0.07449517081 -0.02689160554 -0.00001560684 0.07440999933 -0.02653233995 -0.00001866324 0.07432959083 -0.02615788492 -0.00002188022 0.07425110433 -0.02577229199 -0.00002531242 0.07417169886 -0.02537961270 -0.00002901449 0.07408853344 -0.02498389858 -0.00003304108 0.07399876709 -0.02458920116 -0.00003744682 0.07389955885 -0.02419957198 -0.00000845996 0.07420519000 -0.02745147470 -0.00001158750 0.07402487542 -0.02715089487 -0.00001480038 0.07386307557 -0.02682429152 -0.00001812422 0.07371446242 -0.02647790828 -0.00002158461 0.07357370797 -0.02611798876 -0.00002520715 0.07343548420 -0.02575077660 -0.00002901743 0.07329446310 -0.02538251543 -0.00003304106 0.07314531666 -0.02501944887 -0.00003730364 0.07298271687 -0.02466782054 -0.00004183076 0.07280133571 -0.02433387408 -0.00000981179 0.07373980679 -0.02731514107 -0.00001289720 0.07347928113 -0.02704008929 -0.00001625262 0.07324750530 -0.02673498043 -0.00001984823 0.07303567101 -0.02640930276 -0.00002365420 0.07283496998 -0.02607254452 -0.00002764070 0.07263659393 -0.02573419396 -0.00003177791 0.07243173458 -0.02540373935 -0.00003603601 0.07221158365 -0.02509066893 -0.00004038516 0.07196733286 -0.02480447095 -0.00004479553 0.07169017393 -0.02455463367 -0.00001082560 0.07330275318 -0.02713962000 -0.00001354089 0.07295774899 -0.02689944630 -0.00001682564 0.07265473415 -0.02662393577 -0.00002056370 0.07238004229 -0.02632684327 -0.00002463894 0.07212000702 -0.02602192367 -0.00002893523 0.07186096196 -0.02572293184 -0.00003333644 0.07158924074 -0.02544362263 -0.00003772643 0.07129117696 -0.02519775092 -0.00004198907 0.07095310426 -0.02499907155 -0.00004600822 0.07056135625 -0.02486133941 0.00000546650 0.07764110086 -0.02729917622 0.00000573786 0.07801998220 -0.02707820610 0.00000584178 0.07835363161 -0.02682018740 0.00000581457 0.07865576273 -0.02653914591 0.00000569258 0.07894008920 -0.02624910742 0.00000551214 0.07922032464 -0.02596409775 0.00000530957 0.07951018269 -0.02569814267 0.00000512121 0.07982337699 -0.02546526800 0.00000498339 0.08017362117 -0.02527949952 0.00000493243 0.08057462886 -0.02515486304 0.00000498867 0.07718331586 -0.02745320229 0.00000505463 0.07747530351 -0.02718858914 0.00000499763 0.07773523398 -0.02689369253 0.00000483715 0.07797225368 -0.02657751694 0.00000459266 0.07819550900 -0.02624906682 0.00000428364 0.07841414636 -0.02591734661 0.00000392958 0.07863731215 -0.02559136079 0.00000354995 0.07887415279 -0.02528011381 0.00000316423 0.07913381466 -0.02499261012 0.00000279190 0.07942544419 -0.02473785419 0.00000442110 0.07670228838 -0.02756404040 0.00000425004 0.07691131262 -0.02726603062 0.00000400089 0.07709915353 -0.02694276523 0.00000367741 0.07727153640 -0.02659952200 0.00000328335 0.07743418649 -0.02624157873 0.00000282246 0.07759282910 -0.02587421320 0.00000229849 0.07775318949 -0.02550270320 0.00000171520 0.07792099296 -0.02513232652 0.00000107634 0.07810196477 -0.02476836094 0.00000038566 0.07830183021 -0.02441608426 0.00000379218 0.07620500996 -0.02763191977 0.00000337296 0.07633377792 -0.02731073248 0.00000291589 0.07645061793 -0.02696763043 0.00000241131 0.07655864254 -0.02660543010 0.00000184961 0.07666096427 -0.02622694798 0.00000122114 0.07676069568 -0.02583500055 0.00000051627 0.07686094930 -0.02543240430 -0.00000027464 0.07696483767 -0.02502197569 -0.00000116122 0.07707547333 -0.02460653122 -0.00000215311 0.07719596881 -0.02418888737 0.00000313031 0.07569847210 -0.02765706962 0.00000247231 0.07574846777 -0.02732289661 0.00000180697 0.07579485483 -0.02696851307 0.00000111483 0.07583860374 -0.02659551026 0.00000037640 0.07588068496 -0.02620547940 -0.00000042776 0.07592206895 -0.02580001172 -0.00000131714 0.07596372618 -0.02538069847 -0.00000231120 0.07600662710 -0.02494913088 -0.00000342941 0.07605174218 -0.02450690019 -0.00000469124 0.07610004187 -0.02405559762 0.00000246390 0.07518966635 -0.02763971919 0.00000159698 0.07516115056 -0.02730272493 0.00000073849 0.07513709189 -0.02694563812 -0.00000013609 0.07511645164 -0.02657003149 -0.00000105131 0.07509819114 -0.02617747779 -0.00000203169 0.07508127173 -0.02576954975 -0.00000310177 0.07506465471 -0.02534782013 -0.00000428609 0.07504730141 -0.02491386165 -0.00000560917 0.07502817317 -0.02446924706 -0.00000709555 0.07500623129 -0.02401554911 0.00000182134 0.07468558421 -0.02758009768 0.00000079586 0.07457759467 -0.02725041937 -0.00000022521 0.07448255676 -0.02689923051 -0.00000126548 0.07439721788 -0.02652926282 -0.00000234857 0.07431832544 -0.02614324798 -0.00000349810 0.07424262684 -0.02574391769 -0.00000473767 0.07416686949 -0.02533400365 -0.00000609092 0.07408780078 -0.02491623755 -0.00000758144 0.07400216814 -0.02449335108 -0.00000923287 0.07390671895 -0.02406807595 0.00000123102 0.07419321721 -0.02747843433 0.00000011784 0.07400356847 -0.02716618182 -0.00000101979 0.07383647711 -0.02682951520 -0.00000219738 0.07368593412 -0.02647347325 -0.00000343042 0.07354593046 -0.02610309478 -0.00000473443 0.07341045713 -0.02572341858 -0.00000612489 0.07327350511 -0.02533948343 -0.00000761730 0.07312906538 -0.02495632813 -0.00000922718 0.07297112892 -0.02457899147 -0.00001097001 0.07279368673 -0.02421251224 0.00000072135 0.07371955687 -0.02733495836 -0.00000038817 0.07344484035 -0.02705021421 -0.00000158090 0.07320408060 -0.02673671712 -0.00000285582 0.07298763197 -0.02640293181 -0.00000421191 0.07278584880 -0.02605732302 -0.00000564813 0.07258908542 -0.02570835546 -0.00000716345 0.07238769616 -0.02536449387 -0.00000875686 0.07217203537 -0.02503420296 -0.00001042733 0.07193245738 -0.02472594746 -0.00001217382 0.07165931652 -0.02444819210 0.00000032072 0.07327159472 -0.02714989899 -0.00000067328 0.07290717866 -0.02690271845 -0.00000184420 0.07259059487 -0.02662106123 -0.00000316485 0.07230734310 -0.02631790752 -0.00000460806 0.07204292307 -0.02600623751 -0.00000614664 0.07178283454 -0.02569903139 -0.00000775342 0.07151257724 -0.02540926935 -0.00000940121 0.07121765093 -0.02514993158 -0.00001106283 0.07088355534 -0.02493399827 -0.00001271110 0.07049579021 -0.02477444961 0.00000752152 0.07764127359 -0.02729884516 0.00000729324 0.07802016494 -0.02707785112 0.00000720926 0.07835382776 -0.02681980277 0.00000723871 0.07865597491 -0.02653872670 0.00000735072 0.07894031926 -0.02624864953 0.00000751442 0.07922057370 -0.02596359786 0.00000769895 0.07951045109 -0.02569759830 0.00000787342 0.07982366432 -0.02546467746 0.00000800698 0.08017392625 -0.02527886195 0.00000806874 0.08057494976 -0.02515417837 0.00000793115 0.07718349992 -0.02745285533 0.00000788356 0.07747550455 -0.02718820683 0.00000794302 0.07773545283 -0.02689327423 0.00000809362 0.07797249100 -0.02657706192 0.00000831942 0.07819576527 -0.02624857424 0.00000860451 0.07841442188 -0.02591681557 0.00000893296 0.07863760705 -0.02559079025 0.00000928885 0.07887446700 -0.02527950266 0.00000965627 0.07913414797 -0.02499195716 0.00001001927 0.07942579618 -0.02473715810 0.00000842051 0.07670248231 -0.02756368159 0.00000858852 0.07691152939 -0.02726562792 0.00000882402 0.07709939194 -0.02694232182 0.00000912540 0.07727179552 -0.02659904029 0.00000949107 0.07743446569 -0.02624106035 0.00000991943 0.07759312802 -0.02587365901 0.00001040888 0.07775350807 -0.02550211329 0.00001095782 0.07792133141 -0.02513170018 0.00001156465 0.07810232362 -0.02476769672 0.00001222777 0.07830221024 -0.02441537990 0.00000896240 0.07620521208 -0.02763155315 0.00000935990 0.07633400750 -0.02731031631 0.00000978852 0.07645087228 -0.02696717045 0.00001025906 0.07655891960 -0.02660493081 0.00001078230 0.07666126261 -0.02622641264 0.00001136905 0.07676101449 -0.02583443121 0.00001203008 0.07686128840 -0.02543180176 0.00001277619 0.07696519750 -0.02502133956 0.00001361816 0.07707585496 -0.02460585985 0.00001456679 0.07719637394 -0.02418817790 0.00000952966 0.07569868060 -0.02765669922 0.00001014946 0.07574870689 -0.02732247389 0.00001077280 0.07579512105 -0.02696804504 0.00001141958 0.07583889437 -0.02659500245 0.00001210974 0.07588099815 -0.02620493590 0.00001286323 0.07592240369 -0.02579943517 0.00001369995 0.07596408227 -0.02538009005 0.00001463986 0.07600700520 -0.02494849033 0.00001570287 0.07605214376 -0.02450622579 0.00001690891 0.07610046926 -0.02405488621 0.00001009508 0.07518987919 -0.02763934902 0.00001090900 0.07516139558 -0.02730230256 0.00001171313 0.07513736543 -0.02694517052 0.00001253196 0.07511675097 -0.02656952421 0.00001339002 0.07509851441 -0.02617693491 0.00001431182 0.07508161799 -0.02576897392 0.00001532187 0.07506502393 -0.02534721253 0.00001644469 0.07504769446 -0.02491322204 0.00001770480 0.07502859180 -0.02446857375 0.00001912672 0.07500667818 -0.02401483895 0.00001063147 0.07468579921 -0.02757973177 0.00001159029 0.07457784160 -0.02725000420 0.00001254579 0.07448283263 -0.02689877180 0.00001352120 0.07439752052 -0.02652876506 0.00001453975 0.07431865350 -0.02614271445 0.00001562468 0.07424297979 -0.02574335046 0.00001679921 0.07416724763 -0.02533340356 0.00001808658 0.07408820523 -0.02491560423 0.00001951003 0.07400260085 -0.02449268296 0.00002109277 0.07390718268 -0.02406737022 0.00001111166 0.07419343199 -0.02747807669 0.00001214510 0.07400381297 -0.02716578072 0.00001320706 0.07383674984 -0.02682907381 0.00001431229 0.07368623416 -0.02647299400 0.00001547557 0.07354625751 -0.02610257933 0.00001671167 0.07341081146 -0.02572286782 0.00001803536 0.07327388758 -0.02533889751 0.00001946140 0.07312947746 -0.02495570644 0.00002100458 0.07297157267 -0.02457833263 0.00002267965 0.07279416477 -0.02421181414 0.00001150846 0.07371976888 -0.02733461299 0.00001252522 0.07344507772 -0.02704983401 0.00001363320 0.07320434425 -0.02673630147 0.00001483022 0.07298792302 -0.02640248002 0.00001611410 0.07278616855 -0.02605683431 0.00001748265 0.07258943538 -0.02570782900 0.00001893369 0.07238807805 -0.02536392875 0.00002046504 0.07217245109 -0.02503359819 0.00002207451 0.07193290903 -0.02472530200 0.00002375993 0.07165980641 -0.02444750482 0.00001179467 0.07327180123 -0.02714956988 0.00001268241 0.07290740385 -0.02690236596 0.00001376050 0.07259084306 -0.02662067969 0.00001499999 0.07230761822 -0.02631749209 0.00001637196 0.07204322873 -0.02600578420 0.00001784747 0.07178317395 -0.02569853704 0.00001939759 0.07151295327 -0.02540873164 0.00002099336 0.07121806607 -0.02514934905 0.00002260587 0.07088401172 -0.02493337028 0.00002420618 0.07049628960 -0.02477377638 0.00000960863 0.07760677252 -0.02728585710 0.00000900083 0.07796512785 -0.02707046964 0.00000879529 0.07828399928 -0.02681765290 0.00000892454 0.07857614588 -0.02654212171 0.00000932115 0.07885432671 -0.02625859086 0.00000991765 0.07913130085 -0.02598177516 0.00001064658 0.07941982737 -0.02572638942 0.00001144049 0.07973266533 -0.02550714846 0.00001223192 0.08008257380 -0.02533876706 0.00001295343 0.08048231185 -0.02523596005 0.00001089257 0.07715973089 -0.02743102703 0.00001081015 0.07743555152 -0.02717496287 0.00001104537 0.07768458022 -0.02688775125 0.00001156359 0.07791497350 -0.02657933973 0.00001233019 0.07813488785 -0.02625967587 0.00001331053 0.07835247977 -0.02593870721 0.00001446999 0.07857590575 -0.02562638131 0.00001577394 0.07881332228 -0.02533264572 0.00001718774 0.07907288586 -0.02506744801 0.00001867677 0.07936275300 -0.02484073572 0.00001242013 0.07668686072 -0.02753521186 0.00001296455 0.07688393003 -0.02724800978 0.00001372312 0.07706403151 -0.02693429786 0.00001469517 0.07723203310 -0.02660049288 0.00001588001 0.07739280275 -0.02625301162 0.00001727696 0.07755120841 -0.02589827088 0.00001888534 0.07771211804 -0.02554268743 0.00002070447 0.07788039956 -0.02519267807 0.00002273367 0.07806092094 -0.02485465957 0.00002497225 0.07825855012 -0.02453504872 0.00001410810 0.07619589767 -0.02759867018 0.00001531939 0.07631684793 -0.02728984321 0.00001664179 0.07642862587 -0.02695755614 0.00001810508 0.07653374028 -0.02660590093 0.00001973907 0.07663469997 -0.02623896951 0.00002157353 0.07673401374 -0.02586085385 0.00002363828 0.07683419041 -0.02547564589 0.00002596311 0.07693773878 -0.02508743758 0.00002857781 0.07704716765 -0.02470032087 0.00003151217 0.07716498584 -0.02431838771 0.00001587328 0.07569457739 -0.02762166055 0.00001773008 0.07574088977 -0.02730069598 0.00001961464 0.07578463604 -0.02695778952 0.00002157915 0.07582651065 -0.02659588367 0.00002367582 0.07586720805 -0.02621792092 0.00002595686 0.07590742270 -0.02582684378 0.00002847447 0.07594784904 -0.02542559476 0.00003128086 0.07598918154 -0.02501711634 0.00003442824 0.07603211463 -0.02460435103 0.00003796881 0.07607734278 -0.02419024134 0.00001763246 0.07519063553 -0.02760444155 0.00002005199 0.07516264008 -0.02728080093 0.00002245490 0.07513833476 -0.02693526141 0.00002490316 0.07511675984 -0.02657076088 0.00002745871 0.07509695557 -0.02619023723 0.00003018353 0.07507796224 -0.02579662835 0.00003313955 0.07505882011 -0.02539287212 0.00003638874 0.07503856944 -0.02498190645 0.00003999306 0.07501625051 -0.02456666920 0.00004401445 0.07499090358 -0.02415009829 0.00001930246 0.07469180775 -0.02754727177 0.00002214050 0.07458868341 -0.02723039089 0.00002497584 0.07449599477 -0.02689023523 0.00002786293 0.07441090345 -0.02653085235 0.00003085622 0.07433057109 -0.02615628982 0.00003401015 0.07425215932 -0.02577059521 0.00003737919 0.07417282977 -0.02537781608 0.00004101778 0.07408974409 -0.02498199999 0.00004498036 0.07400006391 -0.02458719450 0.00004932140 0.07390095085 -0.02419744719 0.00002080005 0.07420582970 -0.02745040978 0.00002385099 0.07402560431 -0.02714969869 0.00002699070 0.07386388880 -0.02682297439 0.00003024426 0.07371535710 -0.02647647786 0.00003363678 0.07357468315 -0.02611645008 0.00003719334 0.07343654088 -0.02574913204 0.00004093904 0.07329560421 -0.02538076470 0.00004489897 0.07314654710 -0.02501758905 0.00004909824 0.07298404345 -0.02466584606 0.00005356193 0.07280276722 -0.02433177671 0.00002204204 0.07374043703 -0.02731411416 0.00002503885 0.07347998730 -0.02703895716 0.00002831273 0.07324828958 -0.02673374231 0.00003183297 0.07303653640 -0.02640795719 0.00003556885 0.07283592032 -0.02607108939 0.00003948968 0.07263763387 -0.02573262650 0.00004356475 0.07243286960 -0.02540205608 0.00004776335 0.07221282006 -0.02508886572 0.00005205478 0.07196867778 -0.02480254300 0.00005640833 0.07169163532 -0.02455257551 0.00002294522 0.07330336541 -0.02713864349 0.00002555946 0.07295841695 -0.02689839913 0.00002875519 0.07265546985 -0.02662280240 0.00003241485 0.07238085697 -0.02632561013 0.00003642090 0.07212091116 -0.02602057914 0.00004065579 0.07186196525 -0.02572146625 0.00004500199 0.07159035211 -0.02544202830 0.00004934193 0.07129240458 -0.02519602209 0.00005355808 0.07095445552 -0.02499720446 0.00005753289 0.07056283776 -0.02485933223 0.00001180333 0.07753759280 -0.02726022301 0.00001118078 0.07785486686 -0.02705607210 0.00001105583 0.07814414205 -0.02681374929 0.00001141660 0.07841627088 -0.02654934440 0.00001225122 0.07868210590 -0.02627894723 0.00001354781 0.07895249960 -0.02601864760 0.00001529450 0.07923830452 -0.02578453534 0.00001747942 0.07955037318 -0.02559270026 0.00002009071 0.07989955810 -0.02545923218 0.00002311647 0.08029671179 -0.02540022091 0.00001392154 0.07711200460 -0.02738772668 0.00001404361 0.07735544114 -0.02714886587 0.00001463489 0.07758261301 -0.02687713259 0.00001569228 0.07779969769 -0.02658436042 0.00001721270 0.07801287264 -0.02628238293 0.00001919303 0.07822831533 -0.02598303368 0.00002163020 0.07845220322 -0.02569814626 0.00002452109 0.07869071379 -0.02543955423 0.00002786261 0.07895002451 -0.02521909117 0.00003165167 0.07923631283 -0.02504859064 0.00001643046 0.07665542000 -0.02747863928 0.00001746525 0.07682851177 -0.02721318340 0.00001886385 0.07699306973 -0.02691870048 0.00002064532 0.07715224651 -0.02660388722 0.00002282877 0.07730919473 -0.02627744037 0.00002543326 0.07746706704 -0.02594805663 0.00002847788 0.07762901607 -0.02562443275 0.00003198171 0.07779819444 -0.02531526543 0.00003596384 0.07797775479 -0.02502925142 0.00004044334 0.07817084976 -0.02477508743 0.00001918948 0.07617706341 -0.02753327809 0.00002120676 0.07628229670 -0.02724931943 0.00002344798 0.07638387648 -0.02693879339 0.00002595764 0.07648310239 -0.02660834621 0.00002878024 0.07658127406 -0.02626462415 0.00003196029 0.07667969113 -0.02591427343 0.00003554229 0.07677965323 -0.02556394032 0.00003957073 0.07688245998 -0.02522027104 0.00004409012 0.07698941102 -0.02488991185 0.00004914497 0.07710180598 -0.02457950899 0.00002205797 0.07568615927 -0.02755196043 0.00002502917 0.07572501384 -0.02725756866 0.00002809256 0.07576339751 -0.02693775175 0.00003131115 0.07580145038 -0.02659815879 0.00003474795 0.07583931251 -0.02624443887 0.00003846595 0.07587712399 -0.02588224108 0.00004252816 0.07591502489 -0.02551721451 0.00004699757 0.07595315528 -0.02515500825 0.00005193719 0.07599165525 -0.02480127139 0.00005741003 0.07603066487 -0.02446165302 0.00002489534 0.07519193199 -0.02753500359 0.00002869351 0.07516488112 -0.02723822583 0.00003250285 0.07513999711 -0.02691591601 0.00003638777 0.07511647553 -0.02657374637 0.00004041270 0.07509351197 -0.02621738914 0.00004464204 0.07507030201 -0.02585251656 0.00004914022 0.07504604123 -0.02548480084 0.00005397166 0.07501992522 -0.02511991422 0.00005920078 0.07499114955 -0.02476352894 0.00006489198 0.07495890982 -0.02442131722 0.00002756097 0.07470360600 -0.02748272489 0.00003196084 0.07461011649 -0.02719158565 0.00003638413 0.07452203953 -0.02687362659 0.00004086942 0.07443736288 -0.02653553036 0.00004545531 0.07435407431 -0.02618397957 0.00005018038 0.07427016157 -0.02582565685 0.00005508323 0.07418361243 -0.02546724483 0.00006020244 0.07409241466 -0.02511542615 0.00006557661 0.07399455600 -0.02477688342 0.00007124432 0.07388802423 -0.02445829928 0.00002991425 0.07423040571 -0.02739544163 0.00003459220 0.07406893786 -0.02711794284 0.00003944167 0.07391788904 -0.02681122393 0.00004443802 0.07377329749 -0.02648393215 0.00004955660 0.07363120142 -0.02614471474 0.00005477278 0.07348763908 -0.02580221895 0.00006006190 0.07333864868 -0.02546509203 0.00006539932 0.07318026846 -0.02514198122 0.00007076041 0.07300853665 -0.02484153377 0.00007612050 0.07281949147 -0.02457239692 0.00003181457 0.07378155556 -0.02727347111 0.00003634862 0.07354956317 -0.02701759212 0.00004138074 0.07333590992 -0.02672904845 0.00004677548 0.07313346440 -0.02641937315 0.00005239740 0.07293509520 -0.02610009926 0.00005811105 0.07273367092 -0.02578275984 0.00006378098 0.07252206016 -0.02547888794 0.00006927175 0.07229313151 -0.02520001660 0.00007444791 0.07203975357 -0.02495767889 0.00007917401 0.07175479494 -0.02476340784 0.00003312132 0.07336627996 -0.02711713064 0.00003699114 0.07306021035 -0.02689082822 0.00004190660 0.07278446643 -0.02662744060 0.00004756372 0.07252704865 -0.02634227477 0.00005365851 0.07227595751 -0.02605063774 0.00005988700 0.07201919348 -0.02576783651 0.00006594521 0.07174475704 -0.02550917810 0.00007152915 0.07144064867 -0.02528996949 0.00007633484 0.07109486884 -0.02512551770 0.00008005831 0.07069541803 -0.02503112973 0.00001418113 0.07743372957 -0.02722195382 0.00001415325 0.07768937791 -0.02703466899 0.00001444686 0.07793425193 -0.02680810345 0.00001525939 0.07817634517 -0.02656040825 0.00001678826 0.07842365116 -0.02630973447 0.00001923091 0.07868416345 -0.02607423315 0.00002278476 0.07896587555 -0.02587205536 0.00002764725 0.07927678103 -0.02572135217 0.00003401580 0.07962487340 -0.02564027462 0.00004208784 0.08001814621 -0.02564697379 0.00001706670 0.07704031691 -0.02732296358 0.00001779313 0.07723517015 -0.02710992442 0.00001904179 0.07742954807 -0.02686142725 0.00002092490 0.07762666006 -0.02659213402 0.00002355466 0.07782971553 -0.02631670668 0.00002704332 0.07804192386 -0.02604980716 0.00003150308 0.07826649447 -0.02580609744 0.00003704617 0.07850663673 -0.02560023944 0.00004378482 0.07876556006 -0.02544689513 0.00005183124 0.07904647383 -0.02536072644 0.00002046203 0.07660815652 -0.02739397188 0.00002217779 0.07674527188 -0.02716115598 0.00002441184 0.07688650413 -0.02689553680 0.00002723447 0.07703243313 -0.02660923079 0.00003071594 0.07718363869 -0.02631435440 0.00003492652 0.07734070065 -0.02602302410 0.00003993647 0.07750419884 -0.02574735632 0.00004581606 0.07767471309 -0.02549946754 0.00005263556 0.07785282323 -0.02529147420 0.00006046524 0.07803910909 -0.02513549276 0.00002416678 0.07614870603 -0.02743538411 0.00002697729 0.07623035127 -0.02718875123 0.00003017934 0.07631662191 -0.02691088805 0.00003382496 0.07640700376 -0.02661227240 0.00003796618 0.07650098264 -0.02630338208 0.00004265502 0.07659804436 -0.02599469491 0.00004794351 0.07669767473 -0.02569668870 0.00005388367 0.07679935955 -0.02541984126 0.00006052753 0.07690258465 -0.02517463041 0.00006792711 0.07700683583 -0.02497153395 0.00002798055 0.07567342305 -0.02744760567 0.00003186172 0.07570107650 -0.02719309772 0.00003596663 0.07573140317 -0.02690793698 0.00004033322 0.07576371137 -0.02660183270 0.00004499947 0.07579730939 -0.02628449415 0.00005000333 0.07583150556 -0.02596563057 0.00005538277 0.07586560819 -0.02565495123 0.00006117574 0.07589892559 -0.02536216539 0.00006742022 0.07593076606 -0.02509698231 0.00007415415 0.07596043793 -0.02486911124 0.00003170299 0.07519376520 -0.02743104195 0.00003650117 0.07516811576 -0.02717458303 0.00004139603 0.07514234970 -0.02688713955 0.00004639609 0.07511589532 -0.02657848554 0.00005150989 0.07508818093 -0.02625839503 0.00005674596 0.07505863482 -0.02593664204 0.00006211283 0.07502668530 -0.02562300060 0.00006761905 0.07499176066 -0.02532724473 0.00007327314 0.07495328920 -0.02505914846 0.00007908363 0.07491069923 -0.02482848582 0.00003513371 0.07472119011 -0.02738609834 0.00004056571 0.07464213720 -0.02713359470 0.00004608988 0.07456096326 -0.02684895172 0.00005165041 0.07447689503 -0.02654280475 0.00005719152 0.07438915926 -0.02622578916 0.00006265741 0.07429698270 -0.02590854028 0.00006799228 0.07419959211 -0.02560169347 0.00007314034 0.07409621423 -0.02531588407 0.00007804579 0.07398607581 -0.02506174744 0.00008265285 0.07386840360 -0.02484991891 0.00003807236 0.07426715539 -0.02731318024 0.00004372543 0.07413380902 -0.02707052029 0.00004967051 0.07399874564 -0.02679382945 0.00005573304 0.07386004988 -0.02649536419 0.00006173845 0.07371580638 -0.02618738098 0.00006751219 0.07356409976 -0.02588213626 0.00007287968 0.07340301468 -0.02559188652 0.00007766637 0.07323063575 -0.02532888820 0.00008169768 0.07304504761 -0.02510539779 0.00008479907 0.07284433491 -0.02493367173 0.00004031854 0.07384311868 -0.02721269304 0.00004565040 0.07365379939 -0.02698574738 0.00005176027 0.07346719861 -0.02672222873 0.00005828083 0.07327869926 -0.02643673771 0.00006484478 0.07308368428 -0.02614387491 0.00007108481 0.07287753657 -0.02585824094 0.00007663361 0.07265563907 -0.02559443641 0.00008112389 0.07241337469 -0.02536706192 0.00008418832 0.07214612636 -0.02519071808 0.00008545960 0.07184927700 -0.02508000549 0.00004167191 0.07346053758 -0.02708504213 0.00004601071 0.07321277647 -0.02687966351 0.00005198147 0.07297782394 -0.02663460551 0.00005893061 0.07274618257 -0.02636749913 0.00006620457 0.07250835496 -0.02609597539 0.00007314978 0.07225484369 -0.02583766529 0.00007911266 0.07197615134 -0.02561019983 0.00008343966 0.07166278051 -0.02543121003 0.00008547719 0.07130523379 -0.02531832688 0.00008457170 0.07089401375 -0.02528918139 0.00001681755 0.07729517796 -0.02717106049 0.00001823839 0.07746865694 -0.02700627076 0.00001942434 0.07765432481 -0.02680072686 0.00002099742 0.07785636398 -0.02657532676 0.00002357962 0.07807895687 -0.02635096840 0.00002779294 0.07832628589 -0.02614854975 0.00003425939 0.07860253347 -0.02598896878 0.00004360097 0.07891188202 -0.02589312345 0.00005643968 0.07925851397 -0.02588191171 0.00007339752 0.07964661174 -0.02597623153 0.00002037664 0.07694466366 -0.02723674701 0.00002226793 0.07707473527 -0.02705814713 0.00002459630 0.07722538224 -0.02684064425 0.00002770664 0.07739585711 -0.02660267058 0.00003194381 0.07758541241 -0.02636265836 0.00003765269 0.07779330068 -0.02613903981 0.00004517816 0.07801877445 -0.02595024714 0.00005486508 0.07826108627 -0.02581471259 0.00006705833 0.07851948867 -0.02575086837 0.00008210279 0.07879323418 -0.02577714672 0.00002452534 0.07654506668 -0.02728121773 0.00002718928 0.07663420758 -0.02709193472 0.00003053276 0.07674433221 -0.02686481396 0.00003472123 0.07687259032 -0.02661653104 0.00003992014 0.07701613166 -0.02636376156 0.00004629495 0.07717210598 -0.02612318110 0.00005401110 0.07733766303 -0.02591146527 0.00006323406 0.07750995255 -0.02574528965 0.00007412926 0.07768612430 -0.02564132983 0.00008686217 0.07786332802 -0.02561626142 0.00002900021 0.07611082222 -0.02730499548 0.00003258628 0.07616100913 -0.02710814488 0.00003680815 0.07622685996 -0.02687384602 0.00004171530 0.07630544222 -0.02661768524 0.00004735723 0.07639382344 -0.02635524886 0.00005378342 0.07648907112 -0.02610212323 0.00006104336 0.07658825279 -0.02587389467 0.00006918653 0.07668843596 -0.02568614953 0.00007826243 0.07678668815 -0.02555447412 0.00008832054 0.07688007687 -0.02549445480 0.00003353781 0.07565636552 -0.02730860311 0.00003804276 0.07566907519 -0.02710728896 0.00004299690 0.07568865073 -0.02686835044 0.00004836298 0.07571329141 -0.02660691027 0.00005410371 0.07574119655 -0.02633809114 0.00006018182 0.07577056543 -0.02607701577 0.00006656006 0.07579959736 -0.02583880686 0.00007320114 0.07582649162 -0.02563858713 0.00008006780 0.07584944753 -0.02549147927 0.00008712276 0.07586666436 -0.02541260600 0.00003787467 0.07519613178 -0.02729256345 0.00004314254 0.07517234104 -0.02708987830 0.00004867347 0.07514538977 -0.02684893723 0.00005433837 0.07511501651 -0.02658498322 0.00006000820 0.07508095981 -0.02631325926 0.00006555387 0.07504295823 -0.02604900830 0.00007084633 0.07500075032 -0.02580747334 0.00007575650 0.07495407463 -0.02560389735 0.00008015532 0.07490266971 -0.02545352330 0.00008391372 0.07484627412 -0.02537159418 0.00004174737 0.07474455624 -0.02725739934 0.00004746947 0.07468474195 -0.02705642425 0.00005341227 0.07461276232 -0.02681621641 0.00005931561 0.07452949611 -0.02655268121 0.00006491933 0.07443582204 -0.02628172408 0.00006996328 0.07433261886 -0.02601925042 0.00007418731 0.07422076530 -0.02578116562 0.00007733125 0.07410114010 -0.02558337509 0.00007913496 0.07397462201 -0.02544178425 0.00007933828 0.07384208976 -0.02537229849 0.00004489244 0.07431607411 -0.02720363364 0.00005060738 0.07422021318 -0.02700743816 0.00005678776 0.07410645364 -0.02677079798 0.00006296881 0.07397560882 -0.02651078133 0.00006868573 0.07382849205 -0.02624445649 0.00007347376 0.07366591662 -0.02598889169 0.00007686812 0.07348869588 -0.02576115520 0.00007840402 0.07329764313 -0.02557831526 0.00007761668 0.07309357170 -0.02545744014 0.00007404132 0.07287729491 -0.02541559809 0.00004704645 0.07392512062 -0.02713178917 0.00005214009 0.07379269000 -0.02694343139 0.00005837437 0.07364214897 -0.02671329196 0.00006497208 0.07347223326 -0.02646006068 0.00007115603 0.07328167864 -0.02620242734 0.00007614903 0.07306922087 -0.02595908171 0.00007917390 0.07283359568 -0.02574871359 0.00007945343 0.07257353884 -0.02559001276 0.00007621043 0.07228778609 -0.02550166901 0.00006866771 0.07197507320 -0.02550237213 0.00004794595 0.07358613099 -0.02704238878 0.00005165145 0.07341610769 -0.02686491527 0.00005774653 0.07323553354 -0.02664430837 0.00006499954 0.07303824803 -0.02640129636 0.00007217885 0.07281809065 -0.02615660750 0.00007805281 0.07256890091 -0.02593097006 0.00008138977 0.07228451830 -0.02574511229 0.00008095811 0.07195878232 -0.02561976248 0.00007552617 0.07158553247 -0.02557564888 0.00006386233 0.07115860825 -0.02563349976 </DataArray>
</PointData>
<Points>
<DataArray type="Float32" NumberOfComponents="3">
0.14867505709 0.70083976937 -0.96174171155 0.16207159165 0.69827862793 -0.95901279908 0.17626482760 0.69508330062 -0.95605865285 0.19167299296 0.69154693052 -0.95283051005 0.20871431575 0.68796266074 -0.94927960788 0.22780702398 0.68462363435 -0.94535718354 0.24936934566 0.68182299445 -0.94101447423 0.27381950881 0.67985388413 -0.93620271714 0.30157574145 0.67900944648 -0.93087314946 0.33305627158 0.67958282459 -0.92497700841 0.15935143578 0.70151787242 -0.96698090358 0.17914318023 0.69860277297 -0.96484283676 0.19781785740 0.69510405539 -0.96236753361 0.21609695034 0.69127588796 -0.95957341891 0.23470194209 0.68737243900 -0.95647891743 0.25435431571 0.68364787682 -0.95310245394 0.27577555425 0.68035636972 -0.94946245323 0.29968714075 0.67775208601 -0.94557734006 0.32681055827 0.67608919399 -0.94146553922 0.35786728984 0.67562186198 -0.93714547547 0.16735721535 0.70188972623 -0.97295367039 0.19194494675 0.69870077955 -0.97138353115 0.21398054603 0.69496025854 -0.96947948888 0.23441290908 0.69089469504 -0.96728723906 0.25419093182 0.68673062094 -0.96485247722 0.27426351015 0.68269456809 -0.96222089885 0.29557953997 0.67901306835 -0.95943819945 0.31908791720 0.67591265359 -0.95655007453 0.34573753774 0.67361985566 -0.95360221960 0.37647729749 0.67236120644 -0.95064033015 0.17269266146 0.70196976852 -0.97944485596 0.20047730923 0.69858658641 -0.97842714876 0.22475332060 0.69466759991 -0.97716114317 0.24662119639 0.69042223620 -0.97569145372 0.26718143743 0.68605992243 -0.97406269496 0.28753454454 0.68179008575 -0.97231948142 0.30878101854 0.67782215333 -0.97050642764 0.33202136027 0.67436555232 -0.96866814816 0.35835607053 0.67162970988 -0.96684925753 0.38888565016 0.66982405317 -0.96509437027 0.17535803974 0.70177243699 -0.98623930427 0.20474068568 0.69827413228 -0.98576595609 0.23013660825 0.69424176937 -0.98517912101 0.25272213948 0.68987739584 -0.98450554608 0.27367361144 0.68538305931 -0.98377197834 0.29416735616 0.68096080736 -0.98300516481 0.31537970568 0.67681268760 -0.98223185254 0.33848699206 0.67314074762 -0.98147878856 0.36466554733 0.67014703502 -0.98077271992 0.39509170354 0.66803359741 -0.98014039364 0.17535361587 0.70131216932 -0.99312185930 0.20473549412 0.69777735591 -0.99319221964 0.23013083609 0.69369845674 -0.99330004694 0.25271606556 0.68927905839 -0.99344899936 0.27366760635 0.68472274745 -0.99364273505 0.29416188226 0.68023311051 -0.99388491217 0.31537531710 0.67601373414 -0.99417918888 0.33848433468 0.67226820493 -0.99452922333 0.36466535879 0.66920010948 -0.99493867368 0.39509481326 0.66701303435 -0.99541119808 0.17267965548 0.70060340322 -0.99987736504 0.20046215258 0.69711019604 -1.00049820592 0.22473643125 0.69305335189 -1.00129054546 0.24660330182 0.68864610827 -1.00224129674 0.26716357467 0.68410170272 -1.00333737279 0.28751806012 0.67963337276 -1.00456568667 0.30876756853 0.67545435591 -1.00591315142 0.33201291024 0.67177788969 -1.00736668009 0.35835489561 0.66881721162 -1.00891318574 0.38889433498 0.66678555923 -1.01053958140 0.16733642424 0.69966057639 -1.00629066548 0.19192107907 0.69628659142 -1.00747618143 0.21395382085 0.69232214465 -1.00891724112 0.23438417549 0.68799742990 -1.01060192144 0.25416166890 0.68354264097 -1.01251829926 0.27423582699 0.67918797169 -1.01465445145 0.29555617568 0.67516361587 -1.01699845488 0.31907224086 0.67169976731 -1.01953838644 0.34573354846 0.66902661983 -1.02226232299 0.37648962437 0.66737436725 -1.02515834141 0.15932418779 0.69849812652 -1.01214660460 0.17911269161 0.69532048077 -1.01391841268 0.19778343202 0.69152052488 -1.01594675844 0.21605901376 0.68735190769 -1.01825035666 0.23466204155 0.68306827807 -1.02084792214 0.25431512015 0.67892328488 -1.02375816967 0.27574085426 0.67517057698 -1.02699981402 0.29966184864 0.67206380323 -1.03059156999 0.32680070800 0.66985661250 -1.03455215236 0.35788003708 0.66880265364 -1.03890027593 0.14864321179 0.69713049132 -1.01723002638 0.16203740822 0.69422580286 -1.01961716617 0.17622569188 0.69066418241 -1.02214572193 0.19162814383 0.68672842606 -1.02490608561 0.20866484514 0.68270132986 -1.02798864914 0.22775587685 0.67886568989 -1.03148380448 0.24932132001 0.67550430221 -1.03548194357 0.27378125568 0.67289996290 -1.04007345835 0.30155576492 0.67133546801 -1.04534874077 0.33306492877 0.67109361361 -1.05139818277 0.12108939592 0.70200732935 -0.95981137721 0.13126641153 0.69921790455 -0.95585594067 0.14288453658 0.69581348540 -0.95202995894 0.15598260132 0.69205698831 -0.94822482340 0.17059943597 0.68821132970 -0.94433192543 0.18677387078 0.68453942595 -0.94024265644 0.20454473596 0.68130419348 -0.93584840780 0.22395086177 0.67876854869 -0.93104057089 0.24503107841 0.67719540799 -0.92571053711 0.26782421614 0.67684768778 -0.91974969785 0.12834245307 0.70325236781 -0.96573278069 0.14337844078 0.69997204324 -0.96264504648 0.15814631118 0.69615099677 -0.95954082317 0.17298418141 0.69199815461 -0.95637827193 0.18823016857 0.68772244291 -0.95311555394 0.20422238979 0.68353278787 -0.94971083038 0.22129896220 0.67963811566 -0.94612226243 0.23979800291 0.67624735245 -0.94230801127 0.26005762904 0.67356942444 -0.93822623806 0.28241595771 0.67181325779 -0.93383510400 0.13378098889 0.70404903628 -0.97222390438 0.15246078056 0.70038839182 -0.96996785340 0.16959068935 0.69623959795 -0.96763239243 0.18573327563 0.69177204664 -0.96521183115 0.20145109974 0.68715512986 -0.96270047927 0.21730672202 0.68255823960 -0.96009264649 0.23386270284 0.67815076784 -0.95738264249 0.25168160254 0.67410210655 -0.95456477697 0.27132598147 0.67058164772 -0.95163335963 0.29335839997 0.66775878332 -0.94858270016 0.13740520558 0.70440879402 -0.97911378752 0.15851376217 0.70047762110 -0.97766537621 0.17721804994 0.69609079415 -0.97613369126 0.19423024831 0.69139200793 -0.97452755092 0.21026253670 0.68652495723 -0.97285577343 0.22602709451 0.68163333681 -0.97112717705 0.24223610116 0.67686084144 -0.96935058001 0.25960173605 0.67235116590 -0.96753480057 0.27883617862 0.66824800495 -0.96568865696 0.30065160825 0.66469505337 -0.96382096744 0.13921530532 0.70434310033 -0.98623146933 0.16153771691 0.70025040186 -0.98557862968 0.18102877180 0.69571609058 -0.98487374422 0.19847546379 0.69087138203 -0.98412748108 0.21466478669 0.68584749171 -0.98335050841 0.23038373430 0.68077563515 -0.98255349435 0.24641930041 0.67578702787 -0.98174710704 0.26355847885 0.67101288539 -0.98094201461 0.28258826340 0.66658442323 -0.98014888521 0.30429564788 0.66263285692 -0.97937838698 0.13921149028 0.70386341447 -0.99340598905 0.16153297609 0.69971740489 -0.99354862859 0.18102323379 0.69512699249 -0.99368157584 0.19846928640 0.69022351246 -0.99381367149 0.21465815694 0.68513829999 -0.99395375621 0.23037686843 0.68000269029 -0.99411067069 0.24641244388 0.67494801854 -0.99429325561 0.26355190631 0.67010561994 -0.99451035166 0.28258227875 0.66560682969 -0.99477079952 0.30429058421 0.66158298297 -0.99508343987 0.13739396265 0.70298119572 -1.00046638590 0.15849987099 0.69888930098 -1.00141638771 0.17720181474 0.69433500507 -1.00238621068 0.19421208045 0.68946174275 -1.00338817199 0.21024295467 0.68441294877 -1.00443458881 0.22600672394 0.67933205789 -1.00553777835 0.24221567482 0.67436250487 -1.00671005777 0.25958209385 0.66964772446 -1.00796374428 0.27881826757 0.66533115143 -1.00931115504 0.30063648255 0.66155622052 -1.01076460724 0.13376292459 0.70170790337 -1.00724169911 0.15243873292 0.69777676093 -1.00902292182 0.16956489352 0.69335163356 -1.01081667328 0.18570421029 0.68859941644 -1.01265303243 0.20141948712 0.68368700473 -1.01456207823 0.21727352789 0.67878129362 -1.01657388963 0.23382913650 0.67404917827 -1.01871854557 0.25164911684 0.66965755386 -1.02102612502 0.27129627279 0.66577331556 -1.02352670692 0.29333340825 0.66256335854 -1.02625037021 0.12831857830 0.70005499667 -1.01356096792 0.14334989318 0.69639045552 -1.01620924569 0.15811284898 0.69218838317 -1.01880198818 0.17294604024 0.68764987706 -1.02141030267 0.18818806151 0.68297603458 -1.02410529645 0.20417750731 0.67836795314 -1.02695807681 0.22125297219 0.67402673016 -1.03003975105 0.23975305068 0.67015346304 -1.03342142645 0.26001633732 0.66694924920 -1.03717421030 0.28238142664 0.66461518605 -1.04136920990 0.12106112596 0.69803393492 -1.01925323155 0.13123368306 0.69474105554 -1.02281637410 0.14284605996 0.69085675914 -1.02617117994 0.15593793464 0.68662646814 -1.02946203255 0.17054898507 0.68229560498 -1.03283331547 0.18671888925 0.67810959211 -1.03642941219 0.20448732516 0.67431385194 -1.04039470624 0.22389397077 0.67115380691 -1.04487358112 0.24497850407 0.66887487947 -1.05001042034 0.26778060305 0.66772249203 -1.05594960741 0.08941488868 0.70288304981 -0.95836352727 0.09655427310 0.69992241379 -0.95348819242 0.10516308329 0.69636117921 -0.94900832510 0.11511559587 0.69243959184 -0.94477043338 0.12628608747 0.68839789741 -0.94062102539 0.13854883472 0.68447634166 -0.93640660920 0.15177811423 0.68091517034 -0.93197369292 0.16584820264 0.67795462920 -0.92716878465 0.18063337657 0.67583496399 -0.92183839248 0.19600791265 0.67479642044 -0.91582902450 0.09403271320 0.70455329160 -0.96479658784 0.10458113970 0.70099905110 -0.96099659529 0.11525986283 0.69693626223 -0.95742067225 0.12619091138 0.69253991917 -0.95398178287 0.13749631413 0.68798501607 -0.95059289131 0.14929809987 0.68344654708 -0.94716696171 0.16171829739 0.67909950636 -0.94361695823 0.17487893547 0.67511888807 -0.93985584502 0.18890204291 0.67167968636 -0.93579658622 0.20390964848 0.66895689539 -0.93135214599 0.09749513487 0.70566857272 -0.97167647809 0.11059998644 0.70165415935 -0.96890598361 0.12283087187 0.69719916585 -0.96624694854 0.13449561849 0.69243012905 -0.96365514359 0.14590205364 0.68747358577 -0.96108633949 0.15735800464 0.68245607284 -0.95849630693 0.16917129881 0.67750412708 -0.95584081664 0.18164976350 0.67274428533 -0.95307563933 0.19510122602 0.66830308440 -0.95015654571 0.20983351371 0.66430706112 -0.94703930650 0.09980229580 0.70623811862 -0.97886538369 0.11461105330 0.70189595830 -0.97709393336 0.12787640604 0.69715825672 -0.97536297852 0.14003003637 0.69211940926 -0.97365449038 0.15150362664 0.68687381131 -0.97195044014 0.16272885919 0.68151585826 -0.97023279901 0.17413741636 0.67613994547 -0.96848353819 0.18616098049 0.67084046834 -0.96668462889 0.19923123394 0.66571182226 -0.96481804231 0.21377985904 0.66084840259 -0.96286574965 0.10095433813 0.70627115476 -0.98622549030 0.11661458027 0.70173266770 -0.98543802051 0.13039676097 0.69682190149 -0.98464458675 0.14279448416 0.69161694762 -0.98384379806 0.15430135375 0.68619589752 -0.98303426350 0.16541097368 0.68063684266 -0.98221459210 0.17661694787 0.67501787450 -0.98138339291 0.18841288024 0.66941708450 -0.98053927499 0.20129237471 0.66391256411 -0.97968084738 0.21574903520 0.65858240479 -0.97880671912 0.10095140396 0.70577690661 -0.99361898360 0.11661080733 0.70117250729 -0.99381582105 0.13039223229 0.69619846684 -0.99396759779 0.14278928100 0.69093193191 -0.99408704148 0.15429555562 0.68545004920 -0.99418687978 0.16540465830 0.67982996539 -0.99427984036 0.17661019121 0.67414882715 -0.99437865086 0.18840575650 0.66848378116 -0.99449603895 0.20128495635 0.66291197411 -0.99464473229 0.21574139289 0.65751055268 -0.99483745854 0.09979363542 0.70476459962 -1.00090804924 0.11459997448 0.70022369685 -1.00210491094 0.12786311564 0.69529631940 -1.00320783620 0.14001474605 0.69007354995 -1.00424819547 0.15148655286 0.68464647117 -1.00525735923 0.16271022320 0.67910616576 -1.00626669794 0.17411744423 0.67354371638 -1.00730758207 0.18613990308 0.66805020571 -1.00841138207 0.19920928689 0.66271671644 -1.00960946842 0.21375728282 0.65763433124 -1.01093321157 0.09748117463 0.70324345924 -1.00795487290 0.11058232169 0.69889445611 -1.01018286617 0.12280970665 0.69412382584 -1.01224112653 0.13447119846 0.68905098953 -1.01419123487 0.14587466611 0.68379536826 -1.01609477206 0.15732797856 0.67847638311 -1.01801331900 0.16913900478 0.67321345517 -1.02000845657 0.18161561373 0.66812600552 -1.02214176564 0.19506567438 0.66333345525 -1.02447482711 0.20979705570 0.65895522545 -1.02706922185 0.09401416371 0.70122271095 -1.01462164024 0.10455808895 0.69719300482 -1.01792726270 0.11523230094 0.69268935281 -1.02094329334 0.12615895738 0.68787343845 -1.02378013450 0.13746021601 0.68290694526 -1.02654818850 0.14925823455 0.67795155676 -1.02935785770 0.16167517072 0.67316895649 -1.03231954441 0.17483318224 0.66872082797 -1.03554365098 0.18885442684 0.66476885472 -1.03914057975 0.20386106224 0.66147472027 -1.04322073304 0.08939274478 0.69871158020 -1.02077053693 0.09652751625 0.69512756275 -1.02521567652 0.10513119415 0.69100126698 -1.02919016120 0.11507834196 0.68655008452 -1.03287886921 0.12624352318 0.68199140700 -1.03646667878 0.13850130133 0.67754262605 -1.04013846818 0.15172623990 0.67342113331 -1.04407911563 0.16579290239 0.66984432042 -1.04847349939 0.18057585230 0.66702957900 -1.05350649769 0.19594965314 0.66519430069 -1.05936298878 0.05481977546 0.70346692588 -0.95739817268 0.05905144792 0.70039215159 -0.95190956480 0.06434079711 0.69672637793 -0.94699376282 0.07055100612 0.69269473634 -0.94246735350 0.07754525806 0.68852235822 -0.93814692357 0.08518673602 0.68443437498 -0.93384905979 0.09333862310 0.68065591805 -0.92939034892 0.10186410241 0.67741211883 -0.92458737769 0.11062635704 0.67492810875 -0.91925673288 0.11948857009 0.67342901920 -0.91321500121 0.05736528812 0.70542063964 -0.96417233433 0.06361772120 0.70168379329 -0.95989749179 0.07007705349 0.69745984863 -0.95600708987 0.07676870940 0.69290117816 -0.95238396179 0.08371811336 0.68816015437 -0.94891094079 0.09095068981 0.68338914976 -0.94547086009 0.09849186315 0.67874053682 -0.94194655294 0.10636705783 0.67436668804 -0.93822085256 0.11460169826 0.67041997592 -0.93417659218 0.12322120888 0.66705277295 -0.92969660504 0.05927383114 0.70674833194 -0.97131139958 0.06704159922 0.70249807938 -0.96819792898 0.07437822328 0.69783895975 -0.96532316435 0.08143079944 0.69286893966 -0.96261718385 0.08834642380 0.68768598572 -0.96001006568 0.09527219248 0.68238806456 -0.95743188800 0.10235520160 0.67707314276 -0.95481272900 0.10974254727 0.67183918695 -0.95208266686 0.11758132559 0.66678416374 -0.94917177976 0.12601863270 0.66200603973 -0.94601014588 0.06054548905 0.70745773902 -0.97869965170 0.06932322740 0.70284159548 -0.97671282647 0.07724449397 0.69786998542 -0.97484901082 0.08453749143 0.69260443801 -0.97307227784 0.09143042246 0.68710648242 -0.97134670062 0.09815148972 0.68143764779 -0.96963635224 0.10492889588 0.67565946331 -0.96790530582 0.11199084362 0.66983345812 -0.96611763442 0.11956553560 0.66402116140 -0.96423741115 0.12788117449 0.65828410231 -0.96222870910 0.06118034635 0.70755659709 -0.98622137400 0.07046275113 0.70272092721 -0.98534413437 0.07867605300 0.69755919980 -0.98449165385 0.08608900056 0.69211409041 -0.98365450190 0.09297034242 0.68642827460 -0.98282324799 0.09958882717 0.68054442791 -0.98198846156 0.10621320343 0.67450522590 -0.98114071210 0.11311221978 0.66835334411 -0.98027056906 0.12055462484 0.66213145809 -0.97936860189 0.12880916721 0.65588224341 -0.97842538008 0.06117848757 0.70705264236 -0.99376084977 0.07046031583 0.70214266018 -0.99399380279 0.07867308784 0.69691287702 -0.99415811800 0.08608554201 0.69140431404 -0.99426911420 0.09296641676 0.68565799242 -0.99434211016 0.09958445051 0.67971493334 -0.99439242469 0.10620838167 0.67361615796 -0.99443537657 0.11310694865 0.66740268746 -0.99448628458 0.12054888988 0.66111554301 -0.99456046752 0.12880294377 0.65479574579 -0.99467324418 0.06053999721 0.70595361105 -1.00120236229 0.06931606691 0.70111338002 -1.00256378182 0.07723578596 0.69593729122 -1.00375542782 0.08452733097 0.69048152608 -1.00482137287 0.09141887858 0.68480226603 -1.00580568952 0.09813860539 0.67895569250 -1.00675245035 0.10491468804 0.67299798693 -1.00770572793 0.11197530313 0.66698533073 -1.00870959482 0.11954862728 0.66097390534 -1.00980812358 0.12786283713 0.65501989218 -1.01104538680 0.05926495979 0.70426723938 -1.00843019486 0.06703014977 0.69963967234 -1.01095602158 0.07436433481 0.69463871654 -1.01319060789 0.08141458263 0.68935214372 -1.01521653608 0.08832796095 0.68386772558 -1.01711638845 0.09525153749 0.67827323385 -1.01897274729 0.10233237997 0.67265644024 -1.02086819490 0.10971755610 0.66710511647 -1.02288531357 0.11755413361 0.66170703427 -1.02510668561 0.12598918022 0.65654996534 -1.02761489329 0.05735345982 0.70200126358 -1.01532863078 0.06360270983 0.69772812275 -1.01907247217 0.07005892187 0.69302342713 -1.02237068275 0.07674751218 0.68802258413 -1.02535986197 0.08369389697 0.68286100121 -1.02817660931 0.09092349247 0.67767408579 -1.03095752423 0.09846171490 0.67259724533 -1.03383920620 0.10633398047 0.66776588725 -1.03695825468 0.11456570543 0.66331541899 -1.04045126913 0.12318230597 0.65938124800 -1.04445484903 0.05480558181 0.69916341984 -1.02178195334 0.05903389248 0.69538531689 -1.02681508370 0.06431973459 0.69109769711 -1.03120267696 0.07052633479 0.68649926451 -1.03515660870 0.07751691971 0.68178872307 -1.03888875449 0.08515471599 0.67716477678 -1.04261098991 0.09330295025 0.67282612963 -1.04653519053 0.10182484914 0.66897148561 -1.05087323194 0.11058363929 0.66579954871 -1.05583698971 0.11944254734 0.66350902292 -1.06163833941 0.01847229641 0.70375895272 -0.95691532437 0.01987420755 0.70062711389 -0.95112006827 0.02165800742 0.69690907743 -0.94598628362 0.02376786157 0.69282241705 -0.94131559721 0.02614793555 0.68858470648 -0.93690963580 0.02874239492 0.68441351943 -0.93257002616 0.03149540524 0.68052642960 -0.92809839508 0.03435113206 0.67714101073 -0.92329636931 0.03725374095 0.67447483653 -0.91796557563 0.04014739745 0.67274548071 -0.91190764082 0.01928324976 0.70585440776 -0.96386002945 0.02135462948 0.70202626654 -0.95934774459 0.02351642429 0.69772175282 -0.95530008502 0.02576914461 0.69308192807 -0.95158481871 0.02811330086 0.68824785371 -0.94806971361 0.03054940346 0.68336059121 -0.94462253768 0.03307796282 0.67856120201 -0.94111105887 0.03569948936 0.67399074754 -0.93740304513 0.03841449350 0.66979028927 -0.93336626444 0.04122348565 0.66610088863 -0.92886848473 0.01989125557 0.70728831033 -0.97112867689 0.02246465374 0.70292014916 -0.96784369672 0.02490987330 0.69815897714 -0.96486104698 0.02726968022 0.69308847584 -0.96209795939 0.02958684048 0.68779232677 -0.95947166567 0.03190412005 0.68235421150 -0.95689939752 0.03426428491 0.67685781155 -0.95429838667 0.03671010103 0.67138680847 -0.95158586483 0.03928433439 0.66602488381 -0.94867906371 0.04202975095 0.66085571910 -0.94549521504 0.02029634225 0.70806765193 -0.97861659878 0.02320432924 0.70331453012 -0.97652206182 0.02583841880 0.69822597805 -0.97459179405 0.02826954436 0.69284709201 -0.97278091905 0.03056863936 0.68722296827 -0.97104456041 0.03280663725 0.68139870312 -0.96933784172 0.03505447147 0.67541939283 -0.96761588654 0.03738307547 0.66933013370 -0.96583381847 0.03986338268 0.66317602199 -0.96394676110 0.04256632654 0.65700215399 -0.96190983799 0.02049853818 0.70819942409 -0.98621912724 0.02357370488 0.70321517781 -0.98529697705 0.02630212513 0.69792798321 -0.98441495077 0.02876881298 0.69236280823 -0.98355959748 0.03105878246 0.68654462081 -0.98271746628 0.03325704761 0.68049838890 -0.98187510626 0.03544862246 0.67424908044 -0.98101906652 0.03771852105 0.66782166338 -0.98013589614 0.04015175742 0.66124110565 -0.97921214422 0.04283334560 0.65453237521 -0.97823435985 0.02049787177 0.70769061834 -0.99383159436 0.02357282954 0.70262786061 -0.99408257958 0.02630105665 0.69727022027 -0.99425314170 0.02876756206 0.69164065613 -0.99435989448 0.03105735475 0.68576212700 -0.99441945172 0.03325544368 0.67965759168 -0.99444842718 0.03544683783 0.67335000897 -0.99446343466 0.03771654616 0.66686233769 -0.99448108791 0.04014957766 0.66021753664 -0.99451800073 0.04283094129 0.65343856462 -0.99459078688 0.02029437141 0.70654822619 -1.00134933225 0.02320175214 0.70155834688 -1.00279300657 0.02583527770 0.69625791689 -1.00402899138 0.02826586756 0.69068566736 -1.00510770985 0.03056444118 0.68488032944 -1.00607958517 0.03280191801 0.67888063428 -1.00699504049 0.03504921753 0.67272531302 -1.00790449900 0.03737725919 0.66645309681 -1.00885838386 0.03985696246 0.66010271680 -1.00990711825 0.04255924679 0.65371290413 -1.01110112533 0.01988806550 0.70477923916 -1.00866767302 0.02246052155 0.70001240501 -1.01134239518 0.02490485262 0.69489630073 -1.01366512437 0.02726380543 0.68950287356 -1.01572894339 0.02958012671 0.68390407074 -1.01762693507 0.03189656317 0.67817183953 -1.01945218220 0.03425586153 0.67237812717 -1.02129776759 0.03670076853 0.66659488090 -1.02325677406 0.03927403087 0.66089404797 -1.02542228442 0.04201839528 0.65534757562 -1.02788738147 0.01927898244 0.70239064878 -1.01568194876 0.02134918667 0.69799580337 -1.01964488257 0.02350984575 0.69319059944 -1.02308416521 0.02576145164 0.68809730636 -1.02614949490 0.02810449630 0.68283819351 -1.02899056986 0.03053947169 0.67753553027 -1.03175708832 0.03306686979 0.67231158602 -1.03459874849 0.03568718255 0.66728863013 -1.03766524861 0.03840090194 0.66258893198 -1.04110628689 0.04120851993 0.65833476096 -1.04507156155 0.01846715062 0.69938944657 -1.02228749158 0.01986779641 0.69551431035 -1.02761460591 0.02165032145 0.69114604069 -1.03220873846 0.02375888214 0.68647399742 -1.03629526417 0.02613763490 0.68168754035 -1.04009955799 0.02873073614 0.67697602933 -1.04384699486 0.03148234225 0.67252882416 -1.04776294974 0.03433660964 0.66853528467 -1.05207279756 0.03723769473 0.66518477070 -1.05700191328 0.04012975392 0.66266664206 -1.06277567184 -0.01845930838 0.70375912544 -0.95691499331 -0.01986117645 0.70062729663 -0.95111971329 -0.02164495639 0.69690927357 -0.94598589899 -0.02375480829 0.69282262923 -0.94131517801 -0.02613489224 0.68858493655 -0.93690917790 -0.02872936836 0.68441376849 -0.93256952628 -0.03148239672 0.68052669801 -0.92809785070 -0.03433813743 0.67714129806 -0.92329577877 -0.03724075059 0.67447514161 -0.91796493806 -0.04013439628 0.67274580161 -0.91190695615 -0.01927032994 0.70585459183 -0.96385968249 -0.02134169128 0.70202646758 -0.95934736228 -0.02350348363 0.69772197167 -0.95529966672 -0.02575621384 0.69308216539 -0.95158436369 -0.02810038878 0.68824810998 -0.94806922104 -0.03053651531 0.68336086673 -0.94462200663 -0.03306510028 0.67856149690 -0.94111048833 -0.03568665056 0.67399106176 -0.93740243399 -0.03840167300 0.66979062258 -0.93336561147 -0.04121067447 0.66610124062 -0.92886778864 -0.01987841397 0.70728850425 -0.97112831808 -0.02245181518 0.70292036593 -0.96784329402 -0.02489704839 0.69815921555 -0.96486060358 -0.02725687741 0.69308873496 -0.96209747769 -0.02957406606 0.68779260597 -0.95947114729 -0.03189137816 0.68235451042 -0.95689884334 -0.03425157754 0.67685813013 -0.95429779676 -0.03669742801 0.67138714693 -0.95158523849 -0.03927169340 0.66602524266 -0.94867839948 -0.04201713752 0.66085609913 -0.94549451067 -0.02028358766 0.70806785406 -0.97861623216 -0.02319159638 0.70331475970 -0.97652164566 -0.02582571439 0.69822623241 -0.97459133407 -0.02825687399 0.69284736907 -0.97278041976 -0.03055600745 0.68722326661 -0.97104402507 -0.03279404706 0.68139902193 -0.96933727237 -0.03504192512 0.67541973193 -0.96761528401 -0.03737057392 0.66933049352 -0.96583318234 -0.03985092574 0.66317640362 -0.96394608973 -0.04255391286 0.65700255913 -0.96190912852 -0.02048587821 0.70819963259 -0.98621875683 -0.02356108310 0.70321541693 -0.98529655434 -0.02628954537 0.69792824943 -0.98441448274 -0.02875627858 0.69236309886 -0.98355908967 -0.03104629632 0.68654493401 -0.98271692278 -0.03324461215 0.68049872364 -0.98187452971 -0.03543623965 0.67424943654 -0.98101845810 -0.03770619239 0.66782204148 -0.98013525559 -0.04013948396 0.66124150724 -0.97921146982 -0.04282112792 0.65453280259 -0.97823364844 -0.02048531279 0.70769083118 -0.99383122419 -0.02356032356 0.70262810562 -0.99408215720 -0.02628860503 0.69727049381 -0.99425267409 -0.02875516620 0.69164095546 -0.99435938719 -0.03104501604 0.68576245027 -0.99441890884 -0.03324316356 0.67965793794 -0.99444785135 -0.03543461773 0.67335037820 -0.99446282706 -0.03770438756 0.66686273074 -0.99448044831 -0.04013748202 0.66021795527 -0.99451732741 -0.04281891012 0.65343901151 -0.99459007671 -0.02028191860 0.70654844118 -1.00134896634 -0.02318936599 0.70155859381 -1.00279259140 -0.02582295712 0.69625819276 -1.00402853267 -0.02825361184 0.69068596999 -1.00510721210 -0.03055225000 0.68488065749 -1.00607905164 -0.03278979144 0.67888098722 -1.00699447326 -0.03503715600 0.67272569116 -1.00790389891 -0.03736526353 0.66645350126 -1.00885775055 -0.03984503387 0.66010314951 -1.00990645012 -0.04254738688 0.65371336787 -1.01110041960 -0.01987572281 0.70477945394 -1.00866731537 -0.02244825860 0.70001264951 -1.01134199408 -0.02489266535 0.69489657345 -1.01366468298 -0.02725169052 0.68950317360 -1.01572846414 -0.02956808156 0.68390439779 -1.01762641961 -0.03188458593 0.67817219386 -1.01945163144 -0.03424395106 0.67237850964 -1.02129718167 -0.03668892443 0.66659529298 -1.02325615237 -0.03926225347 0.66089449171 -1.02542162558 -0.04200668564 0.65534805366 -1.02788668336 -0.01926675263 0.70239086079 -1.01568160338 -0.02133704962 0.69799604074 -1.01964450237 -0.02349779345 0.69319086309 -1.02308374956 -0.02574947724 0.68809759740 -1.02614904310 -0.02809259410 0.68283851326 -1.02899008115 -0.03052763717 0.67753588024 -1.03175656186 -0.03305509955 0.67231196791 -1.03459818337 -0.03567547437 0.66728904585 -1.03766464384 -0.03838925476 0.66258938364 -1.04110564143 -0.04119693382 0.65833525085 -1.04507087427 -0.01845503523 0.69938965308 -1.02228716247 -0.01985578728 0.69551453554 -1.02761425343 -0.02163840515 0.69114628887 -1.03220835693 -0.02374704700 0.68647427254 -1.03629484875 -0.02612587100 0.68168784601 -1.04009910468 -0.02871903531 0.67697636874 -1.04384650051 -0.03147069808 0.67252920019 -1.04776241203 -0.03432501749 0.66853569981 -1.05207221502 -0.03722615169 0.66518522708 -1.05700128529 -0.04011825884 0.66266714145 -1.06277499860 -0.05480679878 0.70346743919 -0.95739719044 -0.05903843254 0.70039269575 -0.95190851033 -0.06432776494 0.69672696224 -0.94699262044 -0.07053797395 0.69269536810 -0.94246610936 -0.07753223750 0.68852304276 -0.93814556571 -0.08517373358 0.68443511567 -0.93384757809 -0.09332564012 0.68065671626 -0.92938873510 -0.10185113508 0.67741297397 -0.92458562537 -0.11061339644 0.67492901824 -0.91925483748 -0.11947560213 0.67342997852 -0.91321296005 -0.05735237904 0.70542118768 -0.96417130275 -0.06360479687 0.70168439314 -0.95989635346 -0.07006412913 0.69746050205 -0.95600584397 -0.07675579682 0.69290188663 -0.95238260676 -0.08370522098 0.68816091908 -0.94890947432 -0.09093782264 0.68338997163 -0.94546927912 -0.09847902282 0.67874141649 -0.94194485364 -0.10635424254 0.67436762587 -0.93821903037 -0.11458890284 0.67042097200 -0.93417464178 -0.12320842474 0.66705382707 -0.92969452035 -0.05926099963 0.70674891010 -0.97131033121 -0.06702877272 0.70249872694 -0.96819672808 -0.07436541207 0.69783967248 -0.96532184126 -0.08141801168 0.69286971440 -0.96261574619 -0.08833366555 0.68768682036 -0.96000851837 -0.09525946768 0.68238895806 -0.95743023327 -0.10234251206 0.67707409517 -0.95481096635 -0.10972989269 0.67184019937 -0.95208079311 -0.11756870358 0.66678523834 -0.94916978900 -0.12600603872 0.66200717975 -0.94600802951 -0.06053274376 0.70745834211 -0.97869855907 -0.06931050470 0.70284228171 -0.97671158426 -0.07723180054 0.69787074628 -0.97484763677 -0.08452483273 0.69260526703 -0.97307078570 -0.09141780275 0.68710737517 -0.97134510014 -0.09813891208 0.68143860191 -0.96963464916 -0.10491636217 0.67566047848 -0.96790350186 -0.11197835451 0.66983453607 -0.96611572732 -0.11955309055 0.66402230589 -0.96423539464 -0.12786877178 0.65828531917 -0.96222657289 -0.06116769462 0.70755721936 -0.98622026960 -0.07045013743 0.70272164198 -0.98534287202 -0.07866348126 0.69755999617 -0.98449025500 -0.08607647415 0.69211496013 -0.98365298335 -0.09295786413 0.68642921205 -0.98282162188 -0.09957639925 0.68054543013 -0.98198673542 -0.10620082752 0.67450629257 -0.98113888877 -0.11309989698 0.66835447756 -0.98026864675 -0.12054235568 0.66213266330 -0.97936657417 -0.12879695163 0.65588352797 -0.97842323586 -0.06116593544 0.70705327750 -0.99375974608 -0.07044781552 0.70214339229 -0.99399254144 -0.07866064099 0.69691369489 -0.99415672042 -0.08607315014 0.69140520931 -0.99426759719 -0.09295408124 0.68565895957 -0.99434048589 -0.09957217257 0.67971596968 -0.99439070068 -0.10619616244 0.67361726364 -0.99443355571 -0.11309478910 0.66740386547 -0.99448436513 -0.12053679086 0.66111679917 -0.99455844310 -0.12879090599 0.65479708877 -0.99467110377 -0.06052754940 0.70595425219 -1.00120127177 -0.06930368360 0.70111411719 -1.00256254254 -0.07722346649 0.69593811518 -1.00375405751 -0.08451507489 0.69048243020 -1.00481988527 -0.09140668561 0.68480324629 -1.00580409443 -0.09812647546 0.67895674749 -1.00675075357 -0.10490262127 0.67299911784 -1.00770393130 -0.11196329984 0.66698654138 -1.00870769622 -0.11953668800 0.66097520215 -1.00980611692 -0.12785096255 0.65502128418 -1.01104326200 -0.05925261971 0.70426787908 -1.00842912995 -0.06701788628 0.69964040122 -1.01095482540 -0.07435214450 0.69463952977 -1.01318929075 -0.08140246259 0.68935303840 -1.01521510566 -0.08831590879 0.68386870076 -1.01711484977 -0.09523955130 0.67827429052 -1.01897110272 -0.10232045836 0.67265758135 -1.02086644417 -0.10970569819 0.66710634691 -1.02288345375 -0.11754233901 0.66170836085 -1.02510471112 -0.12597744905 0.65655139685 -1.02761279591 -0.05734122957 0.70200189382 -1.01532760388 -0.06359056817 0.69772882893 -1.01907134004 -0.07004686177 0.69302421141 -1.02236944462 -0.07673552745 0.68802344953 -1.02535851640 -0.08368198232 0.68286195155 -1.02817515419 -0.09091164349 0.67767512573 -1.03095595676 -0.09844992806 0.67259838035 -1.03383752293 -0.10632225313 0.66776712365 -1.03695645147 -0.11455403580 0.66331676391 -1.04044934119 -0.12317069318 0.65938270939 -1.04445279087 -0.05479346219 0.69916403207 -1.02178097682 -0.05902187391 0.69538598485 -1.02681403653 -0.06430780504 0.69109843282 -1.03120154360 -0.07051448364 0.68650007920 -1.03515537556 -0.07750513776 0.68178962721 -1.03888740996 -0.08514299543 0.67716578007 -1.04260952432 -0.09329128471 0.67282724100 -1.04653359620 -0.10181323364 0.66897271323 -1.05087150312 -0.11057207028 0.66580089996 -1.05583512261 -0.11943102266 0.66351050443 -1.06163633223 -0.08940193467 0.70288388910 -0.95836192671 -0.09654128915 0.69992330719 -0.95348646986 -0.10515008886 0.69636213930 -0.94900645945 -0.11510260591 0.69244062891 -0.94476840475 -0.12627311242 0.68839901948 -0.94061881503 -0.13853588051 0.68447755447 -0.93640419955 -0.15176518231 0.68091647736 -0.93197106758 -0.16583528992 0.67795603162 -0.92716592838 -0.18062047548 0.67583646070 -0.92183529122 -0.19599501110 0.67479800809 -0.91582566536 -0.09401982560 0.70455419116 -0.96479489952 -0.10456824311 0.70100003995 -0.96099472674 -0.11524697107 0.69693734081 -0.95741862577 -0.12617803518 0.69254108828 -0.95397955797 -0.13748346115 0.68798627690 -0.95059048470 -0.14928527467 0.68344790121 -0.94716436730 -0.16170550146 0.67910095575 -0.94361416712 -0.17486616721 0.67512043506 -0.93985284552 -0.18888929763 0.67168133369 -0.93579336385 -0.20389691842 0.66895864616 -0.93134868346 -0.09748232354 0.70566952425 -0.97167472432 -0.11058718405 0.70165522945 -0.96890400612 -0.12281808805 0.69720034544 -0.96624476716 -0.13448286085 0.69243141153 -0.96365277238 -0.14588932773 0.68747496701 -0.96108378673 -0.15734531399 0.68245755118 -0.95849357514 -0.16915864492 0.67750570336 -0.95583790257 -0.18163714580 0.67274596283 -0.95307253393 -0.19508864194 0.66830486890 -0.95015323419 -0.20982095863 0.66430896087 -0.94703576827 -0.09978956909 0.70623911279 -0.97886358673 -0.11459835093 0.70189709361 -0.97709188388 -0.12786373455 0.69715951745 -0.97536070803 -0.14001740101 0.69212078369 -0.97365202263 -0.15149103136 0.68687529168 -0.97194779115 -0.16271630665 0.68151744078 -0.97022997703 -0.17412490793 0.67614163036 -0.96848054373 -0.18614851626 0.67084225979 -0.96668145471 -0.19921881269 0.66571372841 -0.96481467342 -0.21376747826 0.66085043561 -0.96286216331 -0.10094170288 0.70627218122 -0.98622367236 -0.11660198272 0.70173385037 -0.98543593590 -0.13038420529 0.69682322113 -0.98464227280 -0.14278197374 0.69161838982 -0.98384128339 -0.15428889121 0.68619745280 -0.98303156798 -0.16539856084 0.68063850639 -0.98221172690 -0.17660458578 0.67501964695 -0.98138036045 -0.18840056916 0.66941897080 -0.98053606895 -0.20128011413 0.66391457429 -0.97967745273 -0.21573682383 0.65858455376 -0.97880311209 -0.10093886552 0.70577795394 -0.99361716683 -0.11659831837 0.70117371766 -0.99381373805 -0.13037979500 0.69619982072 -0.99396528589 -0.14277689712 0.69093341497 -0.99408452931 -0.15428322646 0.68545165225 -0.99418418726 -0.16539238475 0.67983168441 -0.99427697868 -0.17659797371 0.67415066329 -0.99437562253 -0.18839359507 0.66848574074 -0.99449283776 -0.20127285054 0.66291406860 -0.99464134331 -0.21572934187 0.65751279871 -0.99483385814 -0.09978119760 0.70476565538 -1.00090625576 -0.11458759685 0.70022491340 -1.00210286621 -0.12785079840 0.69529768050 -1.00320557171 -0.14000248923 0.69007504418 -1.00424573505 -0.15147435629 0.68464809192 -1.00525471900 -0.16269808656 0.67910791122 -1.00626388632 -0.17410536699 0.67354558957 -1.00730459981 -0.18612788455 0.66805221447 -1.00840822223 -0.19919732620 0.66271887340 -1.00960611635 -0.21374537891 0.65763665386 -1.01092964496 -0.09746883975 0.70324450996 -1.00795312476 -0.11057005710 0.69889565553 -1.01018089625 -0.12279751023 0.69412516475 -1.01223895468 -0.13445906816 0.68905246250 -1.01418887527 -0.14586259990 0.68379697370 -1.01609223322 -0.15731597447 0.67847812322 -1.01801060376 -0.16912706089 0.67321533598 -1.02000556210 -0.18160372819 0.66812803686 -1.02213868346 -0.19505384538 0.66333565076 -1.02447154305 -0.20978528147 0.65895760258 -1.02706571608 -0.09400193257 0.70122374211 -1.01461995945 -0.10454593810 0.69719416198 -1.01792540405 -0.11522022522 0.69269063772 -1.02094125921 -0.12614695198 0.68787485499 -1.02377792462 -0.13744827645 0.68290849946 -1.02654579996 -0.14924635666 0.67795325680 -1.02935528494 -0.16166335068 0.67317081269 -1.03231677924 -0.17482141655 0.66872285278 -1.03554068256 -0.18884271233 0.66477106275 -1.03913739458 -0.20384939608 0.66147712828 -1.04321731502 -0.08938061668 0.69871257625 -1.02076894545 -0.09651547880 0.69512865068 -1.02521396550 -0.10511923809 0.69100246368 -1.02918830972 -0.11506645879 0.68655140668 -1.03287685776 -0.12623170512 0.68199287109 -1.03646448924 -0.13848954132 0.67754424835 -1.04013608378 -0.15171453160 0.67342292988 -1.04407652103 -0.16578124020 0.66984630710 -1.04847068061 -0.18056423135 0.66703177144 -1.05350344215 -0.19593806926 0.66519671433 -1.05935968528 -0.12107647593 0.70200847031 -0.95980921308 -0.13125347473 0.69921912688 -0.95585360233 -0.14287159875 0.69581480063 -0.95202742753 -0.15596967467 0.69205840690 -0.94822207766 -0.17058652917 0.68821286104 -0.94432894170 -0.18676098893 0.68454107840 -0.94023940863 -0.20453188064 0.68130597432 -0.93584486743 -0.22393803097 0.67877046415 -0.93103670709 -0.24501826660 0.67719746325 -0.92570631659 -0.26781141421 0.67684988695 -0.91974508490 -0.12832959769 0.70325359812 -0.96573048210 -0.14336558578 0.69997340474 -0.96264249071 -0.15813346831 0.69615248482 -0.95953802112 -0.17297135977 0.69199976685 -0.95637522736 -0.18821737468 0.68772417934 -0.95311226342 -0.20420962755 0.68353465078 -0.94970728332 -0.22128623288 0.67964010967 -0.94611844108 -0.23978530519 0.67624948451 -0.94230389069 -0.26004495899 0.67357170381 -0.93822178618 -0.28240330878 0.67181569606 -0.93383028154 -0.13376820783 0.70405034308 -0.97222150549 -0.15244801433 0.70038987069 -0.96996513532 -0.16957794663 0.69624123193 -0.96762938841 -0.18572056315 0.69177382372 -0.96520856371 -0.20143842234 0.68715704295 -0.96269696019 -0.21729408262 0.68256028653 -0.96008887680 -0.23385010242 0.67815295136 -0.95737861249 -0.25166904017 0.67410443436 -0.95456046623 -0.27131345430 0.67058413241 -0.95162873697 -0.29334590325 0.66776144242 -0.94857772367 -0.13739250675 0.70441016282 -0.97911132239 -0.15850109029 0.70047919289 -0.97766255079 -0.17720541137 0.69609254374 -0.97613055372 -0.19421764796 0.69139391689 -0.97452413629 -0.21024997806 0.68652701387 -0.97285210366 -0.22601457963 0.68163553622 -0.97112326094 -0.24222363066 0.67686318547 -0.96934641328 -0.25958930914 0.67235366315 -0.96753036581 -0.27882379304 0.66825067078 -0.96568392367 -0.30063926036 0.66469790991 -0.96381589198 -0.13920269480 0.70434451495 -0.98622897193 -0.16152514359 0.70025203953 -0.98557575175 -0.18101624021 0.69571792202 -0.98487054138 -0.19846297736 0.69087338576 -0.98412399467 -0.21465234775 0.68584965410 -0.98334676549 -0.23037134407 0.68077795042 -0.98254950767 -0.24640695904 0.67578949805 -0.98174287507 -0.26354618535 0.67101552035 -0.98093752155 -0.28257601571 0.66658724067 -0.98014410096 -0.30428344281 0.66263588237 -0.97937326716 -0.13919897237 0.70386485711 -0.99340349326 -0.16152050414 0.69971907879 -0.99354575281 -0.18101081081 0.69512886854 -0.99367837573 -0.19845691450 0.69022556971 -0.99381018842 -0.21464583733 0.68514052564 -0.99395001733 -0.23036460145 0.68000507968 -0.99410668886 -0.24640022897 0.67495057515 -0.99428902946 -0.26353974204 0.67010835542 -0.99450586555 -0.28257016278 0.66560976381 -0.99476602355 -0.30427851333 0.66158614367 -0.99507832990 -0.13738153981 0.70298264690 -1.00046392551 -0.15848750187 0.69889097883 -1.00141356861 -0.17718950084 0.69433688509 -1.00238308109 -0.19419982252 0.68946380815 -1.00338476711 -0.21023075272 0.68441519049 -1.00443093083 -0.22599457724 0.67933447457 -1.00553387643 -0.24220358189 0.67436510285 -1.00670590807 -0.25957005247 0.66965051782 -1.00795932992 -0.27880627478 0.66533416194 -1.00930644613 -0.30062453463 0.66155947768 -1.01075956089 -0.13375059751 0.70170934195 -1.00723930781 -0.15242646669 0.69777840783 -1.00902021376 -0.16955268796 0.69335347344 -1.01081368179 -0.18569206458 0.68860144047 -1.01264978030 -0.20140739983 0.68368921064 -1.01455857766 -0.21726149695 0.67878368565 -1.01657014227 -0.23381715921 0.67405176720 -1.01871454251 -0.25163718986 0.66966035702 -1.02102184676 -0.27128439218 0.66577635679 -1.02352212340 -0.29332156942 0.66256666824 -1.02624544082 -0.12830634584 0.70005639989 -1.01355867932 -0.14333772851 0.69639203398 -1.01620670288 -0.15810074984 0.69219013536 -1.01879920216 -0.17293400384 0.68765180605 -1.02140727756 -0.18817608457 0.68297814809 -1.02410202947 -0.20416558606 0.67837026348 -1.02695455828 -0.22124110235 0.67402925427 -1.03003596439 -0.23974122748 0.67015622247 -1.03341734818 -0.26000455549 0.66695227011 -1.03716981005 -0.28236968042 0.66461849922 -1.04136445039 -0.12104898516 0.69803527832 -1.01925107917 -0.13122161727 0.69474252544 -1.02281405059 -0.14283406414 0.69085837263 -1.02616866652 -0.15592600344 0.68662824430 -1.02945930846 -0.17053711286 0.68229756483 -1.03283035790 -0.18670707006 0.67811175864 -1.03642619636 -0.20447555274 0.67431625011 -1.04039120532 -0.22388223856 0.67115646364 -1.04486976629 -0.24496680521 0.66887782363 -1.05000626078 -0.26776893036 0.66772575449 -1.05594507028 -0.14866218245 0.70084117796 -0.96173906049 -0.16205871772 0.69828015077 -0.95900991822 -0.17625196523 0.69508494210 -0.95605553619 -0.19166015073 0.69154869731 -0.95282714157 -0.20870149994 0.68796456180 -0.94927596154 -0.22779423861 0.68462568095 -0.94535322328 -0.24935659246 0.68182520014 -0.94101015397 -0.27380678723 0.67985626474 -0.93619798079 -0.30156304866 0.67901202015 -0.93086793091 -0.33304360248 0.67958561174 -0.92497123153 -0.15933862336 0.70151940440 -0.96697805977 -0.17913038070 0.69860448425 -0.96483965397 -0.19780507971 0.69510593094 -0.96236403903 -0.21608420145 0.69127791884 -0.95956962496 -0.23468922700 0.68737462229 -0.95647482174 -0.25434163740 0.68365021563 -0.95309803936 -0.27576291375 0.68035887322 -0.94945768783 -0.29967453709 0.67775476940 -0.94557217712 -0.32679798851 0.67609207852 -0.94145991724 -0.35785474907 0.67562497492 -0.93713931818 -0.16734447466 0.70189136297 -0.97295068275 -0.19193222875 0.69870264791 -0.97138012288 -0.21396785809 0.69496232947 -0.96947571214 -0.23440025682 0.69089694835 -0.96728312765 -0.25417831910 0.68673304524 -0.96484804657 -0.27425093906 0.68269716085 -0.96221614605 -0.29556701084 0.67901583587 -0.95943310323 -0.31907542860 0.67591561099 -0.95654459525 -0.34572508646 0.67362302690 -0.95359629927 -0.37646487857 0.67236462432 -0.95063389242 -0.17267999979 0.70197148889 -0.97944177326 -0.20046467801 0.69858857703 -0.97842359126 -0.22474072592 0.69466982292 -0.97715717971 -0.24660864272 0.69042466444 -0.97568713243 -0.26716892764 0.68606253949 -0.97405804320 -0.28752207986 0.68179288594 -0.97231450584 -0.30876859862 0.67782514168 -0.97050111415 -0.33200898310 0.67436874461 -0.96866246193 -0.35834373254 0.67163313260 -0.96684314297 -0.38887334613 0.66982774354 -0.96508775109 -0.17534546219 0.70177421737 -0.98623617512 -0.20472814466 0.69827620688 -0.98576232537 -0.23012410877 0.69424409654 -0.98517506598 -0.25270968503 0.68987994573 -0.98450112207 -0.27366120397 0.68538581383 -0.98376721878 -0.29415499610 0.68096376022 -0.98300008124 -0.31536739193 0.67681584427 -0.98222643456 -0.33847472199 0.67314412537 -0.98147300389 -0.36465331680 0.67015066289 -0.98076651434 -0.39507950687 0.66803751621 -0.98013369105 -0.17534112533 0.70131398363 -0.99311873217 -0.20472304488 0.69777947273 -0.99318859151 -0.23011843221 0.69370083558 -0.99329599515 -0.25270370964 0.68928167083 -0.99344457937 -0.27365529948 0.68472557710 -0.99363798047 -0.29414962405 0.68023615302 -0.99387983472 -0.31536310566 0.67601699724 -0.99417377843 -0.33847216663 0.67227170838 -0.99452344787 -0.36465322927 0.66920388508 -0.99493247934 -0.39508271591 0.66701712597 -0.99540450913 -0.17266725263 0.70060522291 -0.99987428823 -0.20044979482 0.69711230985 -1.00049465597 -0.22472412179 0.69305572529 -1.00128659145 -0.24659104241 0.68864871833 -1.00223698711 -0.26715136553 0.68410453809 -1.00333273541 -0.28750590000 0.67963643367 -1.00456072880 -0.30875545467 0.67545765419 -1.00590785972 -0.33200083839 0.67178144874 -1.00736102063 -0.35834286001 0.66882106645 -1.00890710397 -0.38888232838 0.66678975642 -1.01053300220 -0.16732410756 0.69966237041 -1.00628768713 -0.19190881065 0.69628865351 -1.00747278503 -0.21394160308 0.69232445090 -1.00891347909 -0.23437200925 0.68799996685 -1.01059782808 -0.25414955351 0.68354540563 -1.01251389077 -0.27422376024 0.67919097149 -1.01464972596 -0.29554415383 0.67516686872 -1.01699339241 -0.31906025864 0.67170330157 -1.01953294889 -0.34572159904 0.66903047431 -1.02225645420 -0.37647769942 0.66737859121 -1.02515196709 -0.15931195355 0.69849986136 -1.01214377271 -0.17910050854 0.69532243897 -1.01391524498 -0.19777130165 0.69152269766 -1.01594328228 -0.21604693602 0.68735429499 -1.01824658505 -0.23465001478 0.68307088852 -1.02084385371 -0.25430314106 0.67892613582 -1.02375378870 -0.27572891801 0.67517369445 -1.02699509046 -0.29964994875 0.67206722197 -1.03058645942 -0.32678883641 0.66986037594 -1.03454659601 -0.35786818414 0.66880681394 -1.03889420066 -0.14863105405 0.69713213099 -1.01722738878 -0.16202530465 0.69422760152 -1.01961430210 -0.17621364305 0.69066615083 -1.02214262525 -0.19161614861 0.68673058136 -1.02490274081 -0.20865290071 0.68270369559 -1.02798503137 -0.22774397874 0.67886829597 -1.03147987952 -0.24930946208 0.67550718496 -1.03547766785 -0.27376943009 0.67290316504 -1.04006877894 -0.30154396217 0.67133903864 -1.04534359538 -0.33305313767 0.67109760825 -1.05139249976 </DataArray>
</Points>
</Piece>
</StructuredGrid>
</VTKFile>
