<?xml version="1.0"?>
<VTKFile type="StructuredGrid" version="0.1">
<StructuredGrid WholeExtent="0 9 0 9 0 9">
<Piece Extent="0 9 0 9 0 9">
<PointData>
<DataArray type="Float32" Name="Deformation" format="ascii" NumberOfComponents="3">
0.00116553683 0.06318710894 0.00097000636 0.00102492104 0.06323394035 -0.00099265564 0.00089519184 0.06325034135 -0.00337521387 0.00077566027 0.06324049445 -0.00606477587 0.00066563741 0.06320858220 -0.00894844923 0.00056443428 0.06315878711 -0.01191334149 0.00047136196 0.06309529171 -0.01484656022 0.00038573149 0.06302227854 -0.01763521300 0.00030685393 0.06294393012 -0.02016640737 0.00023404033 0.06286442897 -0.02232725090 0.00103774100 0.06323231037 0.00001100360 0.00095383640 0.06319468724 -0.00175268447 0.00086331958 0.06313888594 -0.00395796864 0.00076867943 0.06306779322 -0.00649279036 0.00067240485 0.06298429583 -0.00924509105 0.00057698473 0.06289128054 -0.01210281215 0.00048490798 0.06279163408 -0.01495389509 0.00039866350 0.06268824322 -0.01768628131 0.00032074017 0.06258399471 -0.02018791225 0.00025362691 0.06248177529 -0.02234672935 0.00092081036 0.06326170125 -0.00104130277 0.00087912183 0.06316271906 -0.00265384008 0.00081962784 0.06305467691 -0.00471070940 0.00074676710 0.06293960028 -0.00710306164 0.00066497830 0.06281951468 -0.00972204772 0.00057870016 0.06269644560 -0.01245881854 0.00049237137 0.06257241853 -0.01520452502 0.00041043064 0.06244945898 -0.01785031805 0.00033731668 0.06232959243 -0.02028734855 0.00027746818 0.06221484439 -0.02240676744 0.00081436523 0.06326932374 -0.00215260348 0.00080258684 0.06312860919 -0.00365422510 0.00076695701 0.06298540843 -0.00558799440 0.00071285936 0.06284137158 -0.00785007589 0.00064567750 0.06269814878 -0.01033663409 0.00057079502 0.06255739013 -0.01294383352 0.00049359554 0.06242074577 -0.01556783871 0.00041946266 0.06228986582 -0.01810481416 0.00035377998 0.06216640039 -0.02045092440 0.00030193113 0.06205199961 -0.02250233395 0.00071802596 0.06324922001 -0.00328858923 0.00072604095 0.06308293096 -0.00471194216 0.00070814748 0.06291877464 -0.00654438190 0.00066989231 0.06275856304 -0.00868831924 0.00061682215 0.06260410816 -0.01104616498 0.00055448377 0.06245722199 -0.01352032992 0.00048842390 0.06231971652 -0.01601322487 0.00042418927 0.06219340375 -0.01842726061 0.00036732663 0.06208009567 -0.02066484794 0.00032338273 0.06198160427 -0.02262839768 0.00063141286 0.06319543219 -0.00441495074 0.00065129367 0.06301625772 -0.00578509389 0.00064603964 0.06284246969 -0.00753443017 0.00062080200 0.06267663058 -0.00957227785 0.00058073200 0.06252130286 -0.01180795523 0.00053098087 0.06237904900 -0.01415078059 0.00047669987 0.06225243149 -0.01651007220 0.00042304022 0.06214401279 -0.01879514835 0.00037515317 0.06205635538 -0.02091532732 0.00033818996 0.06199202173 -0.02277992739 0.00055414626 0.06310200245 -0.00549737873 0.00058015452 0.06291916283 -0.00683178291 0.00058347386 0.06274418775 -0.00851269746 0.00056852453 0.06258103014 -0.01045643789 0.00053972675 0.06243364292 -0.01257931968 0.00050150078 0.06230597903 -0.01479765836 0.00045826686 0.06220199139 -0.01702776941 0.00041444523 0.06212563294 -0.01918596834 0.00037445614 0.06208085660 -0.02118857066 0.00034271981 0.06207161532 -0.02295189186 0.00048584649 0.06296297294 -0.00650156392 0.00051443301 0.06278221964 -0.00781011186 0.00052329054 0.06261162297 -0.00943374205 0.00051599596 0.06245721764 -0.01129528549 0.00049612614 0.06232503838 -0.01331757316 0.00046725796 0.06222111990 -0.01542343607 0.00043296830 0.06215149694 -0.01753570520 0.00039683405 0.06212220421 -0.01957721154 0.00036243207 0.06213927645 -0.02147078610 0.00033333926 0.06220874836 -0.02313925987 0.00042613388 0.06277238582 -0.00739319703 0.00045593867 0.06259600151 -0.00867818337 0.00046833007 0.06243246950 -0.01025212220 0.00046615238 0.06229064901 -0.01204330681 0.00045224988 0.06217939926 -0.01398003051 0.00042946685 0.06210757947 -0.01599058656 0.00040064759 0.06208404885 -0.01800326827 0.00036863639 0.06211766662 -0.01994636892 0.00033627752 0.06221729200 -0.02174818180 0.00030641528 0.06239178420 -0.02333700020 0.00037462875 0.06252428324 -0.00813796877 0.00040648099 0.06235108177 -0.00939410005 0.00042143283 0.06219442149 -0.01092239616 0.00042192986 0.06206678018 -0.01265498802 0.00041041769 0.06198063562 -0.01452400655 0.00038934193 0.06194846558 -0.01646158268 0.00036114816 0.06198274783 -0.01839984733 0.00032828199 0.06209596017 -0.02027093142 0.00029318903 0.06230058036 -0.02200696588 0.00025831487 0.06260908618 -0.02354008163 0.00109930464 0.06427452819 0.00000173699 0.00098162685 0.06409160624 -0.00175877484 0.00086670809 0.06394331838 -0.00396789676 0.00075556803 0.06382366470 -0.00651122316 0.00064922636 0.06372664528 -0.00927434841 0.00054870275 0.06364626020 -0.01214286690 0.00045501689 0.06357650954 -0.01500237302 0.00036918846 0.06351139338 -0.01773846115 0.00029223714 0.06344491182 -0.02023672568 0.00022518261 0.06337106492 -0.02238276098 0.00099382883 0.06448966667 -0.00111142136 0.00091670458 0.06422741722 -0.00273054449 0.00083128769 0.06400652287 -0.00478780445 0.00074041453 0.06382120022 -0.00717596086 0.00064692147 0.06366566589 -0.00978777333 0.00055364487 0.06353413650 -0.01251600147 0.00046342111 0.06342082865 -0.01525340490 0.00037908656 0.06331995896 -0.01789274322 0.00030347758 0.06322574405 -0.02032677604 0.00023943055 0.06313240053 -0.02244826298 0.00089386254 0.06466069250 -0.00223569832 0.00084791102 0.06433844648 -0.00374472875 0.00078680562 0.06406339699 -0.00567276681 0.00071440812 0.06382977575 -0.00792028248 0.00063458028 0.06363181448 -0.01038774569 0.00055118386 0.06346374491 -0.01297562640 0.00046808062 0.06331979876 -0.01558439457 0.00038913233 0.06319420775 -0.01811452015 0.00031820076 0.06308120360 -0.02046647309 0.00025914766 0.06297501803 -0.02254072334 0.00079961533 0.06478699643 -0.00335166798 0.00077677247 0.06442166981 -0.00477675412 0.00073530049 0.06410852558 -0.00659554582 0.00067944991 0.06384176678 -0.00871650717 0.00061347126 0.06361559641 -0.01104810226 0.00054161504 0.06342421749 -0.01349879518 0.00046813180 0.06326183302 -0.01597705002 0.00039727203 0.06312264602 -0.01839133087 0.00033328627 0.06300085951 -0.02065010183 0.00028042503 0.06289067649 -0.02266182699 0.00071129678 0.06486796921 -0.00443990443 0.00070481525 0.06447406299 -0.00580204710 0.00067881090 0.06413649350 -0.00752890342 0.00063744100 0.06384954883 -0.00953695409 0.00058486286 0.06360751706 -0.01174267981 0.00052523377 0.06340468628 -0.01406256128 0.00046271102 0.06323534460 -0.01641307922 0.00040145190 0.06309378009 -0.01871071432 0.00034561372 0.06297428085 -0.02087194728 0.00029935375 0.06287113497 -0.02281325881 0.00062911644 0.06490300158 -0.00548098177 0.00063356568 0.06449260184 -0.00679603418 0.00061937545 0.06414188558 -0.00844560156 0.00059028250 0.06384549738 -0.01035394238 0.00055002355 0.06359808178 -0.01244531510 0.00050233536 0.06339428335 -0.01464397820 0.00045095466 0.06322874665 -0.01687419014 0.00039961819 0.06309611624 -0.01906020940 0.00035206269 0.06299103667 -0.02112629443 0.00031202490 0.06290815251 -0.02299670372 0.00055328389 0.06489148429 -0.00645547409 0.00056455006 0.06447426212 -0.00773414185 0.00055903277 0.06411928666 -0.00931840220 0.00053987551 0.06382198793 -0.01113979120 0.00051022180 0.06357779594 -0.01312984491 0.00047321517 0.06338214074 -0.01522009941 0.00043199911 0.06323045234 -0.01734209077 0.00038971715 0.06311816076 -0.01942735504 0.00034951279 0.06304069603 -0.02140742830 0.00031452955 0.06299348818 -0.02321384662 0.00048400869 0.06483280808 -0.00734395548 0.00049929472 0.06441601965 -0.00859179661 0.00049982145 0.06406328158 -0.01012006729 0.00048812114 0.06377139598 -0.01186681970 0.00046672607 0.06353716492 -0.01377010601 0.00043816851 0.06335739050 -0.01576797840 0.00040498074 0.06322887482 -0.01779848906 0.00036969501 0.06314841995 -0.01979969016 0.00033484361 0.06311282799 -0.02170963388 0.00030295880 0.06311890103 -0.02346637240 0.00042150040 0.06472636371 -0.00812700004 0.00043932596 0.06431485021 -0.00934442495 0.00044378010 0.06396845519 -0.01082335879 0.00043692050 0.06368609703 -0.01250734703 0.00042080482 0.06346669408 -0.01433993515 0.00039749074 0.06330916470 -0.01626466865 0.00036903592 0.06321242725 -0.01822509300 0.00033749804 0.06317540010 -0.02016475368 0.00030493475 0.06319700160 -0.02202719618 0.00027340373 0.06327615012 -0.02375596598 0.00036596861 0.06457154192 -0.00878518187 0.00038617009 0.06416772959 -0.00996745337 0.00039294733 0.06382939232 -0.01140103864 0.00038817469 0.06355846658 -0.01303369234 0.00037372651 0.06335688878 -0.01481316912 0.00035147718 0.06322659537 -0.01668722365 0.00032330104 0.06316952280 -0.01860361056 0.00029107247 0.06318760751 -0.02051008453 0.00025666581 0.06328278593 -0.02235440021 0.00022195543 0.06345699450 -0.02408431225 0.00103466734 0.06536785785 -0.00109794893 0.00093490864 0.06500611494 -0.00270495824 0.00083226579 0.06472825689 -0.00476736318 0.00072894134 0.06452100170 -0.00717258866 0.00062713782 0.06437106734 -0.00980805959 0.00052905777 0.06426517180 -0.01256120086 0.00043690373 0.06419003306 -0.01531943738 0.00035287822 0.06413236910 -0.01797019406 0.00027918380 0.06407889790 -0.02040089580 0.00021802299 0.06401633746 -0.02249896750 0.00094699779 0.06568358954 -0.00228474218 0.00087569399 0.06525128900 -0.00379007886 0.00079518676 0.06490523336 -0.00571938306 0.00070850639 0.06463335719 -0.00797150283 0.00061868320 0.06442359505 -0.01044528622 0.00052874748 0.06426388151 -0.01303958131 0.00044172954 0.06414215114 -0.01565323614 0.00036065968 0.06404633849 -0.01818509877 0.00028856822 0.06396437813 -0.02053401727 0.00022848544 0.06388420463 -0.02259883968 0.00086095737 0.06593936533 -0.00342959488 0.00081254890 0.06545250397 -0.00485252525 0.00075120635 0.06505484092 -0.00666653961 0.00068031746 0.06473496729 -0.00878116020 0.00060326993 0.06448147418 -0.01110590920 0.00052345150 0.06428295269 -0.01355030883 0.00044424989 0.06412799392 -0.01602388130 0.00036905283 0.06400518897 -0.01843614882 0.00030124804 0.06390312894 -0.02069663359 0.00024422325 0.06381040492 -0.02271485782 0.00077714169 0.06613809439 -0.00452306386 0.00074672469 0.06561096567 -0.00587958945 0.00070170759 0.06517628151 -0.00759420166 0.00064546796 0.06482292949 -0.00958631141 0.00058138339 0.06453979720 -0.01177532959 0.00051283144 0.06431577224 -0.01408066713 0.00044318969 0.06413974218 -0.01642173492 0.00037583572 0.06400059462 -0.01871794389 0.00031414709 0.06388721714 -0.02088870494 0.00026150139 0.06378849733 -0.02285342898 0.00069614636 0.06628268586 -0.00555570594 0.00067947267 0.06572787992 -0.00685856354 0.00064807345 0.06526875705 -0.00848773802 0.00060505133 0.06489434126 -0.01037170709 0.00055350894 0.06459365658 -0.01243894847 0.00049654890 0.06435572704 -0.01461793988 0.00043727384 0.06416957667 -0.01683715904 0.00037878639 0.06402422949 -0.01902508367 0.00032418918 0.06390870954 -0.02111019149 0.00027658484 0.06381204084 -0.02302096022 0.00061856701 0.06637604889 -0.00651807795 0.00061204419 0.06580445255 -0.00777673958 0.00059168696 0.06533146948 -0.00933251749 0.00056016100 0.06494630007 -0.01112209786 0.00052013194 0.06463814477 -0.01308216690 0.00047426547 0.06439620399 -0.01514941078 0.00042522724 0.06420967814 -0.01726051570 0.00037568290 0.06406776766 -0.01935216784 0.00032829813 0.06395967296 -0.02136105341 0.00028573858 0.06387459446 -0.02322385858 0.00054499924 0.06642109262 -0.00740073672 0.00054569056 0.06584188938 -0.00862140963 0.00053393112 0.06536362072 -0.01011390889 0.00051189038 0.06497590343 -0.01182223437 0.00048173778 0.06466835426 -0.01369038596 0.00044564276 0.06443058998 -0.01566236352 0.00040577479 0.06425222737 -0.01768216694 0.00036430330 0.06412288319 -0.01969379610 0.00032339774 0.06403217421 -0.02164125087 0.00028522756 0.06396971720 -0.02346853112 0.00047603867 0.06642072622 -0.00819423908 0.00048166311 0.06584139622 -0.00937986575 0.00047618893 0.06536441272 -0.01081728103 0.00046133291 0.06498024879 -0.01245686723 0.00043881180 0.06467937750 -0.01424900671 0.00041034237 0.06445227191 -0.01614408180 0.00037764140 0.06428940510 -0.01809247482 0.00034242563 0.06418125014 -0.02004456812 0.00030641183 0.06411828010 -0.02195074404 0.00027131678 0.06409096804 -0.02376138490 0.00041228093 0.06637785882 -0.00888914186 0.00042121316 0.06580417890 -0.01003940002 0.00041984339 0.06533304740 -0.01142800272 0.00040958200 0.06495643365 -0.01301074709 0.00039183938 0.06466630697 -0.01474343024 0.00036802590 0.06445463668 -0.01658184929 0.00033955196 0.06431339211 -0.01848180137 0.00030782794 0.06423454259 -0.02039908360 0.00027426422 0.06421005744 -0.02228949309 0.00024027120 0.06423190599 -0.02410882696 0.00035432161 0.06629539958 -0.00947600188 0.00036559205 0.06573144324 -0.01058730448 0.00036627751 0.06526872670 -0.01193144278 0.00035773110 0.06490155548 -0.01346862456 0.00034130588 0.06462423512 -0.01515905760 0.00031835495 0.06443107117 -0.01696294971 0.00029023139 0.06431636915 -0.01884050865 0.00025828829 0.06427443459 -0.02075194222 0.00022387873 0.06429957305 -0.02265745820 0.00018835579 0.06438609004 -0.02451726437 0.00097242258 0.06644074954 -0.00228190015 0.00088629870 0.06594612167 -0.00377624853 0.00079371955 0.06557069087 -0.00571549834 0.00069762617 0.06529651483 -0.00799154714 0.00060095958 0.06510565124 -0.01049629250 0.00050666082 0.06498015779 -0.01312163199 0.00041767091 0.06490209216 -0.01575946318 0.00033693089 0.06485351204 -0.01830168362 0.00026738179 0.06481647514 -0.02064019089 0.00021196463 0.06477303912 -0.02266688255 0.00089863377 0.06680122705 -0.00347843229 0.00083232979 0.06624870792 -0.00489566508 0.00075651868 0.06581412803 -0.00671483867 0.00067429607 0.06548137139 -0.00884184019 0.00058875756 0.06523432203 -0.01118255674 0.00050299875 0.06505686395 -0.01364287547 0.00042011525 0.06493288117 -0.01612868350 0.00034320267 0.06484625771 -0.01854586795 0.00027535661 0.06478087756 -0.02080031595 0.00021967269 0.06472062476 -0.02279791462 0.00082383764 0.06709591120 -0.00460377539 0.00077449243 0.06649824773 -0.00595504264 0.00071402780 0.06601876952 -0.00766838140 0.00064544415 0.06564247804 -0.00966206361 0.00057174187 0.06535437472 -0.01185436119 0.00049592138 0.06513946105 -0.01416354608 0.00042098309 0.06498273846 -0.01650789019 0.00034992739 0.06486920843 -0.01880566547 0.00028575469 0.06478387240 -0.02097514383 0.00023146539 0.06471173184 -0.02293459721 0.00074884815 0.06732971192 -0.00565443386 0.00071378412 0.06669842714 -0.00694900145 0.00066711579 0.06618663082 -0.00856942328 0.00061156465 0.06577992685 -0.01044486842 0.00054985220 0.06546391914 -0.01250450597 0.00048469994 0.06522421157 -0.01467750500 0.00041882938 0.06504640805 -0.01689303460 0.00035496201 0.06491611247 -0.01908026383 0.00029581933 0.06481892872 -0.02116836180 0.00024412286 0.06474046072 -0.02308649757 0.00067447925 0.06750753909 -0.00662691212 0.00065120232 0.06685293213 -0.00787216179 0.00061665153 0.06631972735 -0.00941126107 0.00057315183 0.06589380993 -0.01118290564 0.00052302820 0.06556106509 -0.01312579120 0.00046860562 0.06530737804 -0.01517861344 0.00041220906 0.06511863397 -0.01728006805 0.00035616349 0.06498071809 -0.01936885071 0.00030279387 0.06487951561 -0.02138365713 0.00025442519 0.06480091173 -0.02326318298 0.00060154491 0.06763430265 -0.00751771458 0.00058774452 0.06696544874 -0.00871914393 0.00056350391 0.06642007456 -0.01018719155 0.00053069995 0.06598421937 -0.01186882629 0.00049120957 0.06564392242 -0.01371101702 0.00044690964 0.06538522296 -0.01566073260 0.00039967708 0.06519416026 -0.01766494190 0.00035138877 0.06505677357 -0.01967061377 0.00030392162 0.06495910214 -0.02162471709 0.00025915252 0.06488718523 -0.02347422070 0.00053085910 0.06771491249 -0.00832334566 0.00052440820 0.06703966296 -0.00948456813 0.00050854181 0.06648968791 -0.01089051147 0.00048470328 0.06605124726 -0.01249528136 0.00045433596 0.06571060093 -0.01425298353 0.00041888321 0.06545400886 -0.01611772367 0.00037978838 0.06526773096 -0.01804360749 0.00033849482 0.06513802716 -0.01998474068 0.00029644589 0.06505115738 -0.02189522895 0.00025508494 0.06499338156 -0.02372917800 0.00046323577 0.06775427853 -0.00904030977 0.00046219083 0.06707926081 -0.01016305466 0.00045263412 0.06653058284 -0.01151451760 0.00043565605 0.06609498569 -0.01305492189 0.00041234705 0.06575921046 -0.01474449087 0.00038379752 0.06550999823 -0.01654344786 0.00035109790 0.06533409009 -0.01841201615 0.00031533859 0.06521822712 -0.02031041909 0.00027761001 0.06514915042 -0.02219887998 0.00023900258 0.06511360106 -0.02403762214 0.00039948890 0.06775731068 -0.00966511132 0.00040208990 0.06708792830 -0.01074922378 0.00039664973 0.06654477479 -0.01205250670 0.00038405254 0.06611552676 -0.01354039889 0.00036518251 0.06578786082 -0.01517833917 0.00034092380 0.06554945359 -0.01693176635 0.00031216058 0.06538798169 -0.01876611925 0.00027977702 0.06529112173 -0.02064683668 0.00024465728 0.06524655032 -0.02253935745 0.00020768554 0.06524194409 -0.02440912039 0.00034043244 0.06772891885 -0.01019425474 0.00034510289 0.06706935145 -0.01123769576 0.00034145752 0.06653427922 -0.01249777554 0.00033038700 0.06611296256 -0.01394436337 0.00031278202 0.06579466184 -0.01554732854 0.00028953325 0.06556863746 -0.01727654035 0.00026153138 0.06542414979 -0.01910186811 0.00022966708 0.06535045923 -0.02099318110 0.00019483104 0.06533682617 -0.02292034864 0.00015791393 0.06537251098 -0.02485324000 0.00091336796 0.06746685489 -0.00350296542 0.00083732932 0.06688028168 -0.00491768841 0.00075292397 0.06643615433 -0.00675418745 0.00066346848 0.06611421349 -0.00891077334 0.00057227942 0.06589419984 -0.01128575689 0.00048267337 0.06575585403 -0.01377744893 0.00039796690 0.06567891672 -0.01628416027 0.00032147658 0.06564312859 -0.01870420172 0.00025651900 0.06562823028 -0.02093588410 0.00020641072 0.06561396246 -0.02287751823 0.00085012264 0.06782972730 -0.00466196512 0.00078813711 0.06720207933 -0.00601168063 0.00071678538 0.06671231747 -0.00773630549 0.00063912464 0.06634235008 -0.00974939686 0.00055821208 0.06607408554 -0.01196451190 0.00047710488 0.06588943219 -0.01429520778 0.00039886022 0.06577029841 -0.01665504166 0.00032653530 0.06569859255 -0.01895757071 0.00026318729 0.06565622297 -0.02111635210 0.00021187338 0.06562509804 -0.02304494298 0.00078424614 0.06812852158 -0.00573902277 0.00073519857 0.06746903398 -0.00703009398 0.00067646773 0.06694494360 -0.00865464577 0.00061073724 0.06653961108 -0.01053936152 0.00054069073 0.06623639702 -0.01261092460 0.00046901181 0.06601866206 -0.01479601837 0.00039838411 0.06586976681 -0.01702132621 0.00033149124 0.06577307190 -0.01921353149 0.00027101684 0.06571193794 -0.02129931758 0.00021964451 0.06566972555 -0.02320536784 0.00071663855 0.06836894331 -0.00673342073 0.00067929140 0.06768598456 -0.00797126048 0.00063246258 0.06713752813 -0.00950667201 0.00057839109 0.06670782602 -0.01127755804 0.00051931599 0.06638113020 -0.01322182128 0.00045747628 0.06614169267 -0.01527736444 0.00039511101 0.06597376543 -0.01738209022 0.00033445919 0.06586160045 -0.01947390133 0.00027775987 0.06578944974 -0.02149070048 0.00022725206 0.06574156527 -0.02337039039 0.00064819997 0.06855669806 -0.00764444135 0.00062119332 0.06785777001 -0.00883351217 0.00058526148 0.06729356647 -0.01028984795 0.00054217102 0.06684882446 -0.01196087717 0.00049368848 0.06650828099 -0.01379402827 0.00044158041 0.06625667308 -0.01573672971 0.00038761338 0.06607873776 -0.01773640997 0.00033355393 0.06595921204 -0.01974049750 0.00028116861 0.06588283294 -0.02169642075 0.00023222399 0.06583433748 -0.02355160820 0.00057983051 0.06869749141 -0.00847136696 0.00056168201 0.06798922926 -0.00961518108 0.00053535601 0.06741655402 -0.01100163733 0.00050216183 0.06696443595 -0.01258620962 0.00046340882 0.06661784530 -0.01432437186 0.00042040632 0.06636175233 -0.01617159794 0.00037446367 0.06618112730 -0.01808336178 0.00032689022 0.06606094048 -0.02001513727 0.00027899530 0.06598616210 -0.02192239832 0.00023208825 0.06594176245 -0.02376061883 0.00051243026 0.06879702893 -0.00921347993 0.00050153519 0.06808520124 -0.01031459925 0.00048323771 0.06750998620 -0.01163950388 0.00045844835 0.06705649005 -0.01315044615 0.00042807764 0.06670981905 -0.01480967837 0.00039303613 0.06645507948 -0.01657945286 0.00035423435 0.06627737757 -0.01842202193 0.00031258284 0.06616181959 -0.02029963791 0.00026899215 0.06609351180 -0.02217455312 0.00022437280 0.06605756045 -0.02400901987 0.00044689931 0.06886101621 -0.00987006259 0.00044153056 0.06815052489 -0.01093009870 0.00042939815 0.06757735839 -0.01220091134 0.00041111538 0.06712681630 -0.01365047748 0.00038729555 0.06678419816 -0.01524677410 0.00035855195 0.06653480356 -0.01695777819 0.00032549786 0.06636393205 -0.01875146673 0.00028874658 0.06625688321 -0.02059581671 0.00024891140 0.06619895660 -0.02245880510 0.00020660561 0.06617545178 -0.02430840889 0.00038413778 0.06889515882 -0.01044039729 0.00038244581 0.06819003913 -0.01146001148 0.00037432889 0.06762216603 -0.01268332343 0.00036024776 0.06717724425 -0.01408319434 0.00034066318 0.06684097854 -0.01563248536 0.00031603590 0.06659907363 -0.01730405768 0.00028682665 0.06643723425 -0.01907077248 0.00025349620 0.06634116515 -0.02090549092 0.00021650527 0.06629657105 -0.02278107419 0.00017631463 0.06628915670 -0.02467038346 0.00032504575 0.06890516233 -0.01092376638 0.00032505865 0.06820858290 -0.01190266960 0.00031852148 0.06764790450 -0.01308420391 0.00030593030 0.06720960347 -0.01444548747 0.00028778116 0.06688015611 -0.01596363847 0.00026457010 0.06664603874 -0.01761577507 0.00023679319 0.06649372768 -0.01937901547 0.00020494648 0.06640969924 -0.02123047783 0.00016952600 0.06638042974 -0.02314728033 0.00013102782 0.06639239549 -0.02510654115 0.00085830110 0.06841982554 -0.00471399347 0.00078953281 0.06777725019 -0.00607432059 0.00071173367 0.06729018125 -0.00782531574 0.00062831424 0.06693810706 -0.00987294201 0.00054268513 0.06670051599 -0.01212316250 0.00045825690 0.06655689640 -0.01448194031 0.00037844013 0.06648673665 -0.01685523853 0.00030664541 0.06646952509 -0.01914902026 0.00024628332 0.06648475009 -0.02126924860 0.00020076443 0.06651190000 -0.02312188663 0.00080285027 0.06875623839 -0.00580481409 0.00074464111 0.06809380859 -0.00710250300 0.00067748876 0.06757891229 -0.00874591772 0.00060433317 0.06719340052 -0.01065659678 0.00052811430 0.06691912429 -0.01275607871 0.00045177207 0.06673793460 -0.01496590204 0.00037824645 0.06663168248 -0.01720760530 0.00031047737 0.06658221894 -0.01940272702 0.00025140478 0.06657139498 -0.02147280572 0.00020396863 0.06658106162 -0.02333937993 0.00074392565 0.06903538794 -0.00681611997 0.00069612425 0.06835821890 -0.00805549233 0.00063972391 0.06782312396 -0.00960168633 0.00057714580 0.06741366952 -0.01138942273 0.00051081112 0.06711342201 -0.01335342234 0.00044314108 0.06690594783 -0.01542840595 0.00037655685 0.06677481341 -0.01754909433 0.00031347964 0.06670358516 -0.01965020829 0.00025633065 0.06667582949 -0.02166646861 0.00020753105 0.06667511283 -0.02353259607 0.00068241675 0.06926288288 -0.00774766723 0.00064458717 0.06857556830 -0.00893263690 0.00059868544 0.06802692808 -0.01039140922 0.00054659844 0.06760169414 -0.01206976009 0.00049021306 0.06728459838 -0.01391346541 0.00043141620 0.06706037273 -0.01586830106 0.00037209474 0.06691374911 -0.01788004296 0.00031413557 0.06682945944 -0.01989446700 0.00025942557 0.06679223563 -0.02185734907 0.00020985165 0.06678680960 -0.02371446508 0.00061921308 0.06944433191 -0.00859921199 0.00059063478 0.06875094395 -0.00973328498 0.00055461969 0.06819443650 -0.01111387404 0.00051253742 0.06776025444 -0.01269594906 0.00046575757 0.06743384263 -0.01443447990 0.00041564973 0.06720064595 -0.01628443643 0.00036358349 0.06704610927 -0.01820078853 0.00031092846 0.06695567746 -0.02013850607 0.00025905423 0.06691479538 -0.02205255892 0.00020933040 0.06690890791 -0.02389791695 0.00055520416 0.06958534371 -0.00937051039 0.00053487199 0.06888943299 -0.01045678487 0.00050777300 0.06832976104 -0.01176786845 0.00047480908 0.06789213051 -0.01326632985 0.00043688210 0.06756234400 -0.01491473782 0.00039489395 0.06732620414 -0.01667566108 0.00034974651 0.06716951357 -0.01851166837 0.00030234166 0.06707807489 -0.02038532842 0.00025358129 0.06703769074 -0.02225920995 0.00020436728 0.06703416374 -0.02409588171 0.00049127951 0.06969152700 -0.01006131854 0.00047790374 0.06899612259 -0.01110248486 0.00045839170 0.06843701355 -0.01235218008 0.00043325972 0.06800010241 -0.01377924269 0.00040302410 0.06767129170 -0.01535251118 0.00036820115 0.06743648395 -0.01704082406 0.00032930718 0.06728158168 -0.01881301983 0.00028685850 0.06719248742 -0.02063793697 0.00024137141 0.06715510371 -0.02248441398 0.00019336224 0.06715533307 -0.02432128937 0.00042832862 0.06976849045 -0.01067139257 0.00042033493 0.06907609990 -0.01166973325 0.00040672214 0.06852030585 -0.01286559659 0.00038773569 0.06808695022 -0.01423302777 0.00036362104 0.06776187497 -0.01574607199 0.00033462362 0.06753092201 -0.01737877441 0.00030098889 0.06737993329 -0.01910518023 0.00026296229 0.06729475073 -0.02089933464 0.00022078927 0.06726121628 -0.02273528281 0.00017471527 0.06726517186 -0.02458706993 0.00036724102 0.06982184277 -0.01120048860 0.00036277049 0.06913445209 -0.01215787832 0.00035301064 0.06858374977 -0.01330690563 0.00033808331 0.06815545402 -0.01462602533 0.00031811036 0.06783528303 -0.01609369224 0.00029321365 0.06760895498 -0.01768836117 0.00026351504 0.06746218807 -0.01938848694 0.00022913638 0.06738070050 -0.02117252436 0.00019019953 0.06735021044 -0.02301892824 0.00014682634 0.06735643611 -0.02490615341 0.00030890622 0.06985719265 -0.01164836275 0.00030581535 0.06917626630 -0.01256626837 0.00029750353 0.06863145716 -0.01367489484 0.00028414889 0.06820839388 -0.01495657556 0.00026592952 0.06789270511 -0.01639364393 0.00024302353 0.06767001951 -0.01796843337 0.00021560901 0.06752596572 -0.01966327727 0.00018386409 0.06744617240 -0.02146050904 0.00014796686 0.06741626820 -0.02334246209 0.00010809542 0.06742188178 -0.02529146982 0.00080801964 0.06927331310 -0.00586783307 0.00074444146 0.06860568245 -0.00719118775 0.00067200324 0.06809830564 -0.00887076842 0.00059400943 0.06773220493 -0.01082072790 0.00051376449 0.06748840256 -0.01295521906 0.00043457288 0.06734792077 -0.01518839476 0.00035973907 0.06729178181 -0.01743440783 0.00029256750 0.06730100791 -0.01960741114 0.00023636264 0.06735662132 -0.02162155753 0.00019442894 0.06743964429 -0.02339099986 0.00075820254 0.06956790840 -0.00687645264 0.00070336693 0.06890630104 -0.00813250965 0.00064013073 0.06839302310 -0.00970580953 0.00057126274 0.06801162996 -0.01152586386 0.00049953174 0.06774567699 -0.01352218418 0.00042770653 0.06757871956 -0.01562428207 0.00035855591 0.06749431303 -0.01776166910 0.00029484868 0.06747601279 -0.01986385683 0.00023935362 0.06750737420 -0.02186035682 0.00019483954 0.06757195264 -0.02368068064 0.00070461896 0.06981470174 -0.00781584990 0.00065872644 0.06915915871 -0.00900905077 0.00060499410 0.06864307140 -0.01048585667 0.00054561886 0.06825195648 -0.01218861606 0.00048279768 0.06797133061 -0.01405967737 0.00041872748 0.06778671046 -0.01604138905 0.00035560522 0.06768361270 -0.01807609953 0.00029562784 0.06764755400 -0.02010615726 0.00024099227 0.06766405102 -0.02207391068 0.00019389545 0.06771862044 -0.02392170824 0.00064808659 0.07001862493 -0.00868481609 0.00061101205 0.06936910872 -0.00981940107 0.00056672185 0.06885278529 -0.01120909625 0.00051683781 0.06845659836 -0.01280685439 0.00046298173 0.06816749167 -0.01456562822 0.00040677543 0.06797240894 -0.01643837052 0.00034984072 0.06785829391 -0.01837803401 0.00029379941 0.06781209031 -0.02033757147 0.00024027333 0.06782074187 -0.02226993564 0.00019088427 0.06787119231 -0.02412807926 0.00058942311 0.07018460978 -0.00948214243 0.00056071581 0.06954100432 -0.01056215054 0.00052544252 0.06902649951 -0.01187371471 0.00048467957 0.06862896948 -0.01337844872 0.00043950330 0.06833628841 -0.01503796634 0.00039099003 0.06813633045 -0.01681388132 0.00034021610 0.06801696976 -0.01866780744 0.00028825783 0.06796608050 -0.02056135847 0.00023619157 0.06797153681 -0.02245614818 0.00018509363 0.06802121287 -0.02431379034 0.00052944623 0.07031758811 -0.01020662016 0.00050832978 0.06967969879 -0.01123588915 0.00048128462 0.06916854881 -0.01247789849 0.00044890415 0.06877248373 -0.01390126895 0.00041178180 0.06847984909 -0.01547462130 0.00037051097 0.06827899045 -0.01716657630 0.00032568507 0.06815825334 -0.01894575471 0.00027789752 0.06810598333 -0.02078077730 0.00022774174 0.06811052595 -0.02264026484 0.00017581112 0.06816022676 -0.02449283808 0.00046897364 0.07042249173 -0.01085704053 0.00045434603 0.06979004536 -0.01183920687 0.00043437668 0.06928326794 -0.01301983400 0.00040927155 0.06889055497 -0.01437318494 0.00037923664 0.06860030194 -0.01587352270 0.00034447791 0.06840090437 -0.01749511029 0.00030520134 0.06828075775 -0.01921221071 0.00026161291 0.06822825757 -0.02099908698 0.00021391859 0.06823179935 -0.02283000211 0.00016232437 0.06827977858 -0.02467921910 0.00040882302 0.07050425245 -0.01143219476 0.00039925661 0.06987689731 -0.01237069368 0.00038484722 0.06937499165 -0.01349770769 0.00036554178 0.06898659708 -0.01479206658 0.00034128724 0.06869977522 -0.01623260014 0.00031203054 0.06850258768 -0.01779813813 0.00027771862 0.06838309607 -0.01946751033 0.00023829843 0.06832936201 -0.02121954653 0.00019371689 0.06832944711 -0.02303307650 0.00014392097 0.06837141299 -0.02488693002 0.00034981209 0.07056780208 -0.01193087410 0.00034355359 0.06994510789 -0.01282893955 0.00033282476 0.06944805469 -0.01390970599 0.00031747482 0.06906402395 -0.01515578376 0.00029735300 0.06878039717 -0.01654978320 0.00027230852 0.06858455582 -0.01807431466 0.00024219061 0.06846388141 -0.01971198847 0.00020684850 0.06840575541 -0.02144541498 0.00016613140 0.06839755930 -0.02325720453 0.00011988854 0.06842667458 -0.02512996745 0.00029275851 0.07061807243 -0.01235186978 0.00028772902 0.06999953036 -0.01321253446 0.00027843783 0.06950679180 -0.01425401532 0.00026483068 0.06912624945 -0.01546220634 0.00024685334 0.06884429603 -0.01682300148 0.00022445154 0.06864732426 -0.01832229472 0.00019757102 0.06852172686 -0.01994598003 0.00016615755 0.06845389653 -0.02167995136 0.00013015686 0.06843022601 -0.02351010270 0.00008951470 0.06843710801 -0.02542232801 0.00076332118 0.07000096923 -0.00691733295 0.00070358756 0.06933423367 -0.00821333261 0.00063558730 0.06882606151 -0.00983243070 0.00056240000 0.06846051650 -0.01169680577 0.00048710529 0.06822166241 -0.01372863633 0.00041278280 0.06809356302 -0.01585010091 0.00034251215 0.06806028210 -0.01798337805 0.00027937296 0.06810588342 -0.02005064626 0.00022644485 0.06821443075 -0.02197408407 0.00018680744 0.06836998786 -0.02367587001 0.00071756533 0.07025188542 -0.00784635421 0.00066583974 0.06962196204 -0.00906607809 0.00060621321 0.06913376051 -0.01057811515 0.00054125439 0.06877414567 -0.01231962202 0.00047353192 0.06852998236 -0.01422775532 0.00040561444 0.06838813542 -0.01623967169 0.00034007059 0.06833546970 -0.01829252774 0.00027946900 0.06835885003 -0.02032348011 0.00022637833 0.06844514127 -0.02226968542 0.00018336720 0.06858120825 -0.02406830029 0.00066806886 0.07046465444 -0.00871899552 0.00062446209 0.06986520961 -0.00986858234 0.00057347607 0.06939454674 -0.01128351040 0.00051710548 0.06904177506 -0.01291331030 0.00045734501 0.06879600375 -0.01470751260 0.00039618933 0.06864634204 -0.01661564790 0.00033563312 0.06858189912 -0.01858724678 0.00027767107 0.06859178420 -0.02057183981 0.00022429784 0.06866510648 -0.02251895758 0.00017750813 0.06879097517 -0.02437813068 0.00061555191 0.07064326375 -0.00953251006 0.00057990667 0.07006853617 -0.01061782336 0.00053750930 0.06961305437 -0.01194519446 0.00048976033 0.06926760584 -0.01347422076 0.00043806028 0.06902297805 -0.01516449962 0.00038380970 0.06886995849 -0.01697562842 0.00032840911 0.06879933462 -0.01886720455 0.00027325903 0.06880189394 -0.02079882536 0.00021976001 0.06886842391 -0.02273008825 0.00016931257 0.06898971201 -0.02462059059 0.00056073460 0.07079170083 -0.01028415102 0.00053262553 0.07023650154 -0.01131077916 0.00049844633 0.06979391756 -0.01255974534 0.00045902598 0.06945583919 -0.01399870357 0.00041519347 0.06921415670 -0.01559530783 0.00036777778 0.06906076037 -0.01731721212 0.00031760789 0.06898754047 -0.01913207044 0.00026551279 0.06898638729 -0.02100753677 0.00021232145 0.06904919111 -0.02291126510 0.00015886285 0.06916784219 -0.02481090945 0.00050433707 0.07091395314 -0.01097117158 0.00048307071 0.07037366552 -0.01194442775 0.00045642059 0.06994177050 -0.01312374105 0.00042470951 0.06961067630 -0.01448310889 0.00038826032 0.06937279116 -0.01599652869 0.00034739582 0.06922052329 -0.01763799786 0.00030243885 0.06914628093 -0.01938151383 0.00025371222 0.06914247230 -0.02120107401 0.00020153877 0.06920150562 -0.02307067582 0.00014624131 0.06931578912 -0.02496431668 0.00044707944 0.07101400817 -0.01159082491 0.00043169427 0.07048458793 -0.01251574715 0.00041156550 0.07006124734 -0.01363375959 0.00038661798 0.06973631834 -0.01492378688 0.00035677654 0.06950213287 -0.01636475364 0.00032196604 0.06935102286 -0.01793558451 0.00028211132 0.06927532025 -0.01961520412 0.00023713722 0.06926735698 -0.02138253710 0.00018696859 0.06931946498 -0.02321650808 0.00013153027 0.06942397619 -0.02509604170 0.00038968185 0.07109585339 -0.01214036421 0.00037894826 0.07057382857 -0.01302171535 0.00036401451 0.07015698226 -0.01408637898 0.00034455844 0.06983696649 -0.01531708770 0.00032025788 0.06960543328 -0.01669657416 0.00029079068 0.06945403468 -0.01820757095 0.00025583466 0.06937442270 -0.01983281070 0.00021506767 0.06935824937 -0.02155502604 0.00016816753 0.06939716674 -0.02335694958 0.00011481209 0.06948282682 -0.02522131393 0.00033286443 0.07116347626 -0.01261704265 0.00032528471 0.07064594726 -0.01345931038 0.00031390103 0.07023360944 -0.01447817721 0.00029833795 0.06991682193 -0.01565936152 0.00027822007 0.06968594386 -0.01698858168 0.00025317197 0.06953133435 -0.01845155603 0.00022281824 0.06944335253 -0.02003400296 0.00018678346 0.06941235752 -0.02172164082 0.00014469222 0.06942870844 -0.02350018798 0.00009616910 0.06948276442 -0.02535536280 0.00027734730 0.07122086427 -0.01301811341 0.00027115569 0.07070550379 -0.01382551023 0.00026135849 0.07029576303 -0.01480573231 0.00024776358 0.06998008584 -0.01594695850 0.00023017884 0.06974691605 -0.01723736766 0.00020841215 0.06958469749 -0.01866513864 0.00018227140 0.06948187401 -0.02021845028 0.00015156448 0.06942688944 -0.02188548144 0.00011609926 0.06940818761 -0.02365441097 0.00007568363 0.06941421237 -0.02551341773 0.00072500336 0.07057644553 -0.00781534187 0.00066850342 0.06993155911 -0.00908579785 0.00060434045 0.06943898284 -0.01065218782 0.00053533192 0.06908705114 -0.01244385036 0.00046429532 0.06886409839 -0.01439012404 0.00039404813 0.06875845901 -0.01642034741 0.00032740783 0.06875846741 -0.01846385904 0.00026719191 0.06885245797 -0.02044999751 0.00021621783 0.06902876512 -0.02230810136 0.00017730309 0.06927572325 -0.02396750918 0.00068232451 0.07079531756 -0.00868399222 0.00063358466 0.07022319695 -0.00986758579 0.00057723811 0.06978023512 -0.01132496876 0.00051564922 0.06945805490 -0.01300029519 0.00045118240 0.06924827910 -0.01483771915 0.00038620202 0.06914253057 -0.01678139470 0.00032307247 0.06913243212 -0.01877547590 0.00026415815 0.06920960659 -0.02076411682 0.00021182344 0.06936567680 -0.02269147152 0.00016843272 0.06959226558 -0.02450169405 0.00063601814 0.07098343752 -0.00950633975 0.00059478814 0.07046972779 -0.01061190010 0.00054636759 0.07006731078 -0.01197100112 0.00049255472 0.06977042836 -0.01353987425 0.00043514775 0.06957332237 -0.01527475098 0.00037594491 0.06947023467 -0.01713186275 0.00031674445 0.06945540710 -0.01906744105 0.00025934458 0.06952308153 -0.02103771734 0.00020554353 0.06966749980 -0.02299892308 0.00015713955 0.06988290377 -0.02490728974 0.00058671657 0.07114389366 -0.01027839190 0.00055261167 0.07067578100 -0.01131417412 0.00051198527 0.07030568995 -0.01258516520 0.00046601713 0.07002978372 -0.01405723903 0.00041588704 0.06984422552 -0.01569626948 0.00036277475 0.06974517856 -0.01746813042 0.00030786005 0.06972880605 -0.01933869574 0.00025232271 0.06979127119 -0.02127383931 0.00019734250 0.06992873721 -0.02323943500 0.00014409919 0.07013736731 -0.02520135669 0.00053505209 0.07127977420 -0.01099615615 0.00050755306 0.07084598597 -0.01196984115 0.00047434750 0.07050085275 -0.01316234130 0.00043600519 0.07024173318 -0.01454704100 0.00039309592 0.07006598588 -0.01609732462 0.00034618946 0.06997096950 -0.01778657657 0.00029585558 0.06995404265 -0.01958818123 0.00024266407 0.07001256399 -0.02147552299 0.00018718470 0.07014389213 -0.02342198624 0.00012998725 0.07034538571 -0.02540095537 0.00048165704 0.07139416736 -0.01165563994 0.00046011012 0.07098497206 -0.01257433453 0.00043371064 0.07065827930 -0.01369740974 0.00040248762 0.07041188892 -0.01500393165 0.00036647005 0.07024360078 -0.01647296639 0.00032568695 0.07015121473 -0.01808358006 0.00028016732 0.07013253062 -0.01981483877 0.00022994017 0.07018534831 -0.02164580863 0.00017503451 0.07030746764 -0.02355555575 0.00011547934 0.07049668847 -0.02552314625 0.00042716372 0.07149016137 -0.01225285072 0.00041078067 0.07109736866 -0.01312308759 0.00039033107 0.07078344972 -0.01418525080 0.00036543313 0.07054586315 -0.01542256247 0.00033570509 0.07038206755 -0.01681824474 0.00030076516 0.07028952152 -0.01835551974 0.00026023158 0.07026568365 -0.02001760961 0.00021372255 0.07030801256 -0.02178773649 0.00016085631 0.07041396684 -0.02364912250 0.00010125107 0.07058100508 -0.02558498979 0.00037220443 0.07157084447 -0.01278379595 0.00036006253 0.07118780515 -0.01361153365 0.00034446514 0.07088184415 -0.01462074479 0.00032481047 0.07064926806 -0.01579758493 0.00030049670 0.07048638351 -0.01712820964 0.00027092202 0.07038949710 -0.01859877449 0.00023548463 0.07035491544 -0.02019543502 0.00019358271 0.07037894514 -0.02190434682 0.00014461446 0.07045789281 -0.02371166544 0.00008797805 0.07058806505 -0.02560354644 0.00031741150 0.07163930487 -0.01324448308 0.00030845350 0.07126091090 -0.01403510603 0.00029636922 0.07095894269 -0.01499877201 0.00028058834 0.07072771585 -0.01612365053 0.00026054053 0.07056154600 -0.01739791108 0.00023565546 0.07045474875 -0.01880972315 0.00020536279 0.07040163970 -0.02034725625 0.00016909219 0.07039653446 -0.02199867987 0.00012627333 0.07043374865 -0.02375216352 0.00007633588 0.07050759788 -0.02559587669 0.00026341724 0.07169863080 -0.01363091957 0.00025645140 0.07132131528 -0.01438923806 0.00024629967 0.07102022547 -0.01531421278 0.00023273548 0.07078681871 -0.01639541075 0.00021553224 0.07061255235 -0.01762239901 0.00019446339 0.07048888370 -0.01898474459 0.00016930233 0.07040727011 -0.02047201455 0.00013982250 0.07035916892 -0.02207377591 0.00010579731 0.07033603746 -0.02377959570 0.00006700018 0.07032933306 -0.02557904098 0.00069386378 0.07097339365 -0.00851470858 0.00064072132 0.07036631398 -0.00975362617 0.00058011730 0.06990260365 -0.01127192498 0.00051465116 0.06957581824 -0.01300453643 0.00044692236 0.06937951337 -0.01488639192 0.00037953035 0.06930724463 -0.01685242287 0.00031507456 0.06935256762 -0.01883756069 0.00025615446 0.06950903794 -0.02077673679 0.00020536949 0.06977021120 -0.02260488257 0.00016531909 0.07012964300 -0.02425692946 0.00065386595 0.07118535288 -0.00935884010 0.00060812686 0.07069241111 -0.01050141024 0.00055470733 0.07031155754 -0.01190850456 0.00049578828 0.07004046490 -0.01353030730 0.00043355068 0.06987680594 -0.01531700268 0.00037017545 0.06981825338 -0.01721877493 0.00030784354 0.06986247995 -0.01918580827 0.00024873590 0.07000715838 -0.02116828693 0.00019503347 0.07024996141 -0.02311639513 0.00014891719 0.07058856177 -0.02498031710 0.00061020958 0.07136924245 -0.01015866551 0.00057116156 0.07096606946 -0.01121681713 0.00052486643 0.07065112433 -0.01252468243 0.00047291561 0.07042521949 -0.01404467674 0.00041690051 0.07028916738 -0.01573921542 0.00035841254 0.07024378044 -0.01757071384 0.00029904310 0.07028987109 -0.01950158732 0.00024038362 0.07042825178 -0.02149425124 0.00018402549 0.07065973494 -0.02351112093 0.00013156012 0.07098513302 -0.02551461176 0.00056348440 0.07152760896 -0.01091010436 0.00053046767 0.07119277358 -0.01189472371 0.00049108724 0.07092864666 -0.01311446982 0.00044625935 0.07073819916 -0.01454128902 0.00039690029 0.07062440206 -0.01614712768 0.00034392632 0.07059022634 -0.01790393214 0.00028825371 0.07063864298 -0.01978364878 0.00023079874 0.07077262296 -0.02175822392 0.00017247767 0.07099513724 -0.02379960395 0.00011420677 0.07130915681 -0.02587973520 0.00051428013 0.07166299903 -0.01160907618 0.00048668750 0.07137800801 -0.01253000683 0.00045386239 0.07115146714 -0.01367187798 0.00041604572 0.07098752103 -0.01501378842 0.00037347844 0.07089031432 -0.01653483696 0.00032640151 0.07086399162 -0.01821412240 0.00027505585 0.07091269755 -0.02003074355 0.00021968242 0.07104057671 -0.02196379919 0.00016052216 0.07125177375 -0.02399238814 0.00009781601 0.07155043326 -0.02609560920 0.00046318650 0.07177795930 -0.01225150054 0.00044046332 0.07152725728 -0.01311754334 0.00041368451 0.07132692839 -0.01419091814 0.00038250092 0.07118130227 -0.01545581921 0.00034656340 0.07109470854 -0.01689644079 0.00030552280 0.07107147681 -0.01849697716 0.00025902999 0.07111593672 -0.02024162255 0.00020673580 0.07123241787 -0.02211457125 0.00014829111 0.07142524991 -0.02410001749 0.00008334675 0.07169876244 -0.02618215554 0.00041079325 0.07187503637 -0.01283329697 0.00039243742 0.07164600593 -0.01365221009 0.00037104625 0.07146237306 -0.01466560156 0.00034585117 0.07132766002 -0.01586102566 0.00031608358 0.07124538907 -0.01722603670 0.00028097492 0.07121908245 -0.01874818896 0.00023975659 0.07125226243 -0.02041503672 0.00019166003 0.07134845125 -0.02221413429 0.00013591665 0.07151117116 -0.02413303595 0.00007175787 0.07174394444 -0.02615929599 0.00035769009 0.07195677687 -0.01335038502 0.00034325207 0.07173973849 -0.01412888394 0.00032644024 0.07156514375 -0.01508993946 0.00030632267 0.07143471142 -0.01622305206 0.00028196742 0.07135016026 -0.01751772220 0.00025244256 0.07131320907 -0.01896345035 0.00021681615 0.07132557660 -0.02054973697 0.00017415625 0.07138898164 -0.02226608252 0.00012353092 0.07150514297 -0.02410198749 0.00006400824 0.07167577935 -0.02604695232 0.00030446677 0.07202572742 -0.01379868425 0.00029354956 0.07181393952 -0.01454244174 0.00028035911 0.07164258310 -0.01545794310 0.00026414164 0.07151057361 -0.01653554267 0.00024414335 0.07141682649 -0.01776559481 0.00021961044 0.07136025720 -0.01913845388 0.00018978912 0.07133978118 -0.02064447421 0.00015392560 0.07135431388 -0.02227401016 0.00011126608 0.07140277076 -0.02401741608 0.00006105677 0.07148406725 -0.02586504632 0.00025171301 0.07208443464 -0.01417411419 0.00024397217 0.07187409354 -0.01488776035 0.00023329550 0.07170203373 -0.01576362370 0.00021953429 0.07156336374 -0.01679214177 0.00020253979 0.07145319211 -0.01796375207 0.00018216327 0.07136662738 -0.01926889209 0.00015825599 0.07129877809 -0.02069799937 0.00013066923 0.07124475278 -0.02224151140 0.00009925426 0.07119965998 -0.02388986569 0.00006386233 0.07115860825 -0.02563349976 </DataArray>
</PointData>
<Points>
<DataArray type="Float32" NumberOfComponents="3">
-0.85944346317 0.25715210894 -1.14758699364 -0.87700400351 0.29011040400 -1.14679081476 -0.88845661200 0.32789334683 -1.14659570907 -0.89486463602 0.36906834630 -1.14692707217 -0.89729142295 0.41220281128 -1.14771029971 -0.89680032017 0.45586415062 -1.14887078731 -0.89445467507 0.49861977319 -1.15033393060 -0.89131783504 0.53903708787 -1.15202512521 -0.88845314744 0.57568350350 -1.15386976677 -0.88692395967 0.60712642897 -1.15579325090 -0.79157823705 0.27381977676 -1.15043572479 -0.81917930465 0.30254346143 -1.15026254371 -0.83786175455 0.33690767317 -1.15065791084 -0.84912921256 0.37538649900 -1.15153649325 -0.85448530448 0.41645402596 -1.15281295799 -0.85543365610 0.45858434109 -1.15440197213 -0.85347789322 0.50025153140 -1.15621820272 -0.85012164163 0.53992968395 -1.15817631681 -0.84686852715 0.57609288575 -1.16019098148 -0.84522217556 0.60721522385 -1.16217686378 -0.71879171777 0.29172413609 -1.15305872253 -0.75429849175 0.31724865363 -1.15337922814 -0.77880180830 0.34880572442 -1.15422695688 -0.79411151833 0.38484400652 -1.15550975199 -0.80203747273 0.42381215800 -1.15713545674 -0.80438952243 0.46415883693 -1.15901191438 -0.80297751833 0.50433270136 -1.16104696819 -0.79961131134 0.54278240938 -1.16314846142 -0.79610075236 0.57795661905 -1.16522423733 -0.79425569231 0.60830398842 -1.16718213918 -0.64375570884 0.31032958300 -1.15556893681 -0.68517839248 0.33352886961 -1.15627345428 -0.71416301748 0.36281238485 -1.15745585666 -0.73269906382 0.39665795869 -1.15901918974 -0.74277601147 0.43354342109 -1.16086649930 -0.74638334043 0.47194660204 -1.16290083114 -0.74551053066 0.51034533151 -1.16502523103 -0.74214706216 0.54721743946 -1.16714274476 -0.73828241490 0.58104075587 -1.16915641813 -0.73590606887 0.61029311072 -1.17096929692 -0.56914201382 0.32910051356 -1.15807931762 -0.61463583451 0.35068699838 -1.15907780834 -0.64683162632 0.37815253872 -1.16049761970 -0.66777935954 0.41004544532 -1.16223714787 -0.67952900444 0.44491402895 -1.16419478906 -0.68413053132 0.48130660034 -1.16626893945 -0.68363391045 0.51777147027 -1.16835799523 -0.68008911212 0.55285694948 -1.17036035259 -0.67554610660 0.58511134872 -1.17217440771 -0.67205486418 0.61308297876 -1.17369855680 -0.49762243625 0.34750132382 -1.16070281494 -0.54548764549 0.36802592895 -1.16192487654 -0.57969387904 0.39405107029 -1.16350525547 -0.60223991598 0.42422355625 -1.16533596774 -0.61512453539 0.45719019526 -1.16730902937 -0.62034651635 0.49159779573 -1.16931645639 -0.61990463794 0.52609316608 -1.17125026480 -0.61579767922 0.55932311473 -1.17300247064 -0.61002441928 0.58993445009 -1.17446508991 -0.60458363720 0.61657398058 -1.17553013863 -0.43186877967 0.36499640986 -1.16355237873 -0.48055065308 0.38484855033 -1.16494724509 -0.51563601986 0.40973286382 -1.16663177347 -0.53896824365 0.43840938131 -1.16848799070 -0.55239068807 0.46963813375 -1.17039792360 -0.55774671677 0.50217915212 -1.17224359901 -0.55687969336 0.53479246739 -1.17390704376 -0.55163298148 0.56623811051 -1.17527028465 -0.54384994477 0.59527611246 -1.17621534854 -0.53537394685 0.62066650421 -1.17662426223 -0.37455284761 0.38105016773 -1.16674095898 -0.42264168495 0.40045775152 -1.16827750020 -0.45754429303 0.42442280357 -1.17003018319 -0.48085185305 0.45182001030 -1.17186555811 -0.49415554623 0.48152405812 -1.17365017512 -0.49904655380 0.51240963341 -1.17525058440 -0.49711605695 0.54335142261 -1.17653333610 -0.48995523691 0.57322411211 -1.17736498038 -0.47915527489 0.60090238833 -1.17761206743 -0.46630735210 0.62526093766 -1.17714114739 -0.32834644363 0.39512699350 -1.17038150567 -0.37457756876 0.41415642154 -1.17204822810 -0.40830494275 0.43734577381 -1.17385349413 -0.43077825467 0.46367253307 -1.17564101133 -0.44324719362 0.49211418206 -1.17725448729 -0.44696144869 0.52164820352 -1.17853762960 -0.44317070896 0.55125208020 -1.17933414583 -0.43312466352 0.57990329483 -1.17948774357 -0.41807300146 0.60657933018 -1.17884213040 -0.39926541188 0.63025766898 -1.17724101392 -0.29592137125 0.40669128324 -1.17458696877 -0.33917513218 0.42524744940 -1.17639201500 -0.37080421326 0.44772665880 -1.17825471578 -0.39163495903 0.47318403944 -1.17998669172 -0.40249371399 0.50067471929 -1.18139956348 -0.40420682268 0.52925382634 -1.18230495168 -0.39760062962 0.55797648858 -1.18251447696 -0.38350147933 0.58589783397 -1.18183975995 -0.36273571632 0.61207299051 -1.18009242130 -0.33612968513 0.63555708618 -1.17708408163 -0.90101214941 0.27485420995 -1.12935597906 -0.91336279480 0.30343231668 -1.13212036969 -0.92141919333 0.33770384669 -1.13456671960 -0.92591746367 0.37613401165 -1.13675354420 -0.92759372453 0.41718802322 -1.13873935886 -0.92718409461 0.45933109305 -1.14058267899 -0.92542469260 0.50102843282 -1.14234201998 -0.92305163720 0.54074525419 -1.14407589722 -0.92080104709 0.57694676882 -1.14584282610 -0.91940904098 0.60809818838 -1.14770132202 -0.83131145131 0.29314283424 -1.12955985976 -0.85071366514 0.31874154751 -1.13315421423 -0.86384932964 0.35021855218 -1.13636717235 -0.87176712973 0.38607115061 -1.13924789290 -0.87551575034 0.42479664519 -1.14184553462 -0.87614387641 0.46489233828 -1.14420925627 -0.87470019286 0.50485553225 -1.14638821661 -0.87223338462 0.54318352948 -1.14843157440 -0.86979213662 0.57837363233 -1.15038848840 -0.86842513380 0.60892314318 -1.15230811736 -0.75815716289 0.31164574731 -1.13004549758 -0.78311046102 0.33493393538 -1.13428956173 -0.80033295866 0.36406595656 -1.13809075726 -0.81108972313 0.39760041593 -1.14149249121 -0.81664582176 0.43409591856 -1.14453817062 -0.81826632188 0.47211106954 -1.14727120253 -0.81721629080 0.51020447395 -1.14973499400 -0.81476079586 0.54693473686 -1.15197295205 -0.81216490438 0.58086046335 -1.15402848374 -0.81069368368 0.61054025851 -1.15594499611 -0.68342521447 0.33001508407 -1.13083505293 -0.71253088488 0.35155991580 -1.13557346149 -0.73289461952 0.37874487076 -1.13980932148 -0.74590509791 0.41021276337 -1.14358260400 -0.75295099959 0.44460640807 -1.14693328014 -0.75542100409 0.48056861928 -1.14990132100 -0.75470379094 0.51674221142 -1.15252669769 -0.75218803966 0.55176999892 -1.15484938130 -0.74926242979 0.58429479620 -1.15690934292 -0.74731564086 0.61295941769 -1.15874655366 -0.60899153639 0.34790297943 -1.13195068625 -0.64095263917 0.36816992426 -1.13705296279 -0.66355885134 0.39375410568 -1.14159471216 -0.67823310810 0.42339914874 -1.14561349612 -0.68639834463 0.45584867848 -1.14914687644 -0.68947749613 0.48984631995 -1.15223241489 -0.68889349779 0.52413569820 -1.15490767324 -0.68606928479 0.55746043827 -1.15721021325 -0.68242779232 0.58856416520 -1.15917759670 -0.67939195557 0.61619050405 -1.16084738534 -0.53673205898 0.36496156830 -1.13341455797 -0.57035342632 0.38431439627 -1.13877511492 -0.59435019326 0.40859247224 -1.14351877644 -0.61009360772 0.43665052780 -1.14768043243 -0.61895491768 0.46734329452 -1.15129497279 -0.62230537107 0.49952550399 -1.15439728741 -0.62151621586 0.53205188778 -1.15702226620 -0.61795869998 0.56377717748 -1.15920479905 -0.61300407139 0.59355610466 -1.16097977586 -0.60802357804 0.62024340091 -1.16238208652 -0.46852271255 0.38084298558 -1.13524882850 -0.50271094880 0.39954376733 -1.14078696715 -0.52729318440 0.42275878136 -1.14565336147 -0.54350645083 0.44945785635 -1.14987867779 -0.55258777953 0.47861082095 -1.15349358245 -0.55577420199 0.50918750384 -1.15652874178 -0.55430274965 0.54015773369 -1.15901482212 -0.54941045398 0.57049133915 -1.16098248980 -0.54233434645 0.59915814890 -1.16246241117 -0.53431145851 0.62512799161 -1.16348525255 -0.40623942745 0.39519936619 -1.13747565828 -0.44000290904 0.41340847294 -1.14313556878 -0.46441236390 0.43575184395 -1.14807031440 -0.48049149143 0.46131209016 -1.15230349706 -0.48926399099 0.48917182252 -1.15585871868 -0.49175356195 0.51841365196 -1.15875958120 -0.48898390368 0.54812018944 -1.16102968655 -0.48197871555 0.57737404589 -1.16269263664 -0.47176169693 0.60525783224 -1.16377203341 -0.45935654720 0.63085415946 -1.16429147879 -0.35175813400 0.40768284503 -1.14011720774 -0.38420700948 0.42545894860 -1.14586796910 -0.40773227090 0.44707047091 -1.15084148237 -0.42306858358 0.47170418502 -1.15505015509 -0.43095061285 0.49854686397 -1.15850639476 -0.43211302403 0.52678528079 -1.16122260890 -0.42729048245 0.55560620854 -1.16321120504 -0.41721765343 0.58419642026 -1.16448459069 -0.40262920229 0.61174268900 -1.16505517337 -0.38425979435 0.63743178779 -1.16493536059 -0.30695476253 0.41794555700 -1.14319563728 -0.33730095257 0.43524562981 -1.14903121737 -0.35927744451 0.45621347317 -1.15403871254 -0.37325758130 0.48012509671 -1.15821391675 -0.37961470591 0.50625651004 -1.16155262394 -0.37872216132 0.53388372277 -1.16405062809 -0.37095329048 0.56228274452 -1.16570372315 -0.35668143637 0.59072958488 -1.16650770307 -0.33627994196 0.61850025348 -1.16645836180 -0.31012215020 0.64487075993 -1.16555149332 -0.93346248355 0.29376801560 -1.11166326992 -0.94175455006 0.31902753945 -1.11722072276 -0.94715960585 0.35041323301 -1.12174895342 -0.95015534794 0.38635853724 -1.12540569469 -0.95121947339 0.42529689310 -1.12834867934 -0.95082967923 0.46566174156 -1.13073564014 -0.94946366250 0.50588652358 -1.13272430986 -0.94759912023 0.54440468013 -1.13447242128 -0.94571374946 0.57964965217 -1.13613770716 -0.94428524724 0.61005488067 -1.13787790028 -0.86231298846 0.31264431274 -1.11030828426 -0.87532875385 0.33581632260 -1.11674475655 -0.88414045232 0.36487268284 -1.12208494357 -0.88944058199 0.39836562998 -1.12647664048 -0.89192164101 0.43484740053 -1.13006764248 -0.89227612748 0.47287023101 -1.13300574474 -0.89119653955 0.51098635793 -1.13543874242 -0.88937537534 0.54774801782 -1.13751443072 -0.88750513298 0.58170744719 -1.13938060481 -0.88627831059 0.61141688255 -1.14118505986 -0.78885684379 0.33108555510 -1.10952015977 -0.80558986533 0.35257347448 -1.11664022295 -0.81713940534 0.37962907644 -1.12260267368 -0.82434540224 0.41092492430 -1.12754903186 -0.82804779447 0.44513358139 -1.13162081739 -0.82908652047 0.48092761103 -1.13495955016 -0.82830151866 0.51697957653 -1.13770675007 -0.82653272749 0.55196204123 -1.14000393703 -0.82462008538 0.58454756844 -1.14199263093 -0.82340353077 0.61340872147 -1.14381435167 -0.71434970249 0.34887195463 -1.10926387598 -0.73386164674 0.36902138145 -1.11689809575 -0.74750972354 0.39437289791 -1.12331880461 -0.75621443471 0.42371967537 -1.12866398133 -0.76089628208 0.45585488515 -1.13307160470 -0.76247576748 0.48957169860 -1.13667965350 -0.76187339273 0.52366328706 -1.13962610651 -0.76000965967 0.55692282188 -1.14204894250 -0.75780507011 0.58814347439 -1.14408614025 -0.75618012590 0.61611841594 -1.14587567854 -0.64004721751 0.36578372324 -1.10950441244 -0.66146786031 0.38488242987 -1.11750934874 -0.67660466555 0.40879463140 -1.12424999717 -0.68639230543 0.43643313835 -1.12986260139 -0.69176545212 0.46671076127 -1.13448340507 -0.69365877781 0.49854031071 -1.13824865186 -0.69300695467 0.53083459720 -1.14129458541 -0.69074465488 0.56250643129 -1.14375744940 -0.68780655063 0.59246862351 -1.14577348748 -0.68512731410 0.61963398441 -1.14747894331 -0.56720504179 0.38160107288 -1.11020674868 -0.58973226825 0.39987900612 -1.11846495572 -0.60577749001 0.42258476101 -1.12541291222 -0.61622364044 0.44874856842 -1.13118600456 -0.62195365290 0.47740065924 -1.13591961913 -0.62385046076 0.50757126435 -1.13974914231 -0.62279699738 0.53829061464 -1.14280996049 -0.61967619613 0.56858894098 -1.14523746005 -0.61537099039 0.59749647427 -1.14716702737 -0.61076431350 0.62404344538 -1.14873404883 -0.49707882828 0.39610421547 -1.11133586424 -0.51997863281 0.41373349656 -1.11975589048 -0.53638145555 0.43543377087 -1.12682421057 -0.54705306577 0.46034922075 -1.13267530332 -0.55275923270 0.48762402852 -1.13744364752 -0.55426572562 0.51640237651 -1.14126372196 -0.55233831378 0.54582844706 -1.14427000542 -0.54774276642 0.57504642249 -1.14659697671 -0.54124485282 0.60320048514 -1.14837911462 -0.53361034222 0.62943481733 -1.14975089794 -0.43092422992 0.40907336295 -1.11285673867 -0.45353071620 0.42616828754 -1.12137312682 -0.46976982080 0.44703214511 -1.12850055308 -0.48022520743 0.47091835051 -1.13437161020 -0.48548053983 0.49708031858 -1.13911889089 -0.48611948170 0.52477146417 -1.14287498788 -0.48272569677 0.55324520214 -1.14577249391 -0.47588284875 0.58175494732 -1.14794400169 -0.46617460138 0.60955411458 -1.14952210397 -0.45418461838 0.63589611874 -1.15063939346 -0.36999689967 0.42028872724 -1.11473435150 -0.39171228066 0.43690576543 -1.12330763853 -0.40729584439 0.45707036784 -1.13045860058 -0.41708469148 0.48013921286 -1.13631603768 -0.42141592256 0.50546897889 -1.14100874987 -0.42062663828 0.53241634433 -1.14466553717 -0.41505393925 0.56033798757 -1.14741519963 -0.40503492613 0.58859058701 -1.14938653728 -0.39090669953 0.61653082106 -1.15070835014 -0.37300636009 0.64351536809 -1.15150943826 -0.31555249046 0.42953052029 -1.11693368226 -0.33584708841 0.44566831660 -1.12555039940 -0.35031278495 0.46523892318 -1.13271501389 -0.35897614392 0.48769506297 -1.13854969827 -0.36186372920 0.51248945892 -1.14317662510 -0.35900210466 0.53907483396 -1.14671796693 -0.35041783415 0.56690391103 -1.14929589629 -0.33613748154 0.59542941308 -1.15103258575 -0.31618761070 0.62410406305 -1.15205020786 -0.29059478550 0.65238058387 -1.15247093515 -0.95800217002 0.31329082361 -1.09480690015 -0.96324174352 0.33612866066 -1.10246075155 -0.96664060723 0.36517467634 -1.10856093130 -0.96847376066 0.39888741333 -1.11333270900 -0.96901620335 0.43572541429 -1.11700135428 -0.96854293482 0.47414722190 -1.11979213674 -0.96732895460 0.51261137885 -1.12193032600 -0.96564926222 0.54957642781 -1.12364119167 -0.96377885720 0.58350091145 -1.12515000336 -0.96199273907 0.61284337246 -1.12668203070 -0.88572168300 0.33194607006 -1.09276469973 -0.89393610601 0.35328002320 -1.10120607366 -0.89949005088 0.38032551035 -1.10804724975 -0.90280381252 0.41171472704 -1.11350124640 -0.90429768585 0.44607986881 -1.11778108203 -0.90439196578 0.48205313118 -1.12109977504 -0.90350694722 0.51826670970 -1.12367034384 -0.90206292510 0.55335279988 -1.12570580683 -0.90048019433 0.58594359726 -1.12741918242 -0.89917904982 0.61467129737 -1.12902348902 -0.81200540434 0.34982076778 -1.09139703561 -0.82255934870 0.36987551092 -1.10044724119 -0.82984090014 0.39516365564 -1.10785422528 -0.83436841912 0.42447401595 -1.11382281489 -0.83666026603 0.45659540589 -1.11855783705 -0.83723480133 0.49031663949 -1.12226411877 -0.83661038543 0.52442653078 -1.12514648708 -0.83530537875 0.55771389378 -1.12740976900 -0.83383814173 0.58896754253 -1.12925879155 -0.83272703479 0.61697629105 -1.13089838174 -0.73764177874 0.36677390533 -1.09063901274 -0.74994279371 0.38574643848 -1.10014274081 -0.75854151341 0.40950243881 -1.10796382591 -0.76400590510 0.43697247174 -1.11430222081 -0.76690393602 0.46708710266 -1.11935787827 -0.76780357342 0.49877689697 -1.12333075106 -0.76727278455 0.53097242009 -1.12642079195 -0.76587953667 0.56260423741 -1.12882795371 -0.76419179701 0.59260291434 -1.13075218912 -0.76277753284 0.61989901627 -1.13239345093 -0.66341925088 0.38266447127 -1.09042573603 -0.67691776319 0.40072412050 -1.10025105917 -0.68644024908 0.42315518648 -1.10835801967 -0.69255459513 0.44901728609 -1.11494427051 -0.69582868791 0.47737003622 -1.12020746463 -0.69683041399 0.50727305377 -1.12434525503 -0.69612765994 0.53778595561 -1.12755529466 -0.69428831235 0.56796835863 -1.13003523650 -0.69188025778 0.59687987973 -1.13198273352 -0.68947138281 0.62358013578 -1.13359543869 -0.59012626543 0.39735145415 -1.09069231043 -0.60431557927 0.41463987162 -1.10073068293 -0.61438546555 0.43593522524 -1.10901877458 -0.62085281387 0.46041565070 -1.11575377032 -0.62423451381 0.48725928372 -1.12113285509 -0.62504745496 0.51564426002 -1.12535321382 -0.62380852693 0.54474871532 -1.12861203144 -0.62103461929 0.57375078533 -1.13110649291 -0.61724262164 0.60182860577 -1.13303378314 -0.61294942356 0.62816031235 -1.13459108709 -0.51855126710 0.41069384253 -1.09137384086 -0.53296756409 0.42732500650 -1.10154009873 -0.54322552121 0.44765588169 -1.10992805865 -0.54973888596 0.47097475724 -1.11673552660 -0.55292140583 0.49656992227 -1.12216030857 -0.55318682829 0.52372966588 -1.12640021055 -0.55094890085 0.55174227721 -1.12965303852 -0.54662137098 0.57989604538 -1.13211659846 -0.54061798618 0.60747925951 -1.13398869637 -0.53335249393 0.63378020872 -1.13546713822 -0.44948270057 0.42255062497 -1.09240543226 -0.46370503978 0.43861083975 -1.10263779324 -0.47380877446 0.45813048245 -1.11106783990 -0.48005113607 0.48050179742 -1.11789434569 -0.48268935607 0.50511702899 -1.12331608403 -0.48198066591 0.53136842149 -1.12753182836 -0.47818229704 0.55864821927 -1.13074035210 -0.47155148093 0.58634866667 -1.13314042870 -0.46234544902 0.61386200802 -1.13493083158 -0.45082143277 0.64058048767 -1.13631033418 -0.38370901052 0.43278079002 -1.09372218956 -0.39735932848 0.44832868602 -1.10398225310 -0.40698358369 0.46717235412 -1.11242008636 -0.41262788886 0.48880396291 -1.11923503393 -0.41433835665 0.51271568100 -1.12462644040 -0.41216109975 0.53839967700 -1.12879365036 -0.40614223084 0.56534811948 -1.13193600842 -0.39632786262 0.59305317707 -1.13425285915 -0.38276410775 0.62100701836 -1.13594354716 -0.36549707893 0.64870181194 -1.13720741704 -0.32201864164 0.44124332625 -1.09525921770 -0.33476175232 0.45630985996 -1.10553196498 -0.34359830731 0.47459482329 -1.11396676604 -0.34830746897 0.49568844541 -1.12076239766 -0.34866839966 0.51918095544 -1.12611763662 -0.34446026175 0.54466258254 -1.13023125970 -0.33546221759 0.57172355583 -1.13330204369 -0.32145342955 0.59995410446 -1.13552876536 -0.30221305998 0.62894445757 -1.13711020150 -0.27752027125 0.65828484431 -1.13824512889 -0.97583891325 0.33281993171 -1.07908490369 -0.97888684943 0.35396826867 -1.08820933368 -0.98082495514 0.38114134725 -1.09542117402 -0.98176817365 0.41286613017 -1.10098377247 -0.98183144824 0.44766958013 -1.10516047680 -0.98112972218 0.48407865984 -1.10821463477 -0.97977793876 0.52062033201 -1.11040959414 -0.97789104125 0.55582155934 -1.11200870268 -0.97558397293 0.58820930456 -1.11327530814 -0.97297167707 0.61631053036 -1.11447275828 -0.90267636942 0.35066996402 -1.07701280760 -0.90744725689 0.37064488580 -1.08671006852 -0.91065305364 0.39603247988 -1.09449011615 -0.91251106449 0.42556323174 -1.10060022104 -0.91323859425 0.45796762685 -1.10528765371 -0.91305294774 0.49197615071 -1.10879968470 -0.91217142978 0.52631928877 -1.11138358455 -0.91081134519 0.55972752654 -1.11328662379 -0.90918999877 0.59093134948 -1.11475607295 -0.90752469535 0.61866124307 -1.11603920256 -0.82871748841 0.36762859367 -1.07559045162 -0.83484155512 0.38654828472 -1.08572664585 -0.83905719490 0.41033826575 -1.09393693119 -0.84164863724 0.43790417519 -1.10045728124 -0.84290011164 0.46815165147 -1.10552366961 -0.84309584760 0.49998633305 -1.10937206989 -0.84252007461 0.53231385835 -1.11223845569 -0.84145702217 0.56403986581 -1.11435880061 -0.84019091979 0.59406999388 -1.11596907826 -0.83900599695 0.62130988098 -1.11730526223 -0.75441404905 0.38359464686 -1.07474406997 -0.76154644142 0.40156825880 -1.08520278045 -0.76652317301 0.42393946593 -1.09372390529 -0.76965833998 0.44976492955 -1.10053622150 -0.77126603851 0.47810131094 -1.10586850610 -0.77166036478 0.50800527139 -1.10994953610 -0.77115541494 0.53853347218 -1.11300808849 -0.77006528517 0.56874257461 -1.11527294031 -0.76870407165 0.59768923996 -1.11697286854 -0.76738587053 0.62443012952 -1.11833665021 -0.68021783018 0.39846694981 -1.07439989688 -0.68803861307 0.41559460140 -1.08508218709 -0.69353678205 0.43671684151 -1.09381332461 -0.69701762079 0.46102146387 -1.10081831025 -0.69878641298 0.48769626222 -1.10632214482 -0.69914844232 0.51592903026 -1.11054982910 -0.69840899247 0.54490756175 -1.11372636390 -0.69687334714 0.57381965039 -1.11607675002 -0.69484679000 0.60185308993 -1.11782598826 -0.69263460474 0.62819567410 -1.11919907942 -0.60658061065 0.41214432872 -1.07448416657 -0.61479476738 0.42851710589 -1.08530858054 -0.62058381611 0.44855115356 -1.09416747532 -0.62420392774 0.47154974719 -1.10128481592 -0.62591127316 0.49681616225 -1.10688456736 -0.62596202325 0.52365367420 -1.11119069466 -0.62461234892 0.55136555850 -1.11442716284 -0.62211842104 0.57925509061 -1.11681793691 -0.61873641050 0.60662554601 -1.11858698188 -0.61472248820 0.63278020015 -1.11995826279 -0.53395416930 0.42452560979 -1.07492311326 -0.54229160162 0.44022556564 -1.08582567558 -0.54815006928 0.45932316316 -1.09474864357 -0.55169470891 0.48122574855 -1.10191700693 -0.55309065714 0.50534066801 -1.10755575536 -0.55250305062 0.53107526772 -1.11188987856 -0.55009702597 0.55783689390 -1.11514436625 -0.54603771982 0.58503289272 -1.11754420812 -0.54049026882 0.61207061039 -1.11931439388 -0.53361980959 0.63835739310 -1.12067991323 -0.46279028496 0.43550961923 -1.07564297119 -0.47100581309 0.45060977400 -1.08657718699 -0.47672133564 0.46891363137 -1.09551911553 -0.47996741237 0.48992543698 -1.10269615170 -0.48077460305 0.51314943644 -1.10833569041 -0.47917346745 0.53808987537 -1.11266512656 -0.47519456533 0.56425099941 -1.11591185506 -0.46886845646 0.59113705417 -1.11830327082 -0.46022570060 0.61825228529 -1.12006676872 -0.44929685753 0.64510093838 -1.12142974369 -0.39354073647 0.44499518324 -1.07656997456 -0.40141409909 0.45955952435 -1.08750682954 -0.40678340929 0.47720331929 -1.09644117735 -0.40949948621 0.49752478152 -1.10360351867 -0.40941314899 0.52012212449 -1.10922435414 -0.40637521678 0.54459356167 -1.11353418444 -0.40023650870 0.57053730649 -1.11676351022 -0.39084784390 0.59755157242 -1.11914283214 -0.37806004151 0.62523457290 -1.12090265087 -0.36172392068 0.65318452140 -1.12227346706 -0.32665730267 0.45288112804 -1.07763035761 -0.33399315689 0.46696461005 -1.08855831799 -0.33882208430 0.48407298797 -1.09747711520 -0.34076837850 0.50389975121 -1.10462037626 -0.33945633308 0.52613838914 -1.11022172817 -0.33451024164 0.55048239114 -1.11451479796 -0.32555439778 0.57662524660 -1.11773321265 -0.31221309511 0.60426044491 -1.12011059925 -0.29411062721 0.63308147544 -1.12188058480 -0.27087128768 0.66278182759 -1.12327679630 -0.98818041769 0.35175263761 -1.06479531446 -0.98975234203 0.37177895182 -1.07483534672 -0.99067540724 0.39746641630 -1.08274820236 -0.99093405872 0.42744017804 -1.08880807044 -0.99051274187 0.46032538399 -1.09328914004 -0.98939590209 0.49474718113 -1.09646560022 -0.98756798480 0.52933071643 -1.09861164004 -0.98501343540 0.56270113685 -1.10000144858 -0.98171669928 0.59348358939 -1.10090921490 -0.97766222186 0.62030322099 -1.10160912806 -0.91431588222 0.36843785241 -1.06313630931 -0.91677374173 0.38742314689 -1.07342864411 -0.91838438889 0.41144903662 -1.08164956805 -0.91921658106 0.43935593401 -1.08805207478 -0.91933907559 0.46998425149 -1.09288915796 -0.91882062984 0.50217440148 -1.09641381123 -0.91773000116 0.53476679641 -1.09887902824 -0.91613594690 0.56660184871 -1.10053780264 -0.91410722442 0.59651997079 -1.10164312808 -0.91171259107 0.62336157508 -1.10244799821 -0.84010773985 0.38428624107 -1.06201473430 -0.84325912862 0.40230003587 -1.07249446632 -0.84540804142 0.42482147835 -1.08094231056 -0.84667592009 0.45087188631 -1.08759587186 -0.84718420647 0.47947257753 -1.09269275507 -0.84705434240 0.50964486980 -1.09647056503 -0.84640776972 0.54041008089 -1.09916690656 -0.84536593028 0.57078952860 -1.10101938451 -0.84405026592 0.59980453071 -1.10226560373 -0.84258221848 0.62647640499 -1.10314316904 -0.76577911925 0.39920788989 -1.06136265447 -0.76944470551 0.41632001433 -1.07197359842 -0.77198788618 0.43748995176 -1.08057856261 -0.77355057025 0.46189082588 -1.08740488248 -0.77427466666 0.48869576035 -1.09267989348 -0.77430208439 0.51707787883 -1.09663093105 -0.77377473241 0.54621030502 -1.09948533062 -0.77283451968 0.57526616257 -1.10147042763 -0.77162335517 0.60341857517 -1.10281355752 -0.77028314784 0.62984066648 -1.10374205574 -0.69155314913 0.41311288516 -1.06111213486 -0.69556667522 0.42939347785 -1.07180682548 -0.69836544456 0.44936066711 -1.08051045692 -0.70007902600 0.47231554363 -1.08744452745 -0.70083698835 0.49755919814 -1.09283053531 -0.70076890045 0.52439272134 -1.09688997875 -0.70000433113 0.55211720395 -1.09984435604 -0.69867284921 0.58003373667 -1.10191516542 -0.69690402352 0.60744341021 -1.10332390515 -0.69482742290 0.63364731529 -1.10429207348 -0.61765295819 0.42591131319 -1.06119524048 -0.62186124057 0.44143082204 -1.07193493255 -0.62478223793 0.46033983463 -1.08069012621 -0.62649978179 0.48204883050 -1.08768022755 -0.62709770370 0.50596828914 -1.09312464265 -0.62665983518 0.53150869008 -1.09724277758 -0.62527000777 0.55808051284 -1.10025403845 -0.62301205298 0.58509423692 -1.10237783132 -0.61996980235 0.61196034186 -1.10383356229 -0.61622708742 0.63808930715 -1.10484063744 -0.54430167513 0.43751326027 -1.06154403637 -0.54856460438 0.45234244246 -1.07229870471 -0.55147978765 0.47033366460 -1.08106970321 -0.55305133210 0.49099347740 -1.08807740360 -0.55328334490 0.51382843156 -1.09354217762 -0.55217993322 0.53834507780 -1.09768439700 -0.54974520424 0.56404996684 -1.10072443347 -0.54598326512 0.59044964938 -1.10288265878 -0.54089822302 0.61705067613 -1.10437944464 -0.53449418513 0.64335959781 -1.10543516281 -0.47172242864 0.44782881270 -1.06209058756 -0.47591296947 0.46203873472 -1.07283892701 -0.47869961509 0.47924836726 -1.08160132062 -0.47997217136 0.49905227526 -1.08860147639 -0.47962044410 0.52104502362 -1.09406310233 -0.47753423919 0.54482117726 -1.09820990644 -0.47360336245 0.56997530110 -1.10126559673 -0.46771761974 0.59610196007 -1.10345388121 -0.45976681691 0.62279571907 -1.10499846788 -0.44964075980 0.64965114302 -1.10612306476 -0.40013834742 0.45676805678 -1.06276695909 -0.40414253866 0.47043009438 -1.07349638453 -0.40668324164 0.48699015287 -1.08223711118 -0.40750079403 0.50612801501 -1.08921786673 -0.40633553349 0.52752346353 -1.09466737889 -0.40292779770 0.55085628121 -1.09881437536 -0.39701792430 0.57580625079 -1.10188758385 -0.38834625097 0.60205315503 -1.10411573207 -0.37665311538 0.62927677669 -1.10572754770 -0.36167885518 0.65715689852 -1.10695175847 -0.32977256017 0.46424107880 -1.06350521598 -0.33348951476 0.47742691705 -1.07421186233 -0.33567218866 0.49346523169 -1.08292920760 -0.33587569458 0.51212348756 -1.08989199541 -0.33365514524 0.53316914952 -1.09533496941 -0.32856565337 0.55636968240 -1.09949287322 -0.32016233170 0.58149255105 -1.10260045046 -0.30800029293 0.60830522031 -1.10489244478 -0.29163464979 0.63657515503 -1.10660359978 -0.27062051501 0.66606982005 -1.10796865912 -0.99623438777 0.36948623903 -1.05223616640 -0.99690069556 0.38879329846 -1.06270766827 -0.99715472119 0.41330305405 -1.07096053710 -0.99686688769 0.44175504718 -1.07725478826 -0.99590761807 0.47288881922 -1.08185043712 -0.99414733536 0.50544391153 -1.08500749906 -0.99145646258 0.53815986549 -1.08698598945 -0.98770542275 0.56977622246 -1.08804592366 -0.98276463889 0.59903252383 -1.08844731707 -0.97650453402 0.62466831095 -1.08845018505 -0.92177905590 0.38487159305 -1.05121890628 -0.92282709579 0.40312704297 -1.06153370339 -0.92343898495 0.42603062574 -1.06976163069 -0.92357460542 0.45253762379 -1.07613531803 -0.92319383926 0.48160331953 -1.08088739523 -0.92225656852 0.51218299541 -1.08425049214 -0.92072267526 0.54323193385 -1.08645723861 -0.91855204152 0.57370541727 -1.08774026446 -0.91570454937 0.60255872812 -1.08833219954 -0.91214008085 0.62874714880 -1.08846567368 -0.84729080252 0.39957091832 -1.05058421016 -0.84863471319 0.41683900436 -1.06076673199 -0.84951319151 0.43828186504 -1.06896188253 -0.84994013113 0.46303363364 -1.07538202771 -0.84992942570 0.49022844348 -1.08023953346 -0.84949496886 0.51900042786 -1.08374676570 -0.84865065428 0.54848372008 -1.08611609036 -0.84741037561 0.57781245344 -1.08755987336 -0.84578802649 0.60612076125 -1.08829048062 -0.84379750058 0.63254277682 -1.08852027807 -0.77284959517 0.41348734509 -1.05027837301 -0.77440970161 0.42983487697 -1.06035057849 -0.77546883681 0.44995986879 -1.06850731776 -0.77606142679 0.47314393779 -1.07494710282 -0.77622189755 0.49866870121 -1.07986844569 -0.77598467512 0.52581577629 -1.08346985834 -0.77538418550 0.55386678027 -1.08594985279 -0.77445485470 0.58210333039 -1.08750694103 -0.77323110873 0.60980704388 -1.08833963507 -0.77174737361 0.63625953799 -1.08864644689 -0.69853540141 0.42652400362 -1.05024768980 -0.70023821488 0.44202035513 -1.06022906733 -0.70139741675 0.46096773386 -1.06834396155 -0.70203645435 0.48276939729 -1.07478272889 -0.70217877500 0.50682860289 -1.07973572578 -0.70184782603 0.53254860815 -1.08339330867 -0.70106705475 0.55933267055 -1.08594583399 -0.69985990850 0.58658404755 -1.08758365817 -0.69824983459 0.61370599664 -1.08849713763 -0.69626028035 0.64010177529 -1.08887662883 -0.62442818878 0.43858402417 -1.05043845550 -0.62620640684 0.45330113318 -1.06034602295 -0.62739042724 0.47120855710 -1.06841783905 -0.62796317577 0.49181087318 -1.07484109141 -0.62790757820 0.51461265868 -1.07980296763 -0.62720656032 0.53911849087 -1.08349065531 -0.62584304789 0.56483294701 -1.08609134204 -0.62379996671 0.59126060435 -1.08779221543 -0.62106024255 0.61790604016 -1.08878046307 -0.61760680118 0.64427383169 -1.08924327257 -0.55060792485 0.44957053700 -1.05079696508 -0.55240043135 0.46358290547 -1.06064526977 -0.55353936421 0.48058543537 -1.06867497543 -0.55393955302 0.50016922651 -1.07507437592 -0.55351582733 0.52192537874 -1.08003176510 -0.55218301672 0.54544499188 -1.08373543685 -0.54985595077 0.57031916576 -1.08637368503 -0.54644945903 0.59613900022 -1.08813480350 -0.54187837109 0.62249559509 -1.08920708613 -0.53605751651 0.64898005019 -1.08977882678 -0.47715457717 0.45938667235 -1.05126951352 -0.47890644224 0.47277136633 -1.06107063225 -0.47993572357 0.48900146552 -1.06906139585 -0.48006354804 0.50774531834 -1.07543476792 -0.47911104255 0.52867127322 -1.08038371208 -0.47689933398 0.55144767861 -1.08410119191 -0.47324954923 0.57574288292 -1.08678017103 -0.46798281518 0.60122523460 -1.08861361305 -0.46092025872 0.62756308206 -1.08979448155 -0.45188300674 0.65442477375 -1.09051574016 -0.40414811328 0.46793556050 -1.05180239577 -0.40581059336 0.48077221011 -1.06156593480 -0.40667100122 0.49635974441 -1.06952312546 -0.40643312281 0.51444000970 -1.07587445294 -0.40480074404 0.53475485229 -1.08082040242 -0.40147765083 0.55704611849 -1.08456145910 -0.39616762913 0.58105565459 -1.08729810814 -0.38857446484 0.60652530690 -1.08923083475 -0.37840194391 0.63319692172 -1.09056012410 -0.36535385225 0.66081234537 -1.09148646138 -0.33166850075 0.47512033169 -1.05234190682 -0.33319903855 0.48749113114 -1.06207500186 -0.33383669310 0.50256336890 -1.07000618943 -0.33314623928 0.52015416166 -1.07634561649 -0.33069245195 0.54008062611 -1.08130343003 -0.32604010600 0.56215987895 -1.08508977702 -0.31875397630 0.58620903687 -1.08791480444 -0.30839883773 0.61204521656 -1.08998865928 -0.29453946515 0.63948553471 -1.09152148852 -0.27674063345 0.66834710801 -1.09272343912 -1.00120852793 0.38541803370 -1.04170549344 -1.00139438426 0.40424389695 -1.05219517593 -1.00122565467 0.42780443107 -1.06047669902 -1.00046213239 0.45495622787 -1.06677311126 -0.99886361068 0.48455587917 -1.07130746117 -0.99618988277 0.51545997680 -1.07430279728 -0.99220074193 0.54652511256 -1.07598216812 -0.98665598138 0.57660787828 -1.07656862221 -0.97931539438 0.60456486578 -1.07628520808 -0.96993877418 0.62925266687 -1.07535497427 -0.92620472495 0.39959304374 -1.04134429996 -0.92651885432 0.41726881054 -1.05119714935 -0.92657177010 0.43923269244 -1.05906232935 -0.92623938073 0.46455309102 -1.06512846115 -0.92539759463 0.49229840782 -1.06958416596 -0.92392232025 0.52153704441 -1.07261806495 -0.92168946602 0.55133740233 -1.07441877933 -0.91857494037 0.58076788314 -1.07517493028 -0.91445465174 0.60889688841 -1.07507513901 -0.90920450856 0.63479281967 -1.07430802671 -0.85138132029 0.41325983372 -1.04121320572 -0.85179095286 0.42987343021 -1.05055947225 -0.85199239701 0.45038799739 -1.05808716624 -0.85193113385 0.47404590148 -1.06395918972 -0.85155264451 0.50008950871 -1.06833844477 -0.85080241012 0.52776118533 -1.07138783343 -0.84962591180 0.55630329756 -1.07327025775 -0.84796863067 0.58495821162 -1.07414861978 -0.84577604785 0.61296829376 -1.07418582159 -0.84299364447 0.63957591020 -1.07354476521 -0.77673808265 0.42630672313 -1.04127483237 -0.77721354536 0.44194601864 -1.05022910442 -0.77749920875 0.46115518949 -1.05748969061 -0.77756974050 0.48331804235 -1.06320178159 -0.77739980829 0.50781838388 -1.06751056798 -0.77696407980 0.53404002075 -1.07056124040 -0.77623722272 0.56136675962 -1.07249898949 -0.77519390472 0.58918240715 -1.07346900588 -0.77380879349 0.61687077001 -1.07361648018 -0.77205655671 0.64381565486 -1.07308660303 -0.70227478071 0.43862203148 -1.04149180158 -0.70278949731 0.45337483850 -1.05015300564 -0.70310387872 0.47141911236 -1.05720838343 -0.70318754943 0.49225289676 -1.06279272138 -0.70301013393 0.51537423536 -1.06704080594 -0.70254125670 0.54028117184 -1.07008742356 -0.70175054221 0.56647174987 -1.07206736067 -0.70060761496 0.59344401313 -1.07311540373 -0.69908209943 0.62069600529 -1.07336633917 -0.69714362011 0.64772577003 -1.07295495343 -0.62799118318 0.45009407827 -1.04182673501 -0.62852167419 0.46404815244 -1.05027813572 -0.62881808030 0.48106460959 -1.05718172561 -0.62881690940 0.50073384781 -1.06266849370 -0.62845466940 0.52264626518 -1.06686942902 -0.62766786821 0.54639225977 -1.06991552057 -0.62639301371 0.57156222968 -1.07193775739 -0.62456661383 0.59774657299 -1.07306712850 -0.62212517645 0.62453568778 -1.07343462292 -0.61900520949 0.65151997214 -1.07317122966 -0.55388705875 0.46061118299 -1.04224225432 -0.55441294151 0.47385422315 -1.05055145445 -0.55465348687 0.48997652478 -1.05734819811 -0.55449016916 0.50864427862 -1.06276558319 -0.55380446268 0.52952367536 -1.06693670757 -0.55247784174 0.55228090572 -1.06999466913 -0.55039178066 0.57658216041 -1.07207256577 -0.54742775375 0.60209363014 -1.07330349536 -0.54346723531 0.62848150562 -1.07382055581 -0.53839169967 0.65541197757 -1.07375684498 -0.47996217611 0.47006166517 -1.04270098117 -0.48046616473 0.48268131328 -1.05091992163 -0.48062177181 0.49803970152 -1.05764628187 -0.48023967745 0.51586757229 -1.06302047446 -0.47913056172 0.53589566794 -1.06718291195 -0.47710510471 0.55785473086 -1.07027400691 -0.47397398649 0.58147550343 -1.07243417190 -0.46954788716 0.60648872801 -1.07380381948 -0.46363748679 0.63262514698 -1.07452336221 -0.45605346547 0.65961550272 -1.07473321265 -0.40621630396 0.47833384429 -1.04316553722 -0.40668420935 0.49041768550 -1.05133049705 -0.40673460851 0.50513898342 -1.05801445783 -0.40609778303 0.52228711194 -1.06336965213 -0.40450401450 0.54165144496 -1.06754831254 -0.40168358452 0.56302135637 -1.07070267160 -0.39736677465 0.58618622009 -1.07298496191 -0.39128386651 0.61093541000 -1.07454741601 -0.38316514167 0.63705830000 -1.07554226650 -0.37274088172 0.66434426400 -1.07612174592 -0.33264921100 0.48531603986 -1.04359854413 -0.33306994086 0.49695160249 -1.05173014050 -0.33300367034 0.51115921406 -1.05839120692 -0.33209683465 0.52778628068 -1.06374960083 -0.32999586899 0.54668020843 -1.06797317968 -0.32634720857 0.56768840343 -1.07122980089 -0.32079728857 0.59065827176 -1.07368732189 -0.31299254422 0.61543721954 -1.07551360013 -0.30257941070 0.64187265285 -1.07687649304 -0.28920432323 0.66981197781 -1.07794385805 -1.00431054260 0.39894531933 -1.03350132953 -1.00429588237 0.41736333564 -1.04366674728 -1.00385096532 0.44012371791 -1.05171520891 -1.00261526464 0.46618921036 -1.05781222480 -1.00022825351 0.49452255722 -1.06212330532 -0.99632940512 0.52408650270 -1.06481396087 -0.99055819269 0.55384379104 -1.06604970180 -0.98255408938 0.58275716644 -1.06599603850 -0.97195656840 0.60978937314 -1.06481848135 -0.95840510294 0.63390315535 -1.06268254073 -0.92873172386 0.41222406230 -1.03359619178 -0.92876055258 0.42936068607 -1.04259088496 -0.92853767267 0.45051068190 -1.04978768928 -0.92786515016 0.47484712564 -1.05531001456 -0.92654505109 0.50154309317 -1.05928127058 -0.92437944148 0.52977166037 -1.06182486716 -0.92117038734 0.55870590309 -1.06306421409 -0.91671995472 0.58751889720 -1.06312272118 -0.91083020963 0.61538371859 -1.06212379822 -0.90330321810 0.64147344311 -1.06019085502 -0.85349393703 0.42513019560 -1.03381604748 -0.85355049163 0.44111155341 -1.04188871650 -0.85346540971 0.46080844698 -1.04840968082 -0.85313879171 0.48356517413 -1.05347079886 -0.85247073810 0.50872603264 -1.05716392902 -0.85136134931 0.53563532033 -1.05958092973 -0.84971072579 0.56363733499 -1.06081365940 -0.84741896799 0.59207637444 -1.06095397645 -0.84438617637 0.62029673646 -1.06009373931 -0.84051245135 0.64764271887 -1.05832480638 -0.77855718751 0.43753973469 -1.03413563933 -0.77862835240 0.45248661126 -1.04150455997 -0.77861218587 0.47088188636 -1.04750520106 -0.77845434228 0.49220691663 -1.05220781786 -0.77810047597 0.51594305870 -1.05568266564 -0.77749624129 0.54157166919 -1.05799999966 -0.77658729261 0.56857410473 -1.05923007520 -0.77531928426 0.59643172194 -1.05944314752 -0.77363787060 0.62462587745 -1.05870947187 -0.77148870597 0.65263792790 -1.05709930354 -0.70388148074 0.44932869503 -1.03452971005 -0.70395678778 0.46335653323 -1.04138273340 -0.70395601060 0.48059587323 -1.04699826750 -0.70382995485 0.50063591398 -1.05143431173 -0.70352942614 0.52306585443 -1.05474886546 -0.70300523010 0.54747489354 -1.05699992809 -0.70220817236 0.57345223024 -1.05824549900 -0.70108905855 0.60058706350 -1.05854357757 -0.69959869429 0.62846859226 -1.05795216320 -0.69768788521 0.65668601546 -1.05652925525 -0.62942682212 0.46037309208 -1.03497300236 -0.62949845063 0.47359199293 -1.04146755487 -0.62947489334 0.48981528077 -1.04681289768 -0.62928378243 0.50871572697 -1.05106352062 -0.62885275007 0.52996610292 -1.05427391349 -0.62810942841 0.55323917997 -1.05649856611 -0.62698144964 0.57820772952 -1.05779196828 -0.62539644592 0.60454452292 -1.05820860982 -0.62328204943 0.63192233157 -1.05780298053 -0.62056589232 0.66001392683 -1.05662957024 -0.55515321707 0.47054894128 -1.03544025899 -0.55521599383 0.48306366398 -1.04170334242 -0.55514684352 0.49840498219 -1.04687310913 -0.55483397802 0.51630991644 -1.05100868471 -0.55416560919 0.53651548724 -1.05416919476 -0.55302994890 0.55875871509 -1.05641376484 -0.55131520902 0.58277662051 -1.05780152054 -0.54890960142 0.60830622400 -1.05839158745 -0.54570133798 0.63508454609 -1.05824309116 -0.54157863055 0.66284860728 -1.05741515724 -0.48102067101 0.47973225811 -1.03590622265 -0.48107207026 0.49164221998 -1.04203441410 -0.48094987059 0.50622985068 -1.04710291936 -0.48049869461 0.52328204319 -1.05118304416 -0.47956316495 0.54258569047 -1.05434609426 -0.47798790423 0.56392768548 -1.05666337538 -0.47561753507 0.58709492118 -1.05820619327 -0.47229668009 0.61187429054 -1.05904585368 -0.46786996191 0.63805268651 -1.05925366234 -0.46218200317 0.66541700207 -1.05890092499 -0.40698918937 0.48779905802 -1.03634563605 -0.40702933280 0.49919833454 -1.04240508798 -0.40686198397 0.51315475944 -1.04742634590 -0.40629608520 0.52949566805 -1.05149983914 -0.40514057879 0.54804839570 -1.05471599701 -0.40320440708 0.56864027774 -1.05716524885 -0.40029651236 0.59109864950 -1.05893802396 -0.39622583697 0.61525084632 -1.06012475169 -0.39080132322 0.64092420353 -1.06081586133 -0.38383191342 0.66794605648 -1.06110178223 -0.33301877755 0.49462535646 -1.03673324193 -0.33305043432 0.50560268128 -1.04275968211 -0.33286119311 0.51904458165 -1.04776740627 -0.33224430278 0.53481435181 -1.05187230980 -0.33099301216 0.55277528601 -1.05519028803 -0.32890057012 0.57279067846 -1.05783723635 -0.32576022549 0.59472382343 -1.05992905011 -0.32136522712 0.61843801515 -1.06158162468 -0.31550882386 0.64379654785 -1.06291085541 -0.30798426456 0.67066271578 -1.06403263768 -1.00674813622 0.40946539365 -1.02792170858 -1.00666766414 0.42738420287 -1.03749125991 -1.00599341082 0.44941408513 -1.04509458753 -1.00422175625 0.47459948491 -1.05082131421 -1.00084908038 0.50198484670 -1.05476106270 -0.99537176321 0.53061461500 -1.05700345579 -0.98728618470 0.55953323428 -1.05763811625 -0.97608872483 0.58778514905 -1.05675466683 -0.96127576357 0.61441480380 -1.05444273031 -0.94234368091 0.63846664300 -1.05079192946 -0.93049888713 0.42238650652 -1.02805828318 -0.93046372580 0.43891490607 -1.03588681318 -0.93009162094 0.45932003929 -1.04217373575 -0.92910615690 0.48286451759 -1.04695848862 -0.92723091802 0.50881095242 -1.05028050956 -0.92418948866 0.53642195520 -1.05217923630 -0.91970545316 0.56496013737 -1.05269410660 -0.91350239587 0.59368811036 -1.05186455820 -0.90530390114 0.62186848560 -1.04973002886 -0.89483355332 0.64876387453 -1.04632995633 -0.85474329659 0.43495921227 -1.02830706195 -0.85473597350 0.45026161396 -1.03477049414 -0.85455198143 0.46921178541 -1.04002094544 -0.85405296820 0.49124793590 -1.04406029605 -0.85310058163 0.51580827466 -1.04689042621 -0.85155646955 0.54233101096 -1.04851321611 -0.84928227976 0.57025435405 -1.04893054597 -0.84613966011 0.59901651317 -1.04814429600 -0.84199025840 0.62805569759 -1.04615634643 -0.83669572246 0.65681011655 -1.04296857746 -0.77941951560 0.44706009044 -1.02864440065 -0.77942623837 0.46128982672 -1.03407232891 -0.77934095204 0.47894593188 -1.03853336897 -0.77909406301 0.49960433770 -1.04200411069 -0.77861597768 0.52284097601 -1.04446114394 -0.77783710244 0.54823177859 -1.04588105855 -0.77668784368 0.57535267727 -1.04624044439 -0.77509860780 0.60377960385 -1.04551589130 -0.77299980120 0.63308849013 -1.04368398915 -0.77032183027 0.66285526792 -1.04072132779 -0.70446569518 0.45856572057 -1.02904665506 -0.70447635153 0.47186504459 -1.03372234361 -0.70442499251 0.48837908704 -1.03760815872 -0.70426131419 0.50778832086 -1.04066730673 -0.70393501263 0.52977321900 -1.04286299403 -0.70339578390 0.55401425440 -1.04415842695 -0.70259332407 0.58019190000 -1.04451681188 -0.70147732922 0.60798662876 -1.04390135516 -0.69999749540 0.63707891361 -1.04227526317 -0.69810351869 0.66714922750 -1.03960174226 -0.62981998634 0.46935268220 -1.02949018092 -0.62982814414 0.48185276776 -1.03365056438 -0.62977056261 0.49736785927 -1.03714246705 -0.62958659459 0.51565448324 -1.03992725837 -0.62921559294 0.53646916621 -1.04196630776 -0.62859691050 0.55956843468 -1.04322098465 -0.62766990011 0.58470881519 -1.04365265847 -0.62637391460 0.61164683425 -1.04322269866 -0.62464830684 0.64013901839 -1.04189247462 -0.62243242965 0.66994189412 -1.03962335581 -0.55542054009 0.47929755489 -1.02995133400 -0.55542344730 0.49111849645 -1.03378701733 -0.55534412206 0.50576885693 -1.03703344635 -0.55510177709 0.52305742271 -1.03966133979 -0.55461562510 0.54279298019 -1.04164141642 -0.55380487881 0.56478431575 -1.04294439497 -0.55258875095 0.58884021579 -1.04354099420 -0.55088645423 0.61476946669 -1.04340193284 -0.54861720137 0.64238085485 -1.04249792966 -0.54570020510 0.67148316666 -1.04079970339 -0.48120550744 0.48827691816 -1.03040647007 -0.48120409217 0.49952773086 -1.03406172860 -0.48111213064 0.51343868838 -1.03717824897 -0.48083873453 0.52985173712 -1.03974692520 -0.48029301556 0.54860882350 -1.04175865128 -0.47938408540 0.56955189390 -1.04320432124 -0.47802105577 0.59252289475 -1.04407482908 -0.47611303835 0.61736377243 -1.04436106880 -0.47356914485 0.64391647337 -1.04405393442 -0.47029848696 0.67202294396 -1.04314431995 -0.40711303940 0.49616735156 -1.03083194488 -0.40711190987 0.50694597120 -1.03440472431 -0.40704104808 0.52023396199 -1.03747402731 -0.40682933979 0.53589202435 -1.04006138878 -0.40640567079 0.55378085870 -1.04218834364 -0.40569892684 0.57376116545 -1.04387642679 -0.40463799373 0.59569364502 -1.04514717314 -0.40315175724 0.61943899784 -1.04602211759 -0.40116910312 0.64485792431 -1.04652279505 -0.39861891717 0.67181112487 -1.04667074043 -0.33308128699 0.50284543464 -1.03120411419 -0.33308873154 0.51323871768 -1.03474603058 -0.33309733413 0.52601128613 -1.03781793372 -0.33310546571 0.54103288226 -1.04048210473 -0.33311149725 0.55817324835 -1.04280082477 -0.33311379970 0.57730212669 -1.04483637495 -0.33311074401 0.59828925957 -1.04665103641 -0.33310070114 0.62100438927 -1.04830709027 -0.33308204204 0.64531725806 -1.04986681768 -0.33305313767 0.67109760825 -1.05139249976 </DataArray>
</Points>
</Piece>
</StructuredGrid>
</VTKFile>
