<?xml version="1.0"?>
<VTKFile type="StructuredGrid" version="0.1">
<StructuredGrid WholeExtent="0 9 0 9 0 9">
<Piece Extent="0 9 0 9 0 9">
<PointData>
<DataArray type="Float32" Name="Deformation" format="ascii" NumberOfComponents="3">
0.00182635603 -1.60482190365 -0.56119220389 0.00179117425 -1.63317356802 -0.55723085431 0.00176809797 -1.66202076806 -0.55213780008 0.00175612945 -1.69065490311 -0.54618304167 0.00175427098 -1.71836737251 -0.53963657953 0.00176152482 -1.74444957562 -0.53276841414 0.00177689325 -1.76819291177 -0.52584854594 0.00179937853 -1.78888878031 -0.51914697540 0.00182798295 -1.80582858058 -0.51293370298 0.00186170877 -1.81830371193 -0.50747872915 0.00180161224 -1.61519044954 -0.54510076293 0.00182226898 -1.64707105456 -0.54167271421 0.00183963644 -1.67775027885 -0.53721189725 0.00185485214 -1.70686801373 -0.53195128834 0.00186905359 -1.73406415052 -0.52612386381 0.00188337832 -1.75897858053 -0.51996259994 0.00189896384 -1.78125119509 -0.51370047304 0.00191694767 -1.80052188552 -0.50757045941 0.00193846733 -1.81643054313 -0.50180553535 0.00196466034 -1.82861705923 -0.49663867716 0.00176450857 -1.62661600777 -0.52790491202 0.00181960726 -1.66086695633 -0.52558644938 0.00186207283 -1.69267422430 -0.52216131345 0.00189436945 -1.72193892938 -0.51785399475 0.00191896132 -1.74856218930 -0.51288898380 0.00193831261 -1.77244512174 -0.50749077112 0.00195488751 -1.79348884442 -0.50188384722 0.00197115022 -1.81159447504 -0.49629270262 0.00198956490 -1.82666313131 -0.49094182784 0.00201259575 -1.83859593094 -0.48605571338 0.00171654674 -1.63859669440 -0.51001477701 0.00178771718 -1.67427098638 -0.50927376751 0.00184206523 -1.70664348315 -0.50720875046 0.00188267932 -1.73580173323 -0.50405963425 0.00191264787 -1.76183328517 -0.50006632729 0.00193505930 -1.78482568751 -0.49546873801 0.00195300203 -1.80486648879 -0.49050677480 0.00196956448 -1.82204323755 -0.48542034609 0.00198783508 -1.83644348233 -0.48044936027 0.00201090224 -1.84815477167 -0.47583372577 0.00165922850 -1.65063062547 -0.49184048371 0.00173112684 -1.68699285778 -0.49303637632 0.00178627177 -1.71950893415 -0.49257691006 0.00182777969 -1.74839050842 -0.49073668020 0.00185876696 -1.77384923445 -0.48779028206 0.00188234998 -1.79609676610 -0.48401231093 0.00190164512 -1.81534475723 -0.47967736209 0.00191976876 -1.83180486169 -0.47506003084 0.00193983728 -1.84568873334 -0.47043491249 0.00196496706 -1.85720802604 -0.46607660232 0.00159405558 -1.66221591703 -0.47379215798 0.00165436433 -1.69874228357 -0.47717598351 0.00170135056 -1.73112145603 -0.47848849402 0.00173766849 -1.75963933809 -0.47805360599 0.00176597231 -1.78458183345 -0.47619523589 0.00178891626 -1.80623484579 -0.47323730019 0.00180915453 -1.82488427879 -0.46950371538 0.00182934135 -1.84081603615 -0.46531839793 0.00185213091 -1.85431602154 -0.46100526430 0.00188017744 -1.86567013867 -0.45688823099 0.00152252970 -1.67285068514 -0.45627992564 0.00156195776 -1.70922897681 -0.46199429677 0.00159395972 -1.74133192755 -0.46516620412 0.00162034365 -1.76948230542 -0.46617888496 0.00164291763 -1.79400287849 -0.46541557654 0.00166348973 -1.81521641483 -0.46325951613 0.00168386800 -1.83344568250 -0.46009394099 0.00170586053 -1.84901344957 -0.45630208838 0.00173127539 -1.86224248411 -0.45226719555 0.00176192063 -1.87345555419 -0.44837249977 0.00144615259 -1.68203304584 -0.43971391254 0.00145843521 -1.71816265055 -0.44779302381 0.00147075736 -1.74999122744 -0.45283274214 0.00148380313 -1.77785349354 -0.45528099049 0.00149825664 -1.80208416588 -0.45558569181 0.00151480199 -1.82301796149 -0.45419476907 0.00153412328 -1.84098959740 -0.45155614523 0.00155690462 -1.85633379063 -0.44811774323 0.00158383011 -1.86938525822 -0.44432748605 0.00161558386 -1.88047871720 -0.44063329664 0.00136642599 -1.68926111517 -0.42450424450 0.00134832479 -1.72525301784 -0.43487387233 0.00133840159 -1.75695023445 -0.44171080984 0.00133604485 -1.78468698562 -0.44552839593 0.00134064305 -1.80879749194 -0.44683996947 0.00135158464 -1.82961597404 -0.44615886933 0.00136825810 -1.84747665252 -0.44399843439 0.00139005190 -1.86271374799 -0.44087200354 0.00141635450 -1.87566148106 -0.43729291563 0.00144655437 -1.88665407234 -0.43377450957 0.00128485163 -1.69403300920 -0.41106104737 0.00123615460 -1.73020979174 -0.42353855003 0.00120355053 -1.76205982732 -0.43202310902 0.00118506675 -1.78991686479 -0.43708957466 0.00117873057 -1.81411465299 -0.43931279730 0.00118256929 -1.83498694075 -0.43926762723 0.00119461022 -1.85286747691 -0.43752891480 0.00121288068 -1.86809001032 -0.43467151032 0.00123540797 -1.88098828980 -0.43127026413 0.00126021941 -1.89189606422 -0.42790002653 0.00133207946 -1.63272860575 -0.58525733345 0.00134093251 -1.65471779852 -0.58093953995 0.00135048642 -1.67825602730 -0.57557928800 0.00136206655 -1.70253738065 -0.56940262577 0.00137699827 -1.72675594712 -0.56263560142 0.00139660693 -1.75010581526 -0.55550426313 0.00142221790 -1.77178107363 -0.54823465906 0.00145515656 -1.79097581078 -0.54105283740 0.00149674826 -1.80688411525 -0.53418484631 0.00154831838 -1.81870007561 -0.52785673397 0.00131456882 -1.64683342617 -0.57139676312 0.00136629317 -1.67126652133 -0.56722612403 0.00141120874 -1.69583097387 -0.56205668281 0.00145124849 -1.72004569648 -0.55607630429 0.00148834538 -1.74342960184 -0.54947285334 0.00152443236 -1.76550160265 -0.54243419482 0.00156144239 -1.78578061159 -0.53514819357 0.00160130845 -1.80378554136 -0.52780271445 0.00164596348 -1.81903530465 -0.52058562232 0.00169734046 -1.83104881415 -0.51368478203 0.00128755937 -1.66083474343 -0.55644290118 0.00136558140 -1.68691594659 -0.55288972199 0.00143257491 -1.71207852734 -0.54826342824 0.00149081843 -1.73608620915 -0.54273813611 0.00154259048 -1.75870271544 -0.53648796181 0.00159016960 -1.77969176967 -0.52968702153 0.00163583431 -1.79881709528 -0.52250943148 0.00168186315 -1.81584241572 -0.51512930786 0.00173053464 -1.83053145441 -0.50772076685 0.00178412730 -1.84264793482 -0.50045792467 0.00125283467 -1.67444677997 -0.54078686712 0.00134288089 -1.70152465621 -0.53823370151 0.00142046317 -1.72694644785 -0.53443620428 0.00148796941 -1.75065183285 -0.52957514906 0.00154778752 -1.77258048916 -0.52383130944 0.00160230540 -1.79267209475 -0.51738545907 0.00165391095 -1.81086632757 -0.51041837154 0.00170499207 -1.82710286558 -0.50311082049 0.00175793667 -1.84132138673 -0.49564357953 0.00181513264 -1.85346156898 -0.48819742227 0.00121217828 -1.68738375820 -0.52481978043 0.00130227535 -1.71495123213 -0.52356143027 0.00138075178 -1.74038249553 -0.52081169094 0.00144989450 -1.76373548177 -0.51677437097 0.00151199043 -1.78506812422 -0.51165327889 0.00156932648 -1.80443835628 -0.50565222323 0.00162418957 -1.82190411130 -0.49897501250 0.00167886661 -1.83752332268 -0.49182545524 0.00173564452 -1.85135392378 -0.48440735997 0.00179681023 -1.86345384799 -0.47692453521 0.00116737375 -1.69935990055 -0.50893276062 0.00124784847 -1.72705425629 -0.50917627594 0.00131931900 -1.75233443052 -0.50762656818 0.00138378676 -1.77533007009 -0.50452282969 0.00144325315 -1.79617082186 -0.50010425279 0.00149971958 -1.81498633266 -0.49461002982 0.00155518745 -1.83190624935 -0.48827935311 0.00161165818 -1.84706021877 -0.48135141499 0.00167113317 -1.86057788778 -0.47406540779 0.00173561381 -1.87258890321 -0.46666052386 0.00112020464 -1.71008942943 -0.49351692719 0.00118368395 -1.73769231061 -0.49538160620 0.00124204308 -1.76275001297 -0.49511751601 0.00129683923 -1.78542851202 -0.49300755305 0.00134962962 -1.80589378329 -0.48933461378 0.00140197143 -1.82431180230 -0.48438159465 0.00145542189 -1.84084854455 -0.47843139211 0.00151153819 -1.85566998558 -0.47176690262 0.00157187754 -1.86894210090 -0.46467102263 0.00163799713 -1.88083086602 -0.45742664858 0.00107245450 -1.71928656728 -0.47896339962 0.00111386549 -1.74672397703 -0.48248078875 0.00115480227 -1.77157700301 -0.48352121440 0.00119624498 -1.79402372174 -0.48241556888 0.00123917377 -1.81424220976 -0.47949474449 0.00128456877 -1.83241054360 -0.47508963352 0.00133341015 -1.84870679978 -0.46953112826 0.00138667804 -1.86330905485 -0.46315012102 0.00144535259 -1.87639538534 -0.45627750409 0.00151041394 -1.88814386777 -0.44924416977 0.00102590689 -1.72666553650 -0.46566329743 0.00104247680 -1.75400783748 -0.47077719124 0.00106347484 -1.77876316078 -0.47307434335 0.00108919706 -1.80110861343 -0.47293390503 0.00111993954 -1.82122130248 -0.47073502756 0.00115599834 -1.83927833496 -0.46685686223 0.00119766952 -1.85545681789 -0.46167856031 0.00124524914 -1.86993385833 -0.45557927308 0.00129903327 -1.88288656329 -0.44893815181 0.00135931798 -1.89449203982 -0.44213434779 0.00098234537 -1.73194055953 -0.45400774011 0.00097360157 -1.75940247389 -0.46057418137 0.00097393902 -1.78425624642 -0.46401358284 0.00098288853 -1.80667610129 -0.46474958932 0.00099998087 -1.82683626269 -0.46320584564 0.00102474685 -1.84491095478 -0.45980599659 0.00105671726 -1.86107440174 -0.45497368700 0.00109542289 -1.87550082774 -0.44913256167 0.00114039454 -1.88836445695 -0.44270626540 0.00119116299 -1.89983951354 -0.43611844303 0.00079839338 -1.66662041303 -0.61210912546 0.00083870520 -1.68326668731 -0.60709433604 0.00087852019 -1.70192433750 -0.60090804986 0.00091914039 -1.72180943521 -0.59380164790 0.00096186787 -1.74213805206 -0.58602651114 0.00100800468 -1.76212625965 -0.57783402057 0.00105885289 -1.78099012961 -0.56947555715 0.00111571455 -1.79794573354 -0.56120250187 0.00117989171 -1.81220914306 -0.55326623571 0.00125268644 -1.82299642980 -0.54591813965 0.00080922610 -1.68248218227 -0.59919817624 0.00088563892 -1.70068718231 -0.59401940514 0.00095685755 -1.71980605164 -0.58773398845 0.00102441117 -1.73933444388 -0.58053823591 0.00108982895 -1.75876801268 -0.57262845724 0.00115464004 -1.77760241168 -0.56420096220 0.00122037361 -1.79533329450 -0.55545206051 0.00128855884 -1.81145631478 -0.54657806191 0.00136072488 -1.82546712617 -0.53777527615 0.00143840089 -1.83686138229 -0.52924001295 0.00081123660 -1.69758897319 -0.58536385822 0.00090832627 -1.71685039913 -0.58041739304 0.00099823103 -1.73620432693 -0.57433813130 0.00108250392 -1.75535785292 -0.56729227476 0.00116269795 -1.77401807346 -0.55944602522 0.00124036617 -1.79189208490 -0.55096558443 0.00131706161 -1.80868698357 -0.54201715417 0.00139433728 -1.82410986583 -0.53276693621 0.00147374623 -1.83786782802 -0.52338113233 0.00155684148 -1.84966796649 -0.51402594430 0.00080613241 -1.71179114846 -0.57096192640 0.00091093649 -1.73169712037 -0.56657122298 0.00100869396 -1.75111025961 -0.56094715793 0.00110082868 -1.76989026081 -0.55424675669 0.00118876451 -1.78789681860 -0.54662704475 0.00127392529 -1.80498962761 -0.53824504758 0.00135773486 -1.82102838246 -0.52925779065 0.00144161709 -1.83587277780 -0.51982229943 0.00152699581 -1.84938250825 -0.51009559940 0.00161529489 -1.86141726843 -0.50023471602 0.00079562108 -1.72493907079 -0.55634813575 0.00089763879 -1.74516812866 -0.55276381823 0.00099429966 -1.76451494595 -0.54778774788 0.00108679554 -1.78294226604 -0.54158467390 0.00117631823 -1.80041283231 -0.53431934553 0.00126405956 -1.81688938811 -0.52615651199 0.00135121136 -1.83233467683 -0.51726092248 0.00143896545 -1.84671144183 -0.50779732624 0.00152851366 -1.85998242648 -0.49793047249 0.00162104781 -1.87211037415 -0.48782511043 0.00078141014 -1.73688310287 -0.54187824129 0.00087260239 -1.75720420659 -0.53927810204 0.00096110148 -1.77640948218 -0.53508658069 0.00104781453 -1.79452446710 -0.52948901862 0.00113364872 -1.81157469879 -0.52267075724 0.00121951119 -1.82758571471 -0.51481713796 0.00130630909 -1.84258305230 -0.50611350218 0.00139494958 -1.85659224903 -0.49674519130 0.00148633981 -1.86963884235 -0.48689754672 0.00158138693 -1.88174836969 -0.47675590986 0.00076520712 -1.74747360739 -0.52790799798 0.00083999653 -1.76774613679 -0.52639699766 0.00091515272 -1.78678496456 -0.52307033588 0.00099129574 -1.80464746247 -0.51814278304 0.00106904561 -1.82139100226 -0.51182910955 0.00114902236 -1.83707295570 -0.50434408582 0.00123184604 -1.85175069454 -0.49590248225 0.00131813667 -1.86548159055 -0.48671906926 0.00140851429 -1.87832301548 -0.47700861724 0.00150359893 -1.89033234109 -0.46698589661 0.00074871956 -1.75656094704 -0.51479316083 0.00080399041 -1.77673470186 -0.51440342835 0.00086250674 -1.79563248934 -0.51196569300 0.00092464921 -1.81332185063 -0.50772895940 0.00099079850 -1.82987032692 -0.50194223216 0.00106133526 -1.84534545938 -0.49485451590 0.00113664018 -1.85981478918 -0.48671481524 0.00121709392 -1.87334585750 -0.47777213479 0.00130307714 -1.88600620551 -0.46827547918 0.00139497051 -1.89786337439 -0.45847385301 0.00073365500 -1.76399548453 -0.50288948483 0.00076875326 -1.78411068443 -0.50358031737 0.00080921685 -1.80294315275 -0.50199933159 0.00085528501 -1.82055823008 -0.49843053990 0.00090719701 -1.83702125698 -0.49315795474 0.00096519209 -1.85239757406 -0.48646558851 0.00102950951 -1.86675252187 -0.47863745365 0.00110038853 -1.88015144102 -0.46995756255 0.00117806839 -1.89265967208 -0.46070992766 0.00126278836 -1.90434255562 -0.45117856138 0.00072172097 -1.76962758255 -0.49255272496 0.00073845430 -1.78981486710 -0.49421058796 0.00076133639 -1.80870805106 -0.49339793116 0.00079061321 -1.82636719929 -0.49043051677 0.00082653076 -1.84285237666 -0.48562410697 0.00086933503 -1.85822364802 -0.47929446399 0.00091927201 -1.87254107826 -0.47175735000 0.00097658770 -1.88586473223 -0.46332852721 0.00104152809 -1.89825467479 -0.45432375782 0.00111433916 -1.90977097083 -0.44505880404 0.00024458463 -1.70483723008 -0.64054983537 0.00030689962 -1.71705116980 -0.63445042538 0.00037547394 -1.73128142202 -0.62691435053 0.00044971611 -1.74685420959 -0.61826809084 0.00052903461 -1.76309575538 -0.60883812634 0.00061283794 -1.77933228226 -0.59895093706 0.00070053461 -1.79489001308 -0.58893300303 0.00079153311 -1.80909517072 -0.57911080427 0.00088524194 -1.82127397803 -0.56981082082 0.00098106960 -1.83075265789 -0.56135953268 0.00029654837 -1.72106105874 -0.62772251455 0.00039386138 -1.73408948911 -0.62117350654 0.00049134821 -1.74838216553 -0.61334325507 0.00058919173 -1.76348401457 -0.60447385767 0.00068757480 -1.77893996281 -0.59480741189 0.00078668027 -1.79429493679 -0.58458601525 0.00088669100 -1.80909386311 -0.57405176528 0.00098778984 -1.82288166832 -0.56344675952 0.00109015966 -1.83520327899 -0.55301309550 0.00119398332 -1.84560362170 -0.54299287075 0.00033934706 -1.73626334191 -0.61421555916 0.00045441440 -1.74983879922 -0.60757998813 0.00056741000 -1.76411065051 -0.59972869824 0.00067876673 -1.77878941418 -0.59084873956 0.00078891748 -1.79358560865 -0.58112716212 0.00089829512 -1.80820975232 -0.57075101598 0.00100733254 -1.82237236357 -0.55990735121 0.00111646260 -1.83578396083 -0.54878321785 0.00122611819 -1.84815506249 -0.53756566595 0.00133673219 -1.85919618694 -0.52644174557 0.00037425190 -1.75036823974 -0.60034498101 0.00049313314 -1.76427128979 -0.59392072596 0.00061053550 -1.77846137452 -0.58627219777 0.00072677144 -1.79276857078 -0.57755617733 0.00084215340 -1.80702295540 -0.56792944552 0.00095699383 -1.82105460522 -0.55754878322 0.00107160516 -1.83469359707 -0.54657097130 0.00118629985 -1.84777000780 -0.53515279064 0.00130139033 -1.86011391425 -0.52345102213 0.00141718907 -1.87155539325 -0.51162244665 0.00040253413 -1.76329991234 -0.58642679193 0.00051459205 -1.77735915049 -0.58044657582 0.00062760092 -1.79142883517 -0.57317527136 0.00074153619 -1.80541964673 -0.56475961185 0.00085637329 -1.81924226553 -0.55534633059 0.00097208768 -1.83280737191 -0.54508216088 0.00108865478 -1.84602564622 -0.53411383601 0.00120605004 -1.85880776881 -0.52258808929 0.00132424889 -1.87106442002 -0.51065165401 0.00144322678 -1.88270628022 -0.49845126348 0.00042546497 -1.77498251984 -0.57277700376 0.00052336557 -1.78907457096 -0.56740839353 0.00062548243 -1.80300753001 -0.56063943673 0.00073139129 -1.81674080440 -0.55262248396 0.00084066790 -1.83023380152 -0.54350988581 0.00095288800 -1.84344592878 -0.53345399290 0.00106762733 -1.85633659361 -0.52260715581 0.00118446164 -1.86886520339 -0.51112172516 0.00130296668 -1.88099116554 -0.49915005154 0.00142271818 -1.89267388747 -0.48684448556 0.00044431564 -1.78534022236 -0.55971162831 0.00052402816 -1.79938974088 -0.55505703489 0.00061105623 -1.81319195664 -0.54886621160 0.00070466708 -1.82673020613 -0.54130823450 0.00080412795 -1.83998782584 -0.53255217968 0.00090870608 -1.85294815225 -0.52276712321 0.00101766872 -1.86559452185 -0.51212214117 0.00113028311 -1.87791027112 -0.50078630964 0.00124581649 -1.88987873654 -0.48892870468 0.00136353610 -1.90148325462 -0.47671840239 0.00046035736 -1.79429718004 -0.54754667741 0.00052115428 -1.80827684990 -0.54364335570 0.00059119851 -1.82197661264 -0.53805711367 0.00066969388 -1.83538601431 -0.53098030433 0.00075584418 -1.84849460098 -0.52260528069 0.00084885325 -1.86129191871 -0.51312439576 0.00094792489 -1.87376751354 -0.50273000256 0.00105226291 -1.88591093154 -0.49161445410 0.00116107114 -1.89771171877 -0.47997010340 0.00127355338 -1.90915942128 -0.46798930346 0.00047486135 -1.80177755300 -0.53659816288 0.00051931836 -1.81570808768 -0.53341821177 0.00057278547 -1.82935599558 -0.52841366067 0.00063480201 -1.84270639129 -0.52180213429 0.00070490734 -1.85574438942 -0.51380125732 0.00078264080 -1.86845510456 -0.50462865447 0.00086754174 -1.88082365130 -0.49450195044 0.00095914950 -1.89283514423 -0.48363876993 0.00105700343 -1.90447469795 -0.47225673764 0.00116064287 -1.91572742706 -0.46057347828 0.00048909883 -1.80770550136 -0.52718209655 0.00052309487 -1.82165564387 -0.52463245890 0.00056269329 -1.83532460304 -0.52013737031 0.00060832181 -1.84868949944 -0.51393716522 0.00066040816 -1.86172745364 -0.50627217807 0.00071938006 -1.87441558621 -0.49738274327 0.00078566521 -1.88673101771 -0.48750919527 0.00085969134 -1.89865086874 -0.47689186850 0.00094188616 -1.91015225984 -0.46577109738 0.00103267740 -1.92121231159 -0.45438721635 -0.00031005997 -1.74571896152 -0.66938171859 -0.00023207696 -1.75430218141 -0.66176299078 -0.00013537763 -1.76458300422 -0.65238845488 -0.00002384116 -1.77605484659 -0.64168993735 0.00009865329 -1.78821112516 -0.63009926465 0.00022822656 -1.80054525657 -0.61804826323 0.00036099948 -1.81255065745 -0.60596875956 0.00049309288 -1.82372074443 -0.59429258008 0.00062062759 -1.83354893417 -0.58345155126 0.00073972446 -1.84152864330 -0.57387749955 -0.00021250009 -1.76149439643 -0.65618729032 -0.00009548428 -1.77022989332 -0.64780937723 0.00002944607 -1.78026596894 -0.63798392354 0.00016044172 -1.79124416719 -0.62701994408 0.00029565342 -1.80280603196 -0.61522645367 0.00043323195 -1.81459310717 -0.60291246714 0.00057132805 -1.82624693672 -0.59038699931 0.00070809248 -1.83740906451 -0.57795906501 0.00084167601 -1.84772103444 -0.56593767905 0.00097022940 -1.85682439041 -0.55463185626 -0.00012430247 -1.77624249449 -0.64254577999 0.00001041832 -1.78504963209 -0.63378803288 0.00014848062 -1.79485652554 -0.62377840471 0.00028894769 -1.80541644641 -0.61273985932 0.00043088281 -1.81648266631 -0.60089536059 0.00057334924 -1.82780845684 -0.58846787237 0.00071541024 -1.83914708960 -0.57568035853 0.00085612908 -1.85025183617 -0.56275578291 0.00099456902 -1.86087596816 -0.54991710939 0.00112979334 -1.87077275717 -0.53738730181 -0.00004499494 -1.78991649367 -0.62874105713 0.00009072002 -1.79873007536 -0.61991660445 0.00022976571 -1.80832624865 -0.60994191021 0.00037131200 -1.81853831641 -0.59898513116 0.00051452876 -1.82919958148 -0.58721442404 0.00065858587 -1.84014334673 -0.57479794562 0.00080265320 -1.85120291501 -0.56190385263 0.00094590063 -1.86221158918 -0.54870030183 0.00108749803 -1.87300267210 -0.53535544997 0.00122661526 -1.88340946663 -0.52203745380 0.00002589467 -1.80246963195 -0.61505699123 0.00015051001 -1.81123990075 -0.60641273863 0.00028134104 -1.82064671293 -0.59664445188 0.00041716986 -1.83057640931 -0.58589120766 0.00055677857 -1.84091533072 -0.57429208267 0.00069894928 -1.85154981798 -0.56198615357 0.00084246409 -1.86236621189 -0.54911249706 0.00098610510 -1.87325085330 -0.53581018981 0.00112865442 -1.88409008301 -0.52221830850 0.00126889415 -1.89477024185 -0.50847592983 0.00008883850 -1.81385514731 -0.60177745184 0.00019487745 -1.82254778589 -0.59349408212 0.00031124629 -1.83178949300 -0.58405604153 0.00043615649 -1.84149735727 -0.57359353691 0.00056781954 -1.85158846731 -0.56223677510 0.00070444690 -1.86197991174 -0.55011596293 0.00084425005 -1.87258877920 -0.53736130724 0.00098544046 -1.88333215829 -0.52410301488 0.00112622961 -1.89412713765 -0.51047129269 0.00126482897 -1.90489080589 -0.49659634751 0.00014430873 -1.82402627772 -0.58918630845 0.00022891153 -1.83262240842 -0.58137828163 0.00032752116 -1.84172616352 -0.57234669101 0.00043790714 -1.85126779241 -0.56222756699 0.00055783897 -1.86117754450 -0.55115693997 0.00068508617 -1.87138566918 -0.53927084038 0.00081741823 -1.88182241586 -0.52670529862 0.00095260467 -1.89241803392 -0.51359634511 0.00108841500 -1.90310277277 -0.50008001024 0.00122261871 -1.91380688180 -0.48629232444 0.00019277751 -1.83293626118 -0.57756743059 0.00025770141 -1.84143244598 -0.57028298387 0.00033820534 -1.85042829912 -0.56168641213 0.00043205702 -1.85985434689 -0.55192874596 0.00053702417 -1.86964111557 -0.54116101594 0.00065087452 -1.87971913145 -0.52953425264 0.00077137578 -1.89001892081 -0.51719948664 0.00089629569 -1.90047100994 -0.50430774851 0.00102340197 -1.91100592512 -0.49101006885 0.00115046234 -1.92155419264 -0.47745747822 0.00023471700 -1.84053833565 -0.56720468778 0.00028633628 -1.84894657618 -0.56042583552 0.00035133852 -1.85786747444 -0.55224521672 0.00042824136 -1.86722365283 -0.54283252191 0.00051556243 -1.87693773377 -0.53235744162 0.00061181938 -1.88693233969 -0.52098966638 0.00071552986 -1.89713009300 -0.50889888671 0.00082521150 -1.90745361612 -0.49625479315 0.00093938194 -1.91782553147 -0.48322707622 0.00105655884 -1.92816846146 -0.46998542646 0.00027059936 -1.84678573911 -0.55838194954 0.00031990532 -1.85513347668 -0.55202448330 0.00037496040 -1.86401526412 -0.54419311662 0.00043609538 -1.87334234238 -0.53507434292 0.00050364105 -1.88302595238 -0.52485465567 0.00057792820 -1.89297733506 -0.51372054831 0.00065928760 -1.90310773136 -0.50185851429 0.00074805004 -1.91332838221 -0.48945504706 0.00084454631 -1.92355052856 -0.47669664007 0.00094910719 -1.93368541132 -0.46376978676 -0.00084625360 -1.78760551193 -0.69740703054 -0.00075581723 -1.79325065753 -0.68778721504 -0.00063075985 -1.80008480747 -0.67612062780 -0.00047916626 -1.80779448903 -0.66295517021 -0.00030912125 -1.81606622947 -0.64883874370 -0.00012870960 -1.82458655606 -0.63431924968 0.00005398390 -1.83304199609 -0.61994458956 0.00023087447 -1.84111907681 -0.60626266475 0.00039387731 -1.84850432550 -0.59382137668 0.00053490764 -1.85488426944 -0.58316862674 -0.00070695503 -1.80270653622 -0.68381001581 -0.00056884290 -1.80786484656 -0.67304796621 -0.00041408353 -1.81416411526 -0.66075543475 -0.00024698732 -1.82136466036 -0.64731326961 -0.00007186468 -1.82922679991 -0.63310231898 0.00010697399 -1.83751085199 -0.61850343107 0.00028521828 -1.84597713463 -0.60389745405 0.00045855778 -1.85438596588 -0.58966523613 0.00062268209 -1.86249766381 -0.57618762549 0.00077328081 -1.87007254647 -0.56384547032 -0.00057590519 -1.81691107578 -0.66990229674 -0.00041708945 -1.82165138302 -0.65845205292 -0.00025018831 -1.82750097948 -0.64583052630 -0.00007761239 -1.83427450308 -0.63229796290 0.00009822769 -1.84178659175 -0.61811460872 0.00027492131 -1.84985188339 -0.60354070977 0.00045005786 -1.85828501593 -0.58883651204 0.00062122671 -1.86690062729 -0.57426226156 0.00078601723 -1.87551335539 -0.56007820432 0.00094201882 -1.88393783815 -0.54654458633 -0.00045379617 -1.83017435011 -0.65595518091 -0.00029505369 -1.83455638799 -0.64419325248 -0.00012983752 -1.84003133808 -0.63148688163 0.00003996465 -1.84645105134 -0.61801533834 0.00021246515 -1.85366737875 -0.60395789261 0.00038577629 -1.86153217127 -0.58949381443 0.00055801038 -1.86989727987 -0.57480237380 0.00072727975 -1.87861455551 -0.56006284071 0.00089169670 -1.88753584916 -0.54545448515 0.00104937357 -1.89651301179 -0.53115657711 -0.00034132008 -1.84245157871 -0.64223997591 -0.00019723244 -1.84652598257 -0.63046534224 -0.00004379448 -1.85169112899 -0.61786547991 0.00011674994 -1.85782133927 -0.60457148418 0.00028215699 -1.86479093472 -0.59071445036 0.00045018281 -1.87247423662 -0.57642547374 0.00061858356 -1.88074556628 -0.56183564960 0.00078511539 -1.88947924499 -0.54707607323 0.00094753446 -1.89854959404 -0.53227783993 0.00110359690 -1.90783093474 -0.51757204498 -0.00023916902 -1.85369798112 -0.62902798930 -0.00011812251 -1.85750628785 -0.61746209952 0.00001717749 -1.86241629015 -0.60510730030 0.00016374962 -1.86831240101 -0.59207248867 0.00031861252 -1.87507903344 -0.57846656167 0.00047878481 -1.88260060044 -0.56439841634 0.00064128514 -1.89076151502 -0.54997694969 0.00080313214 -1.89944619019 -0.53531105878 0.00096134445 -1.90853903896 -0.52050964063 0.00111294070 -1.91792447431 -0.50568159227 -0.00014803508 -1.86386877683 -0.61659052869 -0.00005222071 -1.86744342494 -0.60537730163 0.00006231508 -1.87214275950 -0.59335332197 0.00019196982 -1.87785127069 -0.58062444006 0.00033314102 -1.88445344870 -0.56729650624 0.00048222619 -1.89183378373 -0.55347537089 0.00063562284 -1.89987676596 -0.53926688437 0.00078972849 -1.90846688560 -0.52477689702 0.00094094065 -1.91748863283 -0.51011125921 0.00108565685 -1.92682649785 -0.49537582129 -0.00006861037 -1.87291918535 -0.60519890164 0.00000597613 -1.87628351494 -0.59440472592 0.00010085498 -1.88080647498 -0.58274452410 0.00021241669 -1.88636498245 -0.57033342659 0.00033705180 -1.89283595429 -0.55728656378 0.00047115085 -1.90009630747 -0.54371906608 0.00061110438 -1.90802295894 -0.52974606388 0.00075330293 -1.91649282566 -0.51548268760 0.00089413702 -1.92538282459 -0.50104406763 0.00102999720 -1.93456987268 -0.48654533438 -0.00000158699 -1.88080442621 -0.59512441573 0.00006197122 -1.88397267893 -0.58473814969 0.00014203385 -1.88834337454 -0.57342188585 0.00023609634 -1.89378057043 -0.56130553651 0.00034165415 -1.90014832401 -0.54851901397 0.00045620272 -1.90731069267 -0.53519223054 0.00057723750 -1.91513173382 -0.52145509851 0.00070225395 -1.92347550484 -0.50743753019 0.00082874751 -1.93220606315 -0.49326943787 0.00095421363 -1.94118746614 -0.47908073386 0.00005234296 -1.88747971890 -0.58663837856 0.00012126773 -1.89045703801 -0.57657135028 0.00019508838 -1.89468939609 -0.56552638639 0.00027401493 -1.90002506876 -0.55364685808 0.00035825737 -1.90631233164 -0.54107613654 0.00044802570 -1.91339946033 -0.52795759296 0.00054352993 -1.92113473045 -0.51443459853 0.00064498005 -1.92936641762 -0.50065052444 0.00075258608 -1.93794279744 -0.48674874188 0.00086655802 -1.94671214554 -0.47287262205 -0.00134470943 -1.82883678592 -0.72342802664 -0.00124191389 -1.83212753357 -0.71127828099 -0.00108739803 -1.83604255513 -0.69690113416 -0.00089389407 -1.84045627970 -0.68095177220 -0.00067413421 -1.84524313636 -0.66408538114 -0.00044085069 -1.85027755423 -0.64695714702 -0.00020677571 -1.85543396240 -0.63022225588 0.00001535850 -1.86058678997 -0.61453589377 0.00021281973 -1.86561046604 -0.60055324671 0.00037287576 -1.87037941971 -0.58892950075 -0.00117585215 -1.84362181900 -0.70980820328 -0.00101265930 -1.84575080044 -0.69601022249 -0.00082447522 -1.84878325787 -0.68075722957 -0.00061824382 -1.85259525272 -0.66449060874 -0.00040090901 -1.85706284642 -0.64765174421 -0.00017941470 -1.86206210041 -0.63068202020 0.00003929518 -1.86746907612 -0.61402282093 0.00024827674 -1.87315983499 -0.59811553062 0.00044058606 -1.87901043844 -0.58340153349 0.00060927922 -1.88489694793 -0.57032221375 -0.00101165430 -1.85765373067 -0.69583288540 -0.00082153637 -1.85881253724 -0.68098257384 -0.00062022798 -1.86110303979 -0.66522833865 -0.00041157270 -1.86439913767 -0.64885537912 -0.00019941413 -1.86857473025 -0.63214889458 0.00001240414 -1.87350371687 -0.61539408433 0.00022003853 -1.87905999689 -0.59887614769 0.00041964546 -1.88511746966 -0.58288028395 0.00060738133 -1.89155003453 -0.56769169244 0.00077940255 -1.89823159087 -0.55359557246 -0.00085433987 -1.87088024893 -0.68179237854 -0.00066293883 -1.87123313858 -0.66638506409 -0.00046449629 -1.87290309887 -0.65043769842 -0.00026175629 -1.87575832924 -0.63412851906 -0.00005746287 -1.87966702913 -0.61763576352 0.00014563993 -1.88449739799 -0.60113766932 0.00034480806 -1.89011763526 -0.58481247397 0.00053729749 -1.89639594038 -0.56883841500 0.00072036416 -1.90320051279 -0.55339372991 0.00089126406 -1.91039955194 -0.53865665624 -0.00070613288 -1.88324910174 -0.66797698821 -0.00053126041 -1.88293299907 -0.65240742227 -0.00034712014 -1.88408463309 -0.63650854594 -0.00015667015 -1.88656322209 -0.62039246426 0.00003713150 -1.89022798434 -0.60417128228 0.00023132673 -1.89493813815 -0.58795710505 0.00042295747 -1.90055290179 -0.57186203761 0.00060906565 -1.90693149354 -0.55599818499 0.00078669319 -1.91393313170 -0.54047765225 0.00095288203 -1.92141703455 -0.52541254443 -0.00056925735 -1.89470801712 -0.65467701996 -0.00042089485 -1.89383251333 -0.63923937744 -0.00025793953 -1.89454884044 -0.62356411823 -0.00008418985 -1.89670421090 -0.60772965043 0.00009655569 -1.90014583717 -0.59181438212 0.00028049863 -1.90472093173 -0.57589672142 0.00046384049 -1.91027670703 -0.56005507639 0.00064278278 -1.91666037555 -0.54436785516 0.00081352703 -1.92371914975 -0.52891346579 0.00097227477 -1.93130024209 -0.51377031640 -0.00044593728 -1.90520472303 -0.64218277930 -0.00032623588 -1.90385207598 -0.62707065864 -0.00018679443 -1.90419691890 -0.61172765234 -0.00003219097 -1.90607169034 -0.59622251327 0.00013299643 -1.90930882889 -0.58062399430 0.00030418972 -1.91374077310 -0.56500084831 0.00047681083 -1.91919996154 -0.54942182816 0.00064628172 -1.92551883280 -0.53395568672 0.00080802432 -1.93252982542 -0.51867117688 0.00095746057 -1.94006537798 -0.50363705149 -0.00033839669 -1.91468694747 -0.63078457178 -0.00024167724 -1.91291208162 -0.61609099493 -0.00012352483 -1.91293006644 -0.60112238530 0.00001145093 -1.91455605510 -0.58595348849 0.00015864042 -1.91760520077 -0.57065905007 0.00031343405 -1.92189265664 -0.55531381562 0.00047122221 -1.92723357588 -0.53999253071 0.00062739528 -1.93344311167 -0.52476994093 0.00077734366 -1.94033641719 -0.50972079185 0.00091645774 -1.94772864562 -0.49491982905 -0.00024885958 -1.92310241842 -0.62077270292 -0.00016161265 -1.92093292488 -0.60649011534 -0.00005797072 -1.92064948106 -0.59187155417 0.00005886027 -1.92204769984 -0.57700501181 0.00018567440 -1.92492319410 -0.56197848069 0.00031926573 -1.92907157673 -0.54687995324 0.00045642834 -1.93428846059 -0.53179742186 0.00059395630 -1.94036945857 -0.51681887899 0.00072864369 -1.94711018355 -0.50203231705 0.00085728457 -1.95430624841 -0.48752572844 -0.00017954997 -1.93039886387 -0.61243747825 -0.00008043585 -1.92783500036 -0.59845774894 0.00002002791 -1.92725636073 -0.58409839596 0.00012216149 -1.92843701925 -0.56945951893 0.00022628506 -1.93115105016 -0.55464121742 0.00033271882 -1.93517252774 -0.53974359106 0.00044178294 -1.94027552623 -0.52486673944 0.00055379762 -1.94623411990 -0.51011076215 0.00066908303 -1.95282238298 -0.49557575881 0.00078795936 -1.95981438976 -0.48136182901 -0.00178614063 -1.86775268809 -0.74624696232 -0.00166795966 -1.86916374496 -0.73099137141 -0.00148201749 -1.87071197058 -0.71352023884 -0.00124565943 -1.87242336141 -0.69456772607 -0.00097623078 -1.87432391391 -0.67486799458 -0.00069107685 -1.87643962454 -0.65515520586 -0.00040754296 -1.87879648976 -0.63616352137 -0.00014297440 -1.88142050603 -0.61862710259 0.00008528350 -1.88433766980 -0.60328011099 0.00025988545 -1.88757397754 -0.59085670807 -0.00160822719 -1.88316458563 -0.73339936500 -0.00141337834 -1.88264420657 -0.71581709508 -0.00118696367 -1.88283005017 -0.69708874890 -0.00093847624 -1.88368570291 -0.67768873596 -0.00067740908 -1.88517475123 -0.65809146573 -0.00041325523 -1.88726078160 -0.63877134770 -0.00015550773 -1.88990738049 -0.62020279137 0.00008634039 -1.89307813435 -0.60286020622 0.00030279608 -1.89673662964 -0.58721800172 0.00048436631 -1.90084645282 -0.57375058738 -0.00142774301 -1.89785510404 -0.71988532199 -0.00119634993 -1.89570158001 -0.70079012129 -0.00095326958 -1.89472173392 -0.68131511737 -0.00070359243 -1.89482590366 -0.66174443683 -0.00045240892 -1.89592442712 -0.64236220626 -0.00020480949 -1.89792764219 -0.62345255225 0.00003411541 -1.90074588675 -0.60529960138 0.00025927532 -1.90428949870 -0.58818748024 0.00046557981 -1.90846881593 -0.57240031542 0.00064793843 -1.91319417633 -0.55822223351 -0.00124881411 -1.91177262999 -0.70605767617 -0.00101168622 -1.90824323804 -0.68612643328 -0.00077043269 -1.90626798710 -0.66632494698 -0.00052833652 -1.90571170375 -0.64680639350 -0.00028868073 -1.90643921454 -0.62772394907 -0.00005474835 -1.90831534603 -0.60923078993 0.00017017762 -1.91120492479 -0.59148009230 0.00038281415 -1.91497277738 -0.57462503242 0.00057987822 -1.91948373036 -0.55881878651 0.00075808682 -1.92460261029 -0.54421453081 -0.00107556651 -1.92486555014 -0.69226927041 -0.00085419903 -1.92017655339 -0.67204201429 -0.00062795045 -1.91734977499 -0.65224384045 -0.00040003702 -1.91621084324 -0.63294617074 -0.00017367497 -1.91658538644 -0.61422042703 0.00004791948 -1.91829903287 -0.59613803118 0.00026153008 -1.92117741085 -0.57877040506 0.00046394061 -1.92504614865 -0.56218897052 0.00065193484 -1.92973087459 -0.54646514944 0.00082229652 -1.93505721696 -0.53167036366 -0.00091212625 -1.93708225115 -0.67887294758 -0.00071870012 -1.93140889882 -0.65875284758 -0.00051532034 -1.92784806287 -0.63919740053 -0.00030602246 -1.92619106222 -0.62023533337 -0.00009484206 -1.92622921578 -0.60189537303 0.00011418527 -1.92775384246 -0.58420624646 0.00031702398 -1.93055626117 -0.56719668057 0.00050963848 -1.93442779082 -0.55089540232 0.00068799320 -1.93915975032 -0.53533113863 0.00084805256 -1.94454345859 -0.52053261645 -0.00076261934 -1.94837111969 -0.66622155058 -0.00060000131 -1.94184764706 -0.64647491639 -0.00042203981 -1.93764381601 -0.62731122996 -0.00023362135 -1.93552010076 -0.60874544618 -0.00003963246 -1.93523697552 -0.59079251996 0.00015504032 -1.93655491453 -0.57346740618 0.00034551048 -1.93923439200 -0.55678505975 0.00052689149 -1.94303588215 -0.54076043557 0.00069429683 -1.94771985921 -0.52540848854 0.00084283997 -1.95304679740 -0.51074417355 -0.00063117182 -1.95868054243 -0.65466792227 -0.00049291438 -1.95140017088 -0.63542420396 -0.00033760632 -1.94661799970 -0.61671093147 -0.00017016221 -1.94406569893 -0.59854807397 0.00000450339 -1.94347493862 -0.58095560068 0.00018147590 -1.94457738882 -0.56395348080 0.00035584077 -1.94710471958 -0.54756168352 0.00052268341 -1.95078860094 -0.53180017805 0.00067708927 -1.95536070295 -0.51668893359 0.00081414377 -1.96055269566 -0.50224791933 -0.00052190971 -1.96795890603 -0.64456490554 -0.00039225113 -1.95997384301 -0.62581669355 -0.00025151735 -1.95465157920 -0.60752210778 -0.00010297356 -1.95169559681 -0.58971478154 0.00005011505 -1.95080937803 -0.57242834810 0.00020448330 -1.95169640508 -0.55569644076 0.00035686601 -1.95406016015 -0.53955269280 0.00050399799 -1.95760412546 -0.52403073752 0.00064261405 -1.96203178321 -0.50916420822 0.00076944901 -1.96704661560 -0.49498673817 -0.00043895904 -1.97615459715 -0.63626534326 -0.00029282334 -1.96747603620 -0.61786836839 -0.00015327035 -1.96162551980 -0.59987036165 -0.00001938392 -1.95827753447 -0.58231713368 0.00010975208 -1.95710656671 -0.56525449508 0.00023505381 -1.95778710304 -0.54872825648 0.00035743739 -1.95999362997 -0.53278422850 0.00047781897 -1.96340063400 -0.51746822175 0.00059711470 -1.96768260166 -0.50282604686 0.00071624070 -1.97251401946 -0.48890351444 -0.00215126039 -1.90269312304 -0.76466609299 -0.00201154724 -1.90259022708 -0.74568166913 -0.00179134354 -1.90234877716 -0.72476820671 -0.00151209720 -1.90207887696 -0.70269101461 -0.00119525612 -1.90189063018 -0.68021540169 -0.00086226823 -1.90189414049 -0.65810667681 -0.00053458142 -1.90219951157 -0.63713014885 -0.00023364362 -1.90291684712 -0.61805112668 0.00001909726 -1.90415625081 -0.60163491917 0.00020219331 -1.90602782633 -0.58864683518 -0.00199311588 -1.92025917699 -0.75380101323 -0.00175744483 -1.91730151654 -0.73158953298 -0.00148678353 -1.91501114555 -0.70884943362 -0.00119283303 -1.91338576956 -0.68604442575 -0.00088729439 -1.91242309411 -0.66363821994 -0.00058186868 -1.91212082475 -0.64209452677 -0.00028825695 -1.91247666704 -0.62187705682 -0.00001816026 -1.91348832651 -0.60344952066 0.00021672033 -1.91515350872 -0.58727562888 0.00040468375 -1.91746991920 -0.57381909206 -0.00182036453 -1.93689984076 -0.74160738252 -0.00153495758 -1.93148699659 -0.71728522086 -0.00124094432 -1.92741608934 -0.69343413809 -0.00094433076 -1.92459035452 -0.67029746487 -0.00065112291 -1.92291302766 -0.64811853185 -0.00036732678 -1.92228734426 -0.62714066968 -0.00009894838 -1.92261653983 -0.60760720904 0.00014800628 -1.92380384989 -0.58976148057 0.00036753119 -1.92575250994 -0.57384681493 0.00055362035 -1.92836575551 -0.56010654279 -0.00163940695 -1.95258993316 -0.72855609998 -0.00134004670 -1.94506959727 -0.70305175408 -0.00104386882 -1.93945245886 -0.67867921368 -0.00075426173 -1.93556272853 -0.65553068182 -0.00047461388 -1.93322461688 -0.63369836155 -0.00020831368 -1.93226233453 -0.61327445591 0.00004125043 -1.93250009206 -0.59435116794 0.00027069003 -1.93376210009 -0.57702070067 0.00047661667 -1.93587256922 -0.56137525717 0.00065564194 -1.93865571005 -0.54750704046 -0.00145664373 -1.96730427299 -0.71511806475 -0.00116867339 -1.95797224865 -0.68917215392 -0.00088559991 -1.95100910444 -0.66474155394 -0.00061029727 -1.94617298822 -0.64182462648 -0.00034563947 -1.94322204783 -0.62041973321 -0.00009450049 -1.94191443109 -0.60052523581 0.00014024567 -1.94200828587 -0.58213949593 0.00035572503 -1.94326176000 -0.56526087525 0.00054906359 -1.94543300131 -0.54988773544 0.00071738737 -1.94828015766 -0.53601843817 -0.00127847546 -1.98101767906 -0.70176417598 -0.00101679887 -1.97011788078 -0.67592944167 -0.00075618050 -1.96197487643 -0.65177805242 -0.00050010872 -1.95629123027 -0.62925984870 -0.00025207189 -1.95276950654 -0.60832467099 -0.00001555836 -1.95111226949 -0.58892235974 0.00020594349 -1.95102208338 -0.57100275545 0.00040894533 -1.95220151245 -0.55451569858 0.00058995878 -1.95435312095 -0.53941102960 0.00074549548 -1.95717947314 -0.52563858899 -0.00111130274 -1.99370497017 -0.68896533280 -0.00088038433 -1.98142942373 -0.66360663864 -0.00064565348 -1.97223862516 -0.63994560269 -0.00041136741 -1.96578755132 -0.61791689836 -0.00018178332 -1.96173117906 -0.59745519902 0.00003884157 -1.95972448524 -0.57849517808 0.00024625007 -1.95942244670 -0.56097150891 0.00043618497 -1.96048004030 -0.54481886492 0.00060438905 -1.96255224289 -0.52997191949 0.00074660511 -1.96529403132 -0.51636534601 -0.00096152617 -2.00534096514 -0.67719243435 -0.00075539098 -1.99182980754 -0.65248676611 -0.00054406175 -1.98168920095 -0.62940109831 -0.00033174468 -1.97453204803 -0.60787632531 -0.00012264596 -1.96997125146 -0.58785334148 0.00007902819 -1.96761971388 -0.56927304117 0.00026907158 -1.96709033798 -0.55207631874 0.00044327799 -1.96799602643 -0.53620406855 0.00059744123 -1.96994968188 -0.52159718495 0.00072735510 -1.97256420701 -0.50819656231 -0.00083554633 -2.01590048276 -0.66691637978 -0.00063778004 -2.00124196229 -0.64285284537 -0.00044144820 -1.99021545416 -0.62030143282 -0.00024891185 -1.98239481707 -0.59921867943 -0.00006253199 -1.97735390976 -0.57956112251 0.00011533035 -1.97466659094 -0.56128529939 0.00028231417 -1.97390671934 -0.54434774736 0.00043605844 -1.97464815367 -0.52870500374 0.00057420215 -1.97646475266 -0.51431360585 0.00069438429 -1.97893037502 -0.50113009099 -0.00073976383 -2.02535834185 -0.65860806822 -0.00052351269 -2.00958881803 -0.63498789773 -0.00032785573 -1.99770623510 -0.61280349979 -0.00015054027 -1.98924595509 -0.59202451057 0.00001068639 -1.98374334003 -0.57262056627 0.00015807692 -1.98073375195 -0.55456130308 0.00029388401 -1.97975255290 -0.53781635718 0.00042036036 -1.98033510489 -0.52235536476 0.00053975863 -1.98201676997 -0.50814796202 0.00065433152 -1.98433291017 -0.49516378513 -0.00242078188 -1.93199799537 -0.77748767407 -0.00225026935 -1.93063791535 -0.75410435694 -0.00199210151 -1.92920869825 -0.72943530266 -0.00167084224 -1.92780596917 -0.70420962058 -0.00131105543 -1.92652535323 -0.67915642007 -0.00093730496 -1.92546247554 -0.65500481049 -0.00057415470 -1.92471296121 -0.63248390118 -0.00024616854 -1.92437243535 -0.61232280153 0.00002208965 -1.92453652307 -0.59525062087 0.00020605598 -1.92530084949 -0.58199646858 -0.00231955393 -1.95382993396 -0.77023066024 -0.00203130363 -1.94847918198 -0.74244848518 -0.00170916944 -1.94403319740 -0.71513872461 -0.00136646263 -1.94044521130 -0.68869445260 -0.00101649445 -1.93766845481 -0.66350874323 -0.00067257614 -1.93565615903 -0.63997467057 -0.00034801897 -1.93436155506 -0.61848530870 -0.00005613418 -1.93373787401 -0.59943373170 0.00018976696 -1.93373834699 -0.58321301364 0.00037637322 -1.93431620511 -0.57021622859 -0.00218571207 -1.97417258571 -0.76054684298 -0.00183078681 -1.96533727222 -0.72987839818 -0.00147488339 -1.95824513349 -0.70092867643 -0.00112444688 -1.95272804374 -0.67384679206 -0.00078592237 -1.94861787717 -0.64878185941 -0.00046575495 -1.94574650799 -0.62588299281 -0.00017038969 -1.94394581042 -0.60529930659 0.00009372831 -1.94304765865 -0.58717991510 0.00032015398 -1.94288392691 -0.57167393267 0.00050244222 -1.94328648940 -0.55893047363 -0.00202830647 -1.99307059830 -0.74909267613 -0.00164677108 -1.98119512718 -0.71679542051 -0.00128102677 -1.97178297021 -0.68703108492 -0.00093401762 -1.96456295723 -0.65978310422 -0.00060868773 -1.95926391809 -0.63503491326 -0.00030798120 -1.95561468263 -0.61276994691 -0.00003484212 -1.95334408069 -0.59297164004 0.00020778542 -1.95218094211 -0.57562342749 0.00041695733 -1.95185409675 -0.56070874414 0.00058972951 -1.95209237443 -0.54821102485 -0.00185638731 -2.01056861941 -0.73652461350 -0.00147730863 -1.99603568797 -0.70360087673 -0.00111938302 -1.98458517120 -0.67367187688 -0.00078439750 -1.97585844251 -0.64661985432 -0.00047413907 -1.96949687534 -0.62232704943 -0.00019039474 -1.96514184312 -0.60067570260 0.00006504850 -1.96243471928 -0.58154805420 0.00029040364 -1.96101687725 -0.56482634462 0.00048388366 -1.96052969045 -0.55039281424 0.00064370157 -1.96061453231 -0.53812970344 -0.00167900475 -2.02671129670 -0.72349910893 -0.00132045163 -2.00984189571 -0.69069609141 -0.00098173559 -1.99659020012 -0.66107697910 -0.00066480917 -1.98652299032 -0.63447350761 -0.00037162492 -1.97920704671 -0.61071741256 -0.00010413538 -1.97420914967 -0.58964042957 0.00013570692 -1.97109607960 -0.57107429426 0.00034594943 -1.96943461689 -0.55485074224 0.00052463961 -1.96879154193 -0.54080150914 0.00066982492 -1.96873363512 -0.52875833056 -0.00150520896 -2.04154327784 -0.71067261624 -0.00117425226 -2.02259669150 -0.67848238912 -0.00085986789 -2.00773652064 -0.64947231840 -0.00056447526 -1.99646509141 -0.62346052936 -0.00029049381 -1.98828472997 -0.60026514732 -0.00004034295 -1.98269776246 -0.57970429756 0.00018355789 -1.97920651506 -0.56159610539 0.00037878929 -1.97731331390 -0.54575869611 0.00054293182 -1.97652048514 -0.53201019501 0.00067356607 -1.97633035495 -0.52016872739 -0.00134405012 -2.05510921050 -0.69870158927 -0.00103676272 -2.03428301646 -0.66736109443 -0.00074556337 -2.01796259642 -0.63908382156 -0.00047261843 -2.00559323652 -0.61369738481 -0.00022009428 -1.99662022290 -0.59102939833 0.00000984271 -1.99048884169 -0.57090747627 0.00021502615 -1.98664437905 -0.55315923277 0.00039328968 -1.98453212111 -0.53761228198 0.00054246693 -1.98359735400 -0.52409423804 0.00066039151 -1.98328536387 -0.51243271510 -0.00120457839 -2.06745374237 -0.68824248184 -0.00090603519 -2.04488381170 -0.65773353189 -0.00063060545 -2.02720689112 -0.63013741538 -0.00037846130 -2.01381591638 -0.60530053921 -0.00014977486 -2.00410382327 -0.58306931026 0.00005528177 -1.99746354755 -0.56329013541 0.00023653646 -1.99328802499 -0.54580942156 0.00039381710 -1.99097019137 -0.53047357560 0.00052695157 -1.98990298244 -0.51712900440 0.00063576776 -1.98947933399 -0.50562211487 -0.00109584395 -2.07862152110 -0.67995174778 -0.00078012184 -2.05438201833 -0.65000102608 -0.00050677757 -2.03540786839 -0.62285902668 -0.00027122653 -2.02104162175 -0.59838645782 -0.00006888408 -2.01062582887 -0.57644402774 0.00010483441 -2.00350304023 -0.55689244471 0.00025451356 -1.99901580629 -0.53959241695 0.00038473801 -1.99650667752 -0.52440465272 0.00050009239 -1.99531820440 -0.51118986028 0.00060516131 -1.99479293738 -0.49980874785 </DataArray>
</PointData>
<Points>
<DataArray type="Float32" NumberOfComponents="3">
-0.85878264397 -1.41085690365 2.13975879611 -0.90032027979 -1.42259388627 2.16291942964 -0.93272905292 -1.43362061031 2.18680487893 -0.95721846314 -1.44380482904 2.21079995833 -0.97499801023 -1.45301429570 2.23428948219 -0.98727719397 -1.46111676355 2.25665826488 -0.99526551416 -1.46797998584 2.27729112073 -1.00017247057 -1.47347171584 2.29557286411 -1.00320756300 -1.47745970678 2.31088830937 -1.00558029123 -1.47981171193 2.32262227085 -0.79081436581 -1.40460298315 2.15396021238 -0.83048301115 -1.41841788699 2.17938663889 -0.86142034981 -1.43078955565 2.20427241800 -0.88476546463 -1.44172317072 2.22827034540 -0.90165743847 -1.45122391380 2.25103321677 -0.91323535418 -1.45929696651 2.27221382779 -0.92063829461 -1.46594751044 2.29146497415 -0.92500534261 -1.47118072720 2.30843945153 -0.92747558104 -1.47500179838 2.32279005562 -0.92918809275 -1.47741590560 2.33416958209 -0.71794801955 -1.39815357293 2.16958514970 -0.75723141816 -1.41388190152 2.19611138647 -0.78785572833 -1.42752803453 2.22125587189 -0.81093487253 -1.43921407281 2.24486057178 -0.82758277323 -1.44906211722 2.26676745195 -0.83891335288 -1.45719426861 2.28681847823 -0.84604053397 -1.46373262784 2.30485561643 -0.85007823894 -1.46879929576 2.32072083236 -0.85214039027 -1.47251637324 2.33425609184 -0.85334091042 -1.47500596112 2.34530336069 -0.64285352733 -1.39153643514 2.18607622299 -0.68243711262 -1.40904289874 2.21275037835 -0.71328477895 -1.42390962291 2.23755811603 -0.73650794757 -1.43635753981 2.26046356328 -0.75321803973 -1.44660758162 2.28143084737 -0.76452647670 -1.45488068050 2.30042409555 -0.77154467973 -1.46139776862 2.31740743507 -0.77538407007 -1.46637977817 2.33234499319 -0.77715606900 -1.47004764130 2.34520089716 -0.77797209776 -1.47262229019 2.35593927423 -0.56820081128 -1.38477933192 2.20287604715 -0.60797170633 -1.40395784756 2.22896032047 -0.63895709210 -1.42000789676 2.25298202583 -0.66226595044 -1.43323357624 2.27497224572 -0.67900726319 -1.44393898270 2.29496206265 -0.69029001223 -1.45242821284 2.31298255911 -0.69722317940 -1.45900536339 2.32906481761 -0.70091574655 -1.46397453104 2.34323992064 -0.70247669555 -1.46763981251 2.35553895069 -0.70301500825 -1.47030530450 2.36599299028 -0.49665979353 -1.37791002540 2.21942723709 -0.53570681109 -1.39868371685 2.24439791879 -0.56612225823 -1.41589643204 2.26733047672 -0.58899014186 -1.42992218659 2.28827954490 -0.60539446885 -1.44113499614 2.30729975741 -0.61641924609 -1.44990887631 2.32444574828 -0.62314848048 -1.45661784273 2.33977215156 -0.62666617890 -1.46163591102 2.35333360131 -0.62805634825 -1.46533709683 2.36518473158 -0.62840299540 -1.46809541577 2.37538017642 -0.43090039623 -1.37095627773 2.23517240769 -0.46751403869 -1.39327747552 2.25871987927 -0.49602986780 -1.41164880470 2.28040634412 -0.51746178255 -1.42650337538 2.30027838665 -0.53282368192 -1.43827429763 2.31838259127 -0.54312946490 -1.44739468155 2.33476554239 -0.54939303049 -1.45429763723 2.34947382444 -0.55262827766 -1.45941627475 2.36255402182 -0.55384910540 -1.46318370420 2.37405271895 -0.55406941270 -1.46603303567 2.38401650023 -0.37359254151 -1.36394585105 2.24955417388 -0.40526500093 -1.38779609244 2.27158290786 -0.42992951124 -1.40733859071 2.29201250345 -0.44846213321 -1.42305714710 2.31086169676 -0.46173892763 -1.43543556286 2.32814922385 -0.47063595527 -1.44495763924 2.34389382083 -0.47602927691 -1.45210717749 2.35811422377 -0.47879495334 -1.45736797885 2.37082916877 -0.47980904533 -1.46122384458 2.38205739192 -0.47994761367 -1.46415857591 2.39181762929 -0.32740615151 -1.35690650749 2.26201515056 -0.35083130962 -1.38229653652 2.28264371051 -0.36907077900 -1.40303936603 2.30195183015 -0.38277245456 -1.41966350627 2.31992240105 -0.39258423120 -1.43269746752 2.33653831479 -0.39915400380 -1.44266976004 2.35178246294 -0.40312966726 -1.45010889410 2.36563773707 -0.40515911649 -1.45554337997 2.37808702878 -0.40589024637 -1.45950172791 2.38911322962 -0.40597095180 -1.46251244820 2.39869923118 -0.29501114837 -1.34986600920 2.27199795263 -0.30608457654 -1.37683577665 2.29155899318 -0.31470326154 -1.39882470661 2.31002719962 -0.32117400732 -1.41640245739 2.32735342534 -0.32580361785 -1.43013868728 2.34348852369 -0.32889889711 -1.44060305460 2.35838334808 -0.33076664904 -1.44836521765 2.37198875187 -0.33171367762 -1.45399483473 2.38425558844 -0.33204678682 -1.45806156415 2.39513471118 -0.33207278059 -1.46113506422 2.40457697347 -0.90151027582 -1.44251616542 2.14863469810 -0.93043235679 -1.45061381457 2.16713356471 -0.95301777676 -1.45866262238 2.18713523083 -0.97012611279 -1.46643632898 2.20796709963 -0.98261694194 -1.47370867450 2.22895657429 -0.99134984127 -1.48025339907 2.24943105799 -0.99718438785 -1.48584424281 2.26871795390 -1.00098015872 -1.49025494587 2.28614466520 -1.00359673096 -1.49325924836 2.30103859507 -1.00589368162 -1.49463089043 2.31272714669 -0.80938718290 -1.43961003869 2.16402626362 -0.84364120386 -1.44903399261 2.18430433132 -0.87035827046 -1.45774830622 2.20503014579 -0.89052781603 -1.46565745257 2.22578402968 -0.90513927386 -1.47266590471 2.24614630562 -0.91518207725 -1.47867813570 2.26569729627 -0.92164565952 -1.48359861858 2.28401732427 -0.92551945397 -1.48733182641 2.30068671226 -0.92779289390 -1.48978223223 2.31528578290 -0.92945541263 -1.49085430910 2.32739485883 -0.72053777959 -1.43594603285 2.18010777371 -0.75916933860 -1.44662145329 2.20128788798 -0.78927931969 -1.45602433808 2.22219812438 -0.81196444159 -1.46416823307 2.24260032358 -0.82832142302 -1.47106668408 2.26225632625 -0.83944698272 -1.47673323697 2.28092797306 -0.84643783942 -1.48118143758 2.29837710469 -0.85039071186 -1.48442483174 2.31436556180 -0.85240231877 -1.48647696529 2.32865518506 -0.85356937887 -1.48735138409 2.34100781514 -0.63616921603 -1.43164587142 2.19646833458 -0.67786166364 -1.44351126294 2.21783284295 -0.71034318209 -1.45362655563 2.23849415863 -0.73478472462 -1.46209528547 2.25833471602 -0.75235724449 -1.46902098840 2.27723694953 -0.76423169494 -1.47450720041 2.29508329356 -0.77157902920 -1.47865745745 2.31175618251 -0.77557020053 -1.48157529549 2.32713805078 -0.77737616217 -1.48336425049 2.34111133278 -0.77816786736 -1.48412785842 2.35355846291 -0.55748864236 -1.42683127790 2.21269705240 -0.60056308155 -1.43983848785 2.23368780449 -0.63411211529 -1.45069079650 2.25377324059 -0.65933740032 -1.45956522474 2.27290594170 -0.67744059337 -1.46663879346 2.29103848881 -0.68962335120 -1.47208852354 2.30812346293 -0.69708733054 -1.47609143585 2.32411344506 -0.70103418814 -1.47882455129 2.33896101618 -0.70266558074 -1.48046489074 2.35261875730 -0.70318316508 -1.48118947508 2.36503924941 -0.48570320870 -1.42162397582 2.22838303338 -0.52811849495 -1.43573819434 2.24860138085 -0.56114837695 -1.44735289834 2.26789036229 -0.58597120384 -1.45670466589 2.28623273528 -0.60376532473 -1.46403007504 2.30361125744 -0.61570908877 -1.46956570387 2.32000868637 -0.62298084509 -1.47354813043 2.33540777968 -0.62675894282 -1.47621393277 2.34979129497 -0.62822173109 -1.47779968897 2.36314198985 -0.62854755903 -1.47854197709 2.37544262192 -0.42202006518 -1.41614568869 2.24311538369 -0.46137280643 -1.43134544871 2.26232218030 -0.49201422471 -1.44374869879 2.28070051577 -0.51503487035 -1.45364022388 2.29823383146 -0.53152529365 -1.46130480894 2.31490556876 -0.54257604494 -1.46702723893 2.33069916906 -0.54927767452 -1.47109229882 2.34559807372 -0.55272073272 -1.47378477356 2.35958572414 -0.55399576984 -1.47538944812 2.37264556168 -0.55419333620 -1.47619110745 2.38476102774 -0.36764636195 -1.41051814002 2.25648320953 -0.40117091858 -1.42679531728 2.27459881110 -0.42727191621 -1.44001403549 2.29205869307 -0.44687713502 -1.45049851370 2.30882796493 -0.46091435521 -1.45857297093 2.32487173613 -0.47031135697 -1.46456162625 2.34015511617 -0.47599592050 -1.46878869869 2.35464321452 -0.47889582598 -1.47157840729 2.36830114064 -0.47993885362 -1.47325497110 2.38109400402 -0.48005278359 -1.47414260917 2.39298691412 -0.32378924913 -1.40486305333 2.26807561709 -0.34835773402 -1.42222286636 2.28517988150 -0.36748370909 -1.43628474610 2.30181988624 -0.38184673303 -1.44740615033 2.31793387036 -0.39212636449 -1.45594453682 2.33346007290 -0.39900216215 -1.46225736334 2.34833673290 -0.40315368469 -1.46670208767 2.36250208940 -0.40526049076 -1.46963616758 2.37589438146 -0.40600213904 -1.47141706085 2.38845184809 -0.40605818820 -1.47240222526 2.40011272836 -0.29165587685 -1.39930215213 2.27748171256 -0.30377815533 -1.41776316225 2.29381399976 -0.31321186101 -1.43269666825 2.30983908731 -0.32029239954 -1.44448974876 2.32547028245 -0.32535517657 -1.45352948237 2.34062089241 -0.32873559776 -1.46020294772 2.35520422442 -0.33076906874 -1.46489722342 2.36913358573 -0.33179099518 -1.46799938807 2.38232228356 -0.33213678272 -1.46989652030 2.39468362515 -0.33214183701 -1.47097569872 2.40613091774 -0.93345011554 -1.47909914965 2.16019242323 -0.95299212959 -1.48387854373 2.17501505430 -0.96826657523 -1.48879474785 2.19177913535 -0.97987456595 -1.49364187508 2.20980970398 -0.98841721528 -1.49821403849 2.22843179780 -0.99449563670 -1.50230535115 2.24697045442 -0.99871094374 -1.50570992613 2.26475071146 -1.00166424989 -1.50822187650 2.28109760652 -1.00395666866 -1.50963531534 2.29533617722 -1.00618931356 -1.50974435572 2.30679146117 -0.82320530185 -1.47768128341 2.17605935056 -0.85347184636 -1.48316130905 2.19226344748 -0.87707638332 -1.48827612838 2.20955851052 -0.89489917964 -1.49291940541 2.22749958242 -0.90782050226 -1.49698480416 2.24564170593 -0.91672061810 -1.50036598861 2.26353992380 -0.92247979409 -1.50295662278 2.28074927879 -0.92597829715 -1.50465037068 2.29682481366 -0.92809639421 -1.50534089631 2.31132157114 -0.92971435219 -1.50492186367 2.32379459401 -0.72237616383 -1.47530111140 2.19215615492 -0.76058321304 -1.48149244648 2.20908792288 -0.79035452377 -1.48689258314 2.22652234603 -0.81277632986 -1.49147832488 2.24418114013 -0.82893486518 -1.49522647526 2.26178602095 -0.83991636356 -1.49811383779 2.27905870427 -0.84680705885 -1.50011721601 2.29572090587 -0.85069318490 -1.50121341344 2.31149434151 -0.85266097557 -1.50137923362 2.32610072698 -0.85379666469 -1.50059148008 2.33926177803 -0.63106939256 -1.47212458925 2.20817076400 -0.67439810574 -1.47903638170 2.22529422917 -0.70814526909 -1.48479786551 2.24255339565 -0.73352845032 -1.48945443386 2.25978250175 -0.75176521714 -1.49305147990 2.27681578582 -0.76407313726 -1.49563439679 2.29348748619 -0.77166977841 -1.49724857769 2.30963184118 -0.77577270829 -1.49793941576 2.32508308914 -0.77759949462 -1.49775230416 2.33967546839 -0.77836770511 -1.49673263606 2.35324321727 -0.54939167913 -1.46831767261 2.22379110545 -0.59498840061 -1.47595754035 2.24068811502 -0.63049289182 -1.48214572891 2.25753441316 -0.65717797471 -1.48698353271 2.27423179195 -0.67631647126 -1.49057224617 2.29068204349 -0.68918120343 -1.49301316369 2.30678695988 -0.69704499317 -1.49440757970 2.32244833321 -0.70118066246 -1.49485678859 2.33756795557 -0.70286103325 -1.49446208479 2.35204761905 -0.70335892750 -1.49332476271 2.36578911575 -0.47744971464 -1.46404631713 2.23870510695 -0.52242597377 -1.47242034809 2.25507532909 -0.55744166446 -1.47908992671 2.27134815232 -0.58374733675 -1.48420142180 2.28745713536 -0.60259354067 -1.48790120217 2.30333583692 -0.61523082626 -1.49033563661 2.31891781572 -0.62290974354 -1.49165109392 2.33413663046 -0.62688084256 -1.49199394292 2.34892583986 -0.62839467334 -1.49151055239 2.36321900264 -0.62870178591 -1.49034729115 2.37694967750 -0.41535019018 -1.45947647844 2.25260069617 -0.45678270134 -1.46858923057 2.26826162005 -0.48903585954 -1.47578421231 2.28387736693 -0.51325897013 -1.48124390150 2.29938665664 -0.53060133847 -1.48515077599 2.31472820906 -0.54221226995 -1.48768731363 2.32984074403 -0.54924106991 -1.48903599225 2.34466298141 -0.55283704373 -1.48937928970 2.35913364105 -0.55414949677 -1.48889968383 2.37319144281 -0.55432773440 -1.48777965248 2.38677510654 -0.36319979685 -1.45477411220 2.26516580077 -0.39813045947 -1.46462861346 2.28005273658 -0.42531974958 -1.47238233910 2.29500481074 -0.44573530855 -1.47824677217 2.30994848044 -0.46034477780 -1.48243339574 2.32481020286 -0.47011579871 -1.48515369285 2.33951643517 -0.47601601269 -1.48661914655 2.35399363455 -0.47901306114 -1.48704123991 2.36816825818 -0.48007458545 -1.48663145598 2.38196676324 -0.48016822702 -1.48560127781 2.39531560689 -0.32110522573 -1.45010517403 2.27608834843 -0.34654112429 -1.46070292240 2.29025442733 -0.36633760710 -1.46903806047 2.30461323754 -0.38119878573 -1.47534583419 2.31907073141 -0.39182877175 -1.47986148950 2.33353286128 -0.39893167674 -1.48282027236 2.34790557949 -0.40321161227 -1.48445742872 2.36209483838 -0.40537268991 -1.48500820452 2.37600659030 -0.40611902123 -1.48470784571 2.38954678759 -0.40615471781 -1.48379159825 2.40262138259 -0.28917316792 -1.44563561959 2.28505626681 -0.30208657191 -1.45697658305 2.29867244098 -0.31213370461 -1.46590512981 2.31258540110 -0.31967183535 -1.47267688791 2.32668153419 -0.32505823346 -1.47754748538 2.34084722726 -0.32865016825 -1.48077255028 2.35496886732 -0.33080490906 -1.48260771063 2.36893284138 -0.33187972521 -1.48330859449 2.38262553645 -0.33223188603 -1.48313082990 2.39593333954 -0.33221866084 -1.48233004490 2.40874263766 -0.95430300796 -1.51892200786 2.17384434981 -0.96778063044 -1.52060617209 2.18591345640 -0.97832049349 -1.52226742248 2.20008205485 -0.98635853355 -1.52380406144 2.21571444551 -0.99233068703 -1.52511439141 2.23217492873 -0.99667289035 -1.52609671481 2.24882780485 -0.99982107993 -1.52664933407 2.26503737420 -1.00221119218 -1.52667055160 2.28016793713 -1.00427916353 -1.52605866985 2.29358379398 -1.00646093040 -1.52471199122 2.30464924509 -0.83200098381 -1.51771092293 2.18969325047 -0.85978104251 -1.51953782377 2.20281547425 -0.88143910864 -1.52106963227 2.21737784086 -0.89778862256 -1.52225441654 2.23294655092 -0.90964302463 -1.52304024468 2.24908780508 -0.91781575520 -1.52337518481 2.26536780397 -0.92312025464 -1.52320730504 2.28135274823 -0.92636996331 -1.52248467346 2.29660883848 -0.92837832157 -1.52115535820 2.31070227536 -0.92995876977 -1.51916742737 2.32319925952 -0.72323548244 -1.51557167799 2.20553226612 -0.76130922873 -1.51764285876 2.21921737094 -0.79096763310 -1.51917961709 2.23388324151 -0.81329486085 -1.52017354003 2.24924282311 -0.82937507725 -1.52061621466 2.26500906102 -0.84029244758 -1.52049922802 2.28089490051 -0.84713113714 -1.51981416719 2.29661328687 -0.85097531121 -1.51855261921 2.31187716538 -0.85290913506 -1.51670617116 2.32639948131 -0.85401677398 -1.51426641008 2.33989317995 -0.62737170969 -1.51268128912 2.22110862530 -0.67191558474 -1.51508141842 2.23495426253 -0.70660043682 -1.51673776075 2.24949017199 -0.73267893323 -1.51767964973 2.26452886113 -0.75140374125 -1.51793641899 2.27988283740 -0.76402752818 -1.51753740216 2.29536460825 -0.77180296132 -1.51651193285 2.31078668114 -0.77598270796 -1.51488934469 2.32596156352 -0.77781943540 -1.51269897131 2.34070176284 -0.77856581093 -1.50997014633 2.35481978655 -0.54377487139 -1.50921677242 2.23616955654 -0.59115050623 -1.51201364414 2.24986126507 -0.62803188977 -1.51388444710 2.26409054745 -0.65574252453 -1.51489096345 2.27873026402 -0.67560591299 -1.51509497534 2.29365327508 -0.68894555767 -1.51455826492 2.30873244099 -0.69708496106 -1.51334261433 2.32384062205 -0.70134762567 -1.51150980574 2.33885067860 -0.70305705399 -1.50912162127 2.35363547097 -0.70353674853 -1.50623984309 2.36806785947 -0.47181017340 -1.50535514398 2.25046228837 -0.51856438886 -1.50859967727 2.26377349462 -0.55495636192 -1.51076005995 2.27757628308 -0.58228731958 -1.51192569898 2.29177263082 -0.60185848885 -1.51218600134 2.30626451494 -0.61497109673 -1.51163037402 2.32095391250 -0.62292637025 -1.51034822398 2.33574280060 -0.62702553640 -1.50842895819 2.35053315631 -0.62856982220 -1.50596198365 2.36522695670 -0.62886045466 -1.50303670731 2.37972617888 -0.41084282154 -1.50127341990 2.26373404933 -0.45370762831 -1.50499965921 2.27652606724 -0.48706822322 -1.50750498314 2.28983929403 -0.51211500320 -1.50890207414 2.30358156060 -0.53003836517 -1.50930361467 2.31766069782 -0.54202870605 -1.50882228717 2.33198453660 -0.54927642278 -1.50757077409 2.34646090780 -0.55297191227 -1.50566175790 2.36099764233 -0.55430557144 -1.50320792105 2.37550257107 -0.55446779723 -1.50032194597 2.38988352491 -0.36023802165 -1.49714861626 2.27573206796 -0.39613062024 -1.50137373132 2.28795409899 -0.42406184364 -1.50425960050 2.30077149549 -0.44502726022 -1.50593830674 2.31408265239 -0.46002243832 -1.50654193296 2.32778596460 -0.47004294630 -1.50620256207 2.34177982706 -0.47608435253 -1.50505227702 2.35596263467 -0.47914222534 -1.50322316071 2.37023278238 -0.48021213309 -1.50084729607 2.38448866509 -0.48028964415 -1.49805676604 2.39862867774 -0.31936097958 -1.49315774916 2.28620357278 -0.34538376032 -1.49788203497 2.29789270592 -0.36563159314 -1.50116429587 2.31026480261 -0.38082577545 -1.50315261459 2.32320150523 -0.39168760466 -1.50399507387 2.33658445613 -0.39893837817 -1.50383975645 2.35029529767 -0.40329939338 -1.50283474506 2.36421567222 -0.40549194771 -1.50112812245 2.37822722213 -0.40623733854 -1.49886797134 2.39221158978 -0.40625686330 -1.49620237448 2.40605041751 -0.28757690117 -1.48947783470 2.29489579233 -0.30101744423 -1.49468471154 2.30617700409 -0.31147184169 -1.49835945306 2.31821113058 -0.31931223374 -1.50066321549 2.33086371818 -0.32491076056 -1.50175715505 2.34400031327 -0.32863956233 -1.50180242800 2.35748646223 -0.33087077924 -1.50096019055 2.37118771145 -0.33197655146 -1.49939159896 2.38496960729 -0.33232901919 -1.49725780945 2.39869769615 -0.33230032260 -1.49471997825 2.41223752439 -0.96376979797 -1.56030089156 2.18900285617 -0.97457889157 -1.55901479798 2.19917832896 -0.98302457672 -1.55733108200 2.21138945168 -0.98947272649 -1.55530548217 2.22506799838 -0.99428921399 -1.55299373701 2.23964574311 -0.99783991230 -1.55045158507 2.25455445994 -1.00049069452 -1.54773476490 2.26922592291 -1.00260743374 -1.54489901502 2.28309190609 -1.00455600305 -1.54200007399 2.29558418352 -1.00670227554 -1.53909368033 2.30613452926 -0.83550648992 -1.55859316289 2.20456174065 -0.86237489614 -1.55690152426 2.21551189850 -0.88331086671 -1.55482542804 2.22800846547 -0.89910521187 -1.55240787323 2.24165448249 -0.91054874189 -1.54969185884 2.25605299049 -0.91843226701 -1.54672038387 2.27080703038 -0.92354659750 -1.54353644732 2.28551964307 -0.92668254360 -1.54018304819 2.29979386950 -0.92863091558 -1.53670318549 2.31323275058 -0.93018252369 -1.53313985822 2.32543932723 -0.72288804560 -1.55611060207 2.22003808012 -0.76118357293 -1.55422066780 2.23138211192 -0.79100494023 -1.55193228735 2.24393551551 -0.81344435800 -1.54928307029 2.25742517423 -0.82959403675 -1.54631062620 2.27157797142 -0.84054618698 -1.54305256463 2.28612079044 -0.84739301920 -1.53954649517 2.30078051461 -0.85122674392 -1.53583002737 2.31528402727 -0.85313957163 -1.53194077082 2.32935821177 -0.85422371283 -1.52791633508 2.34272995146 -0.62489382022 -1.55302467153 2.23520703255 -0.67028324643 -1.55110953651 2.24663266853 -0.70561808212 -1.54876044953 2.25905883256 -0.73217598191 -1.54601559781 2.27229573480 -0.75123460040 -1.54291316858 2.28615358542 -0.76407159220 -1.53949134905 2.30044259458 -0.77196461193 -1.53578832645 2.31497297245 -0.77619131419 -1.53184228800 2.32955492919 -0.77802935358 -1.52769142093 2.34399867497 -0.77875638474 -1.52337391245 2.35811441995 -0.54050316895 -1.54950683371 2.24984375591 -0.58895224114 -1.54770543830 2.26110726764 -0.62666157726 -1.54541870417 2.27326664741 -0.65498590066 -1.54268998025 2.28618182543 -0.67527993469 -1.53956261548 2.29971273197 -0.68889840268 -1.53607995881 2.31371929726 -0.69719602798 -1.53228535917 2.32806145154 -0.70152753393 -1.52822216551 2.34259912505 -0.70324764387 -1.52393372677 2.35719224803 -0.70371108116 -1.51946339188 2.37170075072 -0.46869544701 -1.54572855104 2.26372340819 -0.51646888156 -1.54414568108 2.27464960856 -0.55364671050 -1.54201584085 2.28644719080 -0.58155993130 -1.53939074205 2.29899910734 -0.60153954144 -1.53632209640 2.31218831057 -0.61491653840 -1.53286161559 2.32589775293 -0.62302191965 -1.52906101133 2.34001038681 -0.62718668265 -1.52497199533 2.35440916464 -0.62874182490 -1.52064627930 2.36897703882 -0.62901834387 -1.51613557493 2.38359696178 -0.40845000956 -1.54186128595 2.27662114738 -0.45211149218 -1.54056757275 2.28710339059 -0.48608476669 -1.53866064916 2.29848869353 -0.51158389087 -1.53620240769 2.31066324173 -0.52982292251 -1.53325474083 2.32351322072 -0.54201591937 -1.52987954108 2.33692481604 -0.54937693924 -1.52613870094 2.35078421321 -0.55312003988 -1.52209411290 2.36497759776 -0.55445927908 -1.51780766947 2.37939115522 -0.55460871462 -1.51334126314 2.39391107113 -0.35874621182 -1.53807650089 2.28831213143 -0.39515839750 -1.53710842122 2.29831231302 -0.42348703069 -1.53546191870 2.30927938634 -0.44474359643 -1.53320950161 2.32108988983 -0.45993957972 -1.53042367827 2.33362036192 -0.47008646559 -1.52717695696 2.34674734105 -0.47619573905 -1.52354184599 2.36034736567 -0.47927888512 -1.51959085365 2.37429697420 -0.48034738883 -1.51539648825 2.38847270510 -0.48041273519 -1.51103125808 2.40275109679 -0.31856340896 -1.53454565829 2.29857151835 -0.34488792201 -1.53390553441 2.30812007518 -0.36536478737 -1.53252843904 2.31870750002 -0.38072486501 -1.53049654828 2.33019471285 -0.39169901491 -1.52789203820 2.34244263365 -0.39901809705 -1.52479708491 2.35531218241 -0.40341297138 -1.52129386448 2.36866427912 -0.40561449789 -1.51746455301 2.38235984376 -0.40635353655 -1.51339132658 2.39625979632 -0.40636094733 -1.50915636127 2.41022505677 -0.28688095619 -1.53144022059 2.30717446610 -0.30057839021 -1.53109622021 2.31637037636 -0.31122932157 -1.52996899978 2.32666126533 -0.31921351367 -1.52814807214 2.33789337201 -0.32491072993 -1.52572295014 2.34991293542 -0.32870073375 -1.52278314662 2.36256619459 -0.33096328853 -1.51941817443 2.37569938852 -0.33207815770 -1.51571754642 2.38915875623 -0.33242510466 -1.51177077542 2.40279053674 -0.33238389281 -1.50766737429 2.41644096907 -0.96155133041 -1.60155195226 2.20508032063 -0.97316794525 -1.59732251974 2.21415922998 -0.98222387007 -1.59223616219 2.22504678820 -0.98911185569 -1.58652873137 2.23725703672 -0.99422465294 -1.58043607903 2.25030401696 -0.99795501264 -1.57419405695 2.26370177038 -1.00069568561 -1.56803851689 2.27696433840 -1.00283942267 -1.56220531062 2.28960576246 -1.00477897465 -1.55693028989 2.30114008400 -1.00690709236 -1.55244930647 2.31108134445 -0.83345408130 -1.59922220892 2.22029859839 -0.86105951108 -1.59399039797 2.22990420710 -0.88255607779 -1.58824012581 2.24097071303 -0.89875801467 -1.58212516277 2.25315292443 -0.91047955499 -1.57579927917 2.26610564954 -0.91853493201 -1.56941624533 2.27948369659 -0.92373837899 -1.56312983160 2.29294187383 -0.92690412919 -1.55709380830 2.30613498949 -0.92884641587 -1.55146194575 2.31871785180 -0.93037947228 -1.54638801429 2.33034526902 -0.72110616348 -1.59627075308 2.23547556971 -0.76004243291 -1.59037385128 2.24528802557 -0.79035273769 -1.58419744133 2.25633387269 -0.81314914480 -1.57783610743 2.26836799517 -0.82954372122 -1.57138443378 2.28114527714 -0.84064853393 -1.56493700457 2.29442060270 -0.84757564992 -1.55858840399 2.30794885597 -0.85143713617 -1.55243321625 2.32148492106 -0.85334505965 -1.54656602554 2.33478368207 -0.85441148735 -1.54108141605 2.34760002312 -0.62345337693 -1.59286343698 2.25039109979 -0.66937023661 -1.58658389936 2.26014917269 -0.70510760186 -1.58018014004 2.27101372228 -0.73195940495 -1.57370694283 2.28280506344 -0.75121957819 -1.56721909154 2.29534351105 -0.76418205385 -1.56077137000 2.30844937999 -0.77214076422 -1.55441856202 2.32194298514 -0.77638964158 -1.54821545141 2.33564464139 -0.77822261822 -1.54221682200 2.34937466361 -0.77893362643 -1.53647745761 2.36295336670 -0.53944152161 -1.58916611286 2.26482505381 -0.58829644807 -1.58273156193 2.27432613575 -0.62631442239 -1.57626025323 2.28488771693 -0.65486295403 -1.56978304641 2.29636694374 -0.67530955248 -1.56333080111 2.30862096254 -0.68902172720 -1.55693437697 2.32150691972 -0.69736698769 -1.55062463362 2.33488196164 -0.70171284340 -1.54443243071 2.34860323469 -0.70342680381 -1.53838862788 2.36252788524 -0.70387637841 -1.53252408476 2.37651305966 -0.46801639751 -1.58534463297 2.27855729699 -0.51607459318 -1.57892785868 2.28765740203 -0.55346695137 -1.57250981221 2.29783331175 -0.58153395091 -1.56610979566 2.30895645057 -0.60161607065 -1.55974711116 2.32089824291 -0.61505378945 -1.55344106081 2.33353011318 -0.62318758615 -1.54721094675 2.34672348580 -0.62735793959 -1.54107607107 2.36034978519 -0.62890532864 -1.53505573590 2.37428043577 -0.62917023214 -1.52916924335 2.38838686195 -0.40812380458 -1.58156484953 2.29136769450 -0.45195819783 -1.57528380931 2.29998145881 -0.48605894089 -1.56900084825 2.30972796184 -0.51164655447 -1.56273256803 2.32047639844 -0.52994155928 -1.55649557035 2.33209596342 -0.54216447603 -1.55030645689 2.34445585164 -0.54953582541 -1.54418182935 2.35742525792 -0.55327612815 -1.53813828943 2.37087337710 -0.55460590494 -1.53219243882 2.38466940401 -0.55474567649 -1.52636087920 2.39868253348 -0.35870954281 -1.57799261479 2.30303611156 -0.39520078789 -1.57191043353 2.31113679339 -0.42358414304 -1.56580539266 2.32044912233 -0.44487492361 -1.55969674099 2.33082960185 -0.46008844494 -1.55360372734 2.34213473538 -0.47024002239 -1.54754560053 2.35422102639 -0.47634497130 -1.54154160939 2.36694497832 -0.47941860703 -1.53561100272 2.38016309463 -0.48047624493 -1.52977302936 2.39373187877 -0.48053320033 -1.52404693812 2.40750783419 -0.31871941215 -1.57479378100 2.31334241334 -0.34505588925 -1.56891875104 2.32096189304 -0.36553630991 -1.56299547673 2.32987424833 -0.38089321719 -1.55704769200 2.33991887530 -0.39185915419 -1.55109913080 2.35093517005 -0.39916666398 -1.54517352708 2.36276252869 -0.40354828963 -1.53929461479 2.37524034730 -0.40573657422 -1.53348612787 2.38820802200 -0.40646406083 -1.52777180028 2.40150494887 -0.40646329254 -1.52217536595 2.41497052401 -0.28709921259 -1.57213420038 2.32206646506 -0.30077702781 -1.56641978155 2.32929524506 -0.31140919359 -1.56064313175 2.33788079494 -0.31937559412 -1.55483079853 2.34764703330 -0.32505611361 -1.54900932940 2.35841787873 -0.32883063624 -1.54320527189 2.37001724983 -0.33107904620 -1.53744517352 2.38226906519 -0.33218122769 -1.53175558182 2.39499724343 -0.33251706488 -1.52616304431 2.40802570312 -0.33246644198 -1.52069410851 2.42117836286 -0.94734845017 -1.64099134148 2.22148912151 -0.96332882371 -1.63374743572 2.23020571744 -0.97576341871 -1.62523309880 2.24039952677 -0.98517063206 -1.61585640315 2.25166823466 -0.99206886068 -1.60602542123 2.26360952630 -0.99697650145 -1.59614822547 2.27582108684 -1.00041195130 -1.58663288832 2.28790060146 -1.00289360710 -1.57788748224 2.29944575532 -1.00493986578 -1.57032007967 2.31005423360 -1.00706912424 -1.56433875305 2.31932372147 -0.82557601910 -1.63849226665 2.23653760097 -0.85564099117 -1.62954243239 2.24554388693 -0.87903916215 -1.62001033574 2.25578491222 -0.89665609804 -1.61015167244 2.26697142405 -0.90937736487 -1.60022213821 2.27881416964 -0.91808852867 -1.59047742878 2.29102389622 -0.92367515544 -1.58117323987 2.30331135100 -0.92702281122 -1.57256526722 2.31538728120 -0.92901706202 -1.56490920656 2.32696243405 -0.93054347386 -1.55846075360 2.33774755676 -0.71766214624 -1.63540500045 2.25164670770 -0.75772199592 -1.62525038687 2.26064099167 -0.78889731802 -1.61502192644 2.27073301773 -0.81233354471 -1.60486184323 2.28171108764 -0.82917610818 -1.59491236133 2.29336350314 -0.84057044062 -1.58531570480 2.30547856597 -0.84766197420 -1.57621409772 2.31784457788 -0.85159614110 -1.56774976418 2.33024984061 -0.85351837352 -1.56006492825 2.34248265591 -0.85457410362 -1.55330181401 2.35433132552 -0.62286803260 -1.63190628596 2.26658594108 -0.66904570108 -1.62096767038 2.27532350053 -0.70497839287 -1.61031104047 2.28510918606 -0.73196901093 -1.59999834951 2.29577878770 -0.75132045819 -1.59009155077 2.30716809544 -0.76433563762 -1.58065259753 2.31911289929 -0.77231745217 -1.57174344306 2.33144898927 -0.77656880477 -1.56342604064 2.34401215537 -0.77839259838 -1.55576234354 2.35663818761 -0.77909173594 -1.54881430503 2.36916287600 -0.54045487916 -1.62817286626 2.28112480049 -0.58908596975 -1.61679065410 2.28941788239 -0.62692289325 -1.60592084740 2.29877875996 -0.65532853553 -1.59557262525 2.30906608647 -0.67566578249 -1.58575516675 2.32013851519 -0.68929752000 -1.57647765099 2.33185469939 -0.69758663395 -1.56774925708 2.34407329234 -0.70189601023 -1.55957916412 2.35665294732 -0.70358853471 -1.55197655120 2.36945231760 -0.70402709328 -1.54495059742 2.38233005644 -0.46968388693 -1.62438148442 2.29503278531 -0.51731666506 -1.61281570925 2.30275060613 -0.55437132569 -1.60189451681 2.31160708216 -0.58217815737 -1.59159610444 2.32146454619 -0.60206744865 -1.58189866945 2.33218533102 -0.61536948807 -1.57278040919 2.34363176945 -0.62341456417 -1.56421952097 2.35566619428 -0.62753296551 -1.55619420214 2.36815093829 -0.62905498063 -1.54868265002 2.38094833430 -0.62931089807 -1.54166306194 2.39392071510 -0.40981625690 -1.62070888352 2.30807939491 -0.45321165012 -1.60913920702 2.31514814063 -0.48696419675 -1.59827521828 2.32345949542 -0.51228391530 -1.58808022105 2.33286572912 -0.53038082426 -1.57851751909 2.34321911160 -0.54246494214 -1.56955041613 2.35437191269 -0.54974628743 -1.56114221593 2.36617640224 -0.55343487863 -1.55325622223 2.37848485012 -0.55474073424 -1.54585573878 2.39114952616 -0.55487387276 -1.53890406934 2.40402270023 -0.36011319006 -1.61733180663 2.32003412867 -0.39624478804 -1.60585751860 2.32643695477 -0.42434201297 -1.59510612138 2.33420134248 -0.44541184816 -1.58503640908 2.34316119751 -0.46046127691 -1.57560717585 2.35315042555 -0.47049728254 -1.56677721583 2.36400293229 -0.47652684833 -1.55850532313 2.37555262342 -0.47955695760 -1.55075029191 2.38763340463 -0.48059459365 -1.54347091628 2.40007918162 -0.48064673979 -1.53662599038 2.41272386007 -0.31983588742 -1.61442699684 2.33066648598 -0.34588994194 -1.60306701521 2.33644351741 -0.36614528089 -1.59243039567 2.34369796609 -0.38132799480 -1.58247610250 2.35224251360 -0.39216417419 -1.57316309995 2.36188984153 -0.39937990957 -1.56445035229 2.37245263146 -0.40370129148 -1.55629682379 2.38374356498 -0.40585441044 -1.54866147870 2.39557532366 -0.40656535698 -1.54150328129 2.40776058910 -0.40656022160 -1.53478119583 2.42011204288 -0.28824554997 -1.61217119721 2.33974596619 -0.30162097494 -1.60086406803 2.34499429745 -0.31201450707 -1.59029121075 2.35181470900 -0.31979839407 -1.58041073529 2.36000123965 -0.32534488366 -1.57118075158 2.36934792818 -0.32902622357 -1.56255936953 2.37964881340 -0.33121466150 -1.55450469907 2.39069793409 -0.33228244518 -1.54697485012 2.40228932904 -0.33260182232 -1.53992793260 2.41421703705 -0.33254504064 -1.53332205642 2.42627509691 -0.92086200208 -1.67693521073 2.23764163714 -0.94484255920 -1.66650764426 2.24666734930 -0.96348826780 -1.65457232758 2.25679312973 -0.97754376652 -1.64167109163 2.26768826636 -0.98775369399 -1.62834576734 2.27902204713 -0.99486268883 -1.61513818564 2.29046375999 -0.99961538968 -1.60259017746 2.30168269288 -1.00275643516 -1.59124357375 2.31234813373 -1.00503046391 -1.58164020544 2.32212937050 -1.00718211455 -1.57432190347 2.33069569111 -0.81160456445 -1.67529754170 2.25291252567 -0.84592544025 -1.66229561497 2.26198242487 -0.87262454006 -1.64883266796 2.27197139169 -0.89270852907 -1.63523278953 2.28263952863 -0.90718407247 -1.62182006852 2.29374693818 -0.91705783545 -1.60891859376 2.30505372283 -0.92333648318 -1.59685245411 2.31631998508 -0.92702668085 -1.58594573841 2.32730582742 -0.92913509366 -1.57652253549 2.33777135234 -0.93066838677 -1.56890693420 2.34747666234 -0.71232830407 -1.67286621361 2.26835346687 -0.75405844924 -1.65799825225 2.27714688996 -0.78652497376 -1.64345259009 2.28678765532 -0.81092188121 -1.62938946947 2.29709425333 -0.82844317517 -1.61596913275 2.30788517439 -0.84028285922 -1.60335182228 2.31897890889 -0.84763493692 -1.59169778041 2.33019394723 -0.85169341186 -1.58116724949 2.34134877980 -0.85365228761 -1.57192047188 2.35226189700 -0.85470556775 -1.56411768992 2.36275178922 -0.62295544003 -1.66986191897 2.28371667048 -0.66917878564 -1.65372401295 2.29197537755 -0.70513985202 -1.63846735900 2.30109956882 -0.73214460840 -1.62413448259 2.31093884824 -0.75149902400 -1.61076790916 2.32134281975 -0.76450906804 -1.59841016418 2.33216108732 -0.77248070976 -1.58710377311 2.34324325488 -0.77671991837 -1.57689126140 2.35443892640 -0.77853266311 -1.56781515452 2.36559770581 -0.77922491318 -1.55991797792 2.37656919708 -0.54340819141 -1.66650535028 2.29875434619 -0.59122364891 -1.64958135391 2.30628252057 -0.62841945794 -1.63391223978 2.31476478041 -0.65633749607 -1.61946118005 2.32405972116 -0.67631964085 -1.60619134690 2.33402593829 -0.68970776982 -1.59406591248 2.34452202728 -0.69784376055 -1.58304804897 2.35540658360 -0.70206949059 -1.57310092853 2.36653820272 -0.70372683748 -1.56418772333 2.37777548011 -0.70415767879 -1.55627160552 2.38897701123 -0.47360877732 -1.66301720007 2.31321870372 -0.52013023851 -1.64567873198 2.31988295200 -0.55631407464 -1.62982249747 2.32764093829 -0.58346132968 -1.61536291302 2.33634327988 -0.60287304762 -1.60221439511 2.34584059401 -0.61585027245 -1.59029136019 2.35598349794 -0.62369404815 -1.57950822476 2.36662260895 -0.62770541869 -1.56977940528 2.37760854428 -0.62918542808 -1.56101931821 2.38879192121 -0.62943512028 -1.55314238004 2.40002335698 -0.41347941683 -1.65961816084 2.32686195280 -0.45583575392 -1.64212460399 2.33259130477 -0.48877398522 -1.62623339713 2.33958569069 -0.51347689468 -1.61183303265 2.34767593220 -0.53112726624 -1.59881200292 2.35669285091 -0.54290788383 -1.58705880032 2.36646726846 -0.55000153140 -1.57646191723 2.37683000648 -0.55359099289 -1.56690984603 2.38761188660 -0.55485905223 -1.55829107909 2.39864373045 -0.55498849337 -1.55049410879 2.40975635965 -0.36294232904 -1.65652892511 2.33943630314 -0.39827739458 -1.63902742679 2.34422221186 -0.42574947279 -1.62318020383 2.35045668582 -0.44634497651 -1.60886489010 2.35794408591 -0.46105031859 -1.59595911949 2.36648877300 -0.47085191186 -1.58434052588 2.37589510799 -0.47673616917 -1.57388674315 2.38596745176 -0.47968950336 -1.56447540518 2.39651016519 -0.48069832728 -1.55598414587 2.40732760916 -0.48074905376 -1.54829059908 2.41822414457 -0.32191973305 -1.65397018539 2.35069396445 -0.34739235997 -1.63649565723 2.35459030621 -0.36719082046 -1.62069818261 2.36011157188 -0.38202636063 -1.60645183652 2.36703414880 -0.39261022658 -1.59363069394 2.37513442429 -0.39965366444 -1.58210882986 2.38418878570 -0.40386792031 -1.57176031926 2.39397362035 -0.40596424032 -1.56245923713 2.40426531556 -0.40665387056 -1.55407965846 2.41484025868 -0.40664805716 -1.54649565822 2.42547483704 -0.29033384793 -1.65216263419 2.36038714646 -0.30311784956 -1.63463775215 2.36351022078 -0.31304831135 -1.61882259855 2.36840799709 -0.32048183248 -1.60458722308 2.37483252867 -0.32577501213 -1.59180167543 2.38253586879 -0.32928444947 -1.58033600529 2.39127007074 -0.33136674368 -1.57006026234 2.40078718780 -0.33237849394 -1.56084449627 2.41083927324 -0.33267629942 -1.55255875677 2.42117838034 -0.33261675930 -1.54507309354 2.43155656238 -0.88179283103 -1.70769971152 2.25295024583 -0.91749018397 -1.69382124369 2.26289368355 -0.94524346252 -1.67850428430 2.27357305945 -0.96612596998 -1.66235539091 2.28470380595 -0.98121100966 -1.64598112111 2.29600135549 -0.99157188485 -1.62998803247 2.30718114052 -0.99828189885 -1.61498268258 2.31795859346 -1.00241435496 -1.60157162901 2.32804914676 -1.00504255647 -1.59036142934 2.33716823285 -1.00723980669 -1.58195864115 2.34503128416 -0.79127197850 -1.70853223972 2.26905714978 -0.83171896214 -1.69098793319 2.27877130779 -0.86317663179 -1.67340373262 2.28905048013 -0.88682437486 -1.65611390133 2.29968678549 -0.90384157873 -1.63945270264 2.31047234256 -0.91540763082 -1.62375439985 2.32119927003 -0.92270191852 -1.60935325629 2.33165968658 -0.92690382924 -1.59658353528 2.34164571090 -0.92919275038 -1.58577950013 2.35094946169 -0.93074806933 -1.57727541415 2.35936305762 -0.70487694713 -1.70800726201 2.28539782005 -0.74888798011 -1.68776542509 2.29451160023 -0.78312199745 -1.66853627967 2.30415249012 -0.80883847778 -1.65044817791 2.31415729392 -0.82729689972 -1.63362947196 2.32436281585 -0.83975674192 -1.61820851397 2.33460586012 -0.84747748299 -1.60431365610 2.34472323093 -0.85171860158 -1.59207325050 2.35455173251 -0.85373957631 -1.58161564935 2.36392816906 -0.85479988582 -1.57306920478 2.37268934479 -0.62353325200 -1.70643903650 2.30170840203 -0.66963863609 -1.68431609048 2.30992452927 -0.70550137615 -1.66396330383 2.31873921545 -0.73242600594 -1.64536000679 2.32800718571 -0.75171705918 -1.62848552960 2.33758316515 -0.76467906962 -1.61331920248 2.34732187888 -0.77261657099 -1.59984035567 2.35707805204 -0.77683409703 -1.58802831941 2.36670640972 -0.77863618147 -1.57786242394 2.37606167706 -0.77932735806 -1.56932199949 2.38499857916 -0.54816640817 -1.70414182131 2.31772504114 -0.59461232827 -1.68080230043 2.32482006330 -0.63073658457 -1.65974618347 2.33267078220 -0.65784468655 -1.64085117412 2.34112831534 -0.67724214368 -1.62399497608 2.35004378025 -0.69023446542 -1.60905529304 2.35926829443 -0.69812716124 -1.59590982870 2.36865297540 -0.70222574062 -1.58443628674 2.37804894067 -0.70383571303 -1.57451237086 2.38730730776 -0.70426258794 -1.56601578475 2.39627919417 -0.47970193071 -1.70142987457 2.33318388279 -0.52445045487 -1.67738642603 2.33900817073 -0.55924943937 -1.65594629696 2.34580731640 -0.58535224681 -1.63692346605 2.35341253730 -0.60401223976 -1.62013191195 2.36165505094 -0.61648278079 -1.60538561333 2.37036607485 -0.62401723249 -1.59249854886 2.37937682652 -0.62786895743 -1.58128469721 2.38851852349 -0.62929131819 -1.57155803704 2.39762238324 -0.62953767736 -1.56313254701 2.40651962331 -0.41906533470 -1.69861745440 2.34782107237 -0.45979441409 -1.67423083834 2.35229881995 -0.49146175722 -1.65262502268 2.35800894410 -0.51520641392 -1.63357866871 2.36475170605 -0.53216743398 -1.61687043772 2.37232736703 -0.54348386722 -1.60227899100 2.38053618825 -0.55029476346 -1.58958298985 2.38917843093 -0.55373917249 -1.57856109557 2.39805435631 -0.55495614415 -1.56899196943 2.40696422560 -0.55508472823 -1.56065427275 2.41570830003 -0.36718213521 -1.69601881890 2.36137275530 -0.40128560415 -1.67149790845 2.36450197936 -0.42779535479 -1.64984373900 2.36913579137 -0.44766491507 -1.63081856825 2.37503767610 -0.46184781290 -1.61418465391 2.38197111830 -0.47129757619 -1.59970425371 2.38969960272 -0.47696773287 -1.58713962534 2.39798661413 -0.47981181086 -1.57625302653 2.40659563727 -0.48078333807 -1.56680671498 2.41529015692 -0.48083584243 -1.55856294841 2.42383365781 -0.32497784730 -1.69394822621 2.37357507698 -0.34956542324 -1.66935000745 2.37542761735 -0.36867204875 -1.64766382429 2.37904798425 -0.38298547748 -1.62864495081 2.38416230191 -0.39319346307 -1.61204866107 2.39049669454 -0.39998375919 -1.59763022912 2.39777728637 -0.40404411948 -1.58514492902 2.40573020162 -0.40606229759 -1.57434803484 2.41408156452 -0.40672604717 -1.56499482063 2.42255749927 -0.40672312188 -1.55684056046 2.43088413011 -0.29337798605 -1.69271993444 2.38416418281 -0.30527526959 -1.66794950639 2.38488570232 -0.31451365576 -1.64614665694 2.38760564880 -0.32142582834 -1.62705960255 2.39201743796 -0.32634447106 -1.61043655971 2.39781448556 -0.32960226769 -1.59602574489 2.40469020730 -0.33153190199 -1.58357537457 2.41233801893 -0.33246605772 -1.57283366523 2.42045133617 -0.33273741863 -1.56354883333 2.42872357475 -0.33267866848 -1.55546909535 2.43684815040 -0.82984178188 -1.73160099537 2.26682732593 -0.88105273025 -1.71390633236 2.27823427817 -0.92087404801 -1.69527940470 2.29008477827 -0.95081195336 -1.67629189510 2.30210152756 -0.97237266449 -1.65751548629 2.31400722739 -0.98706239961 -1.63952186100 2.32552457909 -0.99638737692 -1.62288270195 2.33637628400 -1.00185381463 -1.60816969187 2.34628504347 -1.00496793093 -1.59595451347 2.35497355883 -1.00723594402 -1.58680884949 2.36216453142 -0.76431052238 -1.73709056633 2.28460525060 -0.81282766070 -1.71435737452 2.29546202257 -0.85055985763 -1.69242013985 2.30654250621 -0.87891270249 -1.67154039512 2.31764274193 -0.89929178459 -1.65197967310 2.32855877018 -0.91310269326 -1.63399950660 2.33908663139 -0.92175101780 -1.61786142840 2.34902236599 -0.92664234754 -1.60382697129 2.35816201442 -0.92918227179 -1.59215766805 2.36630161710 -0.93077637987 -1.58311505147 2.37323721448 -0.69508038560 -1.74018101507 2.30258174001 -0.74204677581 -1.71369988307 2.31244100222 -0.77857468163 -1.68931984262 2.32248222681 -0.80600765787 -1.66706716034 2.33254001112 -0.82568925935 -1.64696810286 2.34244895250 -0.83896304089 -1.62904893682 2.35204364831 -0.84717255730 -1.61333592884 2.36115869590 -0.85166136340 -1.59985534556 2.36962869261 -0.85377301401 -1.58863345359 2.37728823579 -0.85485106395 -1.57969651957 2.38397192281 -0.62441912129 -1.74134633904 2.32048624980 -0.67029439822 -1.71220706637 2.32899068120 -0.70597236213 -1.68611308315 2.33778247089 -0.73275301213 -1.66291958686 2.34670574078 -0.75193634734 -1.64248177497 2.35560461278 -0.76482236687 -1.62465484495 2.36432320881 -0.77271106983 -1.60929399427 2.37270565077 -0.77690245534 -1.59625442039 2.38059606059 -0.77869652253 -1.58539132080 2.38783856018 -0.77939327049 -1.57655989295 2.39427727145 -0.55459447922 -1.74106053573 2.33804823561 -0.59915485056 -1.71015213275 2.34493052359 -0.63380674124 -1.68293443159 2.35232176926 -0.65980495789 -1.65914507077 2.36005233656 -0.67840430711 -1.63852168882 2.36795258944 -0.69085959554 -1.62080192428 2.37585289184 -0.69842562980 -1.60572341567 2.38358360769 -0.70235721650 -1.59302380153 2.39097510095 -0.70390916227 -1.58244072039 2.39785773555 -0.70433627374 -1.57371181078 2.40406187544 -0.48787420914 -1.73979760259 2.35499715307 -0.53021245544 -1.70780829058 2.36007999346 -0.56313166106 -1.67991845809 2.36597865272 -0.58781968775 -1.65579100816 2.37249220412 -0.60546439724 -1.63508884381 2.37941972091 -0.61725365128 -1.61747486809 2.38656027636 -0.62437531162 -1.60261198404 2.39371294371 -0.62801724001 -1.59016309468 2.40067679624 -0.62936729819 -1.57979110306 2.40725090719 -0.62961334792 -1.57115891221 2.41323434982 -0.42652606081 -1.73803153710 2.37106245783 -0.46505153550 -1.70544874820 2.37425855489 -0.49500096371 -1.67719973280 2.37863165209 -0.51745339433 -1.65290479512 2.38393774910 -0.53348787627 -1.63218423934 2.38993284562 -0.54418345843 -1.61465836969 2.39637294133 -0.55061918971 -1.59994749036 2.40301403590 -0.55387411901 -1.58767190557 2.40961212902 -0.55502729523 -1.57745191953 2.41592322037 -0.55515776727 -1.56890783643 2.42170330965 -0.37281778400 -1.73623633670 2.38597360552 -0.40525641336 -1.70334671395 2.38728567196 -0.43046849128 -1.67491282587 2.39015929817 -0.44936227026 -1.65053382774 2.39430137717 -0.46284600279 -1.62980887481 2.39941880200 -0.47182794136 -1.61233712236 2.40521846570 -0.47721633848 -1.59771772564 2.41140726131 -0.47991944663 -1.58554983993 2.41769208187 -0.48084551831 -1.57543262049 2.42377982040 -0.48090280602 -1.56696522258 2.42937736995 -0.32901712846 -1.73488599888 2.39946005177 -0.35241141164 -1.70177539618 2.39898080875 -0.37058808589 -1.67319230745 2.40044012177 -0.38420250814 -1.64872550212 2.40349549396 -0.39391003534 -1.62796374962 2.40780442848 -0.40036602443 -1.61049581939 2.41302442845 -0.40422583234 -1.59591048087 2.41881299702 -0.40614481601 -1.58379650348 2.42482763734 -0.40677833239 -1.57374265666 2.43072585254 -0.40678173842 -1.56533770985 2.43616514577 -0.29739184395 -1.73445452110 2.41125125222 -0.30810085298 -1.70100800324 2.40916342934 -0.31641358965 -1.67217274768 2.40935265370 -0.32263030061 -1.64752721434 2.41143250514 -0.32705123250 -1.62664986316 2.41501656348 -0.32997663198 -1.60911915408 2.41971840852 -0.33170674570 -1.59451354703 2.42515162009 -0.33254182029 -1.58241150194 2.43092977800 -0.33278210240 -1.57239147875 2.43666646208 -0.33272783869 -1.56403193738 2.44197525215 </DataArray>
</Points>
</Piece>
</StructuredGrid>
</VTKFile>
