<?xml version="1.0"?>
<VTKFile type="StructuredGrid" version="0.1">
<StructuredGrid WholeExtent="0 9 0 9 0 9">
<Piece Extent="0 9 0 9 0 9">
<PointData>
<DataArray type="Float32" Name="Deformation" format="ascii" NumberOfComponents="3">
-0.00013190654 -0.00072053623 0.00346310003 -0.00012210330 -0.00080098103 0.00322819415 -0.00010331375 -0.00086735468 0.00294001266 -0.00007760744 -0.00091744887 0.00261204199 -0.00004705390 -0.00094905527 0.00225776855 -0.00001372266 -0.00095996557 0.00189067874 0.00002031674 -0.00094797145 0.00152425898 0.00005299477 -0.00091086459 0.00117199569 0.00008224189 -0.00084643667 0.00084737527 0.00010598856 -0.00075247937 0.00056388414 -0.00015408755 -0.00068733072 0.00360549216 -0.00014187580 -0.00078371630 0.00336591085 -0.00011926163 -0.00086329756 0.00307015157 -0.00008859186 -0.00092545385 0.00273197014 -0.00005221325 -0.00096956449 0.00236512239 -0.00001247263 -0.00099500883 0.00198336415 0.00002828323 -0.00100116620 0.00160045127 0.00006770753 -0.00098741593 0.00123013957 0.00010345346 -0.00095313737 0.00088618488 0.00013317425 -0.00089770985 0.00058234304 -0.00018539549 -0.00068304750 0.00377978372 -0.00017019161 -0.00079839444 0.00353783094 -0.00014265840 -0.00089290791 0.00323446909 -0.00010559149 -0.00096751583 0.00288425326 -0.00006178653 -0.00102314615 0.00250173859 -0.00001403917 -0.00106072679 0.00210148016 0.00003485496 -0.00108118569 0.00169803308 0.00008210020 -0.00108545079 0.00130595248 0.00012490092 -0.00107445001 0.00093979345 0.00016046147 -0.00104911129 0.00061411110 -0.00022524161 -0.00070702839 0.00397909873 -0.00020568213 -0.00084199070 0.00373532518 -0.00017184818 -0.00095124859 0.00342344895 -0.00012704482 -0.00103722478 0.00305921367 -0.00007457713 -0.00110234195 0.00265836298 -0.00001775017 -0.00114902282 0.00223664053 0.00004013098 -0.00117969008 0.00180978994 0.00009576126 -0.00119676644 0.00139355488 0.00014583559 -0.00120267459 0.00100367896 0.00018704891 -0.00119983725 0.00065590583 -0.00027303713 -0.00075861520 0.00419656122 -0.00024697875 -0.00091148032 0.00394976437 -0.00020517514 -0.00103338251 0.00362757490 -0.00015139035 -0.00112817066 0.00324717363 -0.00008938846 -0.00119969362 0.00282574141 -0.00002293353 -0.00125180028 0.00238045905 0.00004421036 -0.00128833951 0.00192850737 0.00010827917 -0.00131316016 0.00148706721 0.00016550881 -0.00133011113 0.00107331939 0.00021213522 -0.00134304127 0.00070444474 -0.00032819328 -0.00083714974 0.00442529520 -0.00029271285 -0.00100383854 0.00417251928 -0.00024098340 -0.00113437256 0.00383733067 -0.00017706655 -0.00123394345 0.00343845546 -0.00010502393 -0.00130774289 0.00299461971 -0.00002891715 -0.00136096256 0.00252454950 0.00004719216 -0.00139879413 0.00204697088 0.00011924238 -0.00142642926 0.00158060994 0.00018317190 -0.00144905962 0.00114419274 0.00023491910 -0.00147187689 0.00075644536 -0.00039012130 -0.00094197383 0.00465842468 -0.00034151582 -0.00111604062 0.00439496069 -0.00027761712 -0.00124928161 0.00404320002 -0.00020251192 -0.00134813312 0.00362338144 -0.00012028695 -0.00141903149 0.00315574373 -0.00003502892 -0.00146841303 0.00266052566 0.00004917543 -0.00150271410 0.00215796599 0.00012823938 -0.00152837100 0.00166830351 0.00019807621 -0.00155182008 0.00121177698 0.00025459920 -0.00157949767 0.00080862518 -0.00045823240 -0.00107242927 0.00488907369 -0.00039201904 -0.00124506180 0.00460845939 -0.00031342043 -0.00137317257 0.00423566667 -0.00022616493 -0.00146432965 0.00379227386 -0.00013398091 -0.00152610112 0.00329985930 -0.00004059674 -0.00156605506 0.00278000131 0.00005025923 -0.00159175956 0.00225427823 0.00013485862 -0.00161078269 0.00174426839 0.00020947306 -0.00163069252 0.00127155011 0.00027037420 -0.00165905715 0.00085770173 -0.00053193782 -0.00122785789 0.00511036624 -0.00044285391 -0.00138787733 0.00480438616 -0.00034673749 -0.00150110832 0.00440521437 -0.00024646409 -0.00157612300 0.00393545502 -0.00014490924 -0.00162149352 0.00341771226 -0.00004494849 -0.00164579203 0.00287459024 0.00005054262 -0.00165759067 0.00232869311 0.00013868856 -0.00166546160 0.00180262501 0.00021661379 -0.00167797695 0.00131899010 0.00028144277 -0.00170370888 0.00090039253 -0.00061064879 -0.00140760148 0.00531542634 -0.00049265182 -0.00154146244 0.00497411178 -0.00037591243 -0.00162815174 0.00454232686 -0.00026184786 -0.00167710315 0.00404324721 -0.00015187533 -0.00169775041 0.00350004846 -0.00004741208 -0.00169952730 0.00293590622 0.00005012467 -0.00169186759 0.00237399614 0.00013931768 -0.00168420502 0.00183749384 0.00021874973 -0.00168597337 0.00134957495 0.00028700359 -0.00170660639 0.00093341509 -0.00012517934 -0.00036582615 0.00335864778 -0.00011302721 -0.00046929467 0.00313386664 -0.00009377230 -0.00055440234 0.00286075353 -0.00006891940 -0.00062022813 0.00254971292 -0.00003997331 -0.00066585102 0.00221114923 -0.00000843882 -0.00069035000 0.00185546692 0.00002417927 -0.00069280403 0.00149307043 0.00005637616 -0.00067229211 0.00113436421 0.00008664706 -0.00062789320 0.00078975270 0.00011348716 -0.00055868629 0.00046964035 -0.00014829518 -0.00037096455 0.00348680687 -0.00013309398 -0.00048707083 0.00325589428 -0.00010968696 -0.00058261948 0.00297487989 -0.00007976331 -0.00065798533 0.00265453805 -0.00004501222 -0.00071354323 0.00230564308 -0.00000712290 -0.00074966805 0.00193896934 0.00003221546 -0.00076673463 0.00156529116 0.00007131366 -0.00076511782 0.00119538289 0.00010848251 -0.00074519248 0.00084001885 0.00014203280 -0.00070733346 0.00050997341 -0.00017855629 -0.00040391035 0.00364447601 -0.00015936387 -0.00053356130 0.00340870782 -0.00013058290 -0.00064006185 0.00311919314 -0.00009423076 -0.00072490206 0.00278748566 -0.00005232484 -0.00078957201 0.00242513910 -0.00000688253 -0.00083556178 0.00204370717 0.00004007878 -0.00086436143 0.00165474358 0.00008654171 -0.00087746104 0.00126980203 0.00013048887 -0.00087635068 0.00090043624 0.00016990287 -0.00086252042 0.00055819992 -0.00021566583 -0.00046479356 0.00382694505 -0.00019120177 -0.00060727607 0.00358664891 -0.00015576767 -0.00072377427 0.00328754749 -0.00011178062 -0.00081675176 0.00294231946 -0.00006165775 -0.00088867216 0.00256364354 -0.00000781618 -0.00094199908 0.00216419841 0.00004732697 -0.00097919612 0.00175666277 0.00010135459 -0.00100272689 0.00135371533 0.00015184954 -0.00101505500 0.00096803477 0.00019639473 -0.00101864406 0.00061229979 -0.00025932695 -0.00055374418 0.00402950382 -0.00022797258 -0.00070672515 0.00378405919 -0.00018454880 -0.00083080157 0.00347379715 -0.00013187173 -0.00092930788 0.00311280315 -0.00007275752 -0.00100557850 0.00271516264 -0.00001002231 -0.00106294786 0.00229496106 0.00005351777 -0.00110475038 0.00186628385 0.00011504656 -0.00113432051 0.00144321647 0.00017174793 -0.00115499265 0.00103984435 0.00022080574 -0.00117010126 0.00067025295 -0.00030924280 -0.00067089220 0.00424744216 -0.00026904119 -0.00083041853 0.00399528028 -0.00021623384 -0.00095818858 0.00367179634 -0.00015396295 -0.00105834384 0.00329270043 -0.00008537073 -0.00113502582 0.00287370265 -0.00001359938 -0.00119237602 0.00243051311 0.00005820889 -0.00123453592 0.00197884190 0.00012691190 -0.00126564704 0.00153439913 0.00018936743 -0.00128985086 0.00111289490 0.00024243329 -0.00131128890 0.00073003931 -0.00036511654 -0.00081636761 0.00447604992 -0.00031377248 -0.00097686621 0.00421465385 -0.00025013033 -0.00110298011 0.00387539927 -0.00017751314 -0.00119963309 0.00347577499 -0.00009924397 -0.00127174894 0.00303326982 -0.00001864588 -0.00132425146 0.00256537256 0.00006095810 -0.00136206442 0.00208957202 0.00013624489 -0.00139011162 0.00162335701 0.00020389145 -0.00141331684 0.00118421633 0.00026057473 -0.00143660387 0.00078963879 -0.00042665132 -0.00099030043 0.00471061693 -0.00036153135 -0.00114457820 0.00443652152 -0.00028554581 -0.00126222099 0.00407846016 -0.00020198115 -0.00134894906 0.00365579055 -0.00011412381 -0.00141048267 0.00318787040 -0.00002526025 -0.00145254209 0.00269405742 0.00006132310 -0.00148084757 0.00219370931 0.00014233980 -0.00150111938 0.00170618378 0.00021450339 -0.00151907779 0.00125083854 0.00027452744 -0.00154044305 0.00084703129 -0.00049355028 -0.00119282064 0.00494643304 -0.00041168268 -0.00133206449 0.00465522494 -0.00032178782 -0.00143295604 0.00427483321 -0.00022682584 -0.00150206518 0.00382651079 -0.00012975684 -0.00154596181 0.00333151063 -0.00003354097 -0.00157121580 0.00281108567 0.00005886166 -0.00158439706 0.00228648885 0.00014449091 -0.00159207548 0.00177897313 0.00022038665 -0.00160082094 0.00130979144 0.00028358878 -0.00161720333 0.00090019674 -0.00056551658 -0.00142405824 0.00517878807 -0.00046359138 -0.00153783508 0.00486510575 -0.00035816392 -0.00161223009 0.00445837264 -0.00025150605 -0.00165475490 0.00398169943 -0.00014588963 -0.00167292116 0.00345819676 -0.00004358650 -0.00167424051 0.00291097532 0.00005313148 -0.00166622459 0.00236314576 0.00014199248 -0.00165638503 0.00183781875 0.00022072464 -0.00165223348 0.00135810496 0.00028705611 -0.00166128159 0.00094711504 -0.00011635981 -0.00006378979 0.00324030502 -0.00010265864 -0.00018289172 0.00302674956 -0.00008335915 -0.00028009790 0.00276896163 -0.00005949205 -0.00035555141 0.00247490571 -0.00003208807 -0.00040939533 0.00215254630 -0.00000217790 -0.00044177274 0.00180984788 0.00002920775 -0.00045282672 0.00145477496 0.00006103815 -0.00044270035 0.00109529201 0.00009228261 -0.00041153671 0.00073936352 0.00012191042 -0.00035947889 0.00039495399 -0.00013951477 -0.00009852521 0.00335681883 -0.00012236551 -0.00022737979 0.00313606496 -0.00009870545 -0.00033274916 0.00287017028 -0.00006969356 -0.00041575838 0.00256751674 -0.00003648877 -0.00047753250 0.00223648627 -0.00000025006 -0.00051919658 0.00188546082 0.00003786361 -0.00054187568 0.00152282234 0.00007669330 -0.00054669486 0.00115695277 0.00011508005 -0.00053477917 0.00079623406 0.00015186488 -0.00050725367 0.00044904815 -0.00016812189 -0.00015992028 0.00350054314 -0.00014641088 -0.00029817716 0.00327317556 -0.00011716646 -0.00041147912 0.00299820896 -0.00008179917 -0.00050170664 0.00268477315 -0.00004171956 -0.00057074020 0.00234199799 0.00000166184 -0.00062046027 0.00197901332 0.00004693448 -0.00065274732 0.00160494896 0.00009268782 -0.00066948183 0.00122893476 0.00013751131 -0.00067254429 0.00086010055 0.00017999443 -0.00066381515 0.00050757618 -0.00020216755 -0.00024844421 0.00366835081 -0.00017472518 -0.00039466875 0.00343453253 -0.00013875010 -0.00051455583 0.00314929968 -0.00009598238 -0.00061057854 0.00282284655 -0.00004816210 -0.00068520992 0.00246536742 0.00000297065 -0.00074092306 0.00208705657 0.00005567581 -0.00078019102 0.00169810830 0.00010821329 -0.00080548686 0.00130871688 0.00015884301 -0.00081928366 0.00092907661 0.00020582490 -0.00082405447 0.00056938176 -0.00024163812 -0.00036456623 0.00385711470 -0.00020723888 -0.00051623949 0.00361658704 -0.00016346433 -0.00064024736 0.00331966451 -0.00011241667 -0.00073955640 0.00297790851 -0.00005619809 -0.00081713317 0.00260288046 0.00000308923 -0.00087594424 0.00220614177 0.00006334310 -0.00091895617 0.00179925382 0.00012246133 -0.00094913553 0.00139377804 0.00017834175 -0.00096944887 0.00100127583 0.00022888214 -0.00098286276 0.00063330860 -0.00028651998 -0.00050875555 0.00406370768 -0.00024388241 -0.00066227431 0.00381579025 -0.00019131710 -0.00078682175 0.00350552547 -0.00013127554 -0.00088582256 0.00314613063 -0.00006620920 -0.00096270143 0.00275082307 0.00000143041 -0.00102088307 0.00233282009 0.00006919182 -0.00106379217 0.00190533902 0.00013462355 -0.00109485342 0.00148159717 0.00019527410 -0.00111749153 0.00107481185 0.00024869200 -0.00113513117 0.00069820038 -0.00033679950 -0.00068148138 0.00428500261 -0.00028458623 -0.00083215813 0.00402859335 -0.00022231635 -0.00095254706 0.00370310460 -0.00015273245 -0.00104655935 0.00332368450 -0.00007857712 -0.00111810621 0.00290548116 -0.00000259295 -0.00117109883 0.00246364274 0.00007247746 -0.00120944840 0.00201331736 0.00014389154 -0.00123706613 0.00156965316 0.00020890668 -0.00125786321 0.00114779826 0.00026478030 -0.00127575084 0.00076290081 -0.00039246306 -0.00088321293 0.00451787235 -0.00032928079 -0.00102527589 0.00425144750 -0.00025647003 -0.00113569136 0.00390862396 -0.00017696090 -0.00121894912 0.00350674169 -0.00009368352 -0.00127953900 0.00306314068 -0.00000956802 -0.00132195077 0.00259516090 0.00007245550 -0.00135067425 0.00212014232 0.00014945691 -0.00137019923 0.00165542492 0.00021850608 -0.00138501552 0.00121834869 0.00027667291 -0.00139961291 0.00082625358 -0.00045349702 -0.00111441942 0.00475918976 -0.00037789653 -0.00124101251 0.00448080387 -0.00029378608 -0.00133452269 0.00411830557 -0.00020413438 -0.00140017421 0.00369147381 -0.00011191010 -0.00144319129 0.00322008755 -0.00002008194 -0.00146879818 0.00272392575 0.00006838141 -0.00148221912 0.00222276738 0.00015051125 -0.00148867832 0.00173639138 0.00022333890 -0.00149340004 0.00128457673 0.00028389566 -0.00150160851 0.00088710238 -0.00051988777 -0.00137557007 0.00500582771 -0.00043036391 -0.00147875291 0.00471311364 -0.00033427246 -0.00154730912 0.00432837148 -0.00023442636 -0.00158741693 0.00387405243 -0.00013363852 -0.00160525459 0.00337260770 -0.00003472186 -0.00160700033 0.00284648849 0.00005951068 -0.00159883238 0.00231814601 0.00014624619 -0.00158692899 0.00181003144 0.00022267173 -0.00157746838 0.00134459601 0.00028597439 -0.00157662879 0.00094429091 -0.00010595685 0.00019056689 0.00311219404 -0.00009138760 0.00006305832 0.00291058576 -0.00007238055 -0.00003998140 0.00266809880 -0.00004957756 -0.00011953487 0.00239081762 -0.00002362050 -0.00017658468 0.00208482667 0.00000484875 -0.00021211344 0.00175621039 0.00003518832 -0.00022710375 0.00141105325 0.00006675634 -0.00022253820 0.00105543969 0.00009891094 -0.00019939938 0.00069545417 0.00013101023 -0.00015866991 0.00033718113 -0.00012840322 0.00013383465 0.00321931330 -0.00011018309 -0.00000094711 0.00300979306 -0.00008671212 -0.00011029403 0.00275908456 -0.00005873026 -0.00019584184 0.00247369026 -0.00002697745 -0.00025922629 0.00216011260 0.00000780636 -0.00030208313 0.00182485404 0.00004488123 -0.00032604811 0.00147441702 0.00008350719 -0.00033275698 0.00111530399 0.00012294431 -0.00032384549 0.00075401740 0.00016245264 -0.00030094937 0.00039705969 -0.00015490291 0.00005155600 0.00335151320 -0.00013189742 -0.00008957916 0.00313424355 -0.00010283161 -0.00020464858 0.00287415275 -0.00006865354 -0.00029574343 0.00257844602 -0.00003031128 -0.00036495486 0.00225432861 0.00001124711 -0.00041437403 0.00190900576 0.00005507358 -0.00044609212 0.00154968270 0.00010022005 -0.00046220027 0.00118356468 0.00014573848 -0.00046478966 0.00081785694 0.00019068079 -0.00045595143 0.00045976472 -0.00018570222 -0.00005672123 0.00350674605 -0.00015687305 -0.00020257418 0.00328176671 -0.00012121782 -0.00032193319 0.00301104661 -0.00007997428 -0.00041721305 0.00270279321 -0.00003438016 -0.00049082852 0.00236521396 0.00001432679 -0.00054519438 0.00200651631 0.00006490882 -0.00058272542 0.00163490773 0.00011612821 -0.00060583639 0.00125859567 0.00016674720 -0.00061694208 0.00088578758 0.00021552805 -0.00061845726 0.00052469092 -0.00022104743 -0.00019144919 0.00368296418 -0.00018545245 -0.00033966852 0.00345019200 -0.00014234958 -0.00046103598 0.00316750941 -0.00009331934 -0.00055822411 0.00284444015 -0.00003994224 -0.00063390541 0.00249050793 0.00001620119 -0.00069075243 0.00211523650 0.00007353043 -0.00073143767 0.00172814956 0.00013046495 -0.00075863366 0.00133877085 0.00018542423 -0.00077501294 0.00095662409 0.00023682775 -0.00078324801 0.00059123301 -0.00026118483 -0.00035308003 0.00387811992 -0.00021797810 -0.00050059854 0.00363734888 -0.00016670570 -0.00062084509 0.00334128440 -0.00010931558 -0.00071675002 0.00300109515 -0.00004775566 -0.00079124367 0.00262794982 0.00001602612 -0.00084725639 0.00223301708 0.00008008184 -0.00088771853 0.00182746562 0.00014246355 -0.00091556042 0.00142246411 0.00020122333 -0.00093371242 0.00102918124 0.00025441325 -0.00094510486 0.00065878569 -0.00030636073 -0.00054206590 0.00409016559 -0.00025479246 -0.00068510059 0.00384106683 -0.00019476501 -0.00080024863 0.00353011483 -0.00012858988 -0.00089076418 0.00317046653 -0.00005857859 -0.00095990142 0.00277527888 0.00001295738 -0.00101091452 0.00235770884 0.00008370651 -0.00104705765 0.00193091335 0.00015135731 -0.00107158499 0.00150804936 0.00021359828 -0.00108775071 0.00110227382 0.00026811790 -0.00109880898 0.00072674367 -0.00035682141 -0.00075885896 0.00431705352 -0.00029623799 -0.00089291104 0.00405917531 -0.00022700630 -0.00099813474 0.00373174395 -0.00015176911 -0.00107824001 0.00335026260 -0.00007316916 -0.00113693680 0.00293023442 0.00000615076 -0.00117793504 0.00248716256 0.00008354791 -0.00120494469 0.00203655020 0.00015637952 -0.00122167570 0.00159390048 0.00022200282 -0.00123183799 0.00117471658 0.00027777505 -0.00123914153 0.00079450165 -0.00041281316 -0.00100391137 0.00455673603 -0.00034265717 -0.00112376623 0.00428950380 -0.00026390841 -0.00121339155 0.00394391503 -0.00017948012 -0.00127715092 0.00353819168 -0.00009228555 -0.00131940794 0.00309055570 -0.00000523793 -0.00134452620 0.00261922902 0.00007874948 -0.00135686931 0.00214243360 0.00015676345 -0.00136080087 0.00167839139 0.00022589072 -0.00136068446 0.00124532432 0.00028321805 -0.00136088369 0.00086145435 -0.00047458228 -0.00127767526 0.00480716545 -0.00039439247 -0.00137740252 0.00452988175 -0.00030595015 -0.00144490718 0.00416437131 -0.00021234979 -0.00148547031 0.00373196209 -0.00011668589 -0.00150437298 0.00325398200 -0.00002205290 -0.00150689624 0.00275175900 0.00006845468 -0.00149832117 0.00224662101 0.00015174239 -0.00148392883 0.00175989596 0.00022471574 -0.00146900029 0.00131291180 0.00028428025 -0.00145881661 0.00092699646 -0.00009447933 0.00040223791 0.00297843707 -0.00007960415 0.00027338595 0.00278911805 -0.00006114277 0.00017040715 0.00256162692 -0.00003942807 0.00009170536 0.00230064591 -0.00001479293 0.00003568444 0.00201085726 0.00001242976 0.00000074825 0.00169694321 0.00004190713 -0.00001469936 0.00136358601 0.00007330631 -0.00001225452 0.00101546789 0.00010629440 0.00000648662 0.00065727109 0.00014053853 0.00003992792 0.00029367785 -0.00011561740 0.00032996239 0.00307807553 -0.00009703942 0.00019592326 0.00288044871 -0.00007410196 0.00008813853 0.00264468454 -0.00004722107 0.00000469549 0.00237584268 -0.00001681278 -0.00005631858 0.00207898277 0.00001670686 -0.00009681640 0.00175916447 0.00005292182 -0.00011871068 0.00142144743 0.00009141606 -0.00012391413 0.00107089131 0.00013177354 -0.00011433948 0.00071255575 0.00017357822 -0.00009189944 0.00035150042 -0.00013970994 0.00023315176 0.00320091428 -0.00011638827 0.00009489554 0.00299492119 -0.00008800089 -0.00001705908 0.00274966072 -0.00005515071 -0.00010482625 0.00247083454 -0.00001844062 -0.00017052012 0.00216414429 0.00002152645 -0.00021625484 0.00183529165 0.00006414762 -0.00024414456 0.00148997828 0.00010881996 -0.00025630343 0.00113390583 0.00015494059 -0.00025484560 0.00077277596 0.00020190658 -0.00024188521 0.00041229035 -0.00016722525 0.00011163451 0.00334556080 -0.00013826606 -0.00002939781 0.00313114213 -0.00010359316 -0.00014424625 0.00287512935 -0.00006408047 -0.00023516325 0.00258415773 -0.00002060189 -0.00030440124 0.00226486251 0.00002596868 -0.00035421265 0.00192387895 0.00007475734 -0.00038684992 0.00156784232 0.00012489017 -0.00040456548 0.00120338785 0.00017549328 -0.00040961176 0.00083715081 0.00022569276 -0.00040424120 0.00047576645 -0.00019863164 -0.00003476086 0.00351062257 -0.00016328813 -0.00017665741 0.00328771814 -0.00012163238 -0.00029248358 0.00301966431 -0.00007487385 -0.00038461892 0.00271434848 -0.00002422201 -0.00045544301 0.00237965810 0.00002911370 -0.00050733539 0.00202348057 0.00008392380 -0.00054267565 0.00165370332 0.00013899884 -0.00056384333 0.00127821379 0.00019312935 -0.00057321800 0.00090489938 0.00024510588 -0.00057317923 0.00054164752 -0.00023439738 -0.00020620585 0.00369470705 -0.00019206984 -0.00034658387 0.00346325587 -0.00014287216 -0.00046083162 0.00318183948 -0.00008839436 -0.00055149665 0.00285994305 -0.00003022642 -0.00062112647 0.00250705174 0.00003004164 -0.00067226863 0.00213265069 0.00009081982 -0.00070747064 0.00174622507 0.00015051813 -0.00072928004 0.00135726004 0.00020754655 -0.00074024435 0.00097524075 0.00026031509 -0.00074291112 0.00060965237 -0.00027499080 -0.00040287197 0.00389642171 -0.00022522654 -0.00053887780 0.00365636192 -0.00016806611 -0.00064835098 0.00336022876 -0.00010550547 -0.00073409984 0.00301947767 -0.00003954056 -0.00079893271 0.00264556411 0.00002783266 -0.00084565791 0.00224994351 0.00009461823 -0.00087708378 0.00184407133 0.00015882020 -0.00089601865 0.00143940302 0.00021844261 -0.00090527084 0.00104739402 0.00027148952 -0.00090764868 0.00067949978 -0.00032088018 -0.00062493071 0.00411437403 -0.00026337359 -0.00075323981 0.00386564294 -0.00019796784 -0.00085410221 0.00355340603 -0.00012707068 -0.00093073188 0.00319148858 -0.00005308985 -0.00098634276 0.00279371589 0.00002156690 -0.00102414882 0.00237391322 0.00009449183 -0.00104736399 0.00194590587 0.00016327721 -0.00105920223 0.00152351912 0.00022551528 -0.00106287750 0.00112057825 0.00027879831 -0.00106160374 0.00075090855 -0.00037253383 -0.00087255359 0.00434717148 -0.00030712633 -0.00098937051 0.00408970554 -0.00023333095 -0.00107714591 0.00375994517 -0.00015395348 -0.00113969618 0.00337451202 -0.00007179974 -0.00118083771 0.00295002775 0.00001032451 -0.00120438690 0.00250311401 0.00008961346 -0.00121416014 0.00205039246 0.00016326131 -0.00121397383 0.00160848476 0.00022846229 -0.00120764436 0.00119401255 0.00028241059 -0.00119898812 0.00082359750 -0.00043042005 -0.00114591210 0.00459342153 -0.00035710011 -0.00124697053 0.00432715636 -0.00027490905 -0.00131654265 0.00397842008 -0.00018701738 -0.00135929613 0.00356708424 -0.00009659564 -0.00137989861 0.00311302039 -0.00000681437 -0.00138301773 0.00263610009 0.00007915592 -0.00137332114 0.00215619488 0.00015814468 -0.00135547650 0.00169317634 0.00022698139 -0.00133415145 0.00126691599 0.00028249551 -0.00131401363 0.00089728541 -0.00008243616 0.00057621729 0.00284315639 -0.00006769831 0.00045292168 0.00266608929 -0.00004995206 0.00035552773 0.00245300785 -0.00002929574 0.00028205313 0.00220758783 -0.00000582769 0.00023051556 0.00193350500 0.00002035378 0.00019893269 0.00163443512 0.00004915033 0.00018532221 0.00131405394 0.00008046364 0.00018770179 0.00097603722 0.00011419537 0.00020408911 0.00062406074 0.00015024721 0.00023250186 0.00026180024 -0.00010181421 0.00049370535 0.00293689075 -0.00008342719 0.00036692738 0.00275140207 -0.00006126997 0.00026594111 0.00253003205 -0.00003551365 0.00018878478 0.00227675805 -0.00000632932 0.00013349663 0.00199555743 0.00002611191 0.00009811492 0.00169040756 0.00006163894 0.00008067787 0.00136528579 0.00010008066 0.00007922375 0.00102416949 0.00014126597 0.00009179079 0.00067103602 0.00018502377 0.00011641723 0.00030986274 -0.00012335359 0.00038750028 0.00305227447 -0.00010044822 0.00025790980 0.00285821788 -0.00007309684 0.00015380054 0.00262736910 -0.00004164749 0.00007323105 0.00236426899 -0.00000644818 0.00001425986 0.00207345839 0.00003215304 -0.00002505447 0.00175947816 0.00007380814 -0.00004665341 0.00142686915 0.00011816909 -0.00005247842 0.00108017220 0.00016488787 -0.00004447093 0.00072392817 0.00021361643 -0.00002457243 0.00036267790 -0.00014769210 0.00025788212 0.00318822509 -0.00011952490 0.00012645490 0.00298544946 -0.00008629845 0.00002016507 0.00274388897 -0.00004862511 -0.00006293711 0.00246893838 -0.00000711724 -0.00012480138 0.00216599241 0.00003761281 -0.00016737749 0.00184044579 0.00008495268 -0.00019261517 0.00149769327 0.00013429001 -0.00020246416 0.00114312956 0.00018501245 -0.00019887422 0.00078214940 0.00023650764 -0.00018379507 0.00042014753 -0.00017546752 0.00010513093 0.00334366016 -0.00014142073 -0.00002685134 0.00313200955 -0.00010174057 -0.00013390625 0.00287846164 -0.00005737438 -0.00021804874 0.00258958395 -0.00000926946 -0.00028129373 0.00227194400 0.00004162686 -0.00032565614 0.00193210931 0.00009436728 -0.00035315091 0.00157664739 0.00014800446 -0.00036579296 0.00121212576 0.00020159109 -0.00036559723 0.00084511195 0.00025417986 -0.00035457863 0.00048217347 -0.00020731765 -0.00007047325 0.00351749722 -0.00016689921 -0.00020142295 0.00329681090 -0.00012028899 -0.00030735438 0.00302995706 -0.00006882313 -0.00039043288 0.00272502342 -0.00001383780 -0.00045282379 0.00239009767 0.00004333085 -0.00049669243 0.00203326755 0.00010134667 -0.00052420415 0.00166262076 0.00015887350 -0.00053752427 0.00128624502 0.00021457517 -0.00053881814 0.00091222804 0.00026711555 -0.00053025107 0.00054865753 -0.00024388027 -0.00026865037 0.00370865380 -0.00019672387 -0.00039667394 0.00347876626 -0.00014280949 -0.00049912026 0.00319724522 -0.00008389923 -0.00057841858 0.00287407451 -0.00002175523 -0.00063699820 0.00251923795 0.00004186042 -0.00067728839 0.00214271939 0.00010518559 -0.00070171842 0.00175450264 0.00016645818 -0.00071271757 0.00136457153 0.00022391607 -0.00071271511 0.00098290989 0.00027579715 -0.00070414033 0.00061950155 -0.00028579318 -0.00048912037 0.00391604746 -0.00023165820 -0.00061201835 0.00367678836 -0.00017016784 -0.00070814483 0.00337919606 -0.00010353053 -0.00078033489 0.00303555494 -0.00003395471 -0.00083142359 0.00265814935 0.00003635120 -0.00086424601 0.00225926367 0.00010517876 -0.00088163722 0.00185118227 0.00017031956 -0.00088643230 0.00144618949 0.00022956515 -0.00088146632 0.00105656973 0.00028070712 -0.00086957435 0.00069460733 -0.00033369417 -0.00073160322 0.00413859573 -0.00027246571 -0.00084687020 0.00388978995 -0.00020322983 -0.00093336906 0.00357467958 -0.00012864488 -0.00099451083 0.00320828244 -0.00005136921 -0.00103370657 0.00280561639 0.00002593884 -0.00105436730 0.00238169926 0.00010062093 -0.00105990408 0.00195154889 0.00017001870 -0.00105372794 0.00153018312 0.00023147381 -0.00103924993 0.00113261978 0.00028232791 -0.00101988108 0.00077387672 -0.00038822101 -0.00099581887 0.00437521615 -0.00031990990 -0.00110064352 0.00411668377 -0.00024286124 -0.00117373388 0.00378256572 -0.00016017013 -0.00121927547 0.00339107474 -0.00007493168 -0.00124145377 0.00296042358 0.00000975900 -0.00124445429 0.00250882501 0.00009080681 -0.00123246251 0.00205449176 0.00016511665 -0.00120966396 0.00161563660 0.00022959341 -0.00118024410 0.00121047227 0.00028114198 -0.00114838846 0.00085721153 -0.00007033623 0.00071749909 0.00271047425 -0.00005606011 0.00060649600 0.00254524229 -0.00003911467 0.00051984031 0.00234570344 -0.00001943273 0.00045539229 0.00211484064 0.00000305292 0.00041101218 0.00185563681 0.00002840945 0.00038456024 0.00157107486 0.00005670406 0.00037389671 0.00126413772 0.00008800392 0.00037688186 0.00093780832 0.00012237624 0.00039137592 0.00059506956 0.00015988820 0.00041523916 0.00023890437 -0.00008765052 0.00062891089 0.00279954421 -0.00006983912 0.00051576132 0.00262602328 -0.00004861116 0.00042650631 0.00241818889 -0.00002395565 0.00035935722 0.00217922042 0.00000413840 0.00031252537 0.00191229725 0.00003568199 0.00028422210 0.00162059876 0.00007068609 0.00027265877 0.00130730432 0.00010916171 0.00027604671 0.00097559330 0.00015111983 0.00029259727 0.00062864510 0.00019657144 0.00032052177 0.00026963907 -0.00010664445 0.00051723483 0.00290912185 -0.00008464205 0.00040212646 0.00272714300 -0.00005854201 0.00031044143 0.00250991408 -0.00002850072 0.00024061462 0.00226107965 0.00000532543 0.00019108095 0.00198428426 0.00004278003 0.00016027531 0.00168317245 0.00008370668 0.00014663259 0.00136138879 0.00012794898 0.00014858769 0.00102257783 0.00017535054 0.00016457552 0.00067038411 0.00022575496 0.00019303098 0.00030845219 -0.00012805818 0.00038328072 0.00303816894 -0.00010127026 0.00026657850 0.00284747937 -0.00006975602 0.00017296087 0.00261966656 -0.00003393237 0.00010095742 0.00235913346 0.00000578381 0.00004909777 0.00207028301 0.00004897562 0.00001591150 0.00175751815 0.00009522617 -0.00000007177 0.00142524181 0.00014411856 -0.00000032245 0.00107785694 0.00019523591 0.00001368906 0.00071976647 0.00024816131 0.00004049237 0.00035537334 -0.00015263186 0.00022785835 0.00318564727 -0.00012052506 0.00011010451 0.00298591029 -0.00008310199 0.00001537986 0.00274623385 -0.00004111505 -0.00005782147 0.00247209697 0.00000468336 -0.00011100535 0.00216897869 0.00005354081 -0.00014567764 0.00184235803 0.00010470492 -0.00016334423 0.00149771402 0.00015742326 -0.00016551098 0.00114052568 0.00021094343 -0.00015368376 0.00077627206 0.00026451302 -0.00012936845 0.00041043218 -0.00018110565 0.00005177755 0.00335051860 -0.00014320781 -0.00006630843 0.00314131369 -0.00009942870 -0.00016098638 0.00288840349 -0.00005091319 -0.00023392914 0.00259868532 0.00000119388 -0.00028680956 0.00227905648 0.00005574765 -0.00032130047 0.00193641429 0.00011160327 -0.00033907472 0.00157765607 0.00016761588 -0.00034180514 0.00120967912 0.00022264063 -0.00033116458 0.00083938077 0.00027553266 -0.00030882588 0.00047365832 -0.00021421972 -0.00014415188 0.00353174471 -0.00017011983 -0.00026167323 0.00331256747 -0.00011958495 -0.00035482263 0.00304496301 -0.00006419122 -0.00042557269 0.00273761361 -0.00000551479 -0.00047589604 0.00239920155 0.00005486819 -0.00050776532 0.00203840913 0.00011538158 -0.00052315316 0.00166391861 0.00017444924 -0.00052403219 0.00128441230 0.00023049502 -0.00051237503 0.00090857246 0.00028194278 -0.00049015431 0.00054508139 -0.00025271421 -0.00035912013 0.00372828739 -0.00020206245 -0.00047500283 0.00349854955 -0.00014441952 -0.00056481367 0.00321469994 -0.00008181359 -0.00063095919 0.00288759698 -0.00001627286 -0.00067584596 0.00252809910 0.00005017447 -0.00070188053 0.00214706473 0.00011550020 -0.00071146948 0.00175535231 0.00017767615 -0.00070701936 0.00136382027 0.00023467412 -0.00069093674 0.00098332703 0.00028446592 -0.00066562816 0.00062473104 -0.00029732929 -0.00059231739 0.00393910840 -0.00023983703 -0.00070531015 0.00369813785 -0.00017478120 -0.00078964428 0.00339640182 -0.00010464472 -0.00084829573 0.00304735055 -0.00003191050 -0.00088424047 0.00266443429 0.00004093854 -0.00090045445 0.00226110330 0.00011141949 -0.00089991361 0.00185080781 0.00017704943 -0.00088559393 0.00144699808 0.00023534545 -0.00086047135 0.00106312436 0.00028382464 -0.00082752182 0.00071263689 -0.00034880511 -0.00084293385 0.00416316953 -0.00028424488 -0.00095160810 0.00391021027 -0.00021151879 -0.00102799924 0.00358885617 -0.00013354906 -0.00107578941 0.00321558944 -0.00005325791 -0.00109866075 0.00280689232 0.00002643244 -0.00110029540 0.00237924702 0.00010259978 -0.00108437548 0.00194913577 0.00017232188 -0.00105458313 0.00153304079 0.00023267652 -0.00101460049 0.00114744432 0.00028074149 -0.00096810970 0.00080882857 -0.00005868843 0.00083107731 0.00258451291 -0.00004507960 0.00073893940 0.00243031988 -0.00002893688 0.00066780488 0.00224317557 -0.00001009118 0.00061560670 0.00202560160 0.00001162656 0.00058027784 0.00178011961 0.00003638541 0.00055975125 0.00150925123 0.00006435445 0.00055195992 0.00121551807 0.00009570275 0.00055483681 0.00090144179 0.00013059937 0.00056631488 0.00056954400 0.00016921340 0.00058432710 0.00022234633 -0.00007378323 0.00073942637 0.00266982117 -0.00005676789 0.00064612113 0.00250768249 -0.00003652051 0.00057322674 0.00231221689 -0.00001289472 0.00051934398 0.00208601386 0.00001425585 0.00048307363 0.00183166291 0.00004507757 0.00046301647 0.00155175353 0.00007971682 0.00045777328 0.00124887524 0.00011831995 0.00046594483 0.00092561752 0.00016103336 0.00048613191 0.00058456987 0.00020800339 0.00051693530 0.00022832181 -0.00009039313 0.00062498871 0.00277498452 -0.00006953455 0.00053020838 0.00260470596 -0.00004475893 0.00045537473 0.00239993189 -0.00001606722 0.00039951063 0.00216359681 0.00001653961 0.00036163900 0.00189863523 0.00005306059 0.00034078272 0.00160798169 0.00009349477 0.00033596469 0.00129457068 0.00013784117 0.00034620781 0.00096133672 0.00018609884 0.00037053496 0.00061121434 0.00023826682 0.00040796905 0.00024713803 -0.00010927892 0.00048908942 0.00289882239 -0.00008412282 0.00039256754 0.00272002254 -0.00005438821 0.00031580123 0.00250480318 -0.00002032640 0.00025801239 0.00225674125 0.00001781130 0.00021842292 0.00197941365 0.00005977358 0.00019625470 0.00167639732 0.00010530914 0.00019072964 0.00135126917 0.00015416666 0.00020106963 0.00100760613 0.00020609483 0.00022649656 0.00064898512 0.00026084235 0.00026623233 0.00027898307 -0.00013120142 0.00033305359 0.00304015419 -0.00010127596 0.00023456497 0.00285226445 -0.00006614448 0.00015605865 0.00262531339 -0.00002639001 0.00009675499 0.00236383799 0.00001740438 0.00005587435 0.00207237522 0.00006465566 0.00003263710 0.00175546206 0.00011478078 0.00002626359 0.00141763548 0.00016719668 0.00003597418 0.00106343246 0.00022132033 0.00006098923 0.00069738997 0.00027656867 0.00010052910 0.00032404498 -0.00015692141 0.00015820633 0.00319779935 -0.00012173720 0.00005756704 0.00300006392 -0.00008076381 -0.00002230064 0.00275994511 -0.00003497578 -0.00008235586 0.00248327782 0.00001465232 -0.00012355773 0.00217589699 0.00006714593 -0.00014686540 0.00184363753 0.00012153051 -0.00015323799 0.00149233436 0.00017683150 -0.00014363465 0.00112782241 0.00023207433 -0.00011901450 0.00075593660 0.00028628446 -0.00008033668 0.00038251185 -0.00018719969 -0.00003412729 0.00337057727 -0.00014624979 -0.00013705988 0.00316205320 -0.00009898231 -0.00021772425 0.00290718095 -0.00004680145 -0.00027741441 0.00261345156 0.00000888856 -0.00031742436 0.00228835603 0.00006668351 -0.00033904810 0.00193938537 0.00012517919 -0.00034357963 0.00157403060 0.00018297137 -0.00033231296 0.00119978272 0.00023865585 -0.00030654210 0.00082413277 0.00029082840 -0.00026756103 0.00045457174 -0.00022279706 -0.00024262216 0.00355730739 -0.00017555698 -0.00034794941 0.00333686450 -0.00012153607 -0.00042865978 0.00306550354 -0.00006258475 -0.00048651494 0.00275275000 -0.00000055342 -0.00052327657 0.00240812939 0.00006270752 -0.00054070632 0.00204116720 0.00012534765 -0.00054056587 0.00166138894 0.00018551657 -0.00052461688 0.00127832010 0.00024136387 -0.00049462104 0.00090148620 0.00029103916 -0.00045234000 0.00054041272 -0.00026447433 -0.00046595321 0.00375680912 -0.00021040201 -0.00057373520 0.00352313008 -0.00014916120 -0.00065355485 0.00323339548 -0.00008304342 -0.00070775173 0.00289956395 -0.00001434017 -0.00073866538 0.00253359413 0.00005465705 -0.00074863536 0.00214744465 0.00012165672 -0.00074000122 0.00175307416 0.00018436735 -0.00071510252 0.00136244127 0.00024049742 -0.00067627880 0.00098750463 0.00028775542 -0.00062586962 0.00064022287 -0.00031299228 -0.00070279533 0.00396790189 -0.00025152812 -0.00081305086 0.00371948215 -0.00018259379 -0.00089085708 0.00340933937 -0.00010889519 -0.00093921904 0.00305228420 -0.00003313822 -0.00096114184 0.00266312731 0.00004197123 -0.00095963055 0.00225667936 0.00011372726 -0.00093769023 0.00184775102 0.00017942397 -0.00089832598 0.00145115295 0.00023635547 -0.00084454285 0.00108169580 0.00028181587 -0.00077934593 0.00075419026 -0.00004800166 0.00092194599 0.00246939463 -0.00003514682 0.00085508240 0.00232506491 -0.00001972493 0.00080388141 0.00214888609 -0.00000152326 0.00076658021 0.00194306797 0.00001967091 0.00074141603 0.00170982033 0.00004407031 0.00072662609 0.00145135297 0.00007188766 0.00072044759 0.00116987568 0.00010333570 0.00072111776 0.00086759826 0.00013862714 0.00072687380 0.00054673050 0.00017797472 0.00073595294 0.00020948220 -0.00006086922 0.00082909912 0.00255150686 -0.00004470621 0.00076170286 0.00239974985 -0.00002539304 0.00070949498 0.00221517786 -0.00000267853 0.00067167625 0.00199992242 0.00002368847 0.00064744743 0.00175611507 0.00005395914 0.00063600930 0.00148588734 0.00008838464 0.00063656262 0.00119137077 0.00012721614 0.00064830815 0.00087469689 0.00017070479 0.00067044666 0.00053799725 0.00021910176 0.00070217892 0.00018340337 -0.00007541022 0.00071339517 0.00265339057 -0.00005569049 0.00064481840 0.00249391616 -0.00003217013 0.00059111159 0.00230005872 -0.00000470382 0.00055210524 0.00207415073 0.00002685375 0.00052762987 0.00181852467 0.00006264790 0.00051751600 0.00153551302 0.00010282394 0.00052159415 0.00122744828 0.00014752720 0.00053969483 0.00089666291 0.00019690299 0.00057164856 0.00054548941 0.00025109662 0.00061728586 0.00017626026 -0.00009230977 0.00057656734 0.00277361545 -0.00006870328 0.00050601656 0.00260586964 -0.00004061735 0.00045034625 0.00240163992 -0.00000813137 0.00040971984 0.00216376002 0.00002867527 0.00038430078 0.00189506368 0.00006972316 0.00037425250 0.00159838462 0.00011493291 0.00037973845 0.00127655658 0.00016422513 0.00040092206 0.00093241329 0.00021752042 0.00043796678 0.00056878848 0.00027473939 0.00049103605 0.00018851588 -0.00011225297 0.00042034883 0.00291075124 -0.00008434823 0.00034688485 0.00273391609 -0.00005129586 0.00028881398 0.00251803269 -0.00001349341 0.00024637273 0.00226675741 0.00002866156 0.00021979760 0.00198374663 0.00007477152 0.00020932511 0.00167265671 0.00012443891 0.00021519177 0.00133714404 0.00017726618 0.00023763410 0.00098086498 0.00023285577 0.00027688860 0.00060747592 0.00029081015 0.00033319179 0.00022063321 -0.00013592493 0.00024647285 0.00306336762 -0.00010322898 0.00016901080 0.00287636130 -0.00006476682 0.00010812980 0.00264734826 -0.00002132220 0.00006391655 0.00238115001 0.00002632118 0.00003645776 0.00208258806 0.00007737958 0.00002584014 0.00175648390 0.00013106929 0.00003215039 0.00140765903 0.00018660657 0.00005547521 0.00104093497 0.00024320771 0.00009590130 0.00066113321 0.00030008899 0.00015351539 0.00027307525 -0.00016401076 0.00005667262 0.00323003433 -0.00012594915 -0.00002601807 0.00303151107 -0.00008159139 -0.00009009128 0.00278769787 -0.00003214996 -0.00013579602 0.00250494494 0.00002116264 -0.00016338128 0.00218960250 0.00007713393 -0.00017309609 0.00184802076 0.00013455140 -0.00016518944 0.00148654992 0.00019220256 -0.00013991035 0.00111154021 0.00024887493 -0.00009750783 0.00072934183 0.00030335600 -0.00003823087 0.00034630499 -0.00019719555 -0.00014731867 0.00340932106 -0.00015311240 -0.00023661425 0.00319767119 -0.00010233072 -0.00030423425 0.00293719275 -0.00004650895 -0.00035091232 0.00263614932 0.00001269449 -0.00037738211 0.00230280450 0.00007362115 -0.00038437727 0.00194542188 0.00013461259 -0.00037263146 0.00157226507 0.00019401039 -0.00034287832 0.00119159766 0.00025015609 -0.00029585151 0.00081168325 0.00030139127 -0.00023228468 0.00044078543 -0.00023616441 -0.00036376781 0.00359979752 -0.00018532236 -0.00046119020 0.00337314747 -0.00012754597 -0.00053268408 0.00309394413 -0.00006493139 -0.00057957968 0.00277277025 0.00000042526 -0.00060320727 0.00242020858 0.00006642784 -0.00060489709 0.00204684187 0.00013098023 -0.00058597939 0.00166325286 0.00019198629 -0.00054778443 0.00128002431 0.00024734988 -0.00049164247 0.00090773895 0.00029497488 -0.00041888374 0.00055697956 -0.00028160245 -0.00059094158 0.00380003343 -0.00022318266 -0.00069815841 0.00355624570 -0.00015779831 -0.00077382576 0.00325606326 -0.00008794954 -0.00081994545 0.00291281487 -0.00001613652 -0.00083851933 0.00253982929 0.00005514060 -0.00083154923 0.00215043530 0.00012338166 -0.00080103698 0.00175796165 0.00018608651 -0.00074898443 0.00137573710 0.00024075498 -0.00067739341 0.00101709041 0.00028488692 -0.00058826576 0.00069535036 -0.00003878480 0.00099509916 0.00236924167 -0.00002665178 0.00095975550 0.00223322021 -0.00001178507 0.00093252987 0.00206629687 0.00000601889 0.00091219668 0.00187043699 0.00002696365 0.00089753029 0.00164760588 0.00005125278 0.00088730510 0.00139976886 0.00007908983 0.00088029548 0.00112889125 0.00011067836 0.00087527583 0.00083693837 0.00014622193 0.00087102052 0.00052587553 0.00018592409 0.00086630393 0.00019766806 -0.00004956537 0.00090177652 0.00244838654 -0.00003414679 0.00086620258 0.00230559551 -0.00001562374 0.00083870364 0.00213013362 0.00000634527 0.00081928521 0.00192373016 0.00003210174 0.00080795280 0.00168811440 0.00006198718 0.00080471191 0.00142501563 0.00009634310 0.00080956805 0.00113616313 0.00013551099 0.00082252674 0.00082328620 0.00017983236 0.00084359347 0.00048811411 0.00022964870 0.00087277376 0.00013237614 -0.00006250633 0.00078508751 0.00254786808 -0.00004367466 0.00074861938 0.00239778300 -0.00002119816 0.00072016317 0.00221293081 0.00000523264 0.00070058460 0.00199507171 0.00003592724 0.00069074942 0.00174596591 0.00007119511 0.00069152338 0.00146737363 0.00011134574 0.00070377222 0.00116105505 0.00015668861 0.00072836168 0.00082877040 0.00020753321 0.00076615751 0.00047227988 0.00026418900 0.00081802545 0.00009334370 -0.00007810615 0.00064697359 0.00266597817 -0.00005563233 0.00060852012 0.00250781136 -0.00002886577 0.00057825601 0.00231251785 0.00000232857 0.00055757181 0.00208218808 0.00003808574 0.00054785806 0.00181891244 0.00007854081 0.00055050528 0.00152478136 0.00012382882 0.00056690402 0.00120188525 0.00017408482 0.00059844482 0.00085231454 0.00022944387 0.00064651822 0.00047815964 0.00029004101 0.00071251475 0.00008151097 -0.00009686330 0.00048937623 0.00280100871 -0.00007041671 0.00044741899 0.00263370930 -0.00003898400 0.00041432975 0.00242672421 -0.00000271940 0.00039172384 0.00218280568 0.00003822285 0.00038121661 0.00190470597 0.00008368852 0.00038442339 0.00159517732 0.00013352338 0.00040295952 0.00125697197 0.00018757320 0.00043844034 0.00089284217 0.00024568373 0.00049248119 0.00050554017 0.00030770076 0.00056669740 0.00009781820 -0.00011927625 0.00031423690 0.00295125160 -0.00008842472 0.00026683021 0.00277350552 -0.00005191027 0.00022973193 0.00255337930 -0.00001026370 0.00020451765 0.00229465096 0.00003598416 0.00019276297 0.00200109853 0.00008630249 0.00019604348 0.00167650002 0.00014016049 0.00021593476 0.00132463345 0.00019702732 0.00025401241 0.00094927686 0.00025637219 0.00031185201 0.00055420825 0.00031766427 0.00039102916 0.00014320566 -0.00014584349 0.00012349706 0.00311499871 -0.00011005330 0.00006826797 0.00292522872 -0.00006800201 0.00002581011 0.00269031257 -0.00002065678 -0.00000256977 0.00241545033 0.00003101526 -0.00001556495 0.00210584210 0.00008604696 -0.00001186868 0.00176668794 0.00014347119 0.00000982579 0.00140318793 0.00020232079 0.00005082519 0.00102054215 0.00026162864 0.00011243628 0.00062395067 0.00032042757 0.00019596578 0.00021861358 -0.00017706347 -0.00008090183 0.00329054196 -0.00013569935 -0.00014675350 0.00308690760 -0.00008761667 -0.00019608813 0.00283535344 -0.00003425108 -0.00022806146 0.00254293023 0.00002296175 -0.00024182927 0.00221668870 0.00008258618 -0.00023654731 0.00186367959 0.00014318654 -0.00021137135 0.00149095365 0.00020332718 -0.00016545713 0.00110556161 0.00026157245 -0.00009796044 0.00071455422 0.00031648669 -0.00000803701 0.00032498221 -0.00021343467 -0.00029701831 0.00347617322 -0.00016575980 -0.00037672001 0.00325657086 -0.00011111166 -0.00043461523 0.00298633137 -0.00005139905 -0.00047048043 0.00267481707 0.00001146923 -0.00048409208 0.00233139033 0.00007558438 -0.00047522665 0.00196541347 0.00013903760 -0.00044366060 0.00158624885 0.00019992008 -0.00038917041 0.00120325880 0.00025632303 -0.00031153253 0.00082580567 0.00030633765 -0.00021052345 0.00046325181 -0.00025545556 -0.00052291090 0.00367018439 -0.00020063157 -0.00062011735 0.00343224721 -0.00013884442 -0.00068842364 0.00314107577 -0.00007245312 -0.00072834971 0.00280883729 -0.00000381670 -0.00074041549 0.00244769899 0.00006470582 -0.00072514092 0.00206982808 0.00013075542 -0.00068304592 0.00168739177 0.00019197308 -0.00061465045 0.00131255728 0.00024599977 -0.00052047443 0.00095749182 0.00029047647 -0.00040103779 0.00063436262 </DataArray>
</PointData>
<Points>
<DataArray type="Float32" NumberOfComponents="3">
0.29616409346 0.34344646377 -1.16298589997 0.33945950987 0.36209538660 -1.16376972081 0.37112233234 0.38466488263 -1.16439230695 0.39197928145 0.41019981039 -1.16471966171 0.40285707779 0.43774502841 -1.16461778838 0.40458244195 0.46634539520 -1.16395269026 0.39798209452 0.49504576929 -1.16259037065 0.38388275609 0.52289100921 -1.16039683284 0.36311114724 0.54892597348 -1.15723808015 0.33649398856 0.57219552063 -1.15298011586 0.32861848996 0.33166727696 -1.15938281649 0.37489163163 0.35077670373 -1.16000413388 0.40865401119 0.37405000675 -1.16053122036 0.43115581520 0.40045643021 -1.16086573438 0.44364723025 0.42896521830 -1.16090933440 0.44737844291 0.45854561522 -1.16056367888 0.44359963978 0.48816686515 -1.15973042629 0.43356100743 0.51679821228 -1.15831123508 0.41851273245 0.54340890081 -1.15620776372 0.39970500141 0.56696817492 -1.15332167067 0.37485329861 0.31740414729 -1.15645961134 0.42298592635 0.33687713743 -1.15692955740 0.45792492517 0.36091827270 -1.15736197205 0.48126225752 0.38839527683 -1.15768601936 0.49458988584 0.41817587359 -1.15783086338 0.49949977259 0.44912778672 -1.15772566818 0.49758388021 0.48011873998 -1.15729959782 0.49043417116 0.51001645711 -1.15648181636 0.47964260788 0.53768866187 -1.15520148787 0.46680115283 0.56200307801 -1.15338777641 0.43219768432 0.30118737902 -1.15407590127 0.48092512547 0.32108739680 -1.15438013699 0.51604764554 0.34603742747 -1.15469562706 0.53940972335 0.37479112639 -1.15497233915 0.55285583770 0.40610214888 -1.15516024094 0.55823046738 0.43872415028 -1.15520930013 0.55737809120 0.47141078592 -1.15506948440 0.55214318797 0.50291571113 -1.15469076144 0.54437023650 0.53199258126 -1.15402309892 0.53590371557 0.55739505164 -1.15301646454 0.49798081198 0.28354727644 -1.15209130297 0.54589196040 0.30409819091 -1.15219001828 0.58013474354 0.33017521808 -1.15234325041 0.60270932763 0.36041875501 -1.15251651625 0.61561587893 0.39346919878 -1.15267533273 0.62085456369 0.42796694645 -1.15278521675 0.62042554817 0.46255239509 -1.15281168523 0.61632899861 0.49586594178 -1.15272025508 0.61056508126 0.52654798358 -1.15247644320 0.60513396238 0.55323891758 -1.15204576650 0.56953184650 0.26501414381 -1.15036543319 0.61506916261 0.28660022889 -1.15019334691 0.64729879040 0.31409939153 -1.15011590713 0.66827218529 0.34605293884 -1.15011037317 0.68004080267 0.38100217789 -1.15015400437 0.68465609794 0.41748841579 -1.15022406003 0.68416952651 0.45405295962 -1.15029779948 0.68063254377 0.48923711647 -1.15035248204 0.67609660514 0.52158219343 -1.15036536703 0.67261316601 0.54962949759 -1.15031371377 0.64417995278 0.24611828543 -1.14875790865 0.68563946350 0.26928421981 -1.14822426849 0.71465235738 0.29857769482 -1.14782466225 0.73320941126 0.33246845398 -1.14754573241 0.74330140202 0.36942624083 -1.14737412148 0.74691910652 0.40792079888 -1.14729647195 0.74605330163 0.44642187164 -1.14729942632 0.74269476420 0.48339920264 -1.14736962709 0.73883427110 0.51732253540 -1.14749371674 0.73646259920 0.54666161344 -1.14765833778 0.71925429572 0.22739000557 -1.14712834606 0.75478559453 0.25284087277 -1.14611692867 0.77930801571 0.28437787494 -1.14528058081 0.79463212049 0.32044007659 -1.14461441648 0.80256847012 0.35946654220 -1.14411354971 0.80492762585 0.39989633626 -1.14377309453 0.80352014893 0.44016852327 -1.14358816494 0.80015660060 0.47872216772 -1.14355387498 0.79664754210 0.51399633409 -1.14366533866 0.79480353469 0.54443008688 -1.14391767001 0.79208404023 0.20935960851 -1.14533636216 0.81969028713 0.23796089687 -1.14370547308 0.83837833664 0.27226767892 -1.14229472782 0.84965142790 0.31074258279 -1.14110824787 0.85501280008 0.35184823661 -1.14015015468 0.85596569234 0.39404726852 -1.13942456974 0.85401334382 0.43580230665 -1.13893561452 0.85065899370 0.47557597913 -1.13868741049 0.84740588112 0.51183091410 -1.13868407912 0.84575724524 0.54302973968 -1.13892974190 0.85999835121 0.19255739852 -1.14324157366 0.87753627274 0.22533500120 -1.14082404734 0.88897589141 0.26301485374 -1.13867816834 0.89537844843 0.30415074871 -1.13681904908 0.89780518502 0.34729647867 -1.13526180202 0.89731734238 0.39100583621 -1.13402153959 0.89497616170 0.43383261390 -1.13311337423 0.89184288421 0.47433060431 -1.13255241837 0.88897875110 0.51105360002 -1.13235378445 0.88744500359 0.54255539361 -1.13253258491 0.30719555179 0.35300818894 -1.13105180764 0.33757409545 0.37060860555 -1.13592989737 0.35957661954 0.39182967851 -1.13977692037 0.37357683658 0.41594640201 -1.14263051149 0.37994845912 0.44223377025 -1.14452830559 0.37906519968 0.46996677741 -1.14550793752 0.37130077079 0.49842041768 -1.14560704215 0.35702888500 0.52686968527 -1.14486325432 0.33662325482 0.55458957436 -1.14331420889 0.31045759279 0.58085507914 -1.14099754072 0.35203133923 0.34258551677 -1.12850340083 0.38451324146 0.36065702756 -1.13326764986 0.40806636404 0.38251939624 -1.13704324369 0.42342574077 0.40736010267 -1.13988827002 0.43132640545 0.43436662665 -1.14186081652 0.43250339187 0.46272644804 -1.14301897091 0.42769173383 0.49162704666 -1.14342082088 0.41762646513 0.52025590234 -1.14312445412 0.40304261955 0.54780049491 -1.14218795833 0.38467523089 0.57344830422 -1.14066942121 0.40654487986 0.32996264776 -1.12648722680 0.44034283988 0.34845889199 -1.13113506435 0.46478160245 0.37104850052 -1.13483105397 0.48088538181 0.39681579212 -1.13764919170 0.48967839222 0.42484508558 -1.13966347357 0.49218484793 0.45422069968 -1.14094789563 0.48942896320 0.48402695319 -1.14157645391 0.48243495227 0.51334816490 -1.14162314445 0.47222702941 0.54126865358 -1.14116196330 0.45982940887 0.56687273801 -1.14026690647 0.46886033062 0.31548670773 -1.12496640937 0.50308429709 0.33446222913 -1.12946617639 0.52769644950 0.35791572043 -1.13304741178 0.54393454572 0.38481911666 -1.13579656713 0.55303634359 0.41414435284 -1.13780009400 0.55623960097 0.44486336403 -1.13914444396 0.55478207573 0.47594808524 -1.13991606858 0.54990152571 0.50637045151 -1.14020141944 0.54283570878 0.53510239788 -1.14008694810 0.53482238279 0.56111585937 -1.13965910614 0.53710184847 0.29950482254 -1.12390407238 0.57075901942 0.31911506929 -1.12819502155 0.59478501991 0.34361978509 -1.13159937773 0.61055201849 0.37187572254 -1.13421368690 0.61943218372 0.40273963424 -1.13613449505 0.62279768413 0.43506827278 -1.13745834816 0.62202068828 0.46771839075 -1.13828179221 0.61847336473 0.49954674074 -1.13870137318 0.61352788201 0.52941007534 -1.13881363707 0.60855640868 0.55616514715 -1.13871512984 0.60939359036 0.28236411803 -1.12326333966 0.64138841323 0.30286544274 -1.12725563541 0.66402142840 0.32865942360 -1.13039401240 0.67871658615 0.35849125607 -1.13278384160 0.68689783676 0.39110613560 -1.13453049398 0.68998913052 0.42524925765 -1.13573934050 0.68941441770 0.45966581768 -1.13651575212 0.68659764859 0.49310101114 -1.13696509980 0.68296277347 0.52430003349 -1.13719275451 0.67993374261 0.55200808018 -1.13730408721 0.68385971326 0.26441172003 -1.12300733503 0.71299388487 0.28616137978 -1.12658205352 0.73337978968 0.31353336506 -1.12933837639 0.74640703468 0.34517136350 -1.13139032184 0.75346522688 0.37971906272 -1.13285190806 0.75594397326 0.41582015034 -1.13383715327 0.75523288083 0.45211831398 -1.13446007565 0.75272155659 0.48725724128 -1.13483469341 0.74979960752 0.51988061985 -1.13507502476 0.74785664063 0.54863213733 -1.13529508788 0.75862437410 0.24599475438 -1.12309918232 0.78359684069 0.26945091070 -1.12610831146 0.80083421848 0.29874033859 -1.12833953029 0.81160215011 0.33242169112 -1.12991641819 0.81716627823 0.36905362141 -1.13096255453 0.81879224549 0.40719478255 -1.13160151872 0.81774569452 0.44540382762 -1.13195689012 0.81529226799 0.48223940973 -1.13215224813 0.81269760853 0.51626018196 -1.13231117212 0.81122735878 0.54602479743 -1.13255724148 0.83181172985 0.22746034693 -1.12350200536 0.85121868704 0.25318206580 -1.12576844480 0.86435882951 0.28477907327 -1.12730453470 0.87228071843 0.32074788521 -1.12824542125 0.87603291497 0.35958501749 -1.12872625066 0.87666398031 0.39978698598 -1.12888216913 0.87522247562 0.43985030654 -1.12884832286 0.87275696208 0.47827149504 -1.12875985806 0.87031600086 0.51354706734 -1.12875192092 0.86894815312 0.54417353932 -1.12895965764 0.90154593746 0.20915562352 -1.12417892798 0.91388083028 0.23780287536 -1.12549648910 0.92192773750 0.27214829822 -1.12614045020 0.92642152565 0.31065559204 -1.12626062161 0.92809706126 0.35178845677 -1.12600681369 0.92768921086 0.39401059234 -1.12552883677 0.92593284098 0.43578569870 -1.12497650119 0.92356281814 0.47557747578 -1.12449961731 0.92131400887 0.51184962352 -1.12424799547 0.91992127971 0.54306584187 -1.12437144600 0.31579045226 0.36317133093 -1.10421737536 0.33611002183 0.37975398164 -1.11193634536 0.35059570332 0.39969009858 -1.11801460949 0.35927438297 0.42243795608 -1.12260616801 0.36217294702 0.44745582846 -1.12586502120 0.35931828171 0.47420199005 -1.12794516933 0.35073727329 0.50213471517 -1.12900061269 0.33645680798 0.53071227814 -1.12918535153 0.31650377204 0.55939295329 -1.12865338614 0.29090505171 0.58763501494 -1.12755871679 0.37026966582 0.35381234322 -1.10248839080 0.39201112831 0.37087420674 -1.11013217355 0.40761698232 0.39140457127 -1.11616042757 0.41742457992 0.41476702083 -1.12073777386 0.42177127317 0.44032513942 -1.12402883336 0.42099441412 0.46744251107 -1.12619822706 0.41543135483 0.49548271978 -1.12741057592 0.40541944737 0.52380934957 -1.12783050091 0.39129604380 0.55178598445 -1.12762262299 0.37339849617 0.57877620844 -1.12695156314 0.43123214670 0.34249271645 -1.10116195645 0.45386596843 0.36002871416 -1.10872008550 0.47012884327 0.38125625326 -1.11468506310 0.48060474117 0.40543639507 -1.11922996981 0.48587763207 0.43183020088 -1.12252788618 0.48653148591 0.45969873199 -1.12475189277 0.48315027264 0.48830304971 -1.12607507013 0.47631796220 0.51690421535 -1.12667049881 0.46661852453 0.54476329019 -1.12671125938 0.45463592958 0.57114133555 -1.12637043239 0.49742165997 0.32943467863 -1.10026677671 0.52034959818 0.34749693843 -1.10769994832 0.53677663657 0.36955559432 -1.11356100200 0.54746897376 0.39476273879 -1.11803022240 0.55319280838 0.42227046434 -1.12128789415 0.55471433904 0.45123086347 -1.12351430186 0.55279976438 0.48079602867 -1.12488973018 0.54821528301 0.51011805244 -1.12559446373 0.54172709357 0.53834902727 -1.12580878715 0.53410139468 0.56464104567 -1.12571298505 0.56758197067 0.31486045776 -1.09983155603 0.59013707356 0.33355831408 -1.10707162910 0.60620571265 0.35661304418 -1.11276073022 0.61667138476 0.38306271195 -1.11708599818 0.62241758675 0.41194538130 -1.12023457177 0.62432781546 0.44229911612 -1.12239358977 0.62328556772 0.47316198032 -1.12375019097 0.62017434037 0.50357203779 -1.12449151416 0.61587763026 0.53256735244 -1.12480469812 0.61127893422 0.55918598816 -1.12487688165 0.64045684389 0.29899228183 -1.09988499882 0.66190345057 0.31849227564 -1.10683499494 0.67706142191 0.34273905260 -1.11225673369 0.68686608123 0.37065297454 -1.11634476368 0.69225275186 0.40115440327 -1.11929363353 0.69415675712 0.43316370060 -1.12129789189 0.69351342033 0.46560122836 -1.12255208736 0.69125806482 0.49738734837 -1.12325076857 0.68832601392 0.52744242244 -1.12358848414 0.68565259094 0.55468681240 -1.12375978271 0.71479004468 0.28205237886 -1.10045580951 0.73432378520 0.30257825764 -1.10698991295 0.74798911477 0.32824406935 -1.11202149834 0.75670717022 0.35785018652 -1.11575398543 0.76139908834 0.39019698173 -1.11839079395 0.76298600596 0.42408482753 -1.12013534364 0.76238905988 0.45831409648 -1.12119105422 0.76052938692 0.49168516113 -1.12176134545 0.75832812389 0.52299839404 -1.12204963704 0.75670640760 0.55105416777 -1.12225934874 0.78932533811 0.26426297684 -1.10157269254 0.80607313345 0.28609569462 -1.10753625020 0.81763414166 0.31343854416 -1.11202751011 0.82484875879 0.34497100788 -1.11526112997 0.82855738087 0.37937256821 -1.11745176751 0.82960040395 0.41532270756 -1.11881408043 0.82881822405 0.45150090836 -1.11956272645 0.82705123722 0.48658665302 -1.11991236329 0.82513983950 0.51925942398 -1.12007764865 0.82392442693 0.54819870364 -1.12027324027 0.86280648923 0.24584630378 -1.10326435232 0.87582655131 0.26932402110 -1.10847387381 0.88464185299 0.29863292679 -1.11224725494 0.88994495401 0.33233209858 -1.11481366385 0.89242841411 0.36898061419 -1.11640226871 0.89278479302 0.40713755131 -1.11724223767 0.89170665050 0.44536198768 -1.11756273891 0.88988654628 0.48221300101 -1.11759294056 0.88801704010 0.51624966901 -1.11756201081 0.88679069169 0.54603106940 -1.11769911780 0.93397726312 0.22702458768 -1.10555949328 0.94225909479 0.25254267161 -1.10980265088 0.94765759918 0.28413766700 -1.11265321876 0.95064986293 0.32025011861 -1.11435905360 0.95171297270 0.35932057117 -1.11516801205 0.95132401514 0.39978956943 -1.11532795079 0.94996007691 0.44009765814 -1.11508672647 0.94809824464 0.47868538205 -1.11469219577 0.94621560500 0.51399328589 -1.11439221535 0.94478924463 0.54446191442 -1.11443464187 0.32225311723 0.37370497429 -1.08195276893 0.33501546760 0.38930356683 -1.09138368346 0.34386738427 0.40802056268 -1.09880089170 0.34858827841 0.42945594799 -1.10442721667 0.34895756118 0.45320970892 -1.10848548142 0.34475464375 0.47888183163 -1.11119850896 0.33575893729 0.50607230229 -1.11278912233 0.32174985297 0.53438110703 -1.11348014457 0.30250680196 0.56340823203 -1.11349439870 0.27780919542 0.59275366343 -1.11305470776 0.38398009620 0.36515731400 -1.08083776494 0.39765123529 0.38123981061 -1.09022323626 0.40729352130 0.40051728530 -1.09760849510 0.41295321114 0.42249259432 -1.10322094478 0.41467656171 0.44666859389 -1.10728798862 0.41250982992 0.47254814027 -1.11003702997 0.40649927265 0.49963408968 -1.11169547215 0.39669114683 0.52742929836 -1.11249071849 0.38313170935 0.55543662255 -1.11265017232 0.36586721711 0.58315891848 -1.11240123696 0.44979103343 0.35484790244 -1.08001360929 0.46403533319 0.37144199978 -1.08934049502 0.47415857698 0.39139525103 -1.09667916956 0.48041813859 0.41411106830 -1.10226097778 0.48307139184 0.43899286367 -1.10631726455 0.48237571054 0.46544404923 -1.10907937474 0.47858846851 0.49286803707 -1.11077865325 0.47196703956 0.52066823928 -1.11164644492 0.46276879750 0.54824806795 -1.11191409466 0.45125111614 0.57501093517 -1.11181294732 0.51889642398 0.34292220881 -1.07954374915 0.53333509924 0.36008276936 -1.08877376389 0.54361284520 0.38084426059 -1.09602650057 0.55014361496 0.40450629694 -1.10153745203 0.55334136162 0.43036849281 -1.10554211108 0.55362003829 0.45773046264 -1.10827597056 0.55139359805 0.48589182084 -1.10997452330 0.54707599401 0.51415218184 -1.11087326211 0.54108117927 0.54181116005 -1.11120767984 0.53382310692 0.56816836990 -1.11121326930 0.59050676292 0.32952570231 -1.07949163166 0.60471787134 0.34733475437 -1.08856134700 0.61480661988 0.36905411469 -1.09566407362 0.62129019449 0.39387320722 -1.10104050389 0.62468578114 0.42098145589 -1.10493133014 0.62551056580 0.44956828463 -1.10757724472 0.62428173443 0.47882311739 -1.10921893999 0.62151647300 0.50793537810 -1.11009710829 0.61773196748 0.53609449069 -1.11045244196 0.61344540383 0.56248987910 -1.11052563337 0.66383254529 0.31480385215 -1.07992070399 0.67735098741 0.33337058983 -1.08874154850 0.68689019491 0.35621461404 -1.09560547421 0.69301843138 0.38240672614 -1.10076026971 0.69630396045 0.41101772746 -1.10445372361 0.69731504573 0.44111841934 -1.10693362451 0.69661995084 0.47177960311 -1.10844776100 0.69478693939 0.50207208012 -1.10924392168 0.69238427499 0.53106665170 -1.10956989515 0.68998022126 0.55783411919 -1.10967347001 0.73808426615 0.29890212752 -1.08089441328 0.75040178537 0.31836291075 -1.08935267253 0.75901386420 0.34251555937 -1.09586428781 0.76448887986 0.37030178071 -1.10068688586 0.76739520963 0.40066328210 -1.10407809341 0.76830123074 0.43254177088 -1.10629553721 0.76777532044 0.46487895439 -1.10759684400 0.76638585599 0.49661653995 -1.10823964052 0.76470121462 0.52669623490 -1.10848155350 0.76328977360 0.55405974657 -1.10858020969 0.81247242058 0.28196599762 -1.08247620670 0.82303760314 0.30248435215 -1.09043302324 0.83032792164 0.32814675137 -1.09645409992 0.83486209415 0.35775329790 -1.10081048868 0.83715883874 0.39010409437 -1.10377324144 0.83773687348 0.42399924340 -1.10561341013 0.83711491642 0.45823884763 -1.10660204669 0.83581168565 0.49162300966 -1.10701020305 0.83434589923 0.52295183214 -1.10710893114 0.83323627523 0.55102541768 -1.10716928288 0.88620750361 0.26414093165 -1.08472953141 0.89442577863 0.28590754905 -1.09202090478 0.89998266115 0.31329799077 -1.09738849604 0.90329862847 0.34495620473 -1.10112121453 0.90479415786 0.37952613884 -1.10350796959 0.90488972659 0.41565174102 -1.10483767055 0.90400581195 0.45197695921 -1.10539922674 0.90256289121 0.48714574130 -1.10548154749 0.90098144165 0.51980203524 -1.10537354216 0.89968194056 0.54858978892 -1.10536412006 0.95850001032 0.24557239881 -1.08771783455 0.96373364975 0.26880513647 -1.09415462128 0.96712837663 0.29815907829 -1.09868106165 0.96895903704 0.33210542818 -1.10160919978 0.96950047705 0.36911539007 -1.10325107977 0.96902754274 0.40766016788 -1.10391874575 0.96781508020 0.44621096553 -1.10392424182 0.96613793550 0.48323898694 -1.10357961209 0.96427095473 0.51721543603 -1.10319690068 0.96248898396 0.54661151672 -1.10308815169 0.32688786909 0.38437820361 -1.06372815415 0.33423861139 0.39902941310 -1.07386653034 0.33907946301 0.41659549062 -1.08183128438 0.34103488072 0.43678185310 -1.08787424288 0.33972932130 0.45929391747 -1.09224723244 0.33478724151 0.48383710065 -1.09520207967 0.32583309811 0.51011681956 -1.09699061116 0.31249134789 0.53783849115 -1.09786465353 0.29438644760 0.56670753232 -1.09807603337 0.27114285403 0.59642936002 -1.09787657729 0.39380925684 0.37642998682 -1.06305150174 0.40169950547 0.39156540848 -1.07316636935 0.40708363621 0.40966929179 -1.08111316938 0.40981251290 0.43035223275 -1.08714448165 0.40973699940 0.45322482737 -1.09151288601 0.40670795954 0.47789767164 -1.09447096229 0.40057625718 0.50398136156 -1.09627129031 0.39119275616 0.53108649313 -1.09716644991 0.37840832032 0.55882366236 -1.09740902093 0.36207381353 0.58680346525 -1.09725158319 0.46309747432 0.36688175478 -1.06257199432 0.47133095538 0.38255414465 -1.07265216710 0.47706273290 0.40131921390 -1.08056854347 0.48032337705 0.42269379443 -1.08657483969 0.48114345798 0.44619471815 -1.09092477202 0.47955354585 0.47133881697 -1.09387205672 0.47558421080 0.49764292279 -1.09567041006 0.46926602300 0.52462386753 -1.09657354828 0.46062955259 0.55179848309 -1.09683518766 0.44970536972 0.57868360138 -1.09670904444 0.53429937430 0.35584021537 -1.06236407253 0.54265487075 0.37211096658 -1.07237993421 0.54852971383 0.39166893071 -1.08023401034 0.55208907678 0.41393409525 -1.08618240305 0.55349813290 0.43832644771 -1.09048121448 0.55292205543 0.46426597559 -1.09338654675 0.55052601765 0.49117266640 -1.09515450200 0.54647519283 0.51846650765 -1.09604118236 0.54093475424 0.54556748683 -1.09630268995 0.53406987515 0.57189559145 -1.09619512691 0.60696180953 0.34341207645 -1.06250217704 0.61519316126 0.36035121922 -1.07240568132 0.62099753973 0.38084211596 -1.08014617368 0.62463121571 0.40420069232 -1.08598425781 0.62635045997 0.42974287395 -1.09018053741 0.62641154327 0.45678458647 -1.09299561615 0.62507073639 0.48464175554 -1.09469009774 0.62258431009 0.51263030681 -1.09552458585 0.61920853515 0.54006616590 -1.09575968419 0.61519968233 0.56626525848 -1.09565599643 0.68063163277 0.32970404590 -1.06306074849 0.68846773655 0.34739024752 -1.07278541905 0.69397917137 0.36896244342 -1.08034163718 0.69747139745 0.39362114277 -1.08599749003 0.69924987504 0.42056685476 -1.09002106481 0.69962006437 0.44900008856 -1.09268044869 0.69888742568 0.47812135335 -1.09424372886 0.69735741919 0.50713115832 -1.09497899248 0.69533550516 0.53523001265 -1.09515432676 0.69312714381 0.56161842550 -1.09503781886 0.75485569680 0.31482283158 -1.06411422753 0.76200050628 0.33334339644 -1.07357515805 0.76698756947 0.35615358682 -1.08085700452 0.77013122561 0.38232300370 -1.08623918579 0.77174581394 0.41092124804 -1.09000112071 0.77214567372 0.44101792081 -1.09242222815 0.77164514417 0.47168262297 -1.09378192695 0.77055856456 0.50198495551 -1.09435963596 0.76920027413 0.53099451938 -1.09443477404 0.76788461211 0.55778091556 -1.09428676004 0.82918085436 0.29887514137 -1.06573705482 0.83531338010 0.31832601094 -1.07483090893 0.83953569479 0.34253921993 -1.08172887939 0.84213230380 0.37043383223 -1.08672643114 0.84338771252 0.40092891169 -1.09011902912 0.84358642631 0.43294352217 -1.09220213830 0.84301295055 0.46539672755 -1.09327122361 0.84195179062 0.49720759168 -1.09362175000 0.84068745191 0.52729517844 -1.09354918243 0.83950443978 0.55457855169 -1.09334898583 0.90315395823 0.28196768312 -1.06800367100 0.90792826767 0.30245343596 -1.07660868234 0.91113650808 0.32824301650 -1.08299386548 0.91299623565 0.35808118547 -1.08747631215 0.91372500659 0.39071270360 -1.09037311406 0.91354037713 0.42488233161 -1.09200136291 0.91265990346 0.45933483022 -1.09267815042 0.91130114180 0.49281496016 -1.09272056832 0.90968164835 0.52406748215 -1.09244570830 0.90801897933 0.55183715691 -1.09217066208 0.97632186116 0.26420716471 -1.07098851674 0.97936707864 0.28584101646 -1.07896448890 0.98130297006 0.31338865028 -1.08468856649 0.98224462475 0.34539262055 -1.08850591490 0.98230713201 0.38039548168 -1.09076169952 0.98160558118 0.41693978808 -1.09180108576 0.98025506157 0.45356809414 -1.09196923899 0.97837066251 0.48882295425 -1.09161132462 0.97606747331 0.52124692283 -1.09107250804 0.97346058330 0.54938255427 -1.09069795464 0.32999903023 0.39496010344 -1.04901369683 0.33372763180 0.40870357242 -1.05897950467 0.33591974014 0.42518930226 -1.06680130491 0.33613054773 0.44419714682 -1.07272783202 0.33391524708 0.46550695997 -1.07700782048 0.32882903068 0.48889859558 -1.07989000474 0.32042709104 0.51415190753 -1.08162311926 0.30826462066 0.54104674969 -1.08245589851 0.29189681202 0.56936297594 -1.08263707696 0.27087885764 0.59888044013 -1.08241538906 0.40040377423 0.38743991935 -1.04862957974 0.40442188196 0.40166256968 -1.05858710414 0.40697498230 0.41867234422 -1.06640017350 0.40780336369 0.43816134576 -1.07231508336 0.40664731453 0.45982167714 -1.07657812923 0.40324712326 0.48334544114 -1.07943560664 0.39734307828 0.50842474059 -1.08113381113 0.38867546801 0.53475167828 -1.08191903822 0.37698458087 0.56201835703 -1.08203758344 0.36201070529 0.58991687965 -1.08173574232 0.47202740367 0.37844782252 -1.04836692053 0.47623285618 0.39322054462 -1.05831097589 0.47903324039 0.41088186196 -1.06610835493 0.48031825956 0.43103855608 -1.07200417963 0.47997761696 0.45329740851 -1.07624357195 0.47790101585 0.47726520078 -1.07907165386 0.47397815948 0.50254871440 -1.08073354735 0.46809875113 0.52875473092 -1.08147437437 0.46015249405 0.55549003185 -1.08153925691 0.45002909151 0.58236139873 -1.08117331693 0.54464526253 0.36807961539 -1.04829449274 0.54892298322 0.38347277478 -1.05821077039 0.55185188090 0.40191681612 -1.06597363415 0.55343596671 0.42293043788 -1.07182922253 0.55367925176 0.44603233848 -1.07602367402 0.55258574718 0.47074121637 -1.07880312714 0.55015946409 0.49657576999 -1.08041372038 0.54640441362 0.52305469779 -1.08110159225 0.54132460689 0.54969669821 -1.08111288126 0.53492405502 0.57602046968 -1.08069372591 0.61803269483 0.35643110041 -1.04848106993 0.62225469183 0.37251453771 -1.05834613813 0.62518827035 0.39187616734 -1.06604379613 0.62691721649 0.41393865125 -1.07182431375 0.62752531634 0.43812465142 -1.07593796083 0.62709635600 0.46385682980 -1.07863500720 0.62571412155 0.49055784836 -1.08016572269 0.62346239910 0.51765036907 -1.08078037714 0.62042497474 0.54455705389 -1.08072924039 0.61668563456 0.57070056477 -1.08026258226 0.69196504456 0.34359808001 -1.04899542564 0.69599041078 0.36044111096 -1.05877672959 0.69879977526 0.38085887623 -1.06636662581 0.70052274029 0.40416485631 -1.07202355497 0.70128890812 0.42967253172 -1.07600595773 0.70122788103 0.45669538296 -1.07857227477 0.70046926129 0.48454689053 -1.07998094675 0.69914265116 0.51254053494 -1.08049041433 0.69737765293 0.53998979669 -1.08035911819 0.69530386885 0.56620815630 -1.07984549900 0.76621765572 0.32967635665 -1.04990633344 0.76989256881 0.34734777208 -1.05956219526 0.77244376214 0.36896390343 -1.06698990817 0.77401326945 0.39371071316 -1.07246104789 0.77474312449 0.42077416376 -1.07624719013 0.77477536101 0.44934021771 -1.07861991060 0.77425201274 0.47859483749 -1.07985078502 0.77331511342 0.50772398557 -1.08021138910 0.77210669681 0.53591362443 -1.07997329856 0.77076879664 0.56234971655 -1.07940808912 0.84056587231 0.31476173276 -1.05128256687 0.84372359467 0.33332979861 -1.06076218562 0.84587759749 0.35629020956 -1.06796142817 0.84714953535 0.38267788191 -1.07317089419 0.84766106288 0.41152773194 -1.07668118338 0.84753383467 0.44187467596 -1.07878289540 0.84688950534 0.47275363026 -1.07976662996 0.84584972949 0.50319951114 -1.07992298673 0.84453616172 0.53224723489 -1.07954256539 0.84307045665 0.55893171782 -1.07891596563 0.91478503833 0.29895001080 -1.05319289949 0.91724591713 0.31848246811 -1.06243635116 0.91885864783 0.34293675527 -1.06932897076 0.91969226936 0.37116802265 -1.07418719556 0.91981582068 0.40203142063 -1.07732746286 0.91929834076 0.43438209957 -1.07906620993 0.91820886853 0.46707520985 -1.07971987405 0.91661644296 0.49896590183 -1.07960489251 0.91459010301 0.52890932588 -1.07903770258 0.91219888761 0.55576063238 -1.07833474156 0.98865049778 0.28233699320 -1.05570610484 0.99022196494 0.30290105811 -1.06464434235 0.99114427967 0.32900250117 -1.07114032090 0.99140220283 0.35928279551 -1.07554405370 0.99098049531 0.39238341422 -1.07820555396 0.98986391799 0.42694583044 -1.07947483490 0.98803723174 0.46161151726 -1.07970190975 0.98548519746 0.49502194781 -1.07923679172 0.98219257600 0.52581859519 -1.07842949403 0.97814412826 0.55264293253 -1.07763002989 0.33189092303 0.40521975835 -1.03727956279 0.33343070745 0.41809809677 -1.04631722512 0.33407601625 0.43357641741 -1.05340647067 0.33339163723 0.45148330450 -1.05876856951 0.33094235821 0.47164734226 -1.06262479173 0.32629296699 0.49389711493 -1.06519640743 0.31900825138 0.51806120673 -1.06670468669 0.30865299920 0.54396820188 -1.06737089961 0.29479199825 0.57144668462 -1.06741631626 0.27699003635 0.60032523916 -1.06706220674 0.40441027485 0.39799666931 -1.03707197746 0.40608430783 0.41134286354 -1.04611097197 0.40695521483 0.42733819604 -1.05319523059 0.40672664198 0.44573534297 -1.05853944876 0.40510223544 0.46628698049 -1.06235832197 0.40178564134 0.48874578477 -1.06486654568 0.39648050583 0.51286443195 -1.06627881535 0.38889047504 0.53839559820 -1.06680982646 0.37871919513 0.56509195969 -1.06667427447 0.36567031224 0.59270619256 -1.06608685486 0.47745675574 0.38939965474 -1.03692819690 0.47922105680 0.40329659549 -1.04597279557 0.48026202877 0.41993691529 -1.05305377408 0.48040058910 0.43899933588 -1.05838162169 0.47945765522 0.46016257895 -1.06216682768 0.47725414455 0.48310536623 -1.06461988133 0.47361097453 0.50750641944 -1.06595127191 0.46834906259 0.53304446028 -1.06637148869 0.46128932616 0.55939821048 -1.06609102095 0.45225268267 0.58624639174 -1.06532035795 0.55094884032 0.37953132599 -1.03690175561 0.55275350712 0.39405943861 -1.04595858354 0.55390398486 0.41147512829 -1.05303547487 0.55431489220 0.43137962897 -1.05834205752 0.55390084778 0.45337417456 -1.06208795939 0.55257647025 0.47705999901 -1.06448280842 0.55025637828 0.50203833624 -1.06573623251 0.54685519051 0.52791042020 -1.06605785958 0.54228752559 0.55427748479 -1.06565731755 0.53646800218 0.58074076397 -1.06474423434 0.62480500316 0.36849429442 -1.03704618807 0.62659421156 0.38373153891 -1.04612422351 0.62778860987 0.40205538815 -1.05319370671 0.62837096487 0.42298056798 -1.05846772549 0.62832404335 0.44602180425 -1.06215936764 0.62763061209 0.47069382278 -1.06448172099 0.62627343788 0.49651134943 -1.06564787332 0.62423528749 0.52298911004 -1.06587091244 0.62149892771 0.54964183045 -1.06536392617 0.61804712533 0.57598423649 -1.06434000231 0.69894371887 0.35639117139 -1.03741502878 0.70065572288 0.37241304238 -1.04652560310 0.70182343056 0.39178024797 -1.05358184334 0.70247022073 0.41390649866 -1.05880559485 0.70261947218 0.43820550492 -1.06241870297 0.70229456371 0.46409097723 -1.06464301307 0.70151887412 0.49097662607 -1.06570037048 0.70031578221 0.51827616191 -1.06581262057 0.69870866678 0.54540329524 -1.06520160868 0.69672090664 0.57177173654 -1.06408918017 0.77328346204 0.34332456829 -1.03806181222 0.77485059383 0.36020409501 -1.04721860995 0.77591597371 0.38075226087 -1.05425325850 0.77651407337 0.40426176674 -1.05940263483 0.77667936449 0.43002531350 -1.06290361591 0.77644631874 0.45733560203 -1.06499307870 0.77584940780 0.48548533320 -1.06590790016 0.77492310335 0.51376720789 -1.06588495726 0.77370187708 0.54147392699 -1.06516112697 0.77222020066 0.56789819136 -1.06397328623 0.84774270727 0.32939709645 -1.03904007287 0.84909137718 0.34720484282 -1.04825913167 0.84997376610 0.36907397997 -1.05526132592 0.85040393641 0.39415071797 -1.06030581468 0.85039595051 0.42158126691 -1.06365175699 0.84996387082 0.45051183686 -1.06555831192 0.84912175971 0.48008863789 -1.06628463852 0.84788367960 0.50945788008 -1.06608989582 0.84626369288 0.53776577349 -1.06523324290 0.84427586195 0.56415852822 -1.06397383879 0.92223992916 0.31471136726 -1.04040334524 0.92329062570 0.33351543179 -1.04970305589 0.92390433448 0.35684795836 -1.05665941934 0.92404122343 0.38367769809 -1.06156210362 0.92366146049 0.41297340207 -1.06470077676 0.92272521359 0.44370382141 -1.06636510677 0.92119265066 0.47483770720 -1.06684476169 0.91902393963 0.50534381056 -1.06642940955 0.91617924844 0.53419088257 -1.06540871836 0.91261874503 0.56034767434 -1.06407235615 0.99669360229 0.29936999208 -1.04220516380 0.99736089214 0.31923600792 -1.05160627024 0.99761520564 0.34417674917 -1.05850091251 0.99732734806 0.37294705284 -1.06321847091 0.99636812465 0.40430175590 -1.06608832574 0.99460834069 0.43699569536 -1.06743985729 0.99191880143 0.46978370820 -1.06760244585 0.98817031213 0.50142063142 -1.06690547173 0.98323367805 0.53066130201 -1.06567831522 0.97697970446 0.55626055697 -1.06425035662 0.33286786987 0.41492625289 -1.02799591782 0.33329601695 0.42698503810 -1.03547431039 0.33323609196 0.44153125591 -1.04134229904 0.33233450705 0.45842180154 -1.04577704073 0.33023767439 0.47751357022 -1.04895569240 0.32659200613 0.49866345719 -1.05105541102 0.32104391443 0.52172835768 -1.05225335354 0.31323981144 0.54656516691 -1.05272667691 0.30282610933 0.57303078012 -1.05265253807 0.28944922026 0.60098209253 -1.05220809400 0.40647538516 0.40790979439 -1.02787867341 0.40695272617 0.42041785937 -1.03536350418 0.40701198903 0.43547860072 -1.04122406373 0.40638322626 0.45288963399 -1.04562427675 0.40479649042 0.47244857473 -1.04872806795 0.40198183406 0.49395303849 -1.05069936204 0.39766930971 0.51720064084 -1.05170208371 0.39158896992 0.54198899731 -1.05190015768 0.38347086724 0.56811572348 -1.05145750864 0.37304505421 0.59537843488 -1.05053806131 0.48026146484 0.39959080048 -1.02778563244 0.48077557844 0.41263769308 -1.03529350031 0.48094102740 0.42833809399 -1.04115997101 0.48056816867 0.44643011643 -1.04553978995 0.47946735921 0.46665187366 -1.04858770256 0.47744895598 0.48874147891 -1.05045845428 0.47432331592 0.51243704542 -1.05130679052 0.46990079600 0.53747668644 -1.05128745672 0.46399175317 0.56359851520 -1.05055519829 0.45640654439 0.59054064495 -1.04926476068 0.55422485927 0.39008626424 -1.02775260702 0.55476051296 0.40376220275 -1.03531568477 0.55501066416 0.42023107867 -1.04120963534 0.55485646073 0.43916597267 -1.04558505506 0.55417905052 0.46023996541 -1.04859254027 0.55285958136 0.48312613756 -1.05038268730 0.55077920112 0.50749756980 -1.05110609247 0.54781905762 0.53302734279 -1.05091335213 0.54386029874 0.55938853720 -1.04995506260 0.53878407230 0.58625423370 -1.04838182022 0.62836431883 0.37951317872 -1.02781540924 0.62890346895 0.39390905189 -1.03548144352 0.62920835641 0.41127889774 -1.04143267118 0.62921522890 0.43121992650 -1.04582154683 0.62886033410 0.45332934837 -1.04880052511 0.62807991968 0.47720437358 -1.05052206065 0.62681023333 0.50244221234 -1.05113860809 0.62498752273 0.52864007487 -1.05080262203 0.62254803554 0.55539517139 -1.04966655713 0.61942801947 0.58230471212 -1.04788286800 0.70267859391 0.36798853698 -1.02800985121 0.70320038564 0.38319590400 -1.03584216256 0.70352156124 0.40160289415 -1.04188869298 0.70361159963 0.42271470171 -1.04631073999 0.70343997972 0.44603652093 -1.04926960112 0.70297618041 0.47107354607 -1.05092657391 0.70218968062 0.49733097140 -1.05144295587 0.70104995925 0.52431399119 -1.05098004455 0.69952649521 0.55152779969 -1.04969913746 0.69758876742 0.57847759116 -1.04776153214 0.77716643487 0.35562933209 -1.02837174504 0.77764720224 0.37174042260 -1.03644922786 0.77793773574 0.39132441087 -1.04263731520 0.77801269938 0.41377302210 -1.04711410927 0.77784675714 0.43847798147 -1.05005771233 0.77741457302 0.46483101416 -1.05164622661 0.77669081102 0.49222384536 -1.05205775435 0.77565013513 0.52004820024 -1.05147039779 0.77426720935 0.54769580400 -1.05006225916 0.77251669767 0.57455838181 -1.04801144071 0.85182659209 0.34255255712 -1.02893690281 0.85223985797 0.35966027119 -1.03735402541 0.85244433700 0.38056479086 -1.04373815229 0.85238565458 0.40451761147 -1.04829312943 0.85200943611 0.43077022839 -1.05122280278 0.85126130697 0.45857413697 -1.05273101833 0.85008689257 0.48718083257 -1.05302162203 0.84843181831 0.51584181054 -1.05229845987 0.84624170957 0.54380856624 -1.05076537780 0.84346219176 0.57033259503 -1.04862622181 0.92665781595 0.32887520511 -1.02974113663 0.92697429205 0.34707311329 -1.03860794118 0.92702882211 0.36944537708 -1.04525081873 0.92669759170 0.39507119362 -1.04990927519 0.92585678639 0.42302976008 -1.05282281650 0.92438259174 0.45240027362 -1.05423094860 0.92215119333 0.48226193141 -1.05437317743 0.91903877672 0.51169393059 -1.05348900890 0.91492152748 0.53977546833 -1.05181794896 0.90967563118 0.56558574180 -1.04959950354 1.00165885683 0.31471426915 -1.03082025861 1.00184644371 0.33409661241 -1.04026236117 1.00167864817 0.35808751249 -1.04723492895 1.00091563719 0.38555649233 -1.05202402129 0.99931757775 0.41537307492 -1.05491569753 0.99664463680 0.44640678323 -1.05619601701 0.99265698133 0.47752714023 -1.05615103905 0.98711477831 0.50760366889 -1.05506682301 0.97977819470 0.53550589218 -1.05322942821 0.97040739748 0.56010333308 -1.05092491399 0.33323419313 0.42384867164 -1.02063292773 0.33327173890 0.43513644840 -1.02604537913 0.33308776786 0.44882823759 -1.03030430740 0.33247551500 0.46479411331 -1.03353383108 0.33122821532 0.48290414969 -1.03585806870 0.32913910381 0.50302842085 -1.03740113879 0.32600141548 0.52503700091 -1.03828715988 0.32160838531 0.54879996398 -1.03864025051 0.31575324831 0.57418738419 -1.03858452921 0.30822923947 0.60106933565 -1.03824411451 0.40724573165 0.41698885227 -1.02054964611 0.40729308008 0.42869912650 -1.02597023210 0.40713296015 0.44290531173 -1.03021239603 0.40657399500 0.45943962844 -1.03337626619 0.40542480780 0.47813429713 -1.03556197087 0.40349402168 0.49882153829 -1.03686963836 0.40059025979 0.52133357242 -1.03739939695 0.39652214530 0.54550262001 -1.03725137492 0.39109830134 0.57116090154 -1.03652570057 0.38412735107 0.59814063752 -1.03532250217 0.48131746523 0.40887480882 -1.02046903613 0.48137644230 0.42109923323 -1.02592896429 0.48126216560 0.43593911813 -1.03018211585 0.48081880125 0.45318488037 -1.03331130850 0.47989051540 0.47262693683 -1.03539935994 0.47832147415 0.49405570438 -1.03652908787 0.47595584364 0.51726159989 -1.03678330997 0.47263779000 0.54203504022 -1.03624484395 0.46821147936 0.56816644226 -1.03499650749 0.46252107784 0.59544622288 -1.03312111828 0.55548807102 0.39963534725 -1.02041379282 0.55555807122 0.41247231187 -1.02597438518 0.55549655724 0.42807187872 -1.03028621841 0.55519127979 0.44617377313 -1.03342236222 0.55452998955 0.46651772047 -1.03545588634 0.55340043722 0.48884344607 -1.03645986048 0.55169037351 0.51289067530 -1.03650735435 0.54928754910 0.53839913351 -1.03567143768 0.54607971471 0.56510854604 -1.03402518018 0.54195462101 0.59275863824 -1.03164165157 0.62979622619 0.38939927355 -1.02040661119 0.62987421251 0.40295390572 -1.02615930424 0.62985730812 0.41944581545 -1.03059745526 0.62967277664 0.43855021078 -1.03379283156 0.62924788168 0.45994229973 -1.03581720048 0.62850988689 0.48329729035 -1.03674232934 0.62738605588 0.50829039067 -1.03663998547 0.62580365228 0.53459680872 -1.03558193620 0.62368993971 0.56189175253 -1.03363994886 0.62097218181 0.58985043015 -1.03088579078 0.70428060790 0.37829539369 -1.02047018627 0.70436111185 0.39267955806 -1.02653653095 0.70436559128 0.41020315027 -1.03118857794 0.70424463784 0.43045809735 -1.03450612071 0.70394884324 0.45303632631 -1.03656895278 0.70342879914 0.47752976418 -1.03745686762 0.70263509723 0.50353033798 -1.03724965874 0.70151832919 0.53062997472 -1.03602711961 0.70002908671 0.55842060143 -1.03386904375 0.69811796145 0.58649414513 -1.03085522463 0.77897989332 0.36645251365 -1.02062721309 0.77905501492 0.38178481218 -1.02715887478 0.77904257975 0.40048610513 -1.03213233799 0.77888820945 0.42204133689 -1.03564563389 0.77853752564 0.44593545190 -1.03779679366 0.77793614997 0.47165339454 -1.03868384848 0.77702970406 0.49868010924 -1.03840482954 0.77576380953 0.52650054039 -1.03705776800 0.77408408802 0.55459963241 -1.03474069505 0.77193616116 0.58246232971 -1.03155164186 0.85393275962 0.35399943941 -1.02090038668 0.85399216737 0.37040521137 -1.02807914521 0.85390944657 0.39043690195 -1.03350148696 0.85358483748 0.41344383345 -1.03729477529 0.85291858034 0.43877532816 -1.03958637354 0.85181091537 0.46578070839 -1.04050364509 0.85016208283 0.49380929643 -1.04017395327 0.84787232296 0.52221041459 -1.03872466145 0.84484187599 0.55033338515 -1.03628313298 0.84097098217 0.57752753042 -1.03297673121 0.92917788396 0.34106497694 -1.02131240204 0.92920881488 0.35867629892 -1.02935015170 0.92898736480 0.38019776270 -1.03536877639 0.92831586799 0.40480949106 -1.03953694911 0.92699665875 0.43169160680 -1.04202334285 0.92483207134 0.46002423271 -1.04299663059 0.92162444005 0.48898749157 -1.04262548533 0.91717609915 0.51776150618 -1.04107858005 0.91128938294 0.54552639932 -1.03852458775 0.90376662569 0.57146229379 -1.03513218141 1.00475394350 0.32777793222 -1.02188595422 1.00474120313 0.34673361812 -1.03102470373 1.00429750746 0.36991090931 -1.03780695783 1.00306264702 0.39628221378 -1.04245555957 1.00067641231 0.42481993950 -1.04519335199 0.99677859386 0.45449649446 -1.04624317816 0.99100898218 0.48428428665 -1.04582788111 0.98300736779 0.51315572403 -1.04417030390 0.97241354121 0.54008321460 -1.04149328958 0.95886729295 0.56403916634 -1.03801968119 0.33329421520 0.43175609916 -1.01466075833 0.33330605192 0.44232437964 -1.01762505003 0.33331884456 0.45524178227 -1.01998801314 0.33333101889 0.47038171519 -1.02181952597 0.33334100069 0.48761758653 -1.02318946682 0.33334721574 0.50682280441 -1.02416771399 0.33334808983 0.52787077696 -1.02482414579 0.33334204873 0.55063491232 -1.02522864051 0.33332751823 0.57498861859 -1.02545107646 0.33330292409 0.60080530393 -1.02556133194 0.40736794080 0.42504340066 -1.01458487409 0.40737131264 0.43599823426 -1.01755668706 0.40730578345 0.44943008253 -1.01988595059 0.40709982670 0.46520073595 -1.02160211595 0.40668191588 0.48317198500 -1.02273463443 0.40598052447 0.50320562016 -1.02331295729 0.40492412596 0.52516343189 -1.02336653580 0.40344119383 0.54890721069 -1.02292482123 0.40146020156 0.57429874702 -1.02201726486 0.39890962264 0.60119983137 -1.02067331796 0.48150069120 0.41710522880 -1.01450821697 0.48150366958 0.42853661175 -1.01753506167 0.48141737272 0.44259370779 -1.01987537871 0.48115028985 0.45911761030 -1.02152880143 0.48061091022 0.47794941265 -1.02249496317 0.47970772308 0.49893020821 -1.02277349727 0.47834921766 0.52190109036 -1.02236403706 0.47644388322 0.54670315246 -1.02126621587 0.47390020898 0.57317748791 -1.01947966705 0.47062668420 0.60116519006 -1.01700402393 0.55575322719 0.40806949211 -1.01445205887 0.55576025240 0.42008101064 -1.01762699589 0.55568630255 0.43488473988 -1.02005532694 0.55544995682 0.45228733450 -1.02171812605 0.55496979443 0.47209544918 -1.02259646728 0.55416439454 0.49411573858 -1.02267142466 0.55295233636 0.51815485738 -1.02192407222 0.55125219908 0.54401946027 -1.02033548401 0.54898256189 0.57151620190 -1.01788673407 0.54606200398 0.60045173697 -1.01455889644 0.63018630954 0.39806409914 -1.01443767167 0.63019819075 0.41077292948 -1.01789931174 0.63014526312 0.42645526062 -1.02052482470 0.62996637611 0.44486490481 -1.02228863348 0.62960037919 0.46575567428 -1.02316516099 0.62898612183 0.48888138126 -1.02312883017 0.62806245347 0.51399583800 -1.02215406395 0.62676822360 0.54085285672 -1.02021528524 0.62504228168 0.56920624968 -1.01728691697 0.62282347717 0.59880982909 -1.01334338207 0.70486069905 0.38721695844 -1.01448632728 0.70487461431 0.40075386679 -1.01841883126 0.70482694463 0.41745735183 -1.02138290144 0.70466709620 0.43700531748 -1.02335886735 0.70434447522 0.45907566765 -1.02432705854 0.70380848789 0.48334630626 -1.02426780454 0.70300854041 0.50949513722 -1.02316143488 0.70189403896 0.53720006446 -1.02098827912 0.70041438975 0.56613899188 -1.01772866678 0.69851899898 0.59598982340 -1.01336292740 0.77983715651 0.37565597854 -1.01461929758 0.77984665275 0.39016532111 -1.01925237647 0.77976403726 0.40804309533 -1.02272858659 0.77951966558 0.42886356877 -1.02504737134 0.77904389322 0.45220100899 -1.02620817416 0.77826707572 0.47762968357 -1.02621043846 0.77711956858 0.50472386008 -1.02505360768 0.77553172734 0.53305780609 -1.02273712523 0.77343390751 0.56220578917 -1.01926043453 0.77075646461 0.59174207689 -1.01462297902 0.85517644271 0.36350906799 -1.01485785448 0.85517143571 0.37914879099 -1.02046676941 0.85498923119 0.39836457296 -1.02466090957 0.85449163273 0.42059465494 -1.02747268909 0.85354044389 0.44527727801 -1.02893452208 0.85199746826 0.47185068321 -1.02907882268 0.84972450941 0.49975311161 -1.02793800500 0.84658337091 0.52842280425 -1.02554448316 0.84243585634 0.55729800221 -1.02193067128 0.83714376927 0.58581694653 -1.01712898350 0.93093931842 0.35090413533 -1.01522326985 0.93090609287 0.36784577495 -1.02212883208 0.93053521661 0.38857386652 -1.02727889982 0.92955054613 0.41235357225 -1.03075336425 0.92767593793 0.43845005439 -1.03263211655 0.92463524849 0.46612847517 -1.03299504790 0.92015233430 0.49465399682 -1.03192204948 0.91395105186 0.52329178157 -1.02949301248 0.90575525764 0.55130699166 -1.02578782806 0.89528880815 0.57796478931 -1.02088638742 1.00718654444 0.33796908910 -1.01573681561 1.00710775389 0.35639777154 -1.02430538654 1.00643468370 0.37882305784 -1.03068158678 1.00466395429 0.40429531696 -1.03500794048 1.00129218605 0.43186491784 -1.03742697179 0.99581599938 0.46058222945 -1.03808120484 0.98773201468 0.48949762074 -1.03711316379 0.97653685236 0.51766146066 -1.03466537276 0.96172713283 0.54412411817 -1.03088035591 0.94279947647 0.56793596221 -1.02590063738 </DataArray>
</Points>
</Piece>
</StructuredGrid>
</VTKFile>
