<?xml version="1.0"?>
<VTKFile type="StructuredGrid" version="0.1">
<StructuredGrid WholeExtent="0 9 0 9 0 9">
<Piece Extent="0 9 0 9 0 9">
<PointData>
<DataArray type="Float32" Name="Deformation" format="ascii" NumberOfComponents="3">
0.00045506556 0.00010001005 -0.00264507185 0.00036246347 -0.00007534361 -0.00268095825 0.00026332541 -0.00020683542 -0.00270787134 0.00015951943 -0.00029446534 -0.00272581052 0.00005291355 -0.00033823331 -0.00273477518 -0.00005462419 -0.00033813929 -0.00273476472 -0.00016122575 -0.00029418323 -0.00272577852 -0.00026502309 -0.00020636507 -0.00270781599 -0.00036414819 -0.00007468478 -0.00268087652 -0.00045673300 0.00010085771 -0.00264495950 0.00045921660 0.00009308023 -0.00261103351 0.00036737719 -0.00008042511 -0.00264713034 0.00026773728 -0.00021053080 -0.00267420024 0.00016252619 -0.00029723680 -0.00269224292 0.00005397321 -0.00034054308 -0.00270125808 -0.00005569234 -0.00034044960 -0.00270124541 -0.00016424116 -0.00029695632 -0.00269220462 -0.00026944395 -0.00021006320 -0.00267413540 -0.00036907139 -0.00007977021 -0.00264703747 -0.00046089418 0.00009392268 -0.00261091052 0.00046279733 0.00008293676 -0.00257994580 0.00037120628 -0.00008726106 -0.00261613782 0.00027103106 -0.00021488626 -0.00264327824 0.00016472484 -0.00029993883 -0.00266136703 0.00005474082 -0.00034241876 -0.00267040414 -0.00005646781 -0.00034232604 -0.00267038954 -0.00016644787 -0.00029966067 -0.00266132318 -0.00027274616 -0.00021442264 -0.00264320502 -0.00037290949 -0.00008661193 -0.00261603503 -0.00046448467 0.00008377146 -0.00257981315 0.00046423836 0.00006848485 -0.00255226783 0.00037292702 -0.00009649434 -0.00258812441 0.00027258097 -0.00022020576 -0.00261501252 0.00016578210 -0.00030264948 -0.00263293234 0.00005511229 -0.00034382553 -0.00264188405 -0.00005684659 -0.00034373398 -0.00264186783 -0.00016751265 -0.00030237488 -0.00263288384 -0.00027430402 -0.00021974828 -0.00261493227 -0.00037463880 -0.00009585422 -0.00258801328 -0.00046593513 0.00006930723 -0.00255212707 0.00046197032 0.00004862974 -0.00252845871 0.00037151566 -0.00010876781 -0.00256323384 0.00027176126 -0.00022679327 -0.00258931027 0.00016536470 -0.00030544681 -0.00260668837 0.00005498354 -0.00034472859 -0.00261536849 -0.00005672464 -0.00034463877 -0.00261535099 -0.00016710228 -0.00030517753 -0.00260663622 -0.00027349181 -0.00022634501 -0.00258922456 -0.00037323566 -0.00010814139 -0.00256311634 -0.00046367625 0.00004943318 -0.00252831194 0.00045442386 0.00002227664 -0.00250897755 0.00036594848 -0.00012472435 -0.00254160983 0.00026794616 -0.00023495274 -0.00256607868 0.00016313936 -0.00030840888 -0.00258238460 0.00005425050 -0.00034509311 -0.00259052812 -0.00005599795 -0.00034500577 -0.00259050973 -0.00016488354 -0.00030814719 -0.00258232996 -0.00026968383 -0.00023451773 -0.00256598931 -0.00036767637 -0.00012411772 -0.00254148830 -0.00045613871 0.00002305250 -0.00250882744 0.00044002958 -0.00001166922 -0.00249428345 0.00035520175 -0.00014500683 -0.00252339610 0.00026050991 -0.00024498815 -0.00254522492 0.00015877279 -0.00031161376 -0.00255977055 0.00005280909 -0.00034488429 -0.00256703362 -0.00005456248 -0.00034480032 -0.00256701478 -0.00016052320 -0.00031136246 -0.00255971468 -0.00026225437 -0.00024457133 -0.00254513396 -0.00035693727 -0.00014442752 -0.00252327325 -0.00044175318 -0.00001093163 -0.00249413321 0.00041721813 -0.00005430261 -0.00248483552 0.00033825173 -0.00017025813 -0.00250873639 0.00024882675 -0.00025720344 -0.00252665619 0.00015193173 -0.00031513951 -0.00253859570 0.00005055522 -0.00034406730 -0.00254455567 -0.00005231422 -0.00034398779 -0.00254453685 -0.00015368805 -0.00031490193 -0.00253854002 -0.00025057771 -0.00025681071 -0.00252656591 -0.00033999466 -0.00016971508 -0.00250861530 -0.00041895034 -0.00005361601 -0.00248468894 0.00038442013 -0.00010671832 -0.00248109288 0.00031407470 -0.00020112111 -0.00249777440 0.00023227090 -0.00027190258 -0.00251027967 0.00014228289 -0.00031906417 -0.00251860957 0.00004738482 -0.00034260734 -0.00252276494 -0.00004914915 -0.00034253352 -0.00252274666 -0.00014404485 -0.00031884418 -0.00251855559 -0.00023402815 -0.00027154075 -0.00251019259 -0.00031582487 -0.00020062469 -0.00249765854 -0.00038616087 -0.00010609745 -0.00248095429 0.00034006622 -0.00017001112 -0.00248351463 0.00028164692 -0.00023823865 -0.00249065387 0.00021021661 -0.00028938953 -0.00249600255 0.00012949299 -0.00032346582 -0.00249956164 0.00004319381 -0.00034046958 -0.00250133210 -0.00004496323 -0.00034040289 -0.00250131491 -0.00013126040 -0.00032326779 -0.00249951103 -0.00021197997 -0.00028906636 -0.00249592143 -0.00028340422 -0.00023780067 -0.00249054707 -0.00034181544 -0.00016947277 -0.00248338892 0.00046997609 -0.00004124757 -0.00261601385 0.00037267622 -0.00021280203 -0.00264667140 0.00026987820 -0.00034144704 -0.00266966262 0.00016315355 -0.00042718200 -0.00268498705 0.00005407383 -0.00047000628 -0.00269264421 -0.00005578944 -0.00046991927 -0.00269263364 -0.00016486471 -0.00042692035 -0.00268495485 -0.00027158045 -0.00034100892 -0.00266960737 -0.00037436513 -0.00021218435 -0.00264659074 -0.00047164721 -0.00004044603 -0.00261590447 0.00047352497 -0.00004668451 -0.00258730194 0.00037750270 -0.00021688225 -0.00261736826 0.00027443201 -0.00034450984 -0.00263991508 0.00016632733 -0.00042956667 -0.00265494218 0.00005520310 -0.00047205214 -0.00266244929 -0.00005692625 -0.00047196565 -0.00266243618 -0.00016804628 -0.00042930659 -0.00265490261 -0.00027614255 -0.00034407434 -0.00263984831 -0.00037920064 -0.00021626832 -0.00261727307 -0.00047520611 -0.00004588790 -0.00258717661 0.00047660284 -0.00005557493 -0.00256147750 0.00038123712 -0.00022289171 -0.00259086561 0.00027781705 -0.00034835869 -0.00261290294 0.00016864443 -0.00043197532 -0.00262758944 0.00005602107 -0.00047374105 -0.00263492502 -0.00005775123 -0.00047365530 -0.00263490965 -0.00017037064 -0.00043171754 -0.00262754325 -0.00027953537 -0.00034792719 -0.00261282577 -0.00038294360 -0.00022228371 -0.00259075714 -0.00047829353 -0.00005478653 -0.00256133730 0.00047758490 -0.00006897319 -0.00253878226 0.00038282752 -0.00023144405 -0.00256719320 0.00027939535 -0.00035327673 -0.00258849694 0.00016976743 -0.00043447077 -0.00260269357 0.00005642281 -0.00047502572 -0.00260978318 -0.00005815949 -0.00047494110 -0.00260976586 -0.00017150043 -0.00043421648 -0.00260264169 -0.00028112098 -0.00035285139 -0.00258841078 -0.00038454209 -0.00023084536 -0.00256707321 -0.00047928475 -0.00006819795 -0.00253862908 0.00047484636 -0.00008793361 -0.00251945795 0.00038122191 -0.00024315289 -0.00254638077 0.00027852893 -0.00035954706 -0.00256656782 0.00016935893 -0.00043711582 -0.00258001933 0.00005630340 -0.00047585888 -0.00258673552 -0.00005804617 -0.00047577593 -0.00258671661 -0.00017109829 -0.00043686668 -0.00257996284 -0.00028026146 -0.00035913084 -0.00256647441 -0.00038294421 -0.00024256810 -0.00254625155 -0.00047655502 -0.00008717816 -0.00251929449 0.00046676243 -0.00011351054 -0.00250374629 0.00037536832 -0.00025863186 -0.00252845804 0.00027457983 -0.00036745280 -0.00254698632 0.00016708151 -0.00043997329 -0.00255933146 0.00005555792 -0.00047619327 -0.00256549382 -0.00005730638 -0.00047611266 -0.00256547374 -0.00016882684 -0.00043973142 -0.00255927159 -0.00027631891 -0.00036704947 -0.00254688769 -0.00037709802 -0.00025806674 -0.00252832241 -0.00046847962 -0.00011278318 -0.00250357609 0.00045170831 -0.00014675832 -0.00249188900 0.00036421478 -0.00027849459 -0.00251345477 0.00026691005 -0.00037727707 -0.00252962317 0.00016259774 -0.00044310599 -0.00254039470 0.00005408143 -0.00047598160 -0.00254576984 -0.00005583526 -0.00047590418 -0.00254574906 -0.00016434873 -0.00044287395 -0.00254033285 -0.00026865538 -0.00037689119 -0.00252952169 -0.00036595161 -0.00027795613 -0.00251331605 -0.00045343381 -0.00014606903 -0.00249171642 0.00042805922 -0.00018873129 -0.00248412782 0.00034670932 -0.00030335472 -0.00250140067 0.00025488164 -0.00038930297 -0.00251434913 0.00015557020 -0.00044657672 -0.00252297381 0.00005176901 -0.00047517662 -0.00252727536 -0.00005352792 -0.00047510335 -0.00252725439 -0.00015732658 -0.00044635756 -0.00252291154 -0.00025663297 -0.00038893992 -0.00251424745 -0.00034845306 -0.00030285109 -0.00250126273 -0.00042979284 -0.00018809173 -0.00248395802 0.00039419036 -0.00024048381 -0.00248070446 0.00032179996 -0.00033382585 -0.00249232550 0.00023785662 -0.00040381362 -0.00250103492 0.00014566149 -0.00045044830 -0.00250683353 0.00004851574 -0.00047373105 -0.00250972213 -0.00005027949 -0.00047366306 -0.00250970154 -0.00014742304 -0.00045024551 -0.00250677256 -0.00023961374 -0.00040347958 -0.00250093601 -0.00032355045 -0.00033336644 -0.00249219271 -0.00039593200 -0.00023990727 -0.00248054345 0.00034847694 -0.00030307019 -0.00248186064 0.00028843473 -0.00037052163 -0.00248625899 0.00021519701 -0.00042109214 -0.00248955130 0.00013253418 -0.00045478353 -0.00249173860 0.00004421667 -0.00047159761 -0.00249282193 -0.00004598510 -0.00047153619 -0.00249280233 -0.00013430073 -0.00045460108 -0.00249168082 -0.00021695979 -0.00042079409 -0.00248945845 -0.00029019186 -0.00037011702 -0.00248613624 -0.00035022654 -0.00030257169 -0.00248171524 0.00048413977 -0.00013974250 -0.00257925381 0.00038262364 -0.00031130050 -0.00260576345 0.00027641061 -0.00043995084 -0.00262564339 0.00016684331 -0.00052569277 -0.00263889340 0.00005526435 -0.00056852558 -0.00264551323 -0.00005698367 -0.00056844853 -0.00264550266 -0.00016855812 -0.00052546089 -0.00263886144 -0.00027811639 -0.00043956192 -0.00262558935 -0.00038431587 -0.00031075091 -0.00260568615 -0.00048581394 -0.00013902711 -0.00257915160 0.00048753042 -0.00014437626 -0.00255680319 0.00038752085 -0.00031491894 -0.00258188084 0.00028111888 -0.00044280792 -0.00260068580 0.00017015152 -0.00052804244 -0.00261321801 0.00005644576 -0.00057062178 -0.00261947739 -0.00005817139 -0.00057054519 -0.00261946387 -0.00017187292 -0.00052781195 -0.00261317740 -0.00028283184 -0.00044242131 -0.00260061790 -0.00038922114 -0.00031437255 -0.00258178529 -0.00048921381 -0.00014366492 -0.00255667952 0.00049043304 -0.00015267221 -0.00253698084 0.00039127931 -0.00032059736 -0.00256059148 0.00028460708 -0.00044652330 -0.00257829533 0.00017256508 -0.00053044932 -0.00259009245 0.00005730198 -0.00057237473 -0.00259598289 -0.00005903349 -0.00057229882 -0.00259596672 -0.00017429265 -0.00053022092 -0.00259004398 -0.00028632680 -0.00044614033 -0.00257821474 -0.00039298722 -0.00032005634 -0.00256047905 -0.00049212523 -0.00015196826 -0.00253683697 0.00049118119 -0.00016567358 -0.00251984163 0.00039282331 -0.00032894193 -0.00254182821 0.00028622495 -0.00045137537 -0.00255831328 0.00017374105 -0.00053297331 -0.00256929700 0.00005772656 -0.00057373515 -0.00257477953 -0.00005946358 -0.00057366028 -0.00257476103 -0.00017547443 -0.00053274810 -0.00256924166 -0.00028795105 -0.00045099803 -0.00255822156 -0.00039453849 -0.00032840945 -0.00254170090 -0.00049288180 -0.00016498177 -0.00251967984 0.00048810842 -0.00018442361 -0.00250544042 0.00039107718 -0.00034055881 -0.00252552385 0.00028532223 -0.00045764253 -0.00254058094 0.00017333653 -0.00053567433 -0.00255061194 0.00005761305 -0.00057465377 -0.00255561710 -0.00005935524 -0.00057458041 -0.00255559667 -0.00017507537 -0.00053545380 -0.00255055089 -0.00028705438 -0.00045727350 -0.00254048003 -0.00039279930 -0.00034003907 -0.00252538432 -0.00048981715 -0.00018375007 -0.00250526401 0.00047954827 -0.00020996552 -0.00249383204 0.00038496522 -0.00035605416 -0.00251161122 0.00028124865 -0.00046560315 -0.00252493960 0.00017100857 -0.00053861227 -0.00253381753 0.00005685499 -0.00057508132 -0.00253824537 -0.00005860207 -0.00057501007 -0.00253822347 -0.00017275260 -0.00053839830 -0.00253375216 -0.00028298658 -0.00046524581 -0.00252483181 -0.00038669402 -0.00035555238 -0.00251146276 -0.00048126488 -0.00020931779 -0.00249364537 0.00046383431 -0.00024334256 -0.00248507137 0.00037341175 -0.00037603417 -0.00250002315 0.00027335396 -0.00047553564 -0.00251123055 0.00016641425 -0.00054184706 -0.00251869406 0.00005534595 -0.00057496852 -0.00252241414 -0.00005709764 -0.00057490011 -0.00252239127 -0.00016816321 -0.00054164192 -0.00251862593 -0.00027509743 -0.00047519404 -0.00251111859 -0.00037514700 -0.00037555655 -0.00249986972 -0.00046555860 -0.00024272955 -0.00248487979 0.00043930008 -0.00028559794 -0.00247921326 0.00035534107 -0.00040110499 -0.00249069246 0.00026098789 -0.00048771837 -0.00249929510 0.00015921065 -0.00054543858 -0.00250502179 0.00005297946 -0.00057426610 -0.00250787319 -0.00005473557 -0.00057420140 -0.00250784994 -0.00016096433 -0.00054524495 -0.00250495267 -0.00026273672 -0.00048739725 -0.00249918203 -0.00035708261 -0.00040065877 -0.00249053864 -0.00044103192 -0.00028502998 -0.00247902317 0.00040427913 -0.00033777491 -0.00247631255 0.00032967750 -0.00043187279 -0.00248355199 0.00024350019 -0.00050242975 -0.00248897452 0.00014905484 -0.00054944676 -0.00249258101 0.00004964909 -0.00057292478 -0.00249437232 -0.00005140943 -0.00057286478 -0.00249434931 -0.00015081308 -0.00054926770 -0.00249251285 -0.00024525422 -0.00050213453 -0.00248886380 -0.00033142522 -0.00043146621 -0.00248340302 -0.00040601844 -0.00033726371 -0.00247613137 0.00035710502 -0.00040091670 -0.00247642412 0.00029534535 -0.00046894375 -0.00247853455 0.00022024059 -0.00051994817 -0.00248011012 0.00013560389 -0.00055393150 -0.00248115198 0.00004524838 -0.00057089530 -0.00248166130 -0.00004701281 -0.00057084110 -0.00248163923 -0.00013736656 -0.00055377047 -0.00248108693 -0.00022199972 -0.00051968494 -0.00248000557 -0.00029709917 -0.00046858606 -0.00247839631 -0.00035885178 -0.00040047537 -0.00247626030 0.00049740157 -0.00020082695 -0.00253551837 0.00039219753 -0.00037560369 -0.00255875314 0.00028285208 -0.00050667095 -0.00257617644 0.00017054912 -0.00059402820 -0.00258778837 0.00005647255 -0.00063767490 -0.00259358905 -0.00005819372 -0.00063761052 -0.00259357858 -0.00017226579 -0.00059383451 -0.00258775707 -0.00028455977 -0.00050634634 -0.00257612464 -0.00039389173 -0.00037514548 -0.00255868139 -0.00049907779 -0.00020023139 -0.00253542743 0.00050101779 -0.00020525531 -0.00251978143 0.00039729543 -0.00037922470 -0.00254075615 0.00028771734 -0.00050968659 -0.00255648338 0.00017395720 -0.00059664041 -0.00256696334 0.00005768866 -0.00064008561 -0.00257219627 -0.00005941462 -0.00064002162 -0.00257218239 -0.00017567897 -0.00059644786 -0.00256692196 -0.00028943074 -0.00050936379 -0.00255641518 -0.00039899627 -0.00037876883 -0.00254066232 -0.00050270189 -0.00020466242 -0.00251966358 0.00050403569 -0.00021353277 -0.00250627369 0.00040117952 -0.00038500431 -0.00252502073 0.00029131467 -0.00051359294 -0.00253907629 0.00017644419 -0.00059929811 -0.00254844069 0.00005857109 -0.00064211926 -0.00255311424 -0.00006030158 -0.00064205584 -0.00255309726 -0.00017817080 -0.00059910731 -0.00254839007 -0.00029303352 -0.00051327310 -0.00253899299 -0.00040288672 -0.00038455267 -0.00252490632 -0.00050572736 -0.00021294546 -0.00250613040 0.00050475785 -0.00022671439 -0.00249489426 0.00040275346 -0.00039355812 -0.00251140047 0.00029298089 -0.00051867602 -0.00252377464 0.00017766013 -0.00060206759 -0.00253201713 0.00005901118 -0.00064373236 -0.00253612833 -0.00006074597 -0.00064366981 -0.00253610862 -0.00017939134 -0.00060187947 -0.00253195837 -0.00029470494 -0.00051836084 -0.00252367796 -0.00040446676 -0.00039311344 -0.00251126777 -0.00050645684 -0.00022613676 -0.00249472818 0.00050148686 -0.00024585523 -0.00248554224 0.00040092088 -0.00040550171 -0.00249974899 0.00029205279 -0.00052522181 -0.00251039790 0.00017725508 -0.00060501517 -0.00251748940 0.00005890027 -0.00064488140 -0.00252102392 -0.00006063915 -0.00064482014 -0.00252100191 -0.00017899069 -0.00060483099 -0.00251742380 -0.00029378183 -0.00052491359 -0.00251029002 -0.00040264010 -0.00040506756 -0.00249960101 -0.00050319297 -0.00024529253 -0.00248535722 0.00049252530 -0.00027201036 -0.00247811674 0.00039458543 -0.00042145067 -0.00248991990 0.00028786719 -0.00053351634 -0.00249876555 0.00017487910 -0.00060820715 -0.00250465420 0.00005812970 -0.00064552292 -0.00250758638 -0.00005987248 -0.00064546343 -0.00250756257 -0.00017661891 -0.00060802850 -0.00250458330 -0.00028960106 -0.00053321792 -0.00249864908 -0.00039631040 -0.00042103148 -0.00248976041 -0.00049423839 -0.00027146900 -0.00247791780 0.00047617578 -0.00030623485 -0.00247251686 0.00038265077 -0.00044202061 -0.00248176679 0.00027976090 -0.00054384559 -0.00248869706 0.00017018223 -0.00061170984 -0.00249330828 0.00005659080 -0.00064561340 -0.00249560106 -0.00005833732 -0.00064555631 -0.00249557604 -0.00017192609 -0.00061153862 -0.00249323383 -0.00028149945 -0.00054356038 -0.00248857505 -0.00038438135 -0.00044162163 -0.00248160031 -0.00047789574 -0.00030572242 -0.00247231023 0.00045074087 -0.00034958376 -0.00246864170 0.00036402053 -0.00046782711 -0.00247514328 0.00026707074 -0.00055649558 -0.00248001190 0.00016281452 -0.00061558954 -0.00248324833 0.00005417492 -0.00064510936 -0.00248485336 -0.00005592503 -0.00064505539 -0.00248482777 -0.00016456230 -0.00061542800 -0.00248317233 -0.00026881385 -0.00055622756 -0.00247988784 -0.00036575665 -0.00046745444 -0.00247497507 -0.00045246766 -0.00034910900 -0.00246843479 0.00041452316 -0.00040311216 -0.00246639037 0.00033759837 -0.00049948577 -0.00246990298 0.00024913351 -0.00057175232 -0.00247252954 0.00015242603 -0.00061991257 -0.00247427109 0.00005077339 -0.00064396730 -0.00247512863 -0.00005252698 -0.00064391727 -0.00247510318 -0.00015417763 -0.00061976326 -0.00247419576 -0.00025088111 -0.00057150603 -0.00247240737 -0.00033933998 -0.00049914634 -0.00246973904 -0.00041625678 -0.00040268498 -0.00246619178 0.00036582525 -0.00046787512 -0.00246566197 0.00030228792 -0.00053761218 -0.00246589948 0.00022528603 -0.00058990180 -0.00246606947 0.00013866682 -0.00062474523 -0.00246617328 0.00004627755 -0.00064214374 -0.00246621225 -0.00004803452 -0.00064209859 -0.00246618773 -0.00014042215 -0.00062461104 -0.00246610105 -0.00022703806 -0.00058968234 -0.00246595356 -0.00030403501 -0.00053731377 -0.00246574659 -0.00036756575 -0.00046750658 -0.00246548149 0.00050960648 -0.00022985315 -0.00248553418 0.00040128971 -0.00041047625 -0.00250615920 0.00028913199 -0.00054593154 -0.00252162455 0.00017423138 -0.00063621882 -0.00253193079 0.00005768589 -0.00068133792 -0.00253707848 -0.00005940642 -0.00068128868 -0.00253706820 -0.00017594754 -0.00063607091 -0.00253190049 -0.00029083942 -0.00054568444 -0.00252157594 -0.00040298403 -0.00041012910 -0.00250609509 -0.00051128334 -0.00022940470 -0.00248545853 0.00051377196 -0.00023458199 -0.00247648082 0.00040669020 -0.00041448901 -0.00249408227 0.00029414680 -0.00054940739 -0.00250727881 0.00017770279 -0.00063933688 -0.00251607111 0.00005891924 -0.00068427727 -0.00252045984 -0.00006064282 -0.00068422831 -0.00252044566 -0.00017942231 -0.00063918978 -0.00251602923 -0.00029585820 -0.00054916145 -0.00250721122 -0.00040838942 -0.00041414307 -0.00249399230 -0.00051545493 -0.00023413442 -0.00247637313 0.00051715854 -0.00024333434 -0.00246917388 0.00041078445 -0.00042073884 -0.00248385864 0.00029785333 -0.00055378048 -0.00249486670 0.00018023915 -0.00064245899 -0.00250219876 0.00005981590 -0.00068677412 -0.00250585555 -0.00006154246 -0.00068672560 -0.00250583780 -0.00018196195 -0.00064231318 -0.00250214623 -0.00029956861 -0.00055353658 -0.00249478156 -0.00041248846 -0.00042039556 -0.00248374450 -0.00051884752 -0.00024288985 -0.00246903579 0.00051804549 -0.00025719367 -0.00246338844 0.00041245699 -0.00042986275 -0.00247528103 0.00029957425 -0.00055935298 -0.00248419411 0.00018148184 -0.00064566410 -0.00249012845 0.00006026431 -0.00068879587 -0.00249308478 -0.00006199377 -0.00068874802 -0.00249306388 -0.00018320784 -0.00064552030 -0.00249006648 -0.00030129334 -0.00055911247 -0.00248409334 -0.00041416571 -0.00042952425 -0.00247514523 -0.00051974038 -0.00025675540 -0.00246322288 0.00051471204 -0.00027724343 -0.00245889956 0.00041059238 -0.00044249774 -0.00246814212 0.00029863225 -0.00056642706 -0.00247506698 0.00018107222 -0.00064903119 -0.00247967491 0.00006015288 -0.00069030993 -0.00248196669 -0.00006188518 -0.00069026306 -0.00248194311 -0.00018280137 -0.00064889039 -0.00247960495 -0.00030035509 -0.00056619171 -0.00247495298 -0.00041230576 -0.00044216681 -0.00246798801 -0.00051641280 -0.00027681548 -0.00245871080 0.00050543743 -0.00030456708 -0.00245548232 0.00040407519 -0.00045928081 -0.00246223463 0.00029434999 -0.00057530490 -0.00246729120 0.00017865166 -0.00065263923 -0.00247065285 0.00005937002 -0.00069128371 -0.00247232042 -0.00006110510 -0.00069123821 -0.00247229474 -0.00018038390 -0.00065250265 -0.00247057661 -0.00029607653 -0.00057507692 -0.00246716689 -0.00040579319 -0.00045896090 -0.00246206638 -0.00050714405 -0.00030415450 -0.00245527592 0.00048850092 -0.00034024810 -0.00245291178 0.00039178996 -0.00048084899 -0.00245735124 0.00028605016 -0.00058628867 -0.00246067268 0.00017386156 -0.00065656719 -0.00246287702 0.00005780417 -0.00069168460 -0.00246396515 -0.00005954196 -0.00069164096 -0.00246393800 -0.00017559682 -0.00065643631 -0.00246279646 -0.00028778037 -0.00058607072 -0.00246054145 -0.00039351257 -0.00048054422 -0.00245717387 -0.00049021342 -0.00033985687 -0.00245269464 0.00046218176 -0.00038536994 -0.00245096301 0.00037262125 -0.00050783926 -0.00245328465 0.00027305543 -0.00059968053 -0.00245501734 0.00016634327 -0.00066089403 -0.00245616211 0.00005534373 -0.00069148002 -0.00245672003 -0.00005708418 -0.00069143878 -0.00245669213 -0.00016808151 -0.00066077059 -0.00245607947 -0.00027478927 -0.00059947571 -0.00245488308 -0.00037434849 -0.00050755442 -0.00245310402 -0.00046390018 -0.00038500698 -0.00245074333 0.00042475917 -0.00044101607 -0.00244941109 0.00034545362 -0.00054088864 -0.00244982757 0.00025468847 -0.00061578267 -0.00245013107 0.00015573817 -0.00066569872 -0.00245032287 0.00005187714 -0.00069063737 -0.00245040421 -0.00005362018 -0.00069059917 -0.00245037637 -0.00015747936 -0.00066558470 -0.00245024061 -0.00025642595 -0.00061559451 -0.00244999818 -0.00034718552 -0.00054062918 -0.00244965035 -0.00042648363 -0.00044068926 -0.00244919838 0.00037451242 -0.00050826995 -0.00244803107 0.00030917162 -0.00058063413 -0.00244677269 0.00023027197 -0.00063489725 -0.00244581981 0.00014168763 -0.00067106024 -0.00244517401 0.00004729279 -0.00068912405 -0.00244483687 -0.00004903839 -0.00068908961 -0.00244480996 -0.00014343173 -0.00067095786 -0.00244509486 -0.00023201307 -0.00063472973 -0.00244569315 -0.00031090824 -0.00058040617 -0.00244660640 -0.00037624305 -0.00050798811 -0.00244783619 0.00052059950 -0.00023217332 -0.00243002788 0.00040979198 -0.00042068287 -0.00244850036 0.00029517977 -0.00056205675 -0.00246235052 0.00017785051 -0.00065629517 -0.00247157947 0.00005889184 -0.00070339833 -0.00247618836 -0.00006060860 -0.00070336646 -0.00247617832 -0.00017956316 -0.00065619977 -0.00247155047 -0.00029688421 -0.00056189847 -0.00246230596 -0.00041148409 -0.00042046278 -0.00244844590 -0.00052227518 -0.00023189292 -0.00242997143 0.00052557776 -0.00023761659 -0.00242714553 0.00041556896 -0.00042540137 -0.00244194725 0.00030032668 -0.00056623185 -0.00245304308 0.00018134673 -0.00066010815 -0.00246043426 0.00006012495 -0.00070703038 -0.00246412202 -0.00006184284 -0.00070699868 -0.00246410758 -0.00018306081 -0.00066001316 -0.00246039218 -0.00030203314 -0.00056607396 -0.00245297705 -0.00041726399 -0.00042518118 -0.00244186341 -0.00052725754 -0.00023733497 -0.00242705250 0.00052954935 -0.00024725463 -0.00242549928 0.00041994077 -0.00043242723 -0.00243681053 0.00030413655 -0.00057129876 -0.00244528744 0.00018390738 -0.00066386925 -0.00245093128 0.00006102394 -0.00071013876 -0.00245374333 -0.00006274309 -0.00071010733 -0.00245372487 -0.00018562301 -0.00066377501 -0.00245087717 -0.00030584514 -0.00057114184 -0.00244520150 -0.00042163881 -0.00043220787 -0.00243669913 -0.00053123332 -0.00024697315 -0.00242537135 0.00053077472 -0.00026220948 -0.00242477249 0.00042177296 -0.00044242596 -0.00243284093 0.00030591615 -0.00057758058 -0.00243888482 0.00018516334 -0.00066767333 -0.00244290544 0.00006147358 -0.00071270421 -0.00244490410 -0.00006319409 -0.00071267321 -0.00244488206 -0.00018688063 -0.00066758032 -0.00244284062 -0.00030762698 -0.00057742553 -0.00243878106 -0.00042347411 -0.00044220883 -0.00243270468 -0.00053246296 -0.00026193022 -0.00242461275 0.00052751431 -0.00028360316 -0.00242464852 0.00041993109 -0.00045606305 -0.00242978916 0.00030497225 -0.00058540042 -0.00243363645 0.00018474553 -0.00067161524 -0.00243619167 0.00006135866 -0.00071470749 -0.00243745609 -0.00006308062 -0.00071467713 -0.00243743102 -0.00018646455 -0.00067152412 -0.00243611774 -0.00030668541 -0.00058524844 -0.00243351752 -0.00042163546 -0.00045585005 -0.00242963167 -0.00052920695 -0.00028332891 -0.00242446146 0.00051802857 -0.00031255773 -0.00242481072 0.00041328074 -0.00047400401 -0.00242740596 0.00030061162 -0.00059508139 -0.00242934357 0.00018228482 -0.00067578983 -0.00243062486 0.00006056394 -0.00071612934 -0.00243125111 -0.00006228742 -0.00071609987 -0.00243122363 -0.00018400567 -0.00067570142 -0.00243054371 -0.00030232720 -0.00059493397 -0.00242921264 -0.00041498843 -0.00047379749 -0.00242723173 -0.00051972574 -0.00031229197 -0.00242460226 0.00050057796 -0.00035019523 -0.00242494244 0.00040068745 -0.00049691436 -0.00242544203 0.00029214102 -0.00060694659 -0.00242580741 0.00017741213 -0.00068029196 -0.00242603994 0.00005897422 -0.00071695050 -0.00242614095 -0.00006069926 -0.00071692225 -0.00242611176 -0.00017913484 -0.00068020725 -0.00242595373 -0.00029385910 -0.00060680554 -0.00242566819 -0.00040239857 -0.00049671715 -0.00242525647 -0.00050227980 -0.00034994214 -0.00242471992 0.00047342291 -0.00039763769 -0.00242472705 0.00038101679 -0.00052545960 -0.00242364809 0.00027886722 -0.00062131914 -0.00242282921 0.00016975833 -0.00068521647 -0.00242227183 0.00005647425 -0.00071715172 -0.00242197738 -0.00005820089 -0.00071712505 -0.00242194729 -0.00017148297 -0.00068513661 -0.00242218300 -0.00028058787 -0.00062118655 -0.00242268593 -0.00038273145 -0.00052527501 -0.00242345753 -0.00047512960 -0.00039740216 -0.00242449921 0.00043482388 -0.00045600715 -0.00242384790 0.00035313432 -0.00056030523 -0.00242177488 0.00026009698 -0.00063852215 -0.00242021019 0.00015895434 -0.00069065821 -0.00241915543 0.00005294883 -0.00071671375 -0.00241861220 -0.00005467707 -0.00071668908 -0.00241858209 -0.00016068092 -0.00069058452 -0.00241906671 -0.00026182026 -0.00063840041 -0.00242006765 -0.00035485264 -0.00056013705 -0.00242158651 -0.00043653559 -0.00045579477 -0.00242362490 0.00038304131 -0.00052642565 -0.00242198834 0.00031590559 -0.00060211677 -0.00241957311 0.00023513708 -0.00065887871 -0.00241775159 0.00014463103 -0.00069671204 -0.00241652567 0.00004828273 -0.00071561733 -0.00241589719 -0.00005001256 -0.00071559513 -0.00241586803 -0.00014635958 -0.00069664600 -0.00241644004 -0.00023686304 -0.00065877052 -0.00241761509 -0.00031762769 -0.00060196925 -0.00241939505 -0.00038475826 -0.00052624273 -0.00242178176 0.00053022561 -0.00021313968 -0.00236972611 0.00041759617 -0.00041098821 -0.00238629535 0.00030092482 -0.00055937075 -0.00239871712 0.00018136692 -0.00065828779 -0.00240699323 0.00006007783 -0.00070773981 -0.00241112550 -0.00006178709 -0.00070772732 -0.00241111575 -0.00018307248 -0.00065825078 -0.00240696577 -0.00030262298 -0.00055931070 -0.00239867740 -0.00041928324 -0.00041090757 -0.00238625243 -0.00053189790 -0.00021304187 -0.00236969269 0.00053622006 -0.00021961943 -0.00237201972 0.00042379548 -0.00041665129 -0.00238443916 0.00030617640 -0.00056442152 -0.00239374718 0.00018484744 -0.00066293049 -0.00239994572 0.00006129324 -0.00071217857 -0.00240303671 -0.00006300156 -0.00071216610 -0.00240302208 -0.00018655235 -0.00066289346 -0.00239990377 -0.00030787449 -0.00056436100 -0.00239368370 -0.00042548335 -0.00041656909 -0.00238436382 -0.00053789431 -0.00021951809 -0.00237194604 0.00054095587 -0.00023047136 -0.00237506774 0.00042849516 -0.00042469578 -0.00238358169 0.00031007784 -0.00057036064 -0.00238995940 0.00018740625 -0.00066746618 -0.00239420287 0.00006218271 -0.00071601265 -0.00239631407 -0.00006389043 -0.00071600027 -0.00239629498 -0.00018911084 -0.00066742928 -0.00239414758 -0.00031177619 -0.00057029993 -0.00238987385 -0.00043018413 -0.00042461246 -0.00238347577 -0.00054263234 -0.00023036710 -0.00237495532 0.00054267616 -0.00024685988 -0.00237849473 0.00043054041 -0.00043581788 -0.00238345121 0.00031191768 -0.00057753313 -0.00238715985 0.00018866182 -0.00067200577 -0.00238962261 0.00006262664 -0.00071923591 -0.00239084148 -0.00006433404 -0.00071922370 -0.00239081843 -0.00019036637 -0.00067196924 -0.00238955544 -0.00031361655 -0.00057747267 -0.00238705448 -0.00043223074 -0.00043573412 -0.00238331754 -0.00054435512 -0.00024675372 -0.00237834658 0.00053962404 -0.00026994941 -0.00238192525 0.00042877639 -0.00045071378 -0.00238377603 0.00031098444 -0.00058628402 -0.00238515459 0.00018823263 -0.00067666016 -0.00238606288 0.00006250541 -0.00072184223 -0.00238650284 -0.00006421274 -0.00072183027 -0.00238647642 -0.00018993739 -0.00067662431 -0.00238598557 -0.00031268408 -0.00058622438 -0.00238503223 -0.00043046835 -0.00045063052 -0.00238361836 -0.00054130576 -0.00026984277 -0.00238174590 0.00053004264 -0.00030090436 -0.00238498387 0.00042204831 -0.00047007969 -0.00238428443 0.00030656662 -0.00059695834 -0.00238374970 0.00018573714 -0.00068154027 -0.00238338160 0.00006169944 -0.00072382546 -0.00238318204 -0.00006340690 -0.00072381386 -0.00238315293 -0.00018744233 -0.00068150546 -0.00238329619 -0.00030826726 -0.00059690021 -0.00238361374 -0.00042374213 -0.00046999810 -0.00238410749 -0.00053172737 -0.00030079908 -0.00238477934 0.00051217509 -0.00034088915 -0.00238729516 0.00040920134 -0.00049461180 -0.00238470470 0.00029795275 -0.00060990111 -0.00238275126 0.00018079383 -0.00068675701 -0.00238143672 0.00006008911 -0.00072517945 -0.00238076299 -0.00006179688 -0.00072516836 -0.00238073197 -0.00018249961 -0.00068672368 -0.00238134555 -0.00029965458 -0.00060984535 -0.00238260565 -0.00041089724 -0.00049453329 -0.00238451415 -0.00051386308 -0.00034078746 -0.00238707297 0.00048426451 -0.00039106819 -0.00238848367 0.00038908068 -0.00052500630 -0.00238476514 0.00028443135 -0.00062545735 -0.00238196533 0.00017302117 -0.00069242130 -0.00238008616 0.00005755483 -0.00072589808 -0.00237912958 -0.00005926301 -0.00072588765 -0.00237909751 -0.00017472769 -0.00069238995 -0.00237999187 -0.00028613452 -0.00062540493 -0.00238181459 -0.00039077885 -0.00052493255 -0.00238456761 -0.00048595601 -0.00039097273 -0.00238825284 0.00044455401 -0.00045260591 -0.00238817399 0.00036053151 -0.00056195940 -0.00238419403 0.00026529093 -0.00064397210 -0.00238119798 0.00016203764 -0.00069864404 -0.00237918787 0.00005397699 -0.00072597520 -0.00237816572 -0.00005568567 -0.00072596560 -0.00237813354 -0.00016374498 -0.00069861525 -0.00237909337 -0.00026699558 -0.00064392415 -0.00238104721 -0.00036223213 -0.00056189230 -0.00238399709 -0.00044624926 -0.00045251972 -0.00238794503 0.00039128673 -0.00052666672 -0.00238599067 0.00032239901 -0.00060616729 -0.00238271966 0.00023982002 -0.00066579038 -0.00238025529 0.00014746170 -0.00070553614 -0.00237859977 0.00004923598 -0.00072540467 -0.00237775529 -0.00005094521 -0.00072539610 -0.00237772407 -0.00014916993 -0.00070551055 -0.00237850829 -0.00024152625 -0.00066574814 -0.00238011015 -0.00032410224 -0.00060610900 -0.00238253185 -0.00039298597 -0.00052659324 -0.00238577560 0.00053832980 -0.00017810446 -0.00230535551 0.00042459408 -0.00038615693 -0.00232006289 0.00030629655 -0.00054219769 -0.00233108715 0.00018474103 -0.00064622722 -0.00233843089 0.00006123134 -0.00069824605 -0.00234209672 -0.00006292871 -0.00069825468 -0.00234208727 -0.00018643529 -0.00064625363 -0.00233840515 -0.00030798460 -0.00054224339 -0.00233105296 -0.00042627280 -0.00038622449 -0.00232003333 -0.00053999609 -0.00017819742 -0.00230534887 0.00054548372 -0.00018585081 -0.00231134757 0.00043123354 -0.00039292825 -0.00232164608 0.00031161538 -0.00054823794 -0.00232936210 0.00018816335 -0.00065178023 -0.00233449843 0.00006241158 -0.00070355546 -0.00233705783 -0.00006410585 -0.00070356397 -0.00233704308 -0.00018985481 -0.00065180612 -0.00233445695 -0.00031330120 -0.00054828225 -0.00232930223 -0.00043291091 -0.00039299270 -0.00232158168 -0.00054714982 -0.00018593782 -0.00231129808 0.00055112586 -0.00019816223 -0.00231769712 0.00043629432 -0.00040217076 -0.00232387741 0.00031559072 -0.00055517899 -0.00232850347 0.00019069317 -0.00065718709 -0.00233157814 0.00006327975 -0.00070819525 -0.00233310426 -0.00006497145 -0.00070820365 -0.00233308466 -0.00019238234 -0.00065721249 -0.00233152219 -0.00031727482 -0.00055522193 -0.00232841968 -0.00043797080 -0.00040223218 -0.00232377997 -0.00055279220 -0.00019824340 -0.00231760590 0.00055348042 -0.00021624293 -0.00232400346 0.00043859838 -0.00041460865 -0.00232648293 0.00031748996 -0.00056338497 -0.00232833231 0.00019193444 -0.00066257191 -0.00232955444 0.00006371112 -0.00071216950 -0.00233015215 -0.00006540072 -0.00071217778 -0.00233012825 -0.00019362177 -0.00066259678 -0.00232948558 -0.00031917276 -0.00056342653 -0.00232822696 -0.00044027440 -0.00041466706 -0.00232635522 -0.00055514738 -0.00021631840 -0.00232387319 0.00055077158 -0.00024129711 -0.00232986589 0.00043696767 -0.00043096609 -0.00232918865 0.00031658044 -0.00057322003 -0.00232866968 0.00019149112 -0.00066805880 -0.00232831174 0.00006358095 -0.00071548230 -0.00232811762 -0.00006526885 -0.00071549042 -0.00232809006 -0.00019317703 -0.00066808307 -0.00232823184 -0.00031826236 -0.00057326012 -0.00232854572 -0.00043864361 -0.00043102148 -0.00232903446 -0.00055243954 -0.00024136703 -0.00232970083 0.00054122356 -0.00027452899 -0.00233488372 0.00043022415 -0.00045196727 -0.00233172060 0.00031212954 -0.00058504830 -0.00232933662 0.00018896717 -0.00067377186 -0.00232773446 0.00006276450 -0.00071813772 -0.00232691680 -0.00006445104 -0.00071814564 -0.00232688631 -0.00019065199 -0.00067379541 -0.00232764568 -0.00031381091 -0.00058508680 -0.00232919759 -0.00043190034 -0.00045201957 -0.00233154470 -0.00054289284 -0.00027459351 -0.00233468971 0.00052306053 -0.00031714277 -0.00233865623 0.00041718977 -0.00047833636 -0.00233380481 0.00030340463 -0.00059923395 -0.00233015420 0.00018396656 -0.00067983521 -0.00232770701 0.00006113703 -0.00072013984 -0.00232646582 -0.00006282250 -0.00072014750 -0.00232643323 -0.00018565057 -0.00067985787 -0.00232761183 -0.00030508573 -0.00059927064 -0.00233000421 -0.00041886650 -0.00047838548 -0.00233361297 -0.00052473144 -0.00031720207 -0.00233844070 0.00049450671 -0.00037034266 -0.00234078275 0.00039668649 -0.00051079753 -0.00233516730 0.00028967306 -0.00061614109 -0.00233094348 0.00017609324 -0.00068637295 -0.00232811381 0.00005857381 -0.00072149273 -0.00232668082 -0.00006025843 -0.00072150005 -0.00232664704 -0.00017777667 -0.00068639451 -0.00232801500 -0.00029135414 -0.00061617573 -0.00233078724 -0.00039836402 -0.00051084333 -0.00233496629 -0.00049617952 -0.00037039692 -0.00234055467 0.00045378628 -0.00043533288 -0.00234086256 0.00036753625 -0.00055007498 -0.00233553411 0.00027020222 -0.00063613389 -0.00233152551 0.00016495117 -0.00069350920 -0.00232883927 0.00005495010 -0.00072220049 -0.00232747791 -0.00005663402 -0.00072220736 -0.00232744395 -0.00016663419 -0.00069352939 -0.00232873991 -0.00027188345 -0.00063616616 -0.00233136831 -0.00036921479 -0.00055011727 -0.00233533167 -0.00045546124 -0.00043538230 -0.00234063251 0.00039912345 -0.00051331763 -0.00233849496 0.00032856101 -0.00059689287 -0.00233463126 0.00024425945 -0.00065957647 -0.00233172135 0.00015014432 -0.00070136805 -0.00232976781 0.00005014116 -0.00072226719 -0.00232877323 -0.00005182447 -0.00072227349 -0.00232874019 -0.00015182703 -0.00070138657 -0.00232967127 -0.00024594097 -0.00065960602 -0.00233156906 -0.00033024073 -0.00059693143 -0.00233443614 -0.00040080077 -0.00051336241 -0.00233827508 0.00054475705 -0.00013241988 -0.00223764273 0.00043067752 -0.00035095371 -0.00225032173 0.00031122437 -0.00051486171 -0.00225982339 0.00018793325 -0.00062414400 -0.00226615125 0.00006233981 -0.00067880073 -0.00226930884 -0.00006402030 -0.00067883201 -0.00226929970 -0.00018961142 -0.00062423799 -0.00226612737 -0.00031289790 -0.00051501879 -0.00225979537 -0.00043234409 -0.00035117456 -0.00225030724 -0.00054641434 -0.00013270541 -0.00223766652 0.00055315359 -0.00014157104 -0.00224537323 0.00043774691 -0.00035892176 -0.00225365606 0.00031656304 -0.00052194264 -0.00225985883 0.00019125290 -0.00063063364 -0.00226398532 0.00006346739 -0.00068499468 -0.00226603928 -0.00006514256 -0.00068502569 -0.00226602448 -0.00019292606 -0.00063072661 -0.00226394469 -0.00031823219 -0.00052209738 -0.00225980366 -0.00043941003 -0.00035913793 -0.00225360516 -0.00055480868 -0.00014184819 -0.00224535296 0.00055980708 -0.00015550497 -0.00225320527 0.00044318491 -0.00036947847 -0.00225740300 0.00032058869 -0.00052996665 -0.00226054053 0.00019372553 -0.00063696925 -0.00226262171 0.00006430256 -0.00069048602 -0.00226365039 -0.00006597312 -0.00069051672 -0.00226363044 -0.00019539438 -0.00063706110 -0.00226256569 -0.00032225411 -0.00053011890 -0.00226046002 -0.00044484518 -0.00036968989 -0.00225731727 -0.00056146049 -0.00015577380 -0.00225314131 0.00056291812 -0.00017545669 -0.00226074699 0.00044578592 -0.00038336841 -0.00226130711 0.00032254406 -0.00053931040 -0.00226171531 0.00019493837 -0.00064328223 -0.00226197543 0.00006471466 -0.00069528350 -0.00226209131 -0.00006638124 -0.00069531378 -0.00226206678 -0.00019660351 -0.00064337267 -0.00226190568 -0.00032420632 -0.00053945974 -0.00226161186 -0.00044744386 -0.00038357458 -0.00226118914 -0.00056457028 -0.00017571678 -0.00226064136 0.00056068730 -0.00020266124 -0.00226760658 0.00044434432 -0.00040133613 -0.00226511293 0.00032167190 -0.00055035057 -0.00226322998 0.00019447862 -0.00064970399 -0.00226196146 0.00006457305 -0.00069939584 -0.00226131113 -0.00006623621 -0.00069942554 -0.00226128271 -0.00019614059 -0.00064979254 -0.00226187995 -0.00032333151 -0.00055049626 -0.00226310657 -0.00044600038 -0.00040153615 -0.00226496633 -0.00056233862 -0.00020291165 -0.00226746295 0.00055131522 -0.00023835367 -0.00227339219 0.00043765450 -0.00042412617 -0.00226856500 0.00031721494 -0.00056346382 -0.00226493135 0.00019193349 -0.00065636592 -0.00226249482 0.00006374709 -0.00070283176 -0.00226125899 -0.00006540731 -0.00070286067 -0.00226122745 -0.00019359277 -0.00065645193 -0.00226240378 -0.00031887234 -0.00056360486 -0.00226479158 -0.00043930907 -0.00042431876 -0.00226839442 -0.00055296603 -0.00023859294 -0.00227321589 0.00053300249 -0.00028376901 -0.00227771199 0.00042451085 -0.00045248310 -0.00227140788 0.00030841594 -0.00057902684 -0.00226666625 0.00018689021 -0.00066339941 -0.00226349048 0.00006210614 -0.00070560001 -0.00226188399 -0.00006376381 -0.00070562783 -0.00226185019 -0.00018854717 -0.00066348207 -0.00226339248 -0.00031007148 -0.00057916191 -0.00226651428 -0.00042616426 -0.00045266656 -0.00227121898 -0.00053465306 -0.00028399520 -0.00227751001 0.00050394968 -0.00034014229 -0.00228017413 0.00040370775 -0.00048715147 -0.00227338612 0.00029451762 -0.00059741629 -0.00226828148 0.00017893599 -0.00067093587 -0.00226486345 0.00005951955 -0.00070770931 -0.00226313526 -0.00006117499 -0.00070773571 -0.00226310014 -0.00018059095 -0.00067101417 -0.00226476133 -0.00029617160 -0.00059754379 -0.00226812207 -0.00040536027 -0.00048732368 -0.00227318559 -0.00050560025 -0.00034035294 -0.00227995512 0.00046235741 -0.00040870857 -0.00228038678 0.00037403960 -0.00052887582 -0.00227424425 0.00027476274 -0.00061900885 -0.00226962387 0.00016765804 -0.00067910669 -0.00226652872 0.00005585668 -0.00070916839 -0.00226496191 -0.00005751014 -0.00070919296 -0.00226492651 -0.00016931122 -0.00067917945 -0.00226642564 -0.00027641538 -0.00061912688 -0.00226946237 -0.00037569142 -0.00052903429 -0.00227403980 -0.00046400813 -0.00040890071 -0.00228016103 0.00040642628 -0.00049070287 -0.00227795811 0.00033430077 -0.00057840071 -0.00227372684 0.00024839404 -0.00064418118 -0.00227054023 0.00015264357 -0.00068804328 -0.00226840130 0.00005098688 -0.00070998598 -0.00226731306 -0.00005263852 -0.00071000827 -0.00226727851 -0.00015429515 -0.00068810914 -0.00226830068 -0.00025004548 -0.00064428756 -0.00227038257 -0.00033595202 -0.00057854253 -0.00227352720 -0.00040807726 -0.00049087303 -0.00227773758 0.00054935236 -0.00008143816 -0.00216731442 0.00043573831 -0.00031014321 -0.00217759058 0.00031563769 -0.00048168698 -0.00218528863 0.00019090399 -0.00059606867 -0.00219041313 0.00006339070 -0.00065328753 -0.00219296868 -0.00006504868 -0.00065334275 -0.00219295984 -0.00019256066 -0.00059623356 -0.00219039119 -0.00031729174 -0.00048195917 -0.00218526731 -0.00043738843 -0.00031051881 -0.00217759279 -0.00055099723 -0.00008191170 -0.00216737219 0.00055901453 -0.00009204044 -0.00217434088 0.00044319938 -0.00031932131 -0.00218055717 0.00032093881 -0.00048979717 -0.00218520836 0.00019407451 -0.00060346702 -0.00218829932 0.00006444815 -0.00066032985 -0.00218983497 -0.00006609857 -0.00066038464 -0.00218982021 -0.00019572398 -0.00060363039 -0.00218825993 -0.00032258640 -0.00049006607 -0.00218515904 -0.00044484412 -0.00031969069 -0.00218052244 -0.00056065548 -0.00009250324 -0.00217435502 0.00056674729 -0.00010767728 -0.00218141003 0.00044901363 -0.00033124519 -0.00218386376 0.00032498526 -0.00049893649 -0.00218569147 0.00019646074 -0.00061074996 -0.00218689819 0.00006523866 -0.00066668444 -0.00218748897 -0.00006688240 -0.00066673871 -0.00218746882 -0.00019810385 -0.00061091160 -0.00218684280 -0.00032662713 -0.00049920191 -0.00218561593 -0.00045065364 -0.00033160844 -0.00218379323 -0.00056838480 -0.00010813001 -0.00218137976 0.00057071988 -0.00012959921 -0.00218817364 0.00045194208 -0.00034666729 -0.00218729481 0.00032699111 -0.00050948375 -0.00218662194 0.00019763078 -0.00061804724 -0.00218616006 0.00006562490 -0.00067235644 -0.00218591417 -0.00006726272 -0.00067241001 -0.00218588927 -0.00019926827 -0.00061820662 -0.00218609039 -0.00032862793 -0.00050974493 -0.00218652253 -0.00045357790 -0.00034702362 -0.00218719070 -0.00057235436 -0.00013004135 -0.00218809990 0.00056910155 -0.00015905676 -0.00219428346 0.00045074574 -0.00036634003 -0.00219063480 0.00032617046 -0.00052181779 -0.00218788377 0.00019715272 -0.00062548859 -0.00218603524 0.00006546953 -0.00067735099 -0.00218509408 -0.00006710213 -0.00067740355 -0.00218506514 -0.00019878524 -0.00062564483 -0.00218595330 -0.00032780281 -0.00052207340 -0.00218776341 -0.00045237784 -0.00036668779 -0.00219050034 -0.00057073332 -0.00015948659 -0.00219416896 0.00056006156 -0.00019730044 -0.00219939123 0.00044418560 -0.00039101582 -0.00219366819 0.00032173738 -0.00053631744 -0.00218936092 0.00019459465 -0.00063320375 -0.00218647404 0.00006463521 -0.00068167324 -0.00218501220 -0.00006626319 -0.00068172439 -0.00218498001 -0.00019622277 -0.00063335567 -0.00218638210 -0.00032336575 -0.00053656556 -0.00218922312 -0.00044581437 -0.00039135253 -0.00219350768 -0.00056169085 -0.00019771506 -0.00219924042 0.00054176916 -0.00024558077 -0.00220314872 0.00043102270 -0.00042144710 -0.00219617947 0.00031290595 -0.00055336152 -0.00219093738 0.00018952467 -0.00064132247 -0.00218742678 0.00006298461 -0.00068532834 -0.00218565203 -0.00006460849 -0.00068537756 -0.00218561746 -0.00019114886 -0.00064146853 -0.00218732741 -0.00031453075 -0.00055359966 -0.00219078622 -0.00043264842 -0.00042176938 -0.00219599824 -0.00054339612 -0.00024597609 -0.00220296780 0.00051239360 -0.00030514828 -0.00220520768 0.00041001803 -0.00045838626 -0.00219795310 0.00029889027 -0.00057332888 -0.00219249712 0.00018151086 -0.00064997448 -0.00218884377 0.00006038039 -0.00068832143 -0.00218699708 -0.00006200059 -0.00068836809 -0.00218696108 -0.00018313151 -0.00065011282 -0.00218873980 -0.00030051181 -0.00057355397 -0.00219233727 -0.00041164093 -0.00045868992 -0.00219775753 -0.00051401829 -0.00030551902 -0.00220500460 0.00047010412 -0.00037725349 -0.00220521986 0.00037993261 -0.00050258575 -0.00219877356 0.00027890440 -0.00059659832 -0.00219392414 0.00017012133 -0.00065928952 -0.00219067532 0.00005668522 -0.00069065765 -0.00218903085 -0.00005830207 -0.00069070102 -0.00218899445 -0.00017173873 -0.00065941795 -0.00219056987 -0.00028052292 -0.00059680674 -0.00219376083 -0.00038155280 -0.00050286571 -0.00219857107 -0.00047172654 -0.00037759317 -0.00220500433 0.00041306999 -0.00046314692 -0.00220283701 0.00033952745 -0.00055479798 -0.00219842532 0.00025216244 -0.00062354870 -0.00219510240 0.00015492415 -0.00066939734 -0.00219287175 0.00005176177 -0.00069234215 -0.00219173684 -0.00005337552 -0.00069238139 -0.00219170116 -0.00015653853 -0.00066951333 -0.00219276820 -0.00025377807 -0.00062373622 -0.00219494145 -0.00034114497 -0.00055504831 -0.00219822438 -0.00041469003 -0.00046344787 -0.00220262048 </DataArray>
</PointData>
<Points>
<DataArray type="Float32" NumberOfComponents="3">
0.99774106556 0.01375501005 -1.15466807185 0.77558557732 0.01464839713 -1.15554218048 0.55375638440 0.01531846087 -1.15619776023 0.33216026017 0.01576520133 -1.15663481052 0.11070397802 0.01598861854 -1.15685333074 -0.11070568866 0.01598871256 -1.15685332027 -0.33216196649 0.01576548344 -1.15663477852 -0.55375808208 0.01531893123 -1.15619770488 -0.77558726205 0.01464905596 -1.15554209874 -0.99774273300 0.01375585771 -1.15466795950 0.99291696146 0.00321212550 -1.15547613639 0.77196534552 0.00362004535 -1.15610094348 0.55124113734 0.00392600855 -1.15656954607 0.33067936387 0.00413001514 -1.15688194388 0.11021505205 0.00423206516 -1.15703813660 -0.11021677117 0.00423215864 -1.15703812393 -0.33068107884 0.00413029563 -1.15688190558 -0.55124284400 0.00392647615 -1.15656948123 -0.77196703972 0.00362070024 -1.15610085061 -0.99291863904 0.00321296795 -1.15547601340 0.98517008951 -0.00660873814 -1.15610087995 0.76625274291 -0.00656292539 -1.15653146185 0.54732824676 -0.00652854266 -1.15685439468 0.32839864436 -0.00650558995 -1.15706967841 0.10946597901 -0.00649406724 -1.15717731300 -0.10946770601 -0.00649397452 -1.15717729839 -0.32840036739 -0.00650531179 -1.15706963456 -0.54732996186 -0.00652807904 -1.15685432147 -0.76625444611 -0.00656227626 -1.15653135906 -0.98517177685 -0.00660790344 -1.15610074731 0.97202934947 -0.01568195959 -1.15656604561 0.75672107059 -0.01592445867 -1.15685026432 0.54088896415 -0.01610631001 -1.15706342404 0.32468269568 -0.01622751367 -1.15720552494 0.10825193076 -0.01628806970 -1.15727656718 -0.10825366506 -0.01628797815 -1.15727655095 -0.32468442623 -0.01622723908 -1.15720547643 -0.54089068719 -0.01610585253 -1.15706334379 -0.75672278238 -0.01592381856 -1.15685015320 -0.97203104624 -0.01568113722 -1.15656590485 0.95102364111 -0.02398191759 -1.15689537640 0.74164362970 -0.02448849808 -1.15707387962 0.53079454099 -0.02486841076 -1.15720775212 0.31889611184 -0.02512165577 -1.15729699427 0.10636807914 -0.02524823329 -1.15734160641 -0.10636982024 -0.02524814347 -1.15734158891 -0.31889784942 -0.02512138649 -1.15729694212 -0.53079627154 -0.02486796250 -1.15720766641 -0.74164534970 -0.02448787166 -1.15707376213 -0.95102534704 -0.02398111415 -1.15689522964 0.91968186419 -0.03148299085 -1.15711261541 0.71929372135 -0.03227898722 -1.15721883647 0.51591622878 -0.03287596214 -1.15729849691 0.31040348686 -0.03327391597 -1.15735159722 0.10360959599 -0.03347284904 -1.15737813793 -0.10361134344 -0.03347276170 -1.15737811955 -0.31040523105 -0.03327365428 -1.15735154258 -0.51591796645 -0.03287552713 -1.15729840754 -0.71929544924 -0.03227838059 -1.15721871494 -0.91968357904 -0.03148221499 -1.15711246530 0.87553291847 -0.03815955811 -1.15724150567 0.68794464665 -0.03931986966 -1.15730166359 0.49512527900 -0.04019008142 -1.15734677636 0.29856941476 -0.04077019401 -1.15737684462 0.09977165317 -0.04106020802 -1.15739186901 -0.09977340656 -0.04106012405 -1.15739185018 -0.29857116518 -0.04076994271 -1.15737678876 -0.49512702346 -0.04018966461 -1.15734668540 -0.68794638217 -0.03931929034 -1.15730154074 -0.87553464207 -0.03815882052 -1.15724135543 0.81610570373 -0.04398599809 -1.15730579026 0.64586970673 -0.04563508900 -1.15733888972 0.46729294316 -0.04687188585 -1.15736370847 0.28275848957 -0.04769638962 -1.15738024728 0.09464942250 -0.04810860126 -1.15738850690 -0.09465118150 -0.04810852175 -1.15738848808 -0.28276024589 -0.04769615205 -1.15738019159 -0.46729469412 -0.04687149312 -1.15736361819 -0.64587144965 -0.04563454595 -1.15733876863 -0.81610743594 -0.04398531148 -1.15730564367 0.73892911972 -0.04893668952 -1.15732921222 0.59134220270 -0.05124858883 -1.15734704357 0.43129047273 -0.05298249268 -1.15736041121 0.26233530529 -0.05413840253 -1.15736931601 0.08803807584 -0.05471631983 -1.15737375884 -0.08803984017 -0.05471624602 -1.15737374056 -0.26233706726 -0.05413818254 -1.15736926204 -0.43129222998 -0.05298213086 -1.15736032413 -0.59134395287 -0.05124809241 -1.15734692771 -0.73893086045 -0.04893606864 -1.15732907363 0.64153206622 -0.05298601112 -1.15733551463 0.52263543567 -0.05618431273 -1.15734265387 0.38598911921 -0.05858301916 -1.15734800255 0.23666445596 -0.06018213249 -1.15735156164 0.07973278503 -0.06098165477 -1.15735333210 -0.07973455445 -0.06098158807 -1.15735331491 -0.23666622336 -0.06018193446 -1.15735151103 -0.38599088257 -0.05858269599 -1.15734792143 -0.52263719298 -0.05618387474 -1.15734254707 -0.64153381544 -0.05298547277 -1.15733538892 0.99629582795 0.01417108576 -1.19530042538 0.77457228431 0.01490313624 -1.19679476346 0.55309195003 0.01545219493 -1.19791551508 0.33178533737 0.01581826245 -1.19866267978 0.11058295855 0.01600133940 -1.19903625708 -0.11058467416 0.01600142641 -1.19903624650 -0.33178704852 0.01581852409 -1.19866264758 -0.55309365229 0.01545263306 -1.19791545983 -0.77457397322 0.01490375392 -1.19679468280 -0.99629749906 0.01417188730 -1.19530031600 0.99190576112 0.00346379377 -1.19596339687 0.77125663022 0.00375904107 -1.19725220049 0.55077657634 0.00398049726 -1.19821880030 0.33041729237 0.00412816295 -1.19886319604 0.11013047119 0.00420203873 -1.19918538749 -0.11013219434 0.00420212522 -1.19918537438 -0.33041901132 0.00412842303 -1.19886315647 -0.55077828689 0.00398093275 -1.19821873353 -0.77125832816 0.00375965500 -1.19725210530 -0.99190744225 0.00346459038 -1.19596327154 0.98449688430 -0.00648502029 -1.19666904354 0.76578120656 -0.00651402414 -1.19774043678 0.54701932824 -0.00653575643 -1.19854397795 0.32822445006 -0.00655021660 -1.19907966701 0.10940977276 -0.00655740409 -1.19934750388 -0.10941150292 -0.00655731835 -1.19934748850 -0.32822617627 -0.00654995881 -1.19907962082 -0.54702104655 -0.00653532493 -1.19854390078 -0.76578291304 -0.00651341614 -1.19774032830 -0.98449857499 -0.00648423189 -1.19666890334 0.97161005952 -0.01565428183 -1.19738525490 0.75642771012 -0.01594320171 -1.19823673568 0.54069696752 -0.01615987115 -1.19887534179 0.32457451600 -0.01630428970 -1.19930107334 0.10821703988 -0.01637645690 -1.19951393041 -0.10821877656 -0.01637637229 -1.19951391308 -0.32457624900 -0.01630403541 -1.19930102146 -0.54069869314 -0.01615944581 -1.19887525563 -0.75642942470 -0.01594260302 -1.19823661569 -0.97161175937 -0.01565350659 -1.19738510172 0.95078614881 -0.02402291623 -1.19807992046 0.74147783770 -0.02455563393 -1.19871836056 0.53068625599 -0.02495515191 -1.19919718557 0.31883519577 -0.02522146988 -1.19951639572 0.10634844911 -0.02535458755 -1.19967599123 -0.10635019188 -0.02535450460 -1.19967597233 -0.31883693512 -0.02522122075 -1.19951633923 -0.53068798852 -0.02495473569 -1.19919709216 -0.74147956000 -0.02455504914 -1.19871823134 -0.95078785747 -0.02402216078 -1.19807975700 0.91956601417 -0.03156984890 -1.19872092972 0.71921328608 -0.03237846312 -1.19916257478 0.51586395547 -0.03298490373 -1.19949380303 0.31037419494 -0.03338917067 -1.19971461482 0.10360017707 -0.03359126387 -1.19982501051 -0.10360192553 -0.03359118327 -1.19982499044 -0.31037594027 -0.03338892880 -1.19971455495 -0.51586569455 -0.03298450040 -1.19949370440 -0.71921501578 -0.03237789800 -1.19916243914 -0.91956773136 -0.03156912155 -1.19872075952 0.87549051764 -0.03827400523 -1.19927617219 0.68791575206 -0.03943883159 -1.19954664170 0.49510682777 -0.04031243162 -1.19974948792 0.29855921909 -0.04089480557 -1.19988471132 0.09976840033 -0.04118595371 -1.19995231240 -0.09977015416 -0.04118587628 -1.19995229162 -0.29856097008 -0.04089457354 -1.19988464947 -0.49510857309 -0.04031204574 -1.19974938643 -0.68791748889 -0.03943829312 -1.19954650299 -0.87549224313 -0.03827331595 -1.19927599961 0.81610052125 -0.04411431063 -1.19971353739 0.64586693243 -0.04576388163 -1.19984782469 0.46729163469 -0.04700104058 -1.19994853398 0.28275797379 -0.04782578812 -1.20001566589 0.09464929550 -0.04823812492 -1.20004922105 -0.09465105441 -0.04823805165 -1.20004920008 -0.28275973017 -0.04782556896 -1.20001560362 -0.46729338601 -0.04700067753 -1.19994843230 -0.64586867616 -0.04576337800 -1.19984768675 -0.81610225487 -0.04411367106 -1.19971336759 0.73893688700 -0.04906969048 -1.20000091481 0.59134852397 -0.05138075557 -1.20004338711 0.43129513803 -0.05311403562 -1.20007523497 0.26233816461 -0.05426953182 -1.20009645920 0.08803903916 -0.05484724533 -1.20010706062 -0.08804080291 -0.05484717735 -1.20010704003 -0.26233992616 -0.05426932904 -1.20009639824 -0.43129689515 -0.05311370158 -1.20007513606 -0.59135027446 -0.05138029616 -1.20004325432 -0.73893862864 -0.04906911395 -1.20000075380 0.64154047694 -0.05311907019 -1.20010619398 0.52264222349 -0.05631659571 -1.20011059232 0.38599409961 -0.05871472177 -1.20011388463 0.23666749715 -0.06031345020 -1.20011607194 0.07973380789 -0.06111278280 -1.20011715527 -0.07973557632 -0.06111272138 -1.20011713566 -0.23666926369 -0.06031326775 -1.20011601415 -0.38599586239 -0.05871442371 -1.20011379178 -0.52264398061 -0.05631619109 -1.20011046957 -0.64154222654 -0.05311857169 -1.20010604857 0.99521488051 0.01449059084 -1.23797984229 0.77381460240 0.01509878592 -1.23948667139 0.55259524209 0.01555495040 -1.24061679093 0.33150510943 0.01585908501 -1.24137020067 0.11049251426 0.01601119047 -1.24174690037 -0.11049423358 0.01601126752 -1.24174688979 -0.33150682424 0.01585931689 -1.24137016871 -0.55259694787 0.01555533931 -1.24061673689 -0.77381629464 0.01509933551 -1.23948659409 -0.99521655469 0.01449130622 -1.23797974008 0.99115063503 0.00365967678 -1.23847111719 0.77072751776 0.00386759402 -1.23982429933 0.55042982143 0.00402354999 -1.24083918266 0.33022171210 0.00412754543 -1.24151576712 0.11006735579 0.00417958107 -1.24185405262 -0.11006908142 0.00417965766 -1.24185403911 -0.33022343350 0.00412777592 -1.24151572651 -0.55043153439 0.00402393659 -1.24083911476 -0.77072921805 0.00386814041 -1.23982420379 -0.99115231842 0.00366038812 -1.23847099352 0.98399545647 -0.00638544541 -1.23909236389 0.76543007336 -0.00647333087 -1.24025413264 0.54678933989 -0.00653922704 -1.24112545507 0.32809478529 -0.00658313321 -1.24170633124 0.10936793881 -0.00660504869 -1.24199676121 -0.10936967032 -0.00660497279 -1.24199674504 -0.32809651287 -0.00658290481 -1.24170628278 -0.54679105960 -0.00653884406 -1.24112537448 -0.76543178127 -0.00647278985 -1.24025402021 -0.98399714865 -0.00638474147 -1.23909222002 0.97129917845 -0.01562713037 -1.23979349657 0.75621026019 -0.01595354458 -1.24074081995 0.54055468886 -0.01619833742 -1.24145130763 0.32449436586 -0.01636150829 -1.24192495976 0.10819119257 -0.01644305659 -1.24216177649 -0.10819292959 -0.01644298172 -1.24216175799 -0.32449609924 -0.01636128308 -1.24192490441 -0.54055641496 -0.01619796008 -1.24145121591 -0.75621197537 -0.01595301210 -1.24074069265 -0.97130087906 -0.01562643856 -1.23979333477 0.95061163461 -0.02404773271 -1.24052442936 0.74135606929 -0.02460260292 -1.24124900990 0.53060675979 -0.02501873790 -1.24179243981 0.31879049063 -0.02529613722 -1.24215471937 0.10633404634 -0.02543480041 -1.24233584880 -0.10633578854 -0.02543472705 -1.24233582837 -0.31879222947 -0.02529591668 -1.24215465832 -0.53060849194 -0.02501836888 -1.24179233890 -0.74135779141 -0.02460208319 -1.24124887037 -0.95061334334 -0.02404705917 -1.24052425296 0.91948265857 -0.03162960704 -1.24123507644 0.71915549166 -0.03245006171 -1.24174335110 0.51582644407 -0.03306538523 -1.24212455110 0.31035319644 -0.03347557737 -1.24237867678 0.10359342939 -0.03368063792 -1.24250572849 -0.10359517646 -0.03368056667 -1.24250570658 -0.31035494047 -0.03347536340 -1.24237861141 -0.51582818201 -0.03306502789 -1.24212444331 -0.71915722045 -0.03244955993 -1.24174320265 -0.91948437518 -0.03162895931 -1.24123488977 0.87546208397 -0.03835510799 -1.24187535197 0.68789651831 -0.03952547678 -1.24218849221 0.49509463314 -0.04040323614 -1.24242334096 0.29855252013 -0.04098838615 -1.24257989870 0.09976627097 -0.04128092691 -1.24265816590 -0.09976802267 -0.04128085850 -1.24265814303 -0.29855426909 -0.04098818102 -1.24257983058 -0.49509637662 -0.04040289454 -1.24242322900 -0.68789825357 -0.03952499917 -1.24218833878 -0.87546380826 -0.03835449498 -1.24187516039 0.81609974442 -0.04420659017 -1.24239517009 0.64586714026 -0.04585840394 -1.24254908184 0.46729221841 -0.04709724737 -1.24266450888 0.28275849854 -0.04792312095 -1.24274145185 0.09464950036 -0.04833602515 -1.24277991139 -0.09465125646 -0.04833596044 -1.24277988813 -0.28276025222 -0.04792292732 -1.24274138273 -0.46729396723 -0.04709692625 -1.24266439581 -0.64586888181 -0.04585795772 -1.24254892802 -0.81610147626 -0.04420602221 -1.24239498000 0.73894547356 -0.04916640820 -1.24274444498 0.59135534852 -0.05147839901 -1.24278976864 0.43130009129 -0.05321237568 -1.24282375433 0.26234116850 -0.05436833916 -1.24284640293 0.08804004681 -0.05494629041 -1.24285771529 -0.08804180715 -0.05494623040 -1.24285769228 -0.26234292674 -0.05436816010 -1.24284633477 -0.43130184531 -0.05321208045 -1.24282364361 -0.59135709624 -0.05147799243 -1.24278961966 -0.73894721287 -0.04916589700 -1.24274426380 0.64154910502 -0.05321691670 -1.24287309079 0.52264913410 -0.05641501782 -1.24287520122 0.38599914320 -0.05881357779 -1.24287677679 0.23667056686 -0.06041259817 -1.24287781865 0.07973483960 -0.06121208048 -1.24287832796 -0.07973660404 -0.06121202629 -1.24287830589 -0.23667232952 -0.06041243714 -1.24287775360 -0.38600090233 -0.05881331457 -1.24287667224 -0.52265088793 -0.05641466013 -1.24287506298 -0.64155085178 -0.05321647537 -1.24287292697 0.99449806823 0.01470817305 -1.28211996282 0.77331242341 0.01523058150 -1.28320528812 0.55226618998 0.01562240313 -1.28401927932 0.33131953677 0.01588363847 -1.28456193652 0.11043263259 0.01601428806 -1.28483325983 -0.11043435376 0.01601435245 -1.28483324936 -0.33132125345 0.01588383216 -1.28456190522 -0.55226789767 0.01562272773 -1.28401922752 -0.77331411761 0.01523103970 -1.28320521637 -0.99449974446 0.01470876861 -1.28211987188 0.99065136805 0.00379451423 -1.28242032357 0.77037787193 0.00394101469 -1.28340973025 0.55020079203 0.00405090519 -1.28415178145 0.33009258146 0.00412418629 -1.28464647739 0.11002569332 0.00416085855 -1.28489381830 -0.11002741928 0.00416092255 -1.28489380443 -0.33009430323 0.00412437884 -1.28464643600 -0.55020250543 0.00405122799 -1.28415171325 -0.77037957277 0.00394147057 -1.28340963642 -0.99065305214 0.00379510713 -1.28242020572 0.98366555375 -0.00631519121 -1.28283888244 0.76519918998 -0.00644547187 -1.28369804170 0.54663819522 -0.00654316735 -1.28434240643 0.32800960746 -0.00660827708 -1.28477197694 0.10934046467 -0.00664080051 -1.28498675354 -0.10934219516 -0.00664073709 -1.28498673657 -0.32801133407 -0.00660808627 -1.28477192632 -0.54663991406 -0.00654284750 -1.28434232313 -0.76520089717 -0.00644502023 -1.28369792729 -0.98366724542 -0.00631460390 -1.28283873915 0.97109643686 -0.01560560328 -1.28333464323 0.75606855985 -0.01596005743 -1.28404129790 0.54046203929 -0.01622588315 -1.28457128340 0.32444220243 -0.01640307994 -1.28492460012 0.10817437649 -0.01649164731 -1.28510124844 -0.10817611128 -0.01649158476 -1.28510122872 -0.32444393364 -0.01640289182 -1.28492454136 -0.54046376334 -0.01622556798 -1.28457118673 -0.75607027316 -0.01595961275 -1.28404116520 -0.97109813585 -0.01560502564 -1.28333447715 0.95049982888 -0.02406138198 -1.28386660976 0.74127816387 -0.02463392120 -1.28441057428 0.53055596401 -0.02506331087 -1.28481854152 0.31876195403 -0.02534955061 -1.28509051190 0.10632485862 -0.02549264003 -1.28522648587 -0.10632659750 -0.02549257876 -1.28522646386 -0.31876368963 -0.02534936643 -1.28509044630 -0.53055769306 -0.02506300265 -1.28481843364 -0.74127988308 -0.02463348706 -1.28441042631 -0.95050153499 -0.02406081928 -1.28386642474 0.91943154131 -0.03166718731 -1.28439378584 0.71912018432 -0.03249824242 -1.28477694630 0.51580360913 -0.03312151918 -1.28506430993 0.31034044993 -0.03353701739 -1.28525587724 0.10358934092 -0.03374473686 -1.28535164874 -0.10359108370 -0.03374467737 -1.28535162493 -0.31034218974 -0.03353683874 -1.28525580634 -0.51580534300 -0.03312122076 -1.28506419346 -0.71912190929 -0.03249782323 -1.28477678681 -0.91943325440 -0.03166664596 -1.28439358691 0.87544738565 -0.03840767929 -1.28487517529 0.68788680352 -0.03958420031 -1.28511148939 0.49508861440 -0.04046657673 -1.28528871779 0.29854927779 -0.04105480860 -1.28540686109 0.09976525324 -0.04134889598 -1.28546591992 -0.09976699975 -0.04134883889 -1.28546589490 -0.29855102165 -0.04105463739 -1.28540678664 -0.49509035295 -0.04046629152 -1.28528859577 -0.68788853411 -0.03958380133 -1.28511132291 -0.87544910562 -0.03840716686 -1.28487496867 0.81610317342 -0.04426751792 -1.28526978192 0.64587020378 -0.04592297409 -1.28538527899 0.46729461957 -0.04716455218 -1.28547189423 0.28276002528 -0.04799225255 -1.28552962840 0.09465002542 -0.04840607557 -1.28555848231 -0.09465177553 -0.04840602160 -1.28555845671 -0.28276177306 -0.04799209101 -1.28552955241 -0.46729636268 -0.04716428416 -1.28547177017 -0.64587193990 -0.04592260142 -1.28538511078 -0.81610490021 -0.04426704316 -1.28526957501 0.73895471612 -0.04923136319 -1.28553660954 0.59136256739 -0.05154574300 -1.28556939054 0.43130526439 -0.05328151419 -1.28559396841 0.26234428005 -0.05443867755 -1.28561034415 0.08804108731 -0.05501723383 -1.28561851879 -0.08804284090 -0.05501718380 -1.28561849334 -0.26234603165 -0.05443852824 -1.28561026882 -0.43130701199 -0.05328126790 -1.28559384623 -0.59136430900 -0.05154540357 -1.28556922661 -0.73895644974 -0.04923093601 -1.28553641096 0.64155782525 -0.05328387512 -1.28563466197 0.52265607668 -0.05648368626 -1.28563489948 0.38600418863 -0.05888353143 -1.28563506947 0.23667362978 -0.06048341190 -1.28563517328 0.07973586877 -0.06128332893 -1.28563521225 -0.07973762575 -0.06128328378 -1.28563518773 -0.23667538511 -0.06048327770 -1.28563510105 -0.38600594067 -0.05888331197 -1.28563495356 -0.52265782377 -0.05648338785 -1.28563474659 -0.64155956575 -0.05328350658 -1.28563448149 0.99414523611 0.01481848019 -1.32713442719 0.77306563914 0.01529375831 -1.32753799749 0.55210472311 0.01565022896 -1.32784067180 0.33122857980 0.01588789229 -1.32804245068 0.11040330099 0.01600674850 -1.32814333470 -0.11040502152 0.01600679774 -1.32814332441 -0.33123029596 0.01588804020 -1.32804242039 -0.55210643054 0.01565047605 -1.32784062319 -0.77306733347 0.01529410547 -1.32753793338 -0.99414691297 0.01481892863 -1.32713435153 0.99040774503 0.00386304581 -1.32723204225 0.77020755650 0.00397461360 -1.32760098352 0.55008940756 0.00405830133 -1.32787768493 0.33002985890 0.00411410924 -1.32806214714 0.11000547121 0.00414203755 -1.32815437083 -0.11000719479 0.00414208651 -1.32815435664 -0.33003157842 0.00411425634 -1.32806210526 -0.55009111896 0.00405854727 -1.32787761734 -0.77020925572 0.00397495954 -1.32760089355 -0.99040942801 0.00386349338 -1.32723193456 0.98350692392 -0.00627943539 -1.32737664060 0.76508840311 -0.00643507343 -1.32769765621 0.54656580774 -0.00655179021 -1.32793841240 0.32796887395 -0.00662958549 -1.32809890989 0.10932733786 -0.00666845901 -1.32817914940 -0.10932906442 -0.00666841049 -1.32817913165 -0.32797059675 -0.00662943968 -1.32809885736 -0.54656752303 -0.00655154632 -1.32793832726 -0.76509010712 -0.00643473015 -1.32769754207 -0.98350861290 -0.00627899090 -1.32737650251 0.97100156538 -0.01559479860 -1.32755256753 0.75600244814 -0.01596731039 -1.32781695026 0.54041892991 -0.01624668265 -1.32801523096 0.32441798288 -0.01643291513 -1.32814741037 0.10816657926 -0.01652600757 -1.32821348924 -0.10816830873 -0.01652595973 -1.32821346833 -0.32441970889 -0.01643277133 -1.32814734840 -0.54042064900 -0.01624644214 -1.32801513019 -0.75600415687 -0.01596697190 -1.32781681446 -0.97100326027 -0.01559436034 -1.32755240197 0.95045046197 -0.02406887900 -1.32774416830 0.74124396081 -0.02465410493 -1.32794780037 0.53053378031 -0.02509301296 -1.32810051736 0.31874954358 -0.02538560291 -1.32820232004 0.10632087375 -0.02553187455 -1.32825320920 -0.10632260606 -0.02553182768 -1.32825318562 -0.31875127273 -0.02538546210 -1.32820225008 -0.53053550315 -0.02509277761 -1.32810040336 -0.74124567419 -0.02465377400 -1.32794764626 -0.95045216273 -0.02406845106 -1.32774397953 0.91941240629 -0.03168751175 -1.32793578819 0.71910721030 -0.03252746466 -1.32807914123 0.51579536519 -0.03315741813 -1.32818664834 0.31033591398 -0.03357737205 -1.32825831037 0.10358789966 -0.03378732631 -1.32829412812 -0.10358963474 -0.03378728082 -1.32829410243 -0.31033764621 -0.03357723547 -1.32825823413 -0.51579709173 -0.03315719015 -1.32818652403 -0.71910892830 -0.03252714475 -1.32807897298 -0.91941411290 -0.03168709918 -1.32793558179 0.87544619091 -0.03843653205 -1.32811177247 0.68788646581 -0.03961939723 -1.32819990753 0.49508869081 -0.04050653512 -1.32826600067 0.29854945196 -0.04109794579 -1.32831005280 0.09976533531 -0.04139362927 -1.32833206484 -0.09976707310 -0.04139358563 -1.32833203768 -0.29855118723 -0.04109781491 -1.32830997225 -0.49509042102 -0.04050631717 -1.32826586944 -0.68788818842 -0.03961909246 -1.32819973016 -0.87544790340 -0.03843614082 -1.32811155533 0.81611060842 -0.04430177506 -1.32825646642 0.64587599653 -0.04596191025 -1.32829903396 0.46729876342 -0.04720700093 -1.32833095107 0.28276251546 -0.04803704736 -1.32835221880 0.09465085903 -0.04845204982 -1.32836283820 -0.09465259948 -0.04845200858 -1.32836281030 -0.28276425370 -0.04803692392 -1.32835213616 -0.46730049726 -0.04720679610 -1.32833081682 -0.64587772377 -0.04596162541 -1.32829885333 -0.81611232685 -0.04430141211 -1.32825624674 0.73896445139 -0.04926907597 -1.32835421531 0.59137007165 -0.05158701137 -1.32836545523 0.43131058925 -0.05332545252 -1.32837387632 0.26234746237 -0.05448439999 -1.32837947983 0.08804214916 -0.05506385434 -1.32838226704 -0.08804389221 -0.05506381614 -1.32838223920 -0.26234920356 -0.05448428596 -1.32837939757 -0.43131232673 -0.05332526436 -1.32837374342 -0.59137180355 -0.05158675190 -1.32836527801 -0.73896617586 -0.04926874916 -1.32835400260 0.64156651242 -0.05332426995 -1.32838936441 0.52266296037 -0.05652670820 -1.32838810602 0.38600917457 -0.05892852688 -1.32838715314 0.23667665060 -0.06052972691 -1.32838650734 0.07973688401 -0.06133030924 -1.32838617020 -0.07973862961 -0.06133027480 -1.32838614329 -0.23667839470 -0.06052962453 -1.32838642819 -0.38601091568 -0.05892835936 -1.32838702648 -0.52266469699 -0.05652648024 -1.32838793973 -0.64156824305 -0.05332398811 -1.32838916952 0.99415622913 0.01481616002 -1.37243687561 0.77307414142 0.01528355169 -1.37207218334 0.55211077089 0.01563410374 -1.37179865992 0.33123219893 0.01586781594 -1.37161630650 0.11040450694 0.01598468809 -1.37152512420 -0.11040622370 0.01598471996 -1.37152511415 -0.33123391159 0.01586791134 -1.37161627750 -0.55211247533 0.01563426202 -1.37179861536 -0.77307583353 0.01528377178 -1.37207212887 -0.99415790481 0.01481644042 -1.37243681916 0.99041955083 0.00386001121 -1.37232729944 0.77021643526 0.00396370123 -1.37199054938 0.55009558744 0.00404147687 -1.37173798139 0.33003350283 0.00409333798 -1.37156959668 0.11000667692 0.00411928444 -1.37148539649 -0.11000839482 0.00411931615 -1.37148538205 -0.33003521692 0.00409343296 -1.37156955460 -0.55009729390 0.00404163476 -1.37173791535 -0.77021813029 0.00396392143 -1.37199046555 -0.99042123062 0.00386029283 -1.37232720642 0.98351931473 -0.00628335569 -1.37217367982 0.76509755943 -0.00644676182 -1.37187846844 0.54657209096 -0.00656930849 -1.37165705338 0.32797254217 -0.00665099575 -1.37150943591 0.10932854589 -0.00669182365 -1.37143561730 -0.10933026504 -0.00669179222 -1.37143559884 -0.32797425780 -0.00665090151 -1.37150938179 -0.54657379956 -0.00656915158 -1.37165696743 -0.76509925747 -0.00644654246 -1.37187835704 -0.98352099870 -0.00628307421 -1.37217355189 0.97101429461 -0.01559981442 -1.37199114210 0.75601176411 -0.01597987360 -1.37174655781 0.54042527181 -0.01626491025 -1.37156311216 0.32442166438 -0.01645492436 -1.37144080643 0.10816778854 -0.01654991592 -1.37137964190 -0.10816950905 -0.01654988492 -1.37137961986 -0.32442338167 -0.01645483135 -1.37144074160 -0.54042698264 -0.01626475521 -1.37156300841 -0.75601346526 -0.01597965648 -1.37174642156 -0.97101598285 -0.01559953516 -1.37199098236 0.95046326425 -0.02407523874 -1.37179481163 0.74125329952 -0.02466767024 -1.37160543481 0.53054012031 -0.02511198632 -1.37146339400 0.31875321689 -0.02540818695 -1.37136869048 0.10632207954 -0.02555627211 -1.37132132554 -0.10632380149 -0.02555624174 -1.37132130047 -0.31875493592 -0.02540809583 -1.37136861655 -0.53054183348 -0.02511183434 -1.37146327507 -0.74125500389 -0.02466745724 -1.37160527731 -0.95046495689 -0.02407496449 -1.37179462457 0.91942499743 -0.03169550241 -1.37159981374 0.71911641585 -0.03254218786 -1.37146571673 0.51580162682 -0.03317719461 -1.37136513515 0.31033954713 -0.03360052265 -1.37129807031 0.10358909358 -0.03381217195 -1.37126452350 -0.10359081705 -0.03381214248 -1.37126449602 -0.31034126798 -0.03360043424 -1.37129798916 -0.51580334240 -0.03317704720 -1.37136500422 -0.71911812354 -0.03254198134 -1.37146554250 -0.91942669460 -0.03169523664 -1.37159960528 0.87545826795 -0.03844647918 -1.37142127379 0.68789536330 -0.03963546260 -1.37133802088 0.49509478167 -0.04052719305 -1.37127557189 0.29855300253 -0.04112167056 -1.37123392817 0.09976650536 -0.04141889517 -1.37121309105 -0.09976823040 -0.04141886692 -1.37121306187 -0.29855472525 -0.04112158585 -1.37123384196 -0.49509649975 -0.04052705199 -1.37127543267 -0.68789707442 -0.03963526539 -1.37133783532 -0.87545996979 -0.03844622609 -1.37142105127 0.81612184958 -0.04431404281 -1.37127431712 0.64588439206 -0.04597953059 -1.37123296457 0.46730457520 -0.04722863954 -1.37120194048 0.28276593052 -0.04806136980 -1.37118124630 0.09465198955 -0.04847772152 -1.37117088345 -0.09465371619 -0.04847769485 -1.37117085336 -0.28276765516 -0.04806128994 -1.37118115747 -0.46730629585 -0.04722850694 -1.37120179720 -0.64588610673 -0.04597934600 -1.37123277400 -0.81612355626 -0.04431380728 -1.37127408928 0.73897451610 -0.04928406705 -1.37117406908 0.59137775235 -0.05160642796 -1.37116116510 0.43131599776 -0.05334819200 -1.37115147718 0.26235067853 -0.05450935948 -1.37114500694 0.08804322085 -0.05508993072 -1.37114175596 -0.08804494909 -0.05508990605 -1.37114172585 -0.26235240512 -0.05450928579 -1.37114491821 -0.43131772104 -0.05334807026 -1.37115133464 -0.59137947067 -0.05160625978 -1.37116097673 -0.73897622782 -0.04928385467 -1.37117384608 0.64157504131 -0.05334242565 -1.37113565501 0.52266969435 -0.05654819084 -1.37113323977 0.38601403968 -0.05895250834 -1.37113141826 0.23667959400 -0.06055537871 -1.37113019234 0.07973787395 -0.06135680251 -1.37112956386 -0.07973960378 -0.06135678031 -1.37112953470 -0.23668132254 -0.06055531267 -1.37113010671 -0.38601576565 -0.05895240015 -1.37113128176 -0.52267141644 -0.05654804332 -1.37113306171 -0.64157675826 -0.05334224273 -1.37113544843 0.99453089228 0.01469586032 -1.41744094833 0.77333782205 0.01519519697 -1.41639522950 0.55228426273 0.01556970332 -1.41561093523 0.33133035458 0.01581937888 -1.41508806731 0.11043623787 0.01594422315 -1.41482662756 -0.11043794712 0.01594423565 -1.41482661780 -0.33133206013 0.01581941588 -1.41508803985 -0.55228596089 0.01556976337 -1.41561089550 -0.77333950912 0.01519527761 -1.41639518659 -0.99453256456 0.01469595813 -1.41744091491 0.99068657032 0.00378015012 -1.41712712139 0.77040437198 0.00390358811 -1.41617091811 0.55021925109 0.00399617026 -1.41545375910 0.33010347170 0.00405789621 -1.41497564628 0.11002929791 0.00408876560 -1.41473658159 -0.11003100623 0.00408877806 -1.41473656696 -0.33010517661 0.00405793325 -1.41497560432 -0.55022094918 0.00399623078 -1.41545369561 -0.77040605986 0.00390367031 -1.41617084276 -0.99068824456 0.00378025146 -1.41712704770 0.98370247393 -0.00633212980 -1.41669804153 0.76522650562 -0.00648516334 -1.41586597065 0.54665695839 -0.00659993505 -1.41524190974 0.32802056952 -0.00667644515 -1.41482586080 0.10934407629 -0.00671469389 -1.41461782579 -0.10934578401 -0.00671468151 -1.41461780670 -0.32802227411 -0.00667640825 -1.41482580551 -0.54665865673 -0.00659987434 -1.41524182419 -0.76522819459 -0.00648508002 -1.41586586473 -0.98370415041 -0.00633202553 -1.41669792910 0.97113435517 -0.01562574877 -1.41619423959 0.75609634680 -0.01600231719 -1.41550890130 0.54048097609 -0.01628474027 -1.41499488885 0.32445320412 -0.01647301811 -1.41465220423 0.10817799194 -0.01656715087 -1.41448084941 -0.10817969934 -0.01656713865 -1.41448082636 -0.32445490867 -0.01647298159 -1.41465213706 -0.54048267496 -0.01628467981 -1.41499478349 -0.75609803714 -0.01600223344 -1.41550876762 -0.97113603413 -0.01562564261 -1.41619409144 0.95053796606 -0.02408547615 -1.41565624639 0.74130601938 -0.02467913328 -1.41512822424 0.53057489566 -0.02512437309 -1.41473219810 0.31877293157 -0.02542119560 -1.41446816992 0.10632846376 -0.02556960086 -1.41433614165 -0.10633017109 -0.02556958889 -1.41433611523 -0.31877463634 -0.02542115974 -1.41446809261 -0.53057659531 -0.02512431344 -1.41473207574 -0.74130771134 -0.02467905002 -1.41512806657 -0.95053964778 -0.02408536952 -1.41565606704 0.91946905865 -0.03169608131 -1.41512459277 0.71914764720 -0.03254687144 -1.41475245366 0.51582230856 -0.03318496119 -1.41447333918 0.31035130797 -0.03361035052 -1.41428725124 0.10359291066 -0.03382303940 -1.41419419176 -0.10359461813 -0.03382302780 -1.41419416265 -0.31035301316 -0.03361031570 -1.41428716583 -0.51582400920 -0.03318490306 -1.41447320321 -0.71914934102 -0.03254678985 -1.41475227671 -0.91947074338 -0.03169597603 -1.41512438825 0.87548338497 -0.03844233359 -1.41463980956 0.68791335410 -0.03963679150 -1.41441010373 0.49510680624 -0.04053263225 -1.41423781375 0.29855988939 -0.04112985578 -1.41412294152 0.09976875155 -0.04142846203 -1.41406548894 -0.09977045931 -0.04142845094 -1.41406545792 -0.29856159518 -0.04112982245 -1.41412285035 -0.49510850807 -0.04053257648 -1.41423766814 -0.68791505000 -0.03963671299 -1.41440991318 -0.87548507296 -0.03844223190 -1.41463958737 0.81613669707 -0.04430900235 -1.41424242758 0.64589526393 -0.04598015328 -1.41412968863 0.46731198017 -0.04723351395 -1.41404512350 0.28277023193 -0.04806908431 -1.41398873413 0.09465340533 -0.04848686430 -1.41396052245 -0.09465511351 -0.04848685386 -1.41396049037 -0.28277193844 -0.04806905296 -1.41398863984 -0.46731368335 -0.04723346153 -1.41404497277 -0.64589696210 -0.04598007952 -1.41412949110 -0.81613838856 -0.04430890689 -1.41424219675 0.73898474697 -0.04928085694 -1.41397297768 0.59138550053 -0.05160821663 -1.41393972255 0.43132142181 -0.05335373398 -1.41391477012 0.26235389166 -0.05451740901 -1.41389812243 0.08804429091 -0.05509924172 -1.41388978149 -0.08804599959 -0.05509923213 -1.41388974931 -0.26235559900 -0.05451738022 -1.41389802793 -0.43132312647 -0.05335368602 -1.41391461936 -0.59138720116 -0.05160814953 -1.41393952561 -0.73898644222 -0.04928077075 -1.41397274872 0.64158328673 -0.05334266672 -1.41387199067 0.52267618776 -0.05655224136 -1.41386871966 0.38601872262 -0.05895942001 -1.41386625529 0.23668242466 -0.06056420281 -1.41386459977 0.07973882720 -0.06136658986 -1.41386375529 -0.07974053643 -0.06136658129 -1.41386372407 -0.23668413289 -0.06056417722 -1.41386450829 -0.38602042885 -0.05895937777 -1.41386611015 -0.52267789099 -0.05655218307 -1.41386853185 -0.64158498597 -0.05334259324 -1.41387177560 0.99526907054 0.01445222887 -1.46156028555 0.77385657284 0.01502392949 -1.46009451984 0.55262512803 0.01545270355 -1.45899518927 0.33152300715 0.01573855056 -1.45826229645 0.11049848125 0.01588147000 -1.45789584402 -0.11050017862 0.01588146137 -1.45789583457 -0.33152470141 0.01573852415 -1.45826227072 -0.55262681608 0.01545265784 -1.45899515508 -0.77385825157 0.01502386193 -1.46009449028 -0.99527073683 0.01445213592 -1.46156027891 0.99120858833 0.00361820223 -1.46105253431 0.77077123045 0.00378958471 -1.45973457995 0.55046031793 0.00391811997 -1.45874610634 0.33023972393 0.00400380764 -1.45808711623 0.11007332161 0.00404664739 -1.45775761242 -0.11007501588 0.00404663888 -1.45775759766 -0.33024141539 0.00400378174 -1.45808707475 -0.55046200375 0.00391807566 -1.45874604646 -0.77077290782 0.00378952026 -1.45973451556 -0.99121025443 0.00361811522 -1.46105248482 0.98405614929 -0.00643093544 -1.46041776715 0.76547508837 -0.00655490427 -1.45928565509 0.54682032352 -0.00664788272 -1.45843656188 0.32811291339 -0.00670987098 -1.45787049038 0.10937391658 -0.00674086921 -1.45758744341 -0.10937560828 -0.00674087762 -1.45758742381 -0.32811460255 -0.00670989638 -1.45787043442 -0.54682200762 -0.00664792567 -1.45843647809 -0.76547676485 -0.00655496569 -1.45928555765 -0.98405781562 -0.00643101661 -1.46041767593 0.97136147768 -0.01567769972 -1.45970573262 0.75625603526 -0.01603921130 -1.45878276147 0.54058595387 -0.01631034702 -1.45809052289 0.32451255924 -0.01649110689 -1.45762901972 0.10819717713 -0.01658149095 -1.45739825477 -0.10819886673 -0.01658149923 -1.45739823087 -0.32451424658 -0.01649113176 -1.45762895085 -0.54058763668 -0.01631038858 -1.45809041754 -0.75625771128 -0.01603926971 -1.45878263376 -0.97136314464 -0.01567777519 -1.45970560235 0.95067429777 -0.02410460621 -1.45896617924 0.74140195978 -0.02469301021 -1.45826091532 0.53063801800 -0.02513431540 -1.45773195635 0.31880864522 -0.02542852168 -1.45737930508 0.10634001424 -0.02557562894 -1.45720296429 -0.10634170214 -0.02557563707 -1.45720293673 -0.31881033113 -0.02542854596 -1.45737922518 -0.53063969992 -0.02513435550 -1.45773183239 -0.74140363572 -0.02469306559 -1.45826076113 -0.95067596573 -0.02410467613 -1.45896601418 0.91954433385 -0.03169417051 -1.45824885554 0.71920075059 -0.03254597482 -1.45775513287 0.51585732497 -0.03318483038 -1.45738482923 0.31037115504 -0.03361073696 -1.45713794729 0.10359933889 -0.03382369432 -1.45701448974 -0.10360102543 -0.03382370225 -1.45701445926 -0.31037283986 -0.03361076051 -1.45713785851 -0.51585900633 -0.03318486888 -1.45738469019 -0.71920242678 -0.03254602712 -1.45775495698 -0.91954600313 -0.03169423503 -1.45824866154 0.87552131019 -0.03842890820 -1.45760351007 0.68794029634 -0.03962777897 -1.45730043035 0.49512468381 -0.04052693445 -1.45707310852 0.29857007244 -0.04112637431 -1.45692154718 0.09977206205 -0.04142609823 -1.45684574891 -0.09977374752 -0.04142610589 -1.45684571632 -0.29857175645 -0.04112639696 -1.45692145200 -0.49512636491 -0.04052697114 -1.45707295853 -0.68794197307 -0.03962782809 -1.45730023851 -0.87552298110 -0.03842896750 -1.45760329453 0.81615495105 -0.04429133489 -1.45707989135 0.64590848568 -0.04596809649 -1.45693182397 0.46732090358 -0.04722567009 -1.45682076120 0.28277538113 -0.04806405532 -1.45674670556 0.09465509470 -0.04848325178 -1.45670965959 -0.09465677932 -0.04848325910 -1.45670962581 -0.28277706456 -0.04806407687 -1.45674660675 -0.46732258465 -0.04722570473 -1.45682060496 -0.64591016321 -0.04596814229 -1.45693162295 -0.81615662386 -0.04429138915 -1.45707966327 0.73899498072 -0.04926396617 -1.45672774791 0.59139320727 -0.05159660120 -1.45668432998 0.43132679331 -0.05334607981 -1.45665175426 0.26235706483 -0.05451240159 -1.45663002328 0.08804534782 -0.05509556612 -1.45661913954 -0.08804703174 -0.05509557299 -1.45661910558 -0.26235874785 -0.05451242178 -1.45662992391 -0.43132847454 -0.05334611209 -1.45665159706 -0.59139488581 -0.05159664349 -1.45668412753 -0.73899665567 -0.04926401558 -1.45672751786 0.64159112345 -0.05332931763 -1.45659682829 0.52268234976 -0.05654296694 -1.45659296459 0.38602316206 -0.05895320610 -1.45659005468 0.23668510728 -0.06056003471 -1.45658810114 0.07973973238 -0.06136345237 -1.45658710656 -0.07974141569 -0.06136345868 -1.45658707352 -0.23668679000 -0.06056005324 -1.45658800460 -0.38602484358 -0.05895323564 -1.45658990239 -0.52268402948 -0.05654300550 -1.45659276947 -0.64159280077 -0.05332936241 -1.45659660842 0.99637060890 0.01407991345 -1.50420852751 0.77463028561 0.01476498456 -1.50275743817 0.55313329621 0.01527878027 -1.50166911359 0.33181011707 0.01562130044 -1.50094355728 0.11059122453 0.01579254495 -1.50058077279 -0.11059290502 0.01579251367 -1.50058076366 -0.33181179523 0.01562120645 -1.50094353340 -0.55313496974 0.01527862318 -1.50166908557 -0.77463195218 0.01476476371 -1.50275742369 -0.99637226619 0.01407962792 -1.50420855129 0.99198538974 0.00336890724 -1.50352456444 0.77131687443 0.00361700156 -1.50227402518 0.55081870738 0.00380306445 -1.50133611139 0.33044221795 0.00392709598 -1.50071082683 0.11013873548 0.00398909620 -1.50039817527 -0.11014041065 0.00398906518 -1.50039816047 -0.33044389111 0.00392700300 -1.50071078620 -0.55082037653 0.00380290971 -1.50133605621 -0.77131853755 0.00361678539 -1.50227397428 -0.99198704483 0.00336863009 -1.50352454417 0.98458008854 -0.00658495033 -1.50280089812 0.76584315435 -0.00666061090 -1.50176301403 0.54706209988 -0.00671736439 -1.50098459018 0.32824953117 -0.00675521052 -1.50046563044 0.10941805426 -0.00677414907 -1.50020613867 -0.10941972482 -0.00677417977 -1.50020611871 -0.32825120001 -0.00675530237 -1.50046557442 -0.54706376529 -0.00671751664 -1.50098450967 -0.76584481462 -0.00666082232 -1.50176292830 -0.98458174195 -0.00658521916 -1.50280083417 0.97169539274 -0.01576076533 -1.50206949383 0.75649066853 -0.01609512607 -1.50124691908 0.54074011623 -0.01634590482 -1.50062997613 0.32459968693 -0.01651310116 -1.50021866882 0.10822533172 -0.01659671468 -1.50001300098 -0.10822699831 -0.01659674497 -1.50001297645 -0.32460135208 -0.01651319160 -1.50021859907 -0.54074177849 -0.01634605416 -1.50062987268 -0.75649232646 -0.01609533224 -1.50124680111 -0.97169704491 -0.01576102542 -1.50206938820 0.95087198975 -0.02413764387 -1.50136231681 0.74154096012 -0.02471381717 -1.50074825469 0.53072939896 -0.02514595542 -1.50028769539 0.31886031545 -0.02543405805 -1.49998064265 0.10635671876 -0.02557812450 -1.49982710020 -0.10635838192 -0.02557815421 -1.49982707178 -0.31886197743 -0.02543414660 -1.49998056114 -0.53073105857 -0.02514610112 -1.50028757199 -0.74154261617 -0.02471401720 -1.50074810810 -0.95087364106 -0.02413789427 -1.50136217318 0.91965056696 -0.03169469203 -1.50071133232 0.71927557227 -0.03254395743 -1.50028953522 0.51590659059 -0.03318091475 -1.49997317413 0.31039904692 -0.03360556329 -1.49976225264 0.10360836624 -0.03381790236 -1.49965677433 -0.10361002646 -0.03381793127 -1.49965674279 -0.31040070620 -0.03360564931 -1.49976216160 -0.51590824799 -0.03318105579 -1.49997303436 -0.71927722684 -0.03254415002 -1.50028936463 -0.91965221777 -0.03169493131 -1.50071115602 0.87557181181 -0.03841101592 -1.50014850561 0.68797604813 -0.03961282009 -1.49989327501 0.49514833365 -0.04051418139 -1.49970183849 0.29858351156 -0.04111509900 -1.49957419946 0.09977642504 -0.04141557212 -1.49951036135 -0.09977808271 -0.04141559994 -1.49951032755 -0.29858516852 -0.04111518165 -1.49957410147 -0.49514998919 -0.04051431646 -1.49970168652 -0.68797770154 -0.03961300355 -1.49989308610 -0.87557346239 -0.03841124211 -1.50014830364 0.81617641171 -0.04426572163 -1.49970580195 0.64592393086 -0.04594767838 -1.49958198841 0.46733127066 -0.04720915390 -1.49948911463 0.28278133957 -0.04805014727 -1.49942718383 0.09465704604 -0.04847065760 -1.49939619926 -0.09465870148 -0.04847068400 -1.49939616414 -0.28278299453 -0.04805022557 -1.49942708172 -0.46733292464 -0.04720928140 -1.49948895522 -0.64592558338 -0.04594785060 -1.49958178788 -0.81617806227 -0.04426593228 -1.49970558294 0.73900505406 -0.04923791525 -1.49941518659 0.59140076361 -0.05157580554 -1.49937818980 0.43133204415 -0.05332923085 -1.49935042872 0.26236016116 -0.05449819022 -1.49933190644 0.08804638010 -0.05508268267 -1.49932262605 -0.08804803356 -0.05508270725 -1.49932259066 -0.26236181435 -0.05449826297 -1.49933180335 -0.43133369679 -0.05332934888 -1.49935026721 -0.59140241542 -0.05157596401 -1.49937798534 -0.73900670478 -0.04923810739 -1.49941496084 0.64159842628 -0.05330670287 -1.49930862477 0.52268808953 -0.05652447478 -1.49930439351 0.38602729664 -0.05893781081 -1.49930120690 0.23668760654 -0.06054670994 -1.49929906797 0.07974057810 -0.06135117116 -1.49929797972 -0.07974222975 -0.06135119346 -1.49929794518 -0.23668925811 -0.06054677581 -1.49929896735 -0.38602894809 -0.05893791719 -1.49930104924 -0.52268974077 -0.05652461661 -1.49930419387 -0.64160007726 -0.05330687303 -1.49930840425 0.99783535236 0.01357356184 -1.54479931442 0.77565885217 0.01441359753 -1.54397136836 0.55380869668 0.01504360932 -1.54335039974 0.33219164473 0.01546359799 -1.54293641313 0.11071445517 0.01567356433 -1.54272941312 -0.11071611315 0.01567350910 -1.54272940428 -0.33219330140 0.01546343311 -1.54293639119 -0.55381035073 0.01504333712 -1.54335037842 -0.77566050229 0.01441322193 -1.54397137056 -0.99783699723 0.01357308830 -1.54479937219 0.99301675939 0.00302700483 -1.54396423800 0.77204116771 0.00338114915 -1.54338174404 0.55129433887 0.00364674218 -1.54294486252 0.33071091219 0.00382378492 -1.54265359836 0.11022552698 0.00391227839 -1.54250795645 -0.11022717741 0.00391222360 -1.54250794168 -0.33071256166 0.00382362156 -1.54265355897 -0.55129598645 0.00364647328 -1.54294481321 -0.77204281245 0.00338077976 -1.54338170930 -0.99301840034 0.00302654203 -1.54396425214 0.98527403947 -0.00679935217 -1.54331547588 0.76633055026 -0.00680690952 -1.54292353972 0.54738220096 -0.00681259289 -1.54262957502 0.32843038027 -0.00681640109 -1.54243358681 0.10947647685 -0.00681833292 -1.54233558011 -0.10947812059 -0.00681838719 -1.54233555997 -0.32843202338 -0.00681656272 -1.54243353141 -0.54738384283 -0.00681285831 -1.54262949948 -0.76633219026 -0.00680727277 -1.54292346920 -0.98527567698 -0.00679980491 -1.54331544561 0.97213583099 -0.01588004366 -1.54282939587 0.75680008566 -0.01617463163 -1.54258015489 0.54094337429 -0.01639558800 -1.54239321042 0.32471454436 -0.01654291144 -1.54226856747 0.10826244337 -0.01661660061 -1.54220623104 -0.10826408120 -0.01661665418 -1.54220620615 -0.32471618185 -0.01654307081 -1.54226849780 -0.54094501111 -0.01639584918 -1.54239311101 -0.75680172148 -0.01617498796 -1.54258005078 -0.97213746547 -0.01588048580 -1.54282932213 0.95113077233 -0.02418960408 -1.54248236576 0.74172285978 -0.02474607031 -1.54233498901 0.53084895018 -0.02516343528 -1.54222444192 0.31892789986 -0.02544169755 -1.54215072934 0.10637856512 -0.02558085569 -1.54211385616 -0.10638019773 -0.02558090825 -1.54211382722 -0.31892953238 -0.02544185380 -1.54215064740 -0.53085058254 -0.02516369088 -1.54222432155 -0.74172449188 -0.02474641807 -1.54233485455 -0.95113240410 -0.02419003392 -1.54248225126 0.91978750189 -0.03170256793 -1.54225075337 0.71937195847 -0.03254527869 -1.54217144155 0.51597001999 -0.03317732684 -1.54211194269 0.31043494216 -0.03359871084 -1.54207226142 0.10361998070 -0.03380942917 -1.54205240238 -0.10362160869 -0.03380948032 -1.54205237019 -0.31043657028 -0.03359886276 -1.54207216948 -0.51597164837 -0.03317757495 -1.54211180489 -0.71937358724 -0.03254561539 -1.54217128104 -0.91978913118 -0.03170298255 -1.54225060256 0.87563465805 -0.03839346966 -1.54211092650 0.68802046760 -0.03959630992 -1.54207291198 0.49517767504 -0.04049845480 -1.54204438594 0.29860016665 -0.04109990271 -1.54202535271 0.09978182869 -0.04140065207 -1.54201581664 -0.09978345257 -0.04140070129 -1.54201578207 -0.29860179083 -0.04110004877 -1.54202525333 -0.49517929984 -0.04049869294 -1.54204423478 -0.68802209333 -0.03959663221 -1.54207273075 -0.87563628500 -0.03839386498 -1.54211074558 0.81620087919 -0.04423684376 -1.54203925295 0.64594147303 -0.04592321713 -1.54202279977 0.46734300668 -0.04718801129 -1.54201044485 0.28278806871 -0.04803122459 -1.54200219220 0.09465924767 -0.04845285539 -1.54199804585 -0.09466086787 -0.04845290205 -1.54199800985 -0.28278968935 -0.04803136293 -1.54200208822 -0.46734462822 -0.04718823639 -1.54201028499 -0.64594309592 -0.04592352079 -1.54202260420 -0.81620250389 -0.04423721449 -1.54203904987 0.73901480371 -0.04920722469 -1.54201210051 0.59140806061 -0.05155005347 -1.54200450440 0.43133710623 -0.05330718843 -1.54199879260 0.26236314373 -0.05447862788 -1.54199496888 0.08804737624 -0.05506437014 -1.54199303695 -0.08804899309 -0.05506441351 -1.54199300055 -0.26236476114 -0.05447875631 -1.54199486342 -0.43133872475 -0.05330739684 -1.54199862929 -0.59140968079 -0.05155033342 -1.54200430190 -0.73901642613 -0.04920756436 -1.54201188499 0.64160506999 -0.05327914692 -1.54200583701 0.52269331620 -0.05650087206 -1.54200142532 0.38603106505 -0.05891717833 -1.54199810240 0.23668988712 -0.06052806400 -1.54199587175 0.07974135299 -0.06133352733 -1.54199473684 -0.07974296674 -0.06133356658 -1.54199470116 -0.23669150149 -0.06052818000 -1.54199576820 -0.38603268068 -0.05891736584 -1.54199794145 -0.52269493372 -0.05650112238 -1.54200122438 -0.64160669003 -0.05327944787 -1.54200562048 </DataArray>
</Points>
</Piece>
</StructuredGrid>
</VTKFile>
