<?xml version="1.0"?>
<VTKFile type="StructuredGrid" version="0.1">
<StructuredGrid WholeExtent="0 9 0 9 0 9">
<Piece Extent="0 9 0 9 0 9">
<PointData>
<DataArray type="Float32" Name="Deformation" format="ascii" NumberOfComponents="3">
-0.00059753174 0.00295662659 0.00647766552 -0.00040346644 0.00341585749 0.00587676991 -0.00025540169 0.00376029190 0.00542611431 -0.00014019421 0.00398992798 0.00512569653 -0.00004470074 0.00410476387 0.00497551437 0.00004422197 0.00410479773 0.00497556565 0.00013971720 0.00399002773 0.00512584816 0.00025492820 0.00376045202 0.00542635972 0.00040299823 0.00341606876 0.00587709812 0.00059707057 0.00295687610 0.00647806118 -0.00058092024 0.00420170107 0.00445218008 -0.00035939170 0.00405283227 0.00397262305 -0.00020723000 0.00394119083 0.00361296971 -0.00010461592 0.00386677557 0.00337321882 -0.00003173024 0.00382958529 0.00325336916 0.00003124626 0.00382961882 0.00325341948 0.00010413279 0.00386687496 0.00337336856 0.00020674859 0.00394135253 0.00361321515 0.00035891286 0.00405305035 0.00397295802 0.00058044483 0.00420196721 0.00445259593 -0.00051658473 0.00519763523 0.00266038475 -0.00029790818 0.00456773732 0.00227942412 -0.00015718240 0.00409532323 0.00199371675 -0.00007213572 0.00378039228 0.00180326215 -0.00002049648 0.00362294378 0.00170805982 0.00002000698 0.00362297707 0.00170810927 0.00007164632 0.00378049145 0.00180341000 0.00015669321 0.00409548626 0.00199396151 0.00029741930 0.00456796081 0.00227976331 0.00051609626 0.00519791442 0.00266081490 -0.00041491604 0.00593384784 0.00107408245 -0.00022312667 0.00494638189 0.00077224268 -0.00010606783 0.00420579116 0.00054587493 -0.00004238802 0.00371207534 0.00039497926 -0.00001073572 0.00346523415 0.00031955572 0.00001024058 0.00346526726 0.00031960436 0.00004189238 0.00371217438 0.00039512524 0.00010557121 0.00420595521 0.00054611841 0.00022262858 0.00494660944 0.00077258392 0.00041441598 0.00593413677 0.00107452183 -0.00028630500 0.00639975766 -0.00033492392 -0.00013915794 0.00517457518 -0.00057385173 -0.00005469525 0.00425569664 -0.00075303627 -0.00001500724 0.00364312199 -0.00087247711 -0.00000218422 0.00333685119 -0.00093217379 0.00000168350 0.00333688418 -0.00093212589 0.00001450560 0.00364322094 -0.00087233295 0.00005419178 0.00425586141 -0.00075279455 0.00013865172 0.00517480556 -0.00057351023 0.00028579511 0.00640005333 -0.00033447957 -0.00014114243 0.00658478343 -0.00159483145 -0.00005011277 0.00523812643 -0.00178378956 -0.00000387359 0.00422814173 -0.00192549738 0.00001037222 0.00355482945 -0.00201995420 0.00000542177 0.00321818971 -0.00206715934 -0.00000592781 0.00321822263 -0.00206711211 -0.00001087941 0.00355492831 -0.00201981181 0.00000336407 0.00422830688 -0.00192525775 0.00004959976 0.00523835845 -0.00178344923 0.00014062476 0.00658508314 -0.00159438556 0.00001018086 0.00647834394 -0.00273383723 0.00003989807 0.00512284484 -0.00288250126 0.00004558819 0.00410622845 -0.00299398888 0.00003411593 0.00342849495 -0.00306829927 0.00001234600 0.00308964453 -0.00310543158 -0.00001285690 0.00308967737 -0.00310538496 -0.00003462805 0.00342859368 -0.00306815858 -0.00004610274 0.00410639364 -0.00299375159 -0.00004041628 0.00512307744 -0.00288216314 -0.00001070395 0.00647864526 -0.00273339240 0.00015727403 0.00606985792 -0.00378013835 0.00012676379 0.00481453965 -0.00389491727 0.00009288114 0.00387305885 -0.00398099131 0.00005658948 0.00324541572 -0.00403835958 0.00001885219 0.00293161044 -0.00406702113 -0.00001936733 0.00293164321 -0.00406697508 -0.00005710569 0.00324551424 -0.00403822049 -0.00009339950 0.00387322371 -0.00398075645 -0.00012728537 0.00481477181 -0.00389458206 -0.00015779990 0.00607015875 -0.00377969638 0.00028974627 0.00534874414 -0.00476193189 0.00020637363 0.00429902007 -0.00484596804 0.00013719633 0.00351173497 -0.00490898518 0.00007815846 0.00298688898 -0.00495098236 0.00002520410 0.00272448226 -0.00497195865 -0.00002572265 0.00272451493 -0.00497191310 -0.00007867772 0.00298698717 -0.00495084478 -0.00013771702 0.00351189910 -0.00490875274 -0.00020689647 0.00429925088 -0.00484563605 -0.00029027198 0.00534904265 -0.00476149376 0.00039720674 0.00430442136 -0.00570741496 0.00027461679 0.00356209533 -0.00576058404 0.00017772479 0.00300535885 -0.00580045100 0.00009918845 0.00263421198 -0.00582701489 0.00003166548 0.00244865478 -0.00584027477 -0.00003218642 0.00244868732 -0.00584022968 -0.00009970953 0.00263430965 -0.00582687869 -0.00017824615 0.00300552184 -0.00580022085 -0.00027513857 0.00356232394 -0.00576025520 -0.00039772907 0.00430471603 -0.00570698081 -0.00059759097 0.00535468497 0.00472782674 -0.00037427059 0.00544737315 0.00436980493 -0.00021888330 0.00551690074 0.00410130476 -0.00011201948 0.00556326580 0.00392232387 -0.00003426951 0.00558646641 0.00383285991 0.00003377621 0.00558650063 0.00383291055 0.00011152729 0.00556336653 0.00392247341 0.00021839336 0.00551706218 0.00410154617 0.00037378401 0.00544758566 0.00437012646 0.00059710886 0.00535493502 0.00472821193 -0.00060256193 0.00627256273 0.00324989461 -0.00034902795 0.00598217136 0.00294585634 -0.00018525920 0.00576438829 0.00271784210 -0.00008560839 0.00561921224 0.00256585056 -0.00002442821 0.00554664190 0.00248988038 0.00002392864 0.00554667598 0.00248993024 0.00008510944 0.00561931320 0.00256599880 0.00018476151 0.00576455225 0.00271808473 0.00034853214 0.00598239185 0.00294618670 0.00060206864 0.00627283071 0.00325030337 -0.00055276118 0.00702255516 0.00187261824 -0.00030131707 0.00642294091 0.00161495633 -0.00014637138 0.00597323992 0.00142172301 -0.00006035311 0.00567345138 0.00129291772 -0.00001569124 0.00552357451 0.00122853991 0.00001518522 0.00552360851 0.00122858904 0.00005984727 0.00567355258 0.00129306455 0.00014586593 0.00597340594 0.00142196591 0.00030081218 0.00642316778 0.00161529255 0.00055225705 0.00702283732 0.00187304394 -0.00045993366 0.00759628325 0.00059119158 -0.00023617179 0.00676075439 0.00037333299 -0.00010361839 0.00613411686 0.00020995111 -0.00003621392 0.00571637025 0.00010104596 -0.00000789885 0.00550751413 0.00004661759 0.00000738637 0.00550754808 0.00004666603 0.00003570126 0.00571647168 0.00010119130 0.00010310536 0.00613428451 0.00021019345 0.00023565822 0.00676098614 0.00037367251 0.00045941937 0.00759657617 0.00059162851 -0.00033582430 0.00798536799 -0.00059919142 -0.00015862592 0.00698668438 -0.00078278562 -0.00005839877 0.00623768038 -0.00092046999 -0.00001315112 0.00573835585 -0.00101224409 -0.00000089128 0.00548871063 -0.00105810747 0.00000037248 0.00548874455 -0.00105805969 0.00001263186 0.00573845746 -0.00101210031 0.00005787858 0.00623784921 -0.00092022888 0.00015810434 0.00698691963 -0.00078244496 0.00033530087 0.00798566856 -0.00059874810 -0.00019217805 0.00818143038 -0.00170333684 -0.00007371330 0.00709180346 -0.00185717145 -0.00001211106 0.00627459173 -0.00197253669 0.00000887500 0.00572979521 -0.00204943183 0.00000549123 0.00545741390 -0.00208785618 -0.00000601603 0.00545744780 -0.00208780902 -0.00000940044 0.00572989694 -0.00204928964 0.00001158433 0.00627476131 -0.00197229733 0.00007318464 0.00709204092 -0.00185683137 0.00019164682 0.00818173579 -0.00170289105 -0.00004073985 0.00817609139 -0.00272605072 0.00001353225 0.00706718422 -0.00285359642 0.00003384618 0.00623551217 -0.00294924536 0.00002990416 0.00568107533 -0.00301299666 0.00001140844 0.00540387381 -0.00304484945 -0.00001193876 0.00540390770 -0.00304480287 -0.00003043518 0.00568117708 -0.00301285606 -0.00003437861 0.00623568206 -0.00294900813 -0.00001406679 0.00706742273 -0.00285325823 0.00004020251 0.00817639918 -0.00272560549 0.00010674537 0.00796097202 -0.00367213912 0.00009807692 0.00690389924 -0.00377583248 0.00007807441 0.00611110294 -0.00385359240 0.00004997607 0.00558258324 -0.00390541795 0.00001702009 0.00531834026 -0.00393130818 -0.00001755530 0.00531837411 -0.00393126215 -0.00005051189 0.00558268489 -0.00390527891 -0.00007861148 0.00611127273 -0.00385335754 -0.00009861585 0.00690413773 -0.00377549707 -0.00010728679 0.00796128002 -0.00367169658 0.00023853266 0.00752769326 -0.00454640811 0.00017488686 0.00659302110 -0.00462765155 0.00011917509 0.00589202531 -0.00468857419 0.00006913043 0.00542470595 -0.00472917509 0.00002248596 0.00519106312 -0.00474945326 -0.00002302524 0.00519109689 -0.00474940774 -0.00006967010 0.00542480735 -0.00472903758 -0.00011971553 0.00589219457 -0.00468834179 -0.00017542846 0.00659325863 -0.00462731941 -0.00023907582 0.00752799963 -0.00454596948 0.00034287709 0.00686787608 -0.00535366374 0.00023892825 0.00612562239 -0.00541282557 0.00015574966 0.00556894052 -0.00545718714 0.00008740696 0.00519783047 -0.00548674747 0.00002796579 0.00501229227 -0.00550150561 -0.00002850819 0.00501232592 -0.00550146057 -0.00008794933 0.00519793144 -0.00548661140 -0.00015629200 0.00556910883 -0.00545695712 -0.00023947053 0.00612585812 -0.00541249676 -0.00034341929 0.00686817930 -0.00535322935 -0.00059000528 0.00757457335 0.00314279740 -0.00034977015 0.00740059323 0.00297756658 -0.00019141990 0.00727011993 0.00285365971 -0.00009155878 0.00718315141 0.00277107431 -0.00002679100 0.00713968566 0.00272980794 0.00002627921 0.00713972065 0.00272985813 0.00009104761 0.00718325435 0.00277122242 0.00019090998 0.00727028473 0.00285389835 0.00034926209 0.00740080976 0.00297788346 0.00058949971 0.00757482742 0.00314317529 -0.00061097752 0.00823685106 0.00209461465 -0.00033776982 0.00784017277 0.00193205610 -0.00016768158 0.00754267486 0.00181015166 -0.00007125004 0.00734435596 0.00172889995 -0.00001901243 0.00724521470 0.00168829957 0.00001849401 0.00724524968 0.00168834912 0.00007073204 0.00734445954 0.00172904722 0.00016716442 0.00754284289 0.00181039245 0.00033725393 0.00784039837 0.00193238344 0.00061046332 0.00823712459 0.00209501878 -0.00057282117 0.00878864981 0.00105863159 -0.00030033960 0.00820688482 0.00090264625 -0.00013679281 0.00777057114 0.00078567035 -0.00005105656 0.00747970788 0.00070770329 -0.00001200658 0.00733429419 0.00066874451 0.00001148137 0.00733432919 0.00066879343 0.00005053156 0.00747981201 0.00070784949 0.00013626823 0.00777074179 0.00078591210 0.00029981565 0.00820711765 0.00090298070 0.00057229807 0.00878893873 0.00105905471 -0.00048807376 0.00922453653 0.00004464155 -0.00024302056 0.00849631885 -0.00010167766 -0.00010045597 0.00795016508 -0.00021140504 -0.00003109753 0.00758607473 -0.00028454056 -0.00000566277 0.00740404731 -0.00032108418 0.00000513077 0.00740408234 -0.00032103587 0.00003056554 0.00758617932 -0.00028439560 0.00009992400 0.00795033777 -0.00021116332 0.00024248861 0.00849655721 -0.00010133901 0.00048754184 0.00922483713 0.00004507738 -0.00036927286 0.00953907814 -0.00093756214 -0.00017135382 0.00870406430 -0.00107193035 -0.00006037344 0.00807781302 -0.00117269528 -0.00001149213 0.00766032406 -0.00123985646 0.00000012970 0.00745159722 -0.00127341343 -0.00000066834 0.00745163227 -0.00127336572 0.00001095333 0.00766042901 -0.00123971288 0.00005983430 0.00807798720 -0.00117245444 0.00017081418 0.00870430664 -0.00107158993 0.00036873255 0.00953938711 -0.00093711890 -0.00022895601 0.00972684154 -0.00187818614 -0.00009088045 0.00882571063 -0.00199912654 -0.00001824759 0.00814987127 -0.00208982118 0.00000764044 0.00769932344 -0.00215026930 0.00000548151 0.00747406708 -0.00218047017 -0.00000602650 0.00747410215 -0.00218042305 -0.00000818571 0.00769942862 -0.00215012720 0.00001770173 0.00815004643 -0.00208958187 0.00009033371 0.00882595556 -0.00199878632 0.00022840809 0.00972715594 -0.00187773982 -0.00007966077 0.00978239366 -0.00276743712 -0.00000714156 0.00885684727 -0.00287428094 0.00002421919 0.00816269618 -0.00295440352 0.00002618098 0.00769994042 -0.00300780395 0.00001050334 0.00746858005 -0.00303448135 -0.00001105423 0.00746861513 -0.00303443479 -0.00002673223 0.00770004570 -0.00300766339 -0.00002477113 0.00816287183 -0.00295416624 0.00000658856 0.00885709356 -0.00287394243 0.00007910636 0.00978271094 -0.00276699107 0.00006607532 0.00970030140 -0.00359552175 0.00007432177 0.00879306369 -0.00368840825 0.00006532453 0.00811264405 -0.00375806309 0.00004401032 0.00765904256 -0.00380448529 0.00001530588 0.00743225930 -0.00382767388 -0.00001586209 0.00743229435 -0.00382762787 -0.00004456685 0.00765914781 -0.00380434629 -0.00006588170 0.00811281974 -0.00375782816 -0.00007487990 0.00879331025 -0.00368807250 -0.00006663473 0.00970061940 -0.00359507834 0.00019571470 0.00947513169 -0.00435264669 0.00014796844 0.00862994934 -0.00443252318 0.00010336605 0.00799607122 -0.00449242069 0.00006100927 0.00757349742 -0.00453233819 0.00001999981 0.00736222798 -0.00455227470 -0.00002056060 0.00736226298 -0.00455222921 -0.00006157024 0.00757360247 -0.00453220073 -0.00010392738 0.00799624654 -0.00449218826 -0.00014853031 0.00863019523 -0.00443219079 -0.00019627729 0.00947544862 -0.00435220733 0.00029671982 0.00910145144 -0.00502901861 0.00020825735 0.00836309366 -0.00509764046 0.00013664137 0.00780933402 -0.00514909710 0.00007705862 0.00744017255 -0.00518338753 0.00002469581 0.00725560926 -0.00520051075 -0.00002526031 0.00725564415 -0.00520046576 -0.00007762302 0.00744027725 -0.00518325156 -0.00013720559 0.00780950857 -0.00514886716 -0.00020882130 0.00836333811 -0.00509731154 -0.00029728341 0.00910176589 -0.00502858372 -0.00057464130 0.00957886897 0.00171449324 -0.00032837340 0.00922565608 0.00169932719 -0.00017107733 0.00896075860 0.00168796892 -0.00007733252 0.00878417443 0.00168041591 -0.00002171843 0.00869590145 0.00167666565 0.00002118551 0.00869593755 0.00167671560 0.00007679985 0.00878428062 0.00168056324 0.00017054514 0.00896092853 0.00168820606 0.00032784194 0.00922587917 0.00169964151 0.00057411082 0.00957913043 0.00171486709 -0.00060688957 0.01004823750 0.00099939890 -0.00032509772 0.00957848216 0.00094908135 -0.00015354649 0.00922617685 0.00091135766 -0.00006073853 0.00899132014 0.00088622643 -0.00001517649 0.00887391059 0.00087368622 0.00001463699 0.00887394676 0.00087373561 0.00006019928 0.00899142722 0.00088637320 0.00015300773 0.00922635051 0.00091159755 0.00032455970 0.00957871522 0.00094940724 0.00060635254 0.01004851990 0.00099980086 -0.00057791600 0.01044492215 0.00024287939 -0.00029510501 0.00987391572 0.00016970969 -0.00012812849 0.00944567131 0.00011484549 -0.00004389083 0.00916018804 0.00007828620 -0.00000929647 0.00901746497 0.00006003126 0.00000875021 0.00901750121 0.00006008009 0.00004334477 0.00916029584 0.00007843212 0.00012758282 0.00944584796 0.00011508679 0.00029455994 0.00987415665 0.00017004351 0.00057737171 0.01044522100 0.00024330171 -0.00050058915 0.01076673542 -0.00053743475 -0.00024411703 0.01011123988 -0.00062343852 -0.00009661358 0.00961962808 -0.00068792937 -0.00002694488 0.00929189949 -0.00073090723 -0.00000397701 0.00912805360 -0.00075237207 0.00000342396 0.00912808990 -0.00075232381 0.00002639194 0.00929200788 -0.00073076241 0.00009606087 0.00961980701 -0.00068768780 0.00024356467 0.01011148679 -0.00062309993 0.00050003725 0.01076704669 -0.00053699875 -0.00038777759 0.01101148978 -0.00132391296 -0.00017785551 0.01028973778 -0.00141501403 -0.00006079204 0.00974843323 -0.00148332866 -0.00001005615 0.00938757588 -0.00152885634 0.00000088320 0.00920716550 -0.00155159660 -0.00000144296 0.00920720185 -0.00155154891 0.00000949641 0.00938768470 -0.00152871280 0.00006023234 0.00974861383 -0.00148308777 0.00017729588 0.01028998898 -0.00141467332 0.00038721805 0.01101180993 -0.00132346895 -0.00025234990 0.01117699771 -0.00209892467 -0.00010204218 0.01040869256 -0.00218966757 -0.00002245411 0.00983247287 -0.00225771414 0.00000661992 0.00944833858 -0.00230306360 0.00000538551 0.00925628966 -0.00232571516 -0.00000595174 0.00925632605 -0.00232566805 -0.00000718621 0.00944844770 -0.00230292149 0.00002188769 0.00983265455 -0.00225747469 0.00010147557 0.01040894656 -0.00218932688 0.00025178304 0.01117732367 -0.00209847727 -0.00010717465 0.01126107170 -0.00284483934 -0.00002239880 0.01046738733 -0.00293204988 0.00001660993 0.00987213308 -0.00299744757 0.00002292784 0.00947530899 -0.00304103146 0.00000963123 0.00927691512 -0.00306280061 -0.00001020358 0.00927695152 -0.00306275406 -0.00002350030 0.00947541824 -0.00304089089 -0.00001718263 0.00987231534 -0.00299721014 0.00002182575 0.01046764286 -0.00293171086 0.00010660112 0.01126140085 -0.00284439212 0.00003487960 0.01126152422 -0.00354402641 0.00005535290 0.01046510523 -0.00362681171 0.00005460982 0.00986779996 -0.00368889071 0.00003871216 0.00946960847 -0.00373026240 0.00001372172 0.00927053088 -0.00375092577 -0.00001429968 0.00927056727 -0.00375087977 -0.00003929024 0.00946971772 -0.00373012341 -0.00005518815 0.00986798234 -0.00368865566 -0.00005593160 0.01046536121 -0.00362647550 -0.00003545880 0.01126185443 -0.00354358192 0.00016094428 0.01117616775 -0.00417885533 0.00012549119 0.01040112940 -0.00425860378 0.00008975530 0.00981985959 -0.00431840532 0.00005381741 0.00943235841 -0.00435825889 0.00001775830 0.00923862595 -0.00437816347 -0.00001834124 0.00923866229 -0.00437811802 -0.00005440041 0.00943246751 -0.00435812149 -0.00009033842 0.00982004171 -0.00431817284 -0.00012607448 0.01040138497 -0.00425827104 -0.00016152780 0.01117649736 -0.00417841505 0.00025815081 0.01100281479 -0.00473169555 0.00018229432 0.01027474296 -0.00481207685 0.00012025611 0.00972869808 -0.00487235315 0.00006808813 0.00936468019 -0.00491252340 0.00002184230 0.00918268935 -0.00493258657 -0.00002242945 0.00918272560 -0.00493254163 -0.00006867519 0.00936478900 -0.00491238753 -0.00012084298 0.00972887960 -0.00487212324 -0.00018288088 0.01027499745 -0.00481174772 -0.00025873698 0.01100314260 -0.00473125994 -0.00055136566 0.01133014907 0.00043483005 -0.00030848865 0.01087270003 0.00053435909 -0.00015592140 0.01052962589 0.00060902216 -0.00006786111 0.01030092447 0.00065881672 -0.00001850502 0.01018659359 0.00068374023 0.00001794966 0.01018663108 0.00068379015 0.00006730571 0.01030103476 0.00065896394 0.00015536591 0.01052980245 0.00060925907 0.00030793305 0.01087293199 0.00053467300 0.00055080990 0.01133042118 0.00043520318 -0.00059102063 0.01166039349 -0.00002269393 -0.00031049203 0.01114874520 0.00001479110 -0.00014190327 0.01076502059 0.00004291934 -0.00005327153 0.01050921817 0.00006168938 -0.00001261397 0.01038133649 0.00007109980 0.00001205222 0.01038137408 0.00007114919 0.00005270988 0.01050932946 0.00006183615 0.00014134184 0.01076520116 0.00004315926 0.00030993092 0.01114898772 0.00001511711 0.00059045994 0.01166068767 -0.00002229171 -0.00056919697 0.01194037513 -0.00055018377 -0.00028574257 0.01137838024 -0.00055663755 -0.00012006020 0.01095689486 -0.00056146485 -0.00003850068 0.01067591809 -0.00056466622 -0.00000741484 0.01053544900 -0.00056624222 0.00000684650 0.01053548666 -0.00056619337 0.00003793251 0.01067603017 -0.00056452024 0.00011949238 0.01095707859 -0.00056122335 0.00028517528 0.01137863101 -0.00055630327 0.00056863037 0.01194068650 -0.00054976052 -0.00049873260 0.01217100763 -0.00112690441 -0.00023990521 0.01156368207 -0.00116259884 -0.00009212421 0.01110819810 -0.00118935773 -0.00002366204 0.01080455521 -0.00120718100 -0.00000279113 0.01065275289 -0.00121606854 0.00000221610 0.01065279063 -0.00121602026 0.00002308719 0.01080466791 -0.00120703607 0.00009154973 0.01110838422 -0.00118911588 0.00023933128 0.01156393905 -0.00116225958 0.00049815941 0.01217133188 -0.00112646708 -0.00039246542 0.01235320460 -0.00173212075 -0.00017864486 0.01170672763 -0.00178576475 -0.00005982732 0.01122187969 -0.00182598663 -0.00000886905 0.01089866055 -0.00185278586 0.00000137369 0.01073706998 -0.00186616189 -0.00000195537 0.01073710777 -0.00186611419 0.00000828752 0.01089877369 -0.00185264222 0.00005924609 0.01122206751 -0.00182574542 0.00017806410 0.01170698902 -0.00178542327 0.00039188526 0.01235353799 -0.00173167523 -0.00026323333 0.01248787967 -0.00234509774 -0.00010762645 0.01180959387 -0.00240880726 -0.00002490154 0.01130088902 -0.00245657886 0.00000576483 0.01096176509 -0.00248841172 0.00000519610 0.01079222206 -0.00250430500 -0.00000578429 0.01079225988 -0.00250425788 -0.00000635292 0.01096187852 -0.00248826953 0.00002431366 0.01130107794 -0.00245633912 0.00010703887 0.01180985813 -0.00240846581 0.00026264616 0.01248821903 -0.00234464879 -0.00012387425 0.01257594647 -0.00294510028 -0.00003251490 0.01187435770 -0.00301439834 0.00001092111 0.01134817547 -0.00306636174 0.00002012615 0.01099739985 -0.00310098949 0.00000879264 0.01082203091 -0.00311828059 -0.00000938705 0.01082206874 -0.00311823404 -0.00002072053 0.01099751341 -0.00310084887 -0.00001151538 0.01134836499 -0.00306612407 0.00003192076 0.01187462356 -0.00301405865 0.00012328031 0.01257628919 -0.00294465162 0.00001277392 0.01261831862 -0.00351139331 0.00004102488 0.01190309607 -0.00358520999 0.00004590860 0.01136668842 -0.00364056260 0.00003410146 0.01100909581 -0.00367745009 0.00001227979 0.01083031835 -0.00369587138 -0.00001288005 0.01083035616 -0.00369582540 -0.00003470171 0.01100920938 -0.00367731110 -0.00004650883 0.01136687811 -0.00364032740 -0.00004162507 0.01190336250 -0.00358487323 -0.00001337407 0.01261866265 -0.00351094754 0.00013387327 0.01261590974 -0.00402324175 0.00010732794 0.01189788590 -0.00410391417 0.00007832893 0.01135937727 -0.00416440876 0.00004757729 0.01100038398 -0.00420472443 0.00001577407 0.01082090616 -0.00422486009 -0.00001637966 0.01082094393 -0.00422481467 -0.00004818287 0.01100049743 -0.00420458707 -0.00007893449 0.01135956679 -0.00416417621 -0.00010793347 0.01189815214 -0.00410358102 -0.00013447876 0.01261625360 -0.00402280039 0.00022658590 0.01256963346 -0.00445991053 0.00016072939 0.01186080414 -0.00455318288 0.00010645007 0.01132919140 -0.00462312754 0.00006044020 0.01097479536 -0.00466974343 0.00001939200 0.01079761614 -0.00469302946 -0.00002000228 0.01079765384 -0.00469298457 -0.00006105042 0.01097490859 -0.00466960765 -0.00010706016 0.01132938050 -0.00462289764 -0.00016133928 0.01186106968 -0.00455285345 -0.00022719554 0.01256997625 -0.00445947400 -0.00052004498 0.01279099090 -0.00070427643 -0.00028852419 0.01229186346 -0.00051806536 -0.00014401794 0.01191753094 -0.00037839078 -0.00006166497 0.01166799115 -0.00028525520 -0.00001660401 0.01154324189 -0.00023866111 0.00001602618 0.01154328098 -0.00023861102 0.00006108689 0.01166810621 -0.00028510742 0.00014343937 0.01191771538 -0.00037815282 0.00028794487 0.01229210631 -0.00051774972 0.00051946468 0.01279127679 -0.00070390061 -0.00056409325 0.01302699047 -0.00095860515 -0.00029343316 0.01250260757 -0.00085295562 -0.00013180127 0.01210933239 -0.00077370404 -0.00004804667 0.01184716345 -0.00072085178 -0.00001101845 0.01171609930 -0.00069440020 0.00001043432 0.01171613847 -0.00069435066 0.00004746255 0.01184727948 -0.00072070454 0.00013121716 0.01210952088 -0.00077346319 0.00029284907 0.01250286119 -0.00085262797 0.00056350919 0.01302729894 -0.00095820027 -0.00054781540 0.01322401170 -0.00129610330 -0.00027238154 0.01267462503 -0.00124917965 -0.00011226976 0.01226259620 -0.00121397394 -0.00003453086 0.01198792429 -0.00119048665 -0.00000621567 0.01185060841 -0.00117871828 0.00000562502 0.01185064764 -0.00117866933 0.00003394038 0.01198804108 -0.00119034028 0.00011167961 0.01226278783 -0.00121373162 0.00027179190 0.01267488697 -0.00124884386 0.00054722644 0.01322433761 -0.00129567749 -0.00048375691 0.01338548088 -0.00169563451 -0.00023082914 0.01281181001 -0.00168980785 -0.00008702086 0.01238156742 -0.00168542599 -0.00002115504 0.01209475260 -0.00168248878 -0.00000205464 0.01195136508 -0.00168099606 0.00000145736 0.01195140437 -0.00168094770 0.00002055801 0.01209486997 -0.00168234355 0.00008642434 0.01238176138 -0.00168518344 0.00023023338 0.01281207814 -0.00168946724 0.00048316215 0.01338581973 -0.00169519481 -0.00038446325 0.01351482429 -0.00213606242 -0.00017423576 0.01291805667 -0.00215791061 -0.00005765206 0.01247049108 -0.00217428571 -0.00000795672 0.01217212733 -0.00218518712 0.00000160564 0.01202296521 -0.00219061425 -0.00000220957 0.01202300453 -0.00219056649 0.00000735307 0.01217224509 -0.00218504326 0.00005704895 0.01247068669 -0.00217404395 0.00017363348 0.01291832915 -0.00215756797 0.00038386207 0.01351517225 -0.00213561474 -0.00026247990 0.01361546821 -0.00259625065 -0.00010806121 0.01299725918 -0.00263655833 -0.00002576080 0.01253361225 -0.00266677862 0.00000502658 0.01222452741 -0.00268691065 0.00000490620 0.01207000466 -0.00269695353 -0.00000551669 0.01207004400 -0.00269690638 -0.00000563682 0.01222464541 -0.00268676832 0.00002515107 0.01253380891 -0.00266653846 0.00010745223 0.01299753447 -0.00263621591 0.00026187192 0.01361582210 -0.00259579980 -0.00013035233 0.01369083894 -0.00305506284 -0.00003776527 0.01305331170 -0.00310882140 0.00000705545 0.01257517594 -0.00314913024 0.00001775737 0.01225643178 -0.00317598834 0.00000798807 0.01209707931 -0.00318939463 -0.00000860492 0.01209711865 -0.00318934808 -0.00001837403 0.01225654990 -0.00317584764 -0.00000767171 0.01257537318 -0.00314889227 0.00003714960 0.01305358859 -0.00310848091 0.00012973745 0.01369119623 -0.00305461253 -0.00000062601 0.01374436276 -0.00349136263 0.00003119224 0.01309010840 -0.00355777021 0.00003919921 0.01259942722 -0.00360756609 0.00003019813 0.01227231938 -0.00364074914 0.00001099225 0.01210878504 -0.00365731824 -0.00001161518 0.01210882436 -0.00365727228 -0.00003082093 0.01227243751 -0.00364061014 -0.00003982175 0.01259962466 -0.00360733070 -0.00003181439 0.01309038596 -0.00355743284 0.00000000437 0.01374472158 -0.00349091545 0.00011415359 0.01377946595 -0.00388401365 0.00009335153 0.01311154345 -0.00396647518 0.00006907302 0.01261061112 -0.00402831168 0.00004231135 0.01227666915 -0.00406952202 0.00001405978 0.01210971772 -0.00409010506 -0.00001468839 0.01210975701 -0.00409005967 -0.00004293989 0.01227678720 -0.00406938471 -0.00006970144 0.01261080849 -0.00402807905 -0.00009397976 0.01311182105 -0.00396614155 -0.00011478156 0.01377982507 -0.00388357107 0.00020144098 0.01379957480 -0.00421187953 0.00014325279 0.01312151101 -0.00431800668 0.00009507943 0.01261297269 -0.00439759253 0.00005405951 0.01227396004 -0.00445063595 0.00001733168 0.01210447323 -0.00447713580 -0.00001796547 0.01210451247 -0.00447709096 -0.00005469329 0.01227407794 -0.00445050028 -0.00009571318 0.01261316983 -0.00439736264 -0.00014388650 0.01312178835 -0.00431767690 -0.00020207463 0.01379993367 -0.00421144193 -0.00048054590 0.01392397170 -0.00171091042 -0.00026688831 0.01343328469 -0.00145867382 -0.00013343278 0.01306528287 -0.00126948015 -0.00005726449 0.01281996408 -0.00114333180 -0.00001546862 0.01269732618 -0.00108023118 0.00001486964 0.01269736700 -0.00108018071 0.00005666510 0.01282008439 -0.00114318279 0.00013283258 0.01306547619 -0.00126923983 0.00026628689 0.01343354024 -0.00145835425 0.00047994285 0.01392427440 -0.00171052844 -0.00052682999 0.01410169989 -0.00179527606 -0.00027340150 0.01359171493 -0.00163629981 -0.00012228984 0.01320923857 -0.00151705324 -0.00004426163 0.01295426938 -0.00143753764 -0.00001008350 0.01282680592 -0.00139775429 0.00000947791 0.01282684678 -0.00139770447 0.00004365599 0.01295439053 -0.00143738946 0.00012168411 0.01320943572 -0.00151681054 0.00027279563 0.01359198095 -0.00163596900 0.00052622394 0.01410202477 -0.00179486611 -0.00051492258 0.01424483482 -0.00197042461 -0.00025515116 0.01371699676 -0.00188070082 -0.00010443894 0.01332112974 -0.00181339506 -0.00003162612 0.01305723289 -0.00176850775 -0.00000555289 0.01292530535 -0.00174603931 0.00000494054 0.01292534624 -0.00174599014 0.00003101398 0.01305735469 -0.00176836068 0.00010382722 0.01332132982 -0.00181315133 0.00025454006 0.01371727078 -0.00188036252 0.00051431230 0.01424517668 -0.00196999467 -0.00045691486 0.01435828290 -0.00221549216 -0.00021733285 0.01381378831 -0.00217571481 -0.00008133653 0.01340542828 -0.00214586999 -0.00001932994 0.01313320235 -0.00212595750 -0.00000171711 0.01299711007 -0.00211597711 0.00000109792 0.01299715098 -0.00211592861 0.00001871112 0.01313332461 -0.00212581177 0.00008071844 0.01340563051 -0.00214562639 0.00021671585 0.01381406822 -0.00217537224 0.00045629932 0.01435863727 -0.00221504912 -0.00036489801 0.01444695053 -0.00250961483 -0.00016514209 0.01388674771 -0.00250517972 -0.00005443901 0.01346660608 -0.00250184242 -0.00000734505 0.01318652547 -0.00249960226 0.00000158353 0.01304650571 -0.00249845859 -0.00000220954 0.01304654662 -0.00249841074 0.00000671947 0.01318664804 -0.00249945806 0.00005381431 0.01346680980 -0.00250159990 0.00016451869 0.01388703173 -0.00250483558 0.00036427637 0.01444731366 -0.00250916446 -0.00025096321 0.01451574412 -0.00283192871 -0.00010377441 0.01394053312 -0.00285293351 -0.00002520281 0.01350913506 -0.00286867672 0.00000435656 0.01322154997 -0.00287915740 0.00000450869 0.01307777788 -0.00288437462 -0.00000514146 0.01307781879 -0.00288432742 -0.00000498889 0.01322167273 -0.00287901487 0.00002457135 0.01350933973 -0.00286843603 0.00010314427 0.01394081980 -0.00285258995 0.00025033482 0.01451611295 -0.00283147570 -0.00012720164 0.01456957008 -0.00316156992 -0.00003842535 0.01397980265 -0.00320281412 0.00000491565 0.01353748711 -0.00323373729 0.00001580293 0.01324262358 -0.00325433831 0.00000721805 0.01309521220 -0.00326461609 -0.00000785742 0.01309525310 -0.00326456953 -0.00001644193 0.01324274643 -0.00325419753 -0.00000555389 0.01353769231 -0.00323349898 0.00003778825 0.01398009088 -0.00320247278 0.00012656606 0.01456994228 -0.00316111784 -0.00000570448 0.01461333479 -0.00347767456 0.00002570955 0.01400921445 -0.00353865951 0.00003445995 0.01355613412 -0.00358438850 0.00002702207 0.01325409400 -0.00361486035 0.00000987128 0.01310309428 -0.00363007389 -0.00001051705 0.01310313517 -0.00363002794 -0.00002766756 0.01325421686 -0.00361472134 -0.00003510489 0.01355633956 -0.00358415292 -0.00002635368 0.01400950346 -0.00353832149 0.00000506145 0.01461370876 -0.00347722589 0.00010143710 0.01465194468 -0.00375937874 0.00008343477 0.01403342666 -0.00384430763 0.00006197366 0.01356954801 -0.00390799474 0.00003804201 0.01326030896 -0.00395043889 0.00001262807 0.01310570975 -0.00397163889 -0.00001327993 0.01310575062 -0.00397159354 -0.00003869374 0.01326043179 -0.00395030165 -0.00006262512 0.01356975351 -0.00390776203 -0.00008408583 0.01403371600 -0.00384397349 -0.00010208762 0.01465231951 -0.00375893485 0.00018213190 0.01469030614 -0.00398581855 0.00012955476 0.01405709741 -0.00410359642 0.00008600037 0.01358220067 -0.00419192040 0.00004889079 0.01326561619 -0.00425078932 0.00001564808 0.01310734423 -0.00428020198 -0.00001630567 0.01310738506 -0.00428015719 -0.00004954840 0.01326573895 -0.00425065376 -0.00008665804 0.01358240617 -0.00419169050 -0.00013021253 0.01405738698 -0.00410326622 -0.00018278978 0.01469068166 -0.00398537973 -0.00043273503 0.01469166873 -0.00259315616 -0.00024198932 0.01424710208 -0.00228819397 -0.00012223175 0.01391369082 -0.00205945616 -0.00005318009 0.01369143289 -0.00190694501 -0.00001455207 0.01358032626 -0.00183066278 0.00001393455 0.01358036888 -0.00183061172 0.00005256203 0.01369155872 -0.00190679410 0.00012161262 0.01391389374 -0.00205921218 0.00024136857 0.01424737189 -0.00228786822 0.00043211213 0.01469199113 -0.00259276448 -0.00047995340 0.01483819318 -0.00251964797 -0.00024987745 0.01436771296 -0.00231738245 -0.00011241831 0.01401486546 -0.00216566900 -0.00004111405 0.01377964934 -0.00206450880 -0.00000950272 0.01366206326 -0.00201390299 0.00000887762 0.01366210586 -0.00201385274 0.00004048891 0.01377977580 -0.00206435921 0.00011179308 0.01401507174 -0.00216542357 0.00024925208 0.01436799231 -0.00231704697 0.00047932784 0.01483853618 -0.00251923058 -0.00047166982 0.01495184744 -0.00254869310 -0.00023418070 0.01445984206 -0.00242398524 -0.00009624956 0.01409084991 -0.00233044150 -0.00002943121 0.01384487015 -0.00226806220 -0.00000528047 0.01372190197 -0.00223684765 0.00000464784 0.01372194455 -0.00223679819 0.00002879889 0.01384499707 -0.00226791413 0.00009561788 0.01409105871 -0.00233019579 0.00023354997 0.01446012866 -0.00242364349 0.00047104036 0.01495220610 -0.00254825755 -0.00041945925 0.01503754141 -0.00265834445 -0.00019986036 0.01452778155 -0.00259096895 -0.00007510420 0.01414547295 -0.00254042560 -0.00001809277 0.01389061515 -0.00250671410 -0.00000172805 0.01376320775 -0.00248983415 0.00000108795 0.01376325031 -0.00248978545 0.00001745323 0.01389074240 -0.00250656770 0.00007446578 0.01414568359 -0.00254018061 0.00019922362 0.01452807345 -0.00259062388 0.00041882474 0.01503791155 -0.00265789721 -0.00033489661 0.01510018502 -0.00282665487 -0.00015187771 0.01457582358 -0.00280130018 -0.00005036095 0.01418256337 -0.00278227326 -0.00000705991 0.01392040423 -0.00276957339 0.00000131183 0.01378934601 -0.00276319984 -0.00000195929 0.01378938855 -0.00276315187 0.00000641314 0.01392053169 -0.00276942877 0.00004971556 0.01418277528 -0.00278202981 0.00015123438 0.01457611916 -0.00280095425 0.00033425604 0.01510056318 -0.00282620138 -0.00022955686 0.01514468819 -0.00303167723 -0.00009519401 0.01460826030 -0.00303794553 -0.00002339850 0.01420594998 -0.00304263644 0.00000370616 0.01393775724 -0.00304574896 0.00000399646 0.01380368211 -0.00304728210 -0.00000465114 0.01380372463 -0.00304723485 -0.00000436013 0.01393788482 -0.00304560620 0.00002274596 0.01420616270 -0.00304239516 0.00009454362 0.01460855830 -0.00303760072 0.00022890933 0.01514507165 -0.00303122187 -0.00011501494 0.01517596084 -0.00325146441 -0.00003477056 0.01462938387 -0.00328387160 0.00000440444 0.01421946155 -0.00330816709 0.00001424426 0.01394619404 -0.00332434971 0.00000648310 0.01380958146 -0.00333241831 -0.00000714483 0.01380962396 -0.00333237174 -0.00001490534 0.01394632168 -0.00332420883 -0.00000506423 0.01421967477 -0.00330792843 0.00003411270 0.01462968337 -0.00328352937 0.00011435965 0.01517634761 -0.00325101050 -0.00000284577 0.01519891288 -0.00346406928 0.00002443137 0.01464348643 -0.00352204500 0.00003166915 0.01422692690 -0.00356551716 0.00002459318 0.01394923449 -0.00359448452 0.00000892905 0.01381040942 -0.00360894585 -0.00000959764 0.01381045191 -0.00360889993 -0.00002526127 0.01394936217 -0.00359434552 -0.00003233627 0.01422714041 -0.00356528139 -0.00002509702 0.01464378686 -0.00352170633 0.00000218208 0.01519930173 -0.00346361909 0.00009537570 0.01521845424 -0.00364754471 0.00007745049 0.01465486015 -0.00373543234 0.00005701693 0.01423217480 -0.00380133861 0.00003479173 0.01395039845 -0.00384526228 0.00001149158 0.01380953138 -0.00386720208 -0.00001216679 0.01380957386 -0.00386715677 -0.00003546668 0.01395052616 -0.00384512511 -0.00005769137 0.01423238854 -0.00380110583 -0.00007812416 0.01465516129 -0.00373509770 -0.00009604834 0.01521884466 -0.00364709945 0.00016807452 0.01523949484 -0.00377994357 0.00011932554 0.01466779717 -0.00390700022 0.00007906908 0.01423903405 -0.00400228341 0.00004487871 0.01395320579 -0.00406579188 0.00001432798 0.01381031273 -0.00409752438 -0.00001500955 0.01381035521 -0.00409747965 -0.00004556033 0.01395333355 -0.00406565645 -0.00007975079 0.01423924808 -0.00400205351 -0.00012000738 0.01466809914 -0.00390666958 -0.00016875655 0.01523988705 -0.00377950340 -0.00037647901 0.01505665922 -0.00335909789 -0.00021223549 0.01468345399 -0.00300735344 -0.00010848068 0.01440356392 -0.00274352905 -0.00004793217 0.01421698718 -0.00256762679 -0.00001330758 0.01412372195 -0.00247964871 0.00001267547 0.01412376638 -0.00247959686 0.00004729939 0.01421711864 -0.00256747330 0.00010784656 0.01440377691 -0.00274328007 0.00021159937 0.01468373935 -0.00300701925 0.00037584022 0.01505700412 -0.00335869288 -0.00042418603 0.01519014179 -0.00311866216 -0.00022234141 0.01478224732 -0.00287834452 -0.00010123605 0.01447633938 -0.00269809208 -0.00003780159 0.01427241675 -0.00257790584 -0.00000896967 0.01417047822 -0.00251778681 0.00000832808 0.01417052256 -0.00251773600 0.00003716001 0.01427254855 -0.00257775441 0.00010059449 0.01447655497 -0.00269784304 0.00022169988 0.01478254060 -0.00287800289 0.00042354455 0.01519050423 -0.00311823497 -0.00041920842 0.01529405251 -0.00300645420 -0.00020959942 0.01485750760 -0.00285181711 -0.00008738340 0.01453011111 -0.00273582652 -0.00002759088 0.01431186230 -0.00265848265 -0.00000525236 0.01420276040 -0.00261978570 0.00000460168 0.01420280466 -0.00261973585 0.00002694073 0.01431199433 -0.00265833332 0.00008673430 0.01453032865 -0.00273557830 0.00020895188 0.01485780686 -0.00285147100 0.00041856299 0.01529442822 -0.00300601161 -0.00037264285 0.01537138414 -0.00299605847 -0.00017885572 0.01491195435 -0.00290621952 -0.00006835689 0.01456739368 -0.00283882866 -0.00001734958 0.01433770171 -0.00279388550 -0.00000203701 0.01422287803 -0.00277138964 0.00000137761 0.01422292223 -0.00277134070 0.00001669106 0.01433783389 -0.00279373828 0.00006770012 0.01456761262 -0.00283858200 0.00017820159 0.01491225798 -0.00290587146 0.00037199223 0.01537176958 -0.00299560628 -0.00029558598 0.01542512944 -0.00306105942 -0.00013495650 0.01494830709 -0.00302000008 -0.00004559063 0.01459070162 -0.00298919475 -0.00000712718 0.01435231286 -0.00296864263 0.00000079503 0.01423314064 -0.00295834292 -0.00000146281 0.01423318479 -0.00295829482 0.00000646048 0.01435244515 -0.00296849753 0.00004492609 0.01459092154 -0.00298895024 0.00013429520 0.01494861380 -0.00301965216 0.00029492898 0.01542552176 -0.00306060249 -0.00019913447 0.01545828120 -0.00317504152 -0.00008274798 0.01496928536 -0.00317160711 -0.00002051879 0.01460254950 -0.00316902106 0.00000302678 0.01435807365 -0.00316728233 0.00000336240 0.01423585778 -0.00316638983 -0.00000403826 0.01423590190 -0.00316634252 -0.00000370151 0.01435820601 -0.00316713931 0.00001984633 0.01460277011 -0.00316877916 0.00008207891 0.01496959419 -0.00317126098 0.00019846993 0.01545867825 -0.00317458373 -0.00009438498 0.01547383219 -0.00331158922 -0.00002707633 0.01497760867 -0.00333948891 0.00000542452 0.01460545188 -0.00336040386 0.00001306280 0.01435736195 -0.00337433284 0.00000578374 0.01423333898 -0.00338127465 -0.00000646740 0.01423338308 -0.00338122807 -0.00001374541 0.01435749438 -0.00337419188 -0.00000610504 0.01460567297 -0.00336016486 0.00002639894 0.01497791898 -0.00333914581 0.00009371177 0.01547423252 -0.00331113350 0.00000756583 0.01547477518 -0.00344428699 0.00002721224 0.01497599655 -0.00350209382 0.00003080513 0.01460192331 -0.00354543940 0.00002293135 0.01435255565 -0.00357432244 0.00000817772 0.01422789378 -0.00358874166 -0.00000886892 0.01422793789 -0.00358869576 -0.00002362173 0.01435268817 -0.00357418346 -0.00003149387 0.01460214482 -0.00354520348 -0.00002789851 0.01497630804 -0.00350175452 -0.00000824882 0.01547517803 -0.00344383530 0.00009562128 0.01546410293 -0.00354671928 0.00007527153 0.01496716852 -0.00363787016 0.00005418892 0.01459447834 -0.00370622396 0.00003258292 0.01434603265 -0.00375177940 0.00001066296 0.01422183172 -0.00377453514 -0.00001136149 0.01422187584 -0.00377448989 -0.00003328098 0.01434616528 -0.00375164232 -0.00005488605 0.01459470031 -0.00370599113 -0.00007596725 0.01496748121 -0.00363753500 -0.00009631512 0.01546450825 -0.00354627262 0.00015868472 0.01544480822 -0.00359247056 0.00011225535 0.01495384412 -0.00372526623 0.00007414175 0.01458563153 -0.00382485380 0.00004196799 0.01434017081 -0.00389123196 0.00001335812 0.01421746234 -0.00392439938 -0.00001406378 0.01421750650 -0.00392435473 -0.00004267365 0.01434030363 -0.00389109669 -0.00007484743 0.01458585412 -0.00382462393 -0.00011296105 0.01495415834 -0.00372493513 -0.00015939045 0.01544521666 -0.00359202897 -0.00031164446 0.01498152042 -0.00401681985 -0.00017603514 0.01469247874 -0.00361687990 -0.00009024538 0.01447571131 -0.00331690905 -0.00004004115 0.01433121659 -0.00311690908 -0.00001118839 0.01425899307 -0.00301688177 0.00001054694 0.01425903924 -0.00301682892 0.00003939888 0.01433135358 -0.00311675231 0.00008960148 0.01447593458 -0.00331665373 0.00017538879 0.01469278072 -0.00361653497 0.00031099484 0.01498189049 -0.00401639780 -0.00036025045 0.01511121716 -0.00357925995 -0.00019027377 0.01478696369 -0.00330132701 -0.00008779239 0.01454378665 -0.00309286321 -0.00003352190 0.01438168500 -0.00295386936 -0.00000817793 0.01430065770 -0.00288434628 0.00000752391 0.01430070371 -0.00288429477 0.00003286800 0.01438182198 -0.00295371564 0.00008713875 0.01454401147 -0.00309260970 0.00018962052 0.01478727114 -0.00330097776 0.00035959772 0.01511159994 -0.00357882062 -0.00035868970 0.01522045299 -0.00331925331 -0.00018153656 0.01486434001 -0.00313698061 -0.00007752227 0.01459726778 -0.00300026342 -0.00002574990 0.01441923560 -0.00290910180 -0.00000532250 0.01433024279 -0.00286349580 0.00000465685 0.01433028868 -0.00286344549 0.00002508510 0.01441937256 -0.00290895093 0.00007685918 0.01459749377 -0.00300001218 0.00018087603 0.01486465162 -0.00313662930 0.00035803259 0.01522084541 -0.00331880234 -0.00031771847 0.01530793880 -0.00320050131 -0.00015476294 0.01492447129 -0.00309211577 -0.00006112757 0.01463688273 -0.00301081503 -0.00001700642 0.01444517270 -0.00295659863 -0.00000259352 0.01434934079 -0.00292946606 0.00000191708 0.01434938658 -0.00292941683 0.00001633134 0.01444530965 -0.00295645046 0.00006045522 0.01463710959 -0.00301056644 0.00015409466 0.01492478598 -0.00309176430 0.00031705564 0.01530833840 -0.00320004353 -0.00024809302 0.01537238548 -0.00318670537 -0.00011489235 0.01496722106 -0.00313500753 -0.00004030083 0.01466335951 -0.00309622341 -0.00000757276 0.01446080061 -0.00307035211 0.00000003759 0.01435954413 -0.00305739277 -0.00000072409 0.01435958986 -0.00305734452 0.00000688791 0.01446093757 -0.00307020647 0.00003961930 0.01466358704 -0.00309597774 0.00011421579 0.01496753805 -0.00313465747 0.00024742308 0.01537279038 -0.00318624478 -0.00016056962 0.01541250395 -0.00324156688 -0.00006686425 0.01499245290 -0.00323393097 -0.00001673460 0.01467742616 -0.00322819388 0.00000226981 0.01446742364 -0.00322435449 0.00000259940 0.01436244527 -0.00322241166 -0.00000329535 0.01436249096 -0.00322236428 -0.00000296401 0.01446756064 -0.00322421122 0.00001604388 0.01467765424 -0.00322795135 0.00006617877 0.01499277167 -0.00323358354 0.00015989111 0.01541291285 -0.00324110668 -0.00006590452 0.01542700510 -0.00332878725 -0.00001561808 0.01500003037 -0.00335716114 0.00000787860 0.01467981069 -0.00337843182 0.00001223998 0.01446634611 -0.00339259801 0.00000512050 0.01435963664 -0.00339965845 -0.00000582539 0.01435968234 -0.00339961186 -0.00001294324 0.01446648321 -0.00339245697 -0.00000857860 0.01468003931 -0.00337819251 0.00001492296 0.01500035065 -0.00335681722 0.00006521591 0.01542741728 -0.00332832981 0.00002514602 0.01541459983 -0.00341206787 0.00003390672 0.01498981701 -0.00347297309 0.00003184622 0.01467124113 -0.00351864256 0.00002205648 0.01445887232 -0.00354907492 0.00000762946 0.01435271071 -0.00356426885 -0.00000834288 0.01435275642 -0.00356422298 -0.00002276859 0.01445900960 -0.00354893599 -0.00003255571 0.01467147036 -0.00351840651 -0.00003461227 0.01499013884 -0.00347263322 -0.00002584631 0.01541501518 -0.00341161475 0.00010182573 0.01537399905 -0.00345511016 0.00007677070 0.01496167640 -0.00354964189 0.00005347572 0.01465244550 -0.00362053146 0.00003143802 0.01444630659 -0.00366777748 0.00001015485 0.01434325990 -0.00369137858 -0.00001087653 0.01434330566 -0.00369133339 -0.00003215890 0.01444644412 -0.00366764052 -0.00005419499 0.01465267551 -0.00362029860 -0.00007748756 0.01496200006 -0.00354930625 -0.00010253936 0.01537441802 -0.00345466210 0.00015337834 0.01530391364 -0.00342161551 0.00010803443 0.01491547209 -0.00355544259 0.00007107456 0.01462415183 -0.00365580386 0.00004010331 0.01442995323 -0.00372269792 0.00001272526 0.01433287667 -0.00375612337 -0.00001345502 0.01433292251 -0.00375607880 -0.00004083297 0.01443009112 -0.00372256283 -0.00007180400 0.01462438288 -0.00365557404 -0.00010876355 0.01491579814 -0.00355511104 -0.00015410704 0.01530433729 -0.00342117243 </DataArray>
</PointData>
<Points>
<DataArray type="Float32" NumberOfComponents="3">
0.86001146826 0.19692162659 1.16762566552 0.72103017828 0.19410500564 1.15199869583 0.54294957088 0.19199255116 1.14027848468 0.33694087987 0.19058426131 1.13246502986 0.11417533904 0.18988013424 1.12855832919 -0.11417581781 0.18988016810 1.12855838046 -0.33694135688 0.19058436106 1.13246518149 -0.54295004437 0.19199271128 1.14027873009 -0.72103064649 0.19410521690 1.15199902405 -0.86001192943 0.19692187610 1.16762606118 0.90251778758 0.17579034167 1.15137985223 0.73854436447 0.17209882226 1.14400513938 0.54713133695 0.16933019286 1.13847411918 0.33611859213 0.16748445229 1.13478679038 0.11334601709 0.16656159937 1.13294315176 -0.11334650107 0.16656163289 1.13294320209 -0.33611907525 0.16748455169 1.13478694012 -0.54713181836 0.16933035457 1.13847436462 -0.73854484331 0.17209904034 1.14400547435 -0.90251826299 0.17579060782 1.15138026809 0.93567770745 0.15402301932 1.13819591013 0.75220920681 0.15005175191 1.13734619128 0.55039575626 0.14707331068 1.13670891525 0.33547877009 0.14508769498 1.13628408154 0.11269966255 0.14409490411 1.13607168966 -0.11270015206 0.14409493739 1.13607173910 -0.33547925949 0.14508779415 1.13628422938 -0.55039624545 0.14707347371 1.13670916000 -0.75220969569 0.15005197539 1.13734653047 -0.93567819592 0.15402329851 1.13819634028 0.96058152840 0.13202581080 1.12831589726 0.76244632737 0.12824603758 1.13229541826 0.55281556454 0.12541121640 1.13528007109 0.33497368605 0.12352134695 1.13726985580 0.11220513808 0.12257642893 1.13826477245 -0.11220563322 0.12257646205 1.13826482110 -0.33497418169 0.12352144599 1.13727000178 -0.55281606116 0.12541138045 1.13528031457 -0.76244682547 0.12824626514 1.13229575950 -0.96058202846 0.13202609974 1.12831633664 0.97831955097 0.11020486740 1.12198187169 0.76967734827 0.10696392228 1.12912638705 0.55446349752 0.10453322177 1.13448478489 0.33455561233 0.10291276580 1.13805706565 0.11183130629 0.10210255433 1.13984322976 -0.11183180701 0.10210258733 1.13984327766 -0.33455611397 0.10291286475 1.13805720980 -0.55446400099 0.10453338654 1.13448502662 -0.76967785449 0.10696415266 1.12912672855 -0.97832006086 0.11020516307 1.12198231604 0.98998207568 0.08896634036 1.11943589145 0.77432389157 0.08648764901 1.12811266438 0.55541229095 0.08462863855 1.13462025485 0.33417682123 0.08338930910 1.13895866354 0.11154702983 0.08276966078 1.14112789116 -0.11154753586 0.08276969369 1.14112793839 -0.33417732843 0.08338940797 1.13895880593 -0.55541280047 0.08462880371 1.13462049448 -0.77432440458 0.08648788104 1.12811300472 -0.98998259334 0.08896664007 1.11943633735 0.99665940308 0.06871638097 1.12092001462 0.77680757937 0.06709946075 1.12952781699 0.55573468055 0.06588677852 1.13598367915 0.33378958506 0.06507833445 1.14028760196 0.11132117133 0.06467412875 1.14243958625 -0.11132168223 0.06467416160 1.14243963287 -0.33379009718 0.06507843319 1.14028774266 -0.55573519511 0.06588694371 1.13598391645 -0.77680809758 0.06709969335 1.12952815510 -0.99665992617 0.06871668230 1.12092045945 0.99944183370 0.04986114050 1.12667629924 0.77755003375 0.04908160051 1.13364541159 0.55550340207 0.04849695343 1.13887225601 0.33334617613 0.04810719944 1.14235683338 0.11112259342 0.04791233873 1.14409914464 -0.11112310856 0.04791237151 1.14409919070 -0.33334669234 0.04810729796 1.14235697247 -0.55550392042 0.04849711828 1.13887249087 -0.77755055533 0.04908183268 1.13364574681 -0.99944235957 0.04986144133 1.12667674120 0.99941966808 0.03280677020 1.13694680336 0.77697287682 0.03271631129 1.14073901494 0.55479119123 0.03264847505 1.14358318359 0.33279886674 0.03260326164 1.14547931028 0.11092015875 0.03258067120 1.14642739592 -0.11092067730 0.03258070388 1.14642744147 -0.33279938600 0.03260335982 1.14547944786 -0.55479171193 0.03264863918 1.14358341603 -0.77697339966 0.03271654209 1.14073934693 -0.99942019379 0.03280706871 1.13694724149 0.99768320674 0.01795942136 1.15197358504 0.77549773065 0.01828583607 1.15108219374 0.55367078378 0.01853065515 1.15041366012 0.33209992919 0.01869387865 1.14996798511 0.11068272995 0.01877550664 1.14974516968 -0.11068325089 0.01877553917 1.14974521476 -0.33210045027 0.01869397632 1.14996812131 -0.55367130514 0.01853081813 1.15041389026 -0.77549825242 0.01828606468 1.15108252257 -0.99768372907 0.01795971603 1.15197401919 0.83293644607 0.18560738868 1.13031973621 0.70383172793 0.18508606314 1.11942903422 0.53273276609 0.18469508044 1.11126102391 0.33163791605 0.18443443864 1.10581570293 0.11254553331 0.18430413582 1.10309306893 -0.11254602662 0.18430417004 1.10309311956 -0.33163840823 0.18443453937 1.10581585247 -0.53273325604 0.18469524188 1.11126126531 -0.70383221452 0.18508627564 1.11942935574 -0.83293692818 0.18560763873 1.13032012140 0.88318188363 0.16826994387 1.11866329563 0.72624585962 0.16629474419 1.11278592196 0.53981483128 0.16481335488 1.10837790617 0.33231594278 0.16382577467 1.10543924693 0.11217633833 0.16333200225 1.10396994290 -0.11217683790 0.16333203633 1.10396999276 -0.33231644173 0.16382587563 1.10543939517 -0.53981532896 0.16481351884 1.10837814881 -0.72624635542 0.16629496468 1.11278625232 -0.88318237692 0.16827021185 1.11866370439 0.92235065380 0.14944663172 1.10873610518 0.74371319846 0.14674312027 1.10695200968 0.54532868346 0.14471549638 1.10561395116 0.33283912587 0.14336375924 1.10472192906 0.11188654276 0.14268790807 1.10427594286 -0.11188704878 0.14268794207 1.10427599198 -0.33283963170 0.14336386044 1.10472207590 -0.54532918891 0.14471566240 1.10561419405 -0.74371370335 0.14674334715 1.10695234590 -0.92235115793 0.14944691389 1.10873653089 0.95174970146 0.12967317900 1.10082389635 0.75679284166 0.12681986220 1.10218171485 0.54942863379 0.12467988372 1.10320009079 0.33320203442 0.12325324313 1.10387902419 0.11165800010 0.12253994003 1.10421851509 -0.11165851259 0.12253997398 1.10421856352 -0.33320254708 0.12325334456 1.10387916952 -0.54942914682 0.12468005136 1.10320033313 -0.75679335523 0.12682009395 1.10218205437 -0.95175021575 0.12967347192 1.10082433328 0.97268597151 0.10948531246 1.09521240063 0.76604388644 0.10691364075 1.09872945496 0.55226899343 0.10498489568 1.10136725698 0.33339923754 0.10369907710 1.10312580715 0.11147256383 0.10305618485 1.10400510590 -0.11147308263 0.10305621878 1.10400515368 -0.33339975680 0.10369917871 1.10312595093 -0.55226951362 0.10498506451 1.10136749810 -0.76604440802 0.10691387600 1.09872979562 -0.97268649495 0.10948561303 1.09521284395 0.98646640885 0.08941875889 1.09218734952 0.77202543000 0.08741312672 1.09684964748 0.55400407352 0.08590891106 1.10034638167 0.33342530435 0.08490611191 1.10267755281 0.11131208745 0.08440472929 1.10384316160 -0.11131261225 0.08440476319 1.10384320876 -0.33342582980 0.08490621364 1.10267769500 -0.55400460025 0.08590908064 1.10034662103 -0.77202595866 0.08741336418 1.09684998756 -0.98646694008 0.08941906430 1.09218779531 0.99439795837 0.07000924503 1.09203447451 0.77529656956 0.06870699090 1.09679670989 0.55478818522 0.06773030864 1.10036839677 0.33327480397 0.06707919833 1.10274953602 0.11115842444 0.06675366008 1.10394012850 -0.11115895476 0.06675369396 1.10394017507 -0.33327533500 0.06707930008 1.10274967662 -0.55478871765 0.06773047854 1.10036863400 -0.77529710409 0.06870722941 1.09679704808 -0.99439849570 0.07000955281 1.09203491974 0.99778756496 0.05179249765 1.09503950709 0.77641640233 0.05118390409 1.09882505968 0.55477563968 0.05072746722 1.10166423421 0.33294230551 0.05042318713 1.10355703163 0.11099342829 0.05027106396 1.10450345288 -0.11099396349 0.05027109780 1.10450349891 -0.33294284133 0.05042328878 1.10355717066 -0.55477617675 0.05072763700 1.10166446907 -0.77641694127 0.05118414259 1.09882539508 -0.99778810638 0.05179280565 1.09503994964 0.99794217352 0.03530424353 1.10148817877 0.77594402552 0.03523253708 1.10318911431 0.55412074806 0.03517876557 1.10446482590 0.33242237807 0.03514292907 1.10531531450 0.11079895248 0.03512502767 1.10574058107 -0.11079949177 0.03512506144 1.10574062659 -0.33242291774 0.03514303047 1.10531545201 -0.55412128850 0.03517893483 1.10446505831 -0.77594456713 0.03523277461 1.10318944645 -0.99794271668 0.03530454990 1.10148861740 0.99616872894 0.02108020941 1.11166622103 0.77443853634 0.02124156066 1.11014329128 0.55297782150 0.02136258249 1.10900110377 0.33170959077 0.02144327492 1.10823965948 0.11055685052 0.02148363795 1.10785895936 -0.11055739291 0.02148367160 1.10785900440 -0.33171013314 0.02144337588 1.10823979555 -0.55297836383 0.02136275081 1.10900133379 -0.77443907862 0.02124179639 1.11014362010 -0.99616927114 0.02108051264 1.11166665543 0.81263780954 0.17754305484 1.08671718423 0.69093549374 0.17875143960 1.07964696738 0.52507023711 0.17965773995 1.07434432099 0.32766002284 0.18026195388 1.07080924258 0.11132283411 0.18056407935 1.06904172970 -0.11132334590 0.18056411434 1.06904177989 -0.32766053401 0.18026205682 1.07080939069 -0.52507074703 0.17965790475 1.07434455963 -0.69093600180 0.17875165613 1.07964728426 -0.81263831511 0.17754330891 1.08671756212 0.86868777135 0.16304078760 1.07887100008 0.71702546630 0.16235268272 1.07461474807 0.53432855154 0.16183661487 1.07142257353 0.32946405847 0.16149258267 1.06929447509 0.11129901851 0.16132058476 1.06823045134 -0.11129953694 0.16132061974 1.06823050089 -0.32946457648 0.16149268625 1.06929462235 -0.53432906870 0.16183678290 1.07142281432 -0.71702598219 0.16235290832 1.07461507541 -0.86868828555 0.16304106113 1.07887140422 0.91236243591 0.14641174573 1.07189435086 0.73734472634 0.14465418777 1.07002562897 0.54152984916 0.14333602936 1.06862410064 0.33085985229 0.14245726962 1.06768976530 0.11127678364 0.14201790768 1.06722262238 -0.11127730885 0.14201794268 1.06722267131 -0.33086037729 0.14245737375 1.06768991150 -0.54153037374 0.14333620001 1.06862434239 -0.73734525028 0.14465442060 1.07002596341 -0.91236295901 0.14641203465 1.07189477398 0.94513145436 0.12829013187 1.06604759521 0.75255566243 0.12612501575 1.06608695792 0.54688976106 0.12450118815 1.06611649198 0.33187378151 0.12341864858 1.06613619742 0.11124775505 0.12287739655 1.06614607428 -0.11124828704 0.12287743157 1.06614612259 -0.33187431350 0.12341875317 1.06613634238 -0.54689029303 0.12450136084 1.06611673370 -0.75255619439 0.12612525410 1.06608729658 -0.94513198628 0.12829043247 1.06604803104 0.96846447784 0.10931014866 1.06159109180 0.76332066315 0.10723422763 1.06300608278 0.55062391832 0.10567729595 1.06406733724 0.33253222335 0.10463935339 1.06477485565 0.11120355827 0.10412039975 1.06512863848 -0.11120409691 0.10412043481 1.06512868619 -0.33253276216 0.10463945834 1.06477499923 -0.55062445746 0.10567747013 1.06406757808 -0.76332120280 0.10723446996 1.06300642320 -0.96846501815 0.10931045762 1.06159153504 0.98383115749 0.09010599873 1.05878519929 0.77030211707 0.08845088440 1.06099035136 0.55294795202 0.08720955748 1.06264422608 0.33286155504 0.08638201793 1.06374682419 0.11113581885 0.08596826571 1.06429814643 -0.11113636384 0.08596830079 1.06429819355 -0.33286210032 0.08638212311 1.06374696629 -0.55294849788 0.08720973264 1.06264446538 -0.77030266382 0.08845112933 1.06099069158 -0.98383170541 0.09010631314 1.05878564561 0.99270114445 0.07131188474 1.05789027634 0.77416241275 0.07024404704 1.06024711151 0.55407749324 0.06944317745 1.06201474817 0.33288815380 0.06890927604 1.06319318722 0.11103616235 0.06864234284 1.06378242958 -0.11103671324 0.06864237792 1.06378247613 -0.33288870505 0.06890938132 1.06319332779 -0.55407804518 0.06944335311 1.06201498545 -0.77416296575 0.07024429332 1.06024745001 -0.99270169885 0.07131220203 1.05789072239 0.99654408985 0.05356200932 1.05916668160 0.77556393877 0.05308277655 1.06098371106 0.55422817306 0.05272336060 1.06234649319 0.33263839686 0.05248376157 1.06325502897 0.11089621429 0.05236397954 1.06370931937 -0.11089677050 0.05236401460 1.06370936538 -0.33263895339 0.05248386682 1.06325516797 -0.55422873023 0.05272353629 1.06234672812 -0.77556449690 0.05308302310 1.06098404681 -0.99654464926 0.05356232732 1.05916712501 0.99682964484 0.03749057512 1.06287477375 0.77516908370 0.03743613390 1.06340749786 0.55361562257 0.03739531163 1.06380705081 0.33213866143 0.03736810838 1.06407343361 0.11070760024 0.03735452423 1.06420664725 -0.11070816103 0.03735455922 1.06420669274 -0.33213922240 0.03736821344 1.06407357107 -0.55361618391 0.03739548694 1.06380728324 -0.77516964557 0.03743637979 1.06340783025 -0.99683020743 0.03749089205 1.06287521311 0.99502746056 0.02373178478 1.06927491143 0.77364023611 0.02377318008 1.06772581973 0.55245547285 0.02380423526 1.06656401071 0.33141532474 0.02382495033 1.06578948536 0.11046194573 0.02383532531 1.06540224467 -0.11046251022 0.02383536020 1.06540228966 -0.33141588914 0.02382505503 1.06578962132 -0.55245603707 0.02380440980 1.06656424065 -0.77364080006 0.02377342453 1.06772614865 -0.99502802415 0.02373209922 1.06927534632 0.79911569203 0.17269120230 1.03865604880 0.68234306739 0.17505127336 1.03474523391 0.51996391810 0.17682133885 1.03181213901 0.32500867983 0.17800139665 1.02985676159 0.11050778820 0.17859144466 1.02887909912 -0.11050832112 0.17859148076 1.02887914907 -0.32500921250 0.17800150284 1.02985690892 -0.51996445029 0.17682150877 1.03181237615 -0.68234359884 0.17505149645 1.03474554824 -0.79911622252 0.17269146377 1.03865642265 0.85903472817 0.16005654431 1.03405109133 0.71088370410 0.16022428353 1.03149945366 0.53067344839 0.16035009914 1.02958573988 0.32756374154 0.16043398971 1.02830994859 0.11071436406 0.16047595379 1.02767207835 -0.11071490356 0.16047598996 1.02767212775 -0.32756428080 0.16043409678 1.02831009536 -0.53067398715 0.16035027280 1.02958597977 -0.71088424212 0.16022451659 1.03149977955 -0.85903526520 0.16005682671 1.03405149329 0.90571190247 0.14486736431 1.02979673429 0.73310366120 0.14373930106 1.02844693690 0.53899957157 0.14289326404 1.02743460193 0.32954130460 0.14232925236 1.02675972880 0.11087053124 0.14204726509 1.02642231693 -0.11087107750 0.14204730133 1.02642236576 -0.32954185066 0.14232936016 1.02675987472 -0.53900011724 0.14289344069 1.02743484323 -0.73310420627 0.14373954199 1.02844727072 -0.90571244676 0.14486766316 1.02979715661 0.94072553431 0.12782479715 1.02607816196 0.74973434567 0.12611966283 1.02572762615 0.54519891335 0.12484082195 1.02546473628 0.33098902128 0.12398827397 1.02528949240 0.11097445338 0.12356201839 1.02520189456 -0.11097500643 0.12356205470 1.02520194282 -0.33098957422 0.12398838236 1.02528963723 -0.54519946606 0.12484100089 1.02546497785 -0.74973489804 0.12611990974 1.02572796474 -0.94072608621 0.12782510842 1.02607859796 0.96565394303 0.10962997766 1.02308055862 0.76150716454 0.10788870574 1.02348146392 0.54952809943 0.10658276124 1.02378215407 0.33195454388 0.10571214393 1.02398262957 0.11102429407 0.10527685357 1.02408289092 -0.11102485383 0.10527688992 1.02408293860 -0.33195510362 0.10571225276 1.02398277311 -0.54952865913 0.10658294184 1.02378239496 -0.76150772417 0.10788895694 1.02348180463 -0.96565450257 0.10963029782 1.02308100263 0.98207544799 0.09098404069 1.02098910856 0.76915352482 0.08956976666 1.02184839271 0.55224375552 0.08850907032 1.02249286643 0.33248552469 0.08780195160 1.02292253050 0.11101821693 0.08744841046 1.02313738570 -0.11101878316 0.08744844685 1.02313743281 -0.33248609099 0.08780206071 1.02292267261 -0.55224432194 0.08850925200 1.02249310588 -0.76915409143 0.08957002066 1.02184873340 -0.98207601486 0.09098436665 1.02098955596 0.99156836856 0.07258812108 1.01998899605 0.77340483351 0.07168618248 1.02096835503 0.55360250732 0.07100973756 1.02170288449 0.33262961599 0.07055878636 1.02219258537 0.11095438557 0.07033332893 1.02243745860 -0.11095495792 0.07033336533 1.02243750514 -0.33263018846 0.07055889561 1.02219272594 -0.55360308002 0.07100991982 1.02170312193 -0.77340540657 0.07168643801 1.02096869406 -0.99156894209 0.07258845023 1.01998944327 0.99571102409 0.05514335366 1.02026540538 0.77499249763 0.05476129008 1.02098129340 0.55386098053 0.05447475135 1.02151821938 0.33243447009 0.05428373757 1.02187618434 0.11083096361 0.05418824883 1.02205518931 -0.11083154157 0.05418828521 1.02205523530 -0.33243504817 0.05428384682 1.02187632333 -0.55386155886 0.05447493374 1.02151845443 -0.77499307634 0.05476154606 1.02098162960 -0.99571160329 0.05514368388 1.02026584988 0.99608173394 0.03935087329 1.02200352083 0.77464792419 0.03931842634 1.02202715031 0.55327580086 0.03929410009 1.02204488223 0.33194773925 0.03927789461 1.02205671762 0.11064611466 0.03926981000 1.02206265752 -0.11064669760 0.03926984634 1.02206270298 -0.33194832225 0.03927800371 1.02205685502 -0.55327638398 0.03929428221 1.02204511470 -0.77464850748 0.03931868190 1.02202748305 -0.99608231747 0.03935120290 1.02200396111 0.99425881747 0.02591181479 1.02538852668 0.77310252020 0.02588092815 1.02424586828 0.55210359402 0.02585777215 1.02338888417 0.33121707578 0.02584234686 1.02281757537 0.11039800233 0.02583465231 1.02253194292 -0.11039858949 0.02583468856 1.02253198786 -0.33121766284 0.02584245567 1.02281771124 -0.55210418088 0.02585795367 1.02338911407 -0.77310310676 0.02588118263 1.02424619741 -0.99425940365 0.02591214260 1.02538896229 0.79237022693 0.17101440833 0.98797436914 0.67805604059 0.17393570278 0.98681657237 0.51741574324 0.17612668625 0.98594824108 0.32368536660 0.17758735657 0.98536937273 0.11010094237 0.17831771156 0.98507996479 -0.11010149774 0.17831774905 0.98508001471 -0.32368592200 0.17758746686 0.98536951996 -0.51741629872 0.17612686281 0.98594847799 -0.67805659619 0.17393593473 0.98681688628 -0.79237078269 0.17101468044 0.98797474227 0.85422203155 0.15927088544 0.98625169511 0.70782109264 0.15986119228 0.98544787470 0.52885047249 0.16030393401 0.98484502385 0.32661579433 0.16059910916 0.98444314117 0.11042268138 0.16074671627 0.98424222523 -0.11042324313 0.16074675385 0.98424227462 -0.32661635597 0.16059922045 0.98444328794 -0.52885103392 0.16030411458 0.98484526377 -0.70782165375 0.15986143480 0.98544820070 -0.85422259223 0.15927117961 0.98625209732 0.90239790220 0.14476249041 0.98456934260 0.73098987377 0.14395280677 0.98409582125 0.53773816890 0.14334555484 0.98374069326 0.32888383804 0.14294073370 0.98350395810 0.11066793161 0.14273834242 0.98338561521 -0.11066849995 0.14273838009 0.98338566405 -0.32888440621 0.14294084578 0.98350410408 -0.53773873672 0.14334573857 0.98374093476 -0.73099044107 0.14395305755 0.98409615553 -0.90239846880 0.14476280178 0.98456976585 0.93853068852 0.12822530255 0.98300676470 0.74832844734 0.12676196805 0.98282019822 0.54435605767 0.12566447738 0.98268028529 0.33054784769 0.12493283002 0.98258702600 0.11083814555 0.12456702546 0.98254042045 -0.11083872058 0.12456706320 0.98254046872 -0.33054842253 0.12493294271 0.98258717093 -0.54435663215 0.12566466349 0.98268052715 -0.74832902127 0.12676222503 0.98282053748 -0.93853126172 0.12822562681 0.98300720202 0.96425324017 0.11039540116 0.98164341450 0.76060287673 0.10884009791 0.98168079182 0.54898136401 0.10767363025 0.98170883592 0.33166617325 0.10689599796 0.98172754734 0.11093477570 0.10650720082 0.98173692663 -0.11093535739 0.10650723861 0.98173697433 -0.33166675478 0.10689611110 0.98172769098 -0.54898194523 0.10767381807 0.98170907712 -0.76060345749 0.10884035930 0.98168113329 -0.96425382032 0.11039573456 0.98164386003 0.98119840676 0.09200886555 0.98055874510 0.76857922530 0.09073861814 0.98073738824 0.55189131310 0.08978594210 0.98087138112 0.33229716469 0.08915083737 0.98096072459 0.11095927457 0.08883330394 0.98100541947 -0.11095986276 0.08883334175 0.98100546659 -0.33229775278 0.08915095079 0.98096086678 -0.55189190099 0.08978613102 0.98087162087 -0.76857981288 0.09073888241 0.98073772968 -0.98119899394 0.09200920491 0.98055919404 0.99099903796 0.07380177500 0.97983220958 0.77302355642 0.07300895055 0.98004977368 0.55336313017 0.07241434155 0.98021295689 0.33249917198 0.07201794809 0.98032176023 0.11091309464 0.07181977023 0.98037618467 -0.11091368906 0.07181980806 0.98037623121 -0.33249976635 0.07201806165 0.98032190085 -0.55336372444 0.07241453107 0.98021319457 -0.77302415055 0.07300921640 0.98005011337 -0.99099963190 0.07380211772 0.97983265824 0.99528798339 0.05651020883 0.97954326103 0.77470193347 0.05620251691 0.97967773434 0.55367404040 0.05597175724 0.97977859921 0.33233054509 0.05581792995 0.97984585671 0.11079768842 0.05574103514 0.97987950792 -0.11079828868 0.05574107296 0.97987955390 -0.33233114533 0.05581804352 0.97984599571 -0.55367464063 0.05597194693 0.97977883442 -0.77470253366 0.05620278334 0.97967807109 -0.99528858354 0.05651055286 0.97954370680 0.99569809270 0.04087024632 0.97977135254 0.77438041982 0.04087073903 0.97968105641 0.55310126901 0.04087111781 0.97961334405 0.33184963398 0.04087138280 0.97956821652 0.11061450841 0.04087153411 0.97954567493 -0.11061511400 0.04087157188 0.97954572036 -0.33185023955 0.04087149625 0.97956835388 -0.55310187457 0.04087130733 0.97961357659 -0.77438102534 0.04087100527 0.97968138957 -0.99569869819 0.04087059019 0.97977179391 0.99386221553 0.02761796679 0.98059593721 0.77282507882 0.02756503871 0.98011952611 0.55192204119 0.02752535189 0.97976222739 0.33111478862 0.02749890647 0.97952404213 0.11036500710 0.02748570256 0.97940497140 -0.11036561738 0.02748574026 0.97940501630 -0.33111539884 0.02749901970 0.97952417790 -0.55192265128 0.02752554099 0.97976245728 -0.77282568872 0.02756530425 0.98011985553 -0.99386282517 0.02761830959 0.98059637373 0.79240154761 0.17247525016 0.93651018448 0.67807600505 0.17535486620 0.93795372136 0.51742764670 0.17751459129 0.93903639030 0.32369156274 0.17895442325 0.93975818879 0.11010284338 0.17967435986 0.94011911433 -0.11010342121 0.17967439895 0.94011916442 -0.32369214082 0.17895453831 0.93975833657 -0.51742822527 0.17751477574 0.93903662826 -0.67807658436 0.17535510905 0.93795403700 -0.79240212791 0.17247553605 0.93651056029 0.85424895893 0.16063748242 0.93752093717 0.70783815151 0.16121505465 0.93846784715 0.52886057449 0.16164824581 0.93917804407 0.32662101918 0.16193705444 0.93965152655 0.11042427690 0.16208147907 0.93988829325 -0.11042486103 0.16208151824 0.93988834278 -0.32662160331 0.16193717047 0.93965167380 -0.52886115860 0.16164843430 0.93917828492 -0.70783873560 0.16121530827 0.93846817480 -0.85424954298 0.16063779089 0.93752134206 0.90241928377 0.14604612698 0.93833826293 0.73100323480 0.14524905157 0.93885216976 0.53774595935 0.14465125618 0.93923761286 0.32888780786 0.14425273990 0.93949459175 0.11066913078 0.14405350183 0.93962310591 -0.11066972143 0.14405354107 0.93962315487 -0.32888839834 0.14425285669 0.93949473812 -0.53774654949 0.14465144781 0.93923785518 -0.73100382444 0.14524931351 0.93885250555 -0.90241987273 0.14604645289 0.93833868874 0.93854566422 0.12943977580 0.93892457156 0.74833752341 0.12801009599 0.93908115280 0.54436116102 0.12693784669 0.93919860060 0.33055035469 0.12622302741 0.93927691511 0.11083888203 0.12586563765 0.93931609647 -0.11083947931 0.12586567694 0.93931614483 -0.33055095172 0.12622314477 0.93927706034 -0.54436175755 0.12693804066 0.93919884315 -0.74833811917 0.12801036412 0.93908149341 -0.93854625897 0.12944011466 0.93892501126 0.96426124233 0.11155702085 0.93924227288 0.76060728582 0.11005142695 0.93912925988 0.54898353927 0.10892224164 0.93904451119 0.33166708558 0.10816946474 0.93898802738 0.11093500766 0.10779309605 0.93895980905 -0.11093561158 0.10779313537 0.93895985681 -0.33166768923 0.10816958250 0.93898817124 -0.54898414237 0.10892243725 0.93904475295 -0.76060788810 0.11005169942 0.93912960252 -0.96426184351 0.11155736881 0.93924272056 0.98119916019 0.09313645409 0.93925377671 0.76857879054 0.09192628346 0.93897095463 0.55189045385 0.09101866532 0.93875884853 0.33229642644 0.09041359969 0.93861745929 0.11095898467 0.09011108654 0.93854678781 -0.11095959515 0.09011112588 0.93854683496 -0.33229703668 0.09041371769 0.93861760163 -0.55189106358 0.09101886199 0.93875908869 -0.76857939952 0.09192655875 0.93897129704 -0.98119976817 0.09313680798 0.93925422755 0.99099255988 0.07491666747 0.93892149287 0.77301830605 0.07418790455 0.93858070064 0.55335926450 0.07364134203 0.93832511653 0.33249680320 0.07327698002 0.93815474160 0.11091229007 0.07309481863 0.93806957689 -0.11091290692 0.07309485797 0.93806962344 -0.33249741985 0.07327709814 0.93815488229 -0.55335988077 0.07364153926 0.93832535451 -0.77301892172 0.07418818143 0.93858104112 -0.99099317476 0.07491702476 0.93892194317 0.99527458346 0.05763625297 0.93820783117 0.77469210084 0.05738952925 0.93793296153 0.55366733100 0.05720449604 0.93772681911 0.33232664176 0.05708115352 0.93758940503 0.11079640089 0.05701950183 0.93752072042 -0.11079702381 0.05701954116 0.93752076638 -0.33232726455 0.05708127165 0.93758954403 -0.55366795354 0.05720469348 0.93772705450 -0.77469272299 0.05738980680 0.93793329890 -0.99527520510 0.05763661179 0.93820827835 0.99567837301 0.04203380253 0.93707520143 0.77436644340 0.04208439658 0.93700220091 0.55309201310 0.04212235167 0.93694746017 0.33184436803 0.04214766797 0.93691098034 0.11061279412 0.04216034567 0.93689276255 -0.11061342272 0.04216038496 0.93689280794 -0.33184499658 0.04214778602 0.93691111764 -0.55309264152 0.04212254903 0.93694769280 -0.77436707163 0.04208467418 0.93700253454 -0.99567900099 0.04203416166 0.93707564401 0.99383707061 0.02884790813 0.93548601347 0.77280760223 0.02882574558 0.93576288241 0.55191067055 0.02880913319 0.93597054362 0.33110840794 0.02879807115 0.93610899825 0.11036294678 0.02879255965 0.93617824742 -0.11036358057 0.02879259889 0.93617829227 -0.33110904171 0.02879818905 0.93610913392 -0.55191130430 0.02880933033 0.93597077352 -0.77280823593 0.02882602291 0.93576321219 -0.99383770426 0.02884826700 0.93548645108 0.79920978743 0.17703630504 0.88610153403 0.68240455247 0.17925890197 0.89024941945 0.52000156265 0.18092586311 0.89336034976 0.32502874786 0.18203718630 0.89543432252 0.11051403801 0.18259286939 0.89647133535 -0.11051463699 0.18259291021 0.89647138582 -0.32502934725 0.18203730661 0.89543447153 -0.52000216285 0.18092605643 0.89336059007 -0.68240515390 0.17925915753 0.89024973903 -0.79921039048 0.17703660773 0.88610191600 0.85911478776 0.16411000670 0.88990694326 0.71093540032 0.16423751630 0.89256720698 0.53070470505 0.16433316085 0.89456241915 0.32758021845 0.16439693894 0.89589257848 0.11071945704 0.16442884913 0.89655768370 -0.11072006264 0.16442888998 0.89655773352 -0.32758082409 0.16439706009 0.89589272667 -0.53070531078 0.16433335801 0.89456266185 -0.71093600619 0.16423778231 0.89256753779 -0.85911539380 0.16411033158 0.88990735321 0.90577489589 0.14866727698 0.89322958240 0.73314361504 0.14758238210 0.89459587020 0.53902326112 0.14676872247 0.89562059897 0.32955356931 0.14622629721 0.89630376829 0.11087427482 0.14595510547 0.89664537774 -0.11087488717 0.14595514635 0.89664542690 -0.32955418146 0.14622641900 0.89630391536 -0.53902387285 0.14676892255 0.89562084270 -0.73314422615 0.14758265612 0.89459620850 -0.90577550617 0.14866761884 0.89323001234 0.94076920860 0.13141634463 0.89592275064 0.74976112985 0.12982221126 0.89622696857 0.54521419041 0.12862662215 0.89645514382 0.33099663623 0.12782957684 0.89660727661 0.11097671328 0.12743107486 0.89668336715 -0.11097733246 0.12743111577 0.89668341565 -0.33099725505 0.12782969910 0.89660742234 -0.54521480850 0.12862682438 0.89645538743 -0.74976174685 0.12982249117 0.89622731114 -0.94076982414 0.13141669900 0.89592319368 0.96567682261 0.11306543842 0.89783974716 0.76151987796 0.11148571567 0.89735206155 0.54953445246 0.11030093410 0.89698630831 0.33195725498 0.10951109353 0.89674248811 0.11102499440 0.10911619378 0.89662060160 -0.11102562041 0.10911623470 0.89662064945 -0.33195788055 0.10951121610 0.89674263230 -0.54953507716 0.11030113782 0.89698655083 -0.76152050135 0.11148599969 0.89735240569 -0.96567744425 0.11306580154 0.89784019753 0.98207683469 0.09432278711 0.89883387117 0.76915179260 0.09310160722 0.89786270858 0.55224100682 0.09218573251 0.89713434702 0.33248326134 0.09157516299 0.89664878744 0.11101734011 0.09126989867 0.89640603078 -0.11101797288 0.09126993959 0.89640607797 -0.33248389367 0.09157528575 0.89664892997 -0.55224163828 0.09218593718 0.89713458771 -0.76915242274 0.09310189390 0.89786305213 -0.98207746308 0.09432315593 0.89883432418 0.99154834157 0.07589661946 0.89875842185 0.77338880697 0.07519859780 0.89765046912 0.55359081304 0.07467509159 0.89681951456 0.33262249109 0.07432610094 0.89626555927 0.11095197239 0.07415162600 0.89598860435 -0.11095261176 0.07415166691 0.89598865091 -0.33262313008 0.07432622379 0.89626570005 -0.55359145128 0.07467529679 0.89681975287 -0.77338944407 0.07519888603 0.89765081046 -0.99154897715 0.07589699166 0.89875887393 0.99567044001 0.05849516424 0.89746669840 0.77496285429 0.05830539930 0.89660690262 0.55384083066 0.05816308552 0.89596206552 0.33242278000 0.05806822310 0.89553218826 0.11082711318 0.05802081223 0.89531727201 -0.11082775894 0.05802085312 0.89531731795 -0.33242342549 0.05806834596 0.89553232726 -0.55384147560 0.05816329095 0.89596230110 -0.77496349841 0.05830568830 0.89660724065 -0.99567108304 0.05849553821 0.89746714708 0.99602222676 0.04282665021 0.89481200002 0.77460586777 0.04295072360 0.89462356855 0.55324801922 0.04304378851 0.89448225450 0.33193196386 0.04310584516 0.89438805907 0.11064098444 0.04313689380 0.89434098343 -0.11064163629 0.04313693467 0.89434102878 -0.33193261558 0.04310596799 0.89438819631 -0.55324867068 0.04304399400 0.89448248722 -0.77460651883 0.04295101294 0.89462390268 -0.99602287729 0.04282702505 0.89481244391 0.99418279857 0.02959930614 0.89064762589 0.77304978064 0.02966328260 0.89159202635 0.55206933827 0.02971127475 0.89230033611 0.33119787844 0.02974328286 0.89277255636 0.11039180812 0.02975930719 0.89300868828 -0.11039246570 0.02975934802 0.89300873307 -0.33119853605 0.02974340562 0.89277269192 -0.55206999595 0.02971148024 0.89230056601 -0.77305043841 0.02966357217 0.89159235655 -0.99418345645 0.02959968166 0.89064806472 0.81279507978 0.18466015021 0.83858645701 0.69104327457 0.18559794845 0.84579640523 0.52513942526 0.18630131084 0.85120388256 0.32769840153 0.18677023536 0.85480888672 0.11133507304 0.18700471995 0.85661141546 -0.11133569056 0.18700476257 0.85661146652 -0.32769901959 0.18677036119 0.85480903763 -0.52514004440 0.18630151377 0.85120412654 -0.69104389532 0.18559821825 0.84579673098 -0.81279570269 0.18466047262 0.83858684869 0.86881879547 0.16964212973 0.84545783913 0.71711335867 0.16888022291 0.84975379015 0.53438381481 0.16830880547 0.85297576772 0.32949419447 0.16792787605 0.85512377068 0.11130852823 0.16773743332 0.85619779787 -0.11130915332 0.16773747593 0.85619784812 -0.32949481961 0.16792800251 0.85512392027 -0.53438444004 0.16830901174 0.85297601316 -0.71711398404 0.16888050226 0.84975412563 -0.86881942103 0.16964247273 0.84545825652 0.91246358725 0.15257494336 0.85136938816 0.73741088523 0.15090714501 0.85320681034 0.54157039241 0.14965630813 0.85458488981 0.33088147764 0.14882243188 0.85550362627 0.11128350976 0.14840551546 0.85596301939 -0.11128414239 0.14840555804 0.85596306885 -0.33088210995 0.14882255881 0.85550377434 -0.54157102409 0.14965651694 0.85458513552 -0.73741151596 0.15090743161 0.85320715209 -0.91246421672 0.15257530202 0.85136982372 0.94520006887 0.13410313675 0.85609247006 0.75259882264 0.13215647845 0.85597412422 0.54691511283 0.13069649601 0.85588537656 0.33188678627 0.12972318900 0.85582622739 0.11125168977 0.12923655699 0.85579667701 -0.11125232986 0.12923659955 0.85579672571 -0.33188742581 0.12972331625 0.85582637379 -0.54691575125 0.13069670665 0.85588562155 -0.75259945938 0.13215677034 0.85597446929 -0.94520070338 0.13410350688 0.85609291730 0.96849885408 0.11487125554 0.85939845078 0.76334013927 0.11310598691 0.85787439022 0.55063393081 0.11178204630 0.85673135571 0.33253665557 0.11089943356 0.85596934795 0.11120474040 0.11045814854 0.85558836769 -0.11120538786 0.11045819108 0.85558841566 -0.33253730234 0.11089956102 0.85596949257 -0.55063457620 0.11178225821 0.85673159916 -0.76334078259 0.11310628248 0.85787473615 -0.96849949466 0.11487163369 0.85939890427 0.98383055663 0.09552384538 0.86105869627 0.77029780351 0.09423343407 0.85872626678 0.55294280111 0.09326563618 0.85697695498 0.33285762077 0.09262045173 0.85581076186 0.11113433380 0.09229788075 0.85522768842 -0.11113498848 0.09229792327 0.85522773568 -0.33285827473 0.09262057931 0.85581090462 -0.55294345365 0.09326584890 0.85697719626 -0.77029845390 0.09423373207 0.85872661159 -0.98383120417 0.09552422884 0.86105915163 0.99266579028 0.07670545192 0.86084457247 0.77413478375 0.07601658363 0.85834841233 0.55405767849 0.07549994283 0.85647630212 0.33287621708 0.07515552965 0.85522824302 0.11103214210 0.07498334425 0.85460423617 -0.11103280384 0.07498338675 0.85460428275 -0.33287687816 0.07515565730 0.85522838390 -0.55405833828 0.07550015605 0.85647654078 -0.77413544161 0.07601688313 0.85834875456 -0.99266644556 0.07670583870 0.86084502638 0.99647516876 0.05906062080 0.85852744535 0.77551404837 0.05893319928 0.85655948528 0.55419451768 0.05883764344 0.85508352486 0.33261897971 0.05877395350 0.85409956533 0.11088983746 0.05874212966 0.85360760792 -0.11089050605 0.05874217215 0.85360765384 -0.33261964781 0.05877408118 0.85409970433 -0.55419518480 0.05883785696 0.85508376063 -0.77551471402 0.05893349972 0.85655982396 -0.99647583245 0.05906100965 0.85852789554 0.99672930584 0.04323389767 0.85387868084 0.77509856576 0.04346104471 0.85317814407 0.55356927346 0.04363141520 0.85265275095 0.33211244389 0.04374500942 0.85230250271 0.11069909201 0.04380182763 0.85212740063 -0.11069976722 0.04380187011 0.85212744593 -0.33211311884 0.04374513713 0.85230263989 -0.55356994790 0.04363162895 0.85265298373 -0.77509923943 0.04346134584 0.85317847872 -0.99672997848 0.04323428809 0.85387912610 0.99489881526 0.02986982817 0.84666964491 0.77355130430 0.03007788359 0.84802304713 0.55239790056 0.03023393528 0.84903810810 0.33138314483 0.03033798357 0.84971482906 0.11045157789 0.03039002878 0.85005321128 -0.11045225946 0.03039007126 0.85005325601 -0.33138382644 0.03033811132 0.84971496449 -0.55239858227 0.03023414931 0.84903833800 -0.77355198614 0.03007818556 0.84802337777 -0.99489949729 0.02987022038 0.84667008508 0.83315755803 0.19530936292 0.79580299264 0.70399376303 0.19432214397 0.80668741728 0.53284316872 0.19358174362 0.81485075180 0.33170200336 0.19308816002 0.82029299415 0.11256649524 0.19284139136 0.82301414228 -0.11256712735 0.19284143579 0.82301419413 -0.33170263614 0.19308829148 0.82029314765 -0.53284380283 0.19358195661 0.81485100078 -0.70399439915 0.19432242933 0.80668775147 -0.83315819682 0.19530970783 0.79580339766 0.88336025953 0.17718752293 0.80622175051 0.72637254616 0.17509482014 0.81203543262 0.53989885443 0.17352530597 0.81639570842 0.33236374958 0.17247897918 0.81930257689 0.11219179687 0.17195583857 0.82075603703 -0.11219243846 0.17195588291 0.82075608784 -0.33236439116 0.17247911098 0.81930272832 -0.53989949599 0.17352552156 0.81639595746 -0.72637318769 0.17509511343 0.81203577425 -0.88336090102 0.17718788537 0.80622217770 0.92248420655 0.15771812907 0.81488376733 0.74380491611 0.15517768696 0.81656487792 0.54538767143 0.15327236758 0.81782572362 0.33287188809 0.15200217016 0.81866630424 0.11189698165 0.15136709396 0.81908661957 -0.11189763232 0.15136713822 0.81908666941 -0.33287253824 0.15200230219 0.81866645357 -0.54538832054 0.15327258511 0.81782597184 -0.74380556365 0.15517798623 0.81656522403 -0.92248485199 0.15771850478 0.81488420992 0.95183699226 0.13744827988 0.82152489794 0.75685015773 0.13497106216 0.82003909841 0.54946389529 0.13311316053 0.81892476041 0.33322089876 0.13187457459 0.81818188434 0.11166386194 0.13125530393 0.81781047058 -0.11166452134 0.13125534813 0.81781051952 -0.33322155728 0.13187470678 0.81818203155 -0.54946455205 0.13311337947 0.81892500707 -0.75685081186 0.13497136579 0.82003944647 -0.95183764288 0.13744866532 0.82152535013 0.97272620984 0.11692507391 0.82588099715 0.76606755586 0.11487526346 0.82222143934 0.55228180156 0.11333791692 0.81947678180 0.33340526148 0.11231303411 0.81764702534 0.11147425014 0.11180061486 0.81673217076 -0.11147491792 0.11180065902 0.81673221886 -0.33340592818 0.11231316640 0.81764717045 -0.55228246610 0.11333813684 0.81947702631 -0.76606821716 0.11487557018 0.82222178726 -0.97272686683 0.11692546623 0.82588145408 0.98645945244 0.09669560971 0.82768791979 0.77201639532 0.09529060862 0.82287524594 0.55399566580 0.09423686883 0.81926575079 0.33341945613 0.09353439035 0.81685943539 0.11130995862 0.09318317317 0.81565630082 -0.11131063447 0.09318321729 0.81565634814 -0.33342013086 0.09353452271 0.81685957841 -0.55399633826 0.09423708943 0.81926599269 -0.77201706439 0.09529091745 0.82287559206 -0.98646011697 0.09669600676 0.82768837758 0.99434431324 0.07730698583 0.82668152067 0.77525596098 0.07661741535 0.82176386346 0.55475976356 0.07610024836 0.81807563038 0.33325796261 0.07575548495 0.81561682264 0.11115279975 0.07558312524 0.81438744145 -0.11115348340 0.07558316935 0.81438748803 -0.33325864522 0.07575561738 0.81561696361 -0.55476044408 0.07610046945 0.81807586938 -0.77525663837 0.07661772567 0.82176420657 -0.99434498645 0.07730738615 0.82668197639 0.99768838542 0.05930630081 0.82259765461 0.77634553765 0.05925600140 0.81865063714 0.55472837041 0.05921828758 0.81569038358 0.33291526079 0.05919315954 0.81371689522 0.11098458591 0.05918061747 0.81273017335 -0.11098527711 0.05918066158 0.81273021925 -0.33291595117 0.05919329205 0.81371703420 -0.55472905915 0.05921850909 0.81569061951 -0.77634622393 0.05925631290 0.81865097644 -0.99768906841 0.05930670366 0.82259810630 0.99779926214 0.04324065320 0.81517217644 0.77584441019 0.04360668451 0.81329891222 0.55405576190 0.04388121860 0.81189397340 0.33238583056 0.04406425577 0.81095736129 0.11078712948 0.04415579627 0.81048907721 -0.11078782801 0.04415584039 0.81048912246 -0.33238652862 0.04406438840 0.81095749837 -0.55405645902 0.04388144058 0.81189420623 -0.77584510591 0.04360699719 0.81329924737 -0.99779995598 0.04324105852 0.81517262310 0.99598453657 0.02965714156 0.80414094096 0.77431186344 0.03006978239 0.80547203393 0.55289621359 0.03037927350 0.80647036283 0.33166415180 0.03058561526 0.80713592899 0.11054224284 0.03068880802 0.80746873373 -0.11054294850 0.03068885217 0.80746877838 -0.33166485747 0.03058574808 0.80713606426 -0.55289691927 0.03037949610 0.80647059270 -0.77431256914 0.03007009661 0.80547236503 -0.99598524230 0.02965754999 0.80414138256 0.86029735554 0.20894652042 0.75958918015 0.72125760958 0.20538162689 0.77501519417 0.54311472718 0.20270797057 0.78658472058 0.33704103293 0.20092554992 0.79429775759 0.11420885139 0.20003436344 0.79815430341 -0.11420949284 0.20003440961 0.79815435626 -0.33704167519 0.20092568691 0.79429791435 -0.54311537108 0.20270819384 0.78658497590 -0.72125825593 0.20538192887 0.77501553911 -0.86029800516 0.20894689049 0.75958960220 0.90273845737 0.18669985777 0.77424680315 0.73871348240 0.18283295368 0.78141997036 0.54725077457 0.17993278868 0.78679985985 0.33618968615 0.17799936173 0.79038647083 0.11336956939 0.17703267178 0.79217980248 -0.11337022342 0.17703271778 0.79217985399 -0.33619034004 0.17799949871 0.79038662455 -0.54725142820 0.17993301351 0.78680011336 -0.73871413564 0.18283326113 0.78142031960 -0.90273911010 0.18670024055 0.77424724248 0.93583560248 0.16404583708 0.78589880705 0.75232557843 0.16034835459 0.78654996071 0.55047541639 0.15757525523 0.78703833862 0.33552515591 0.15572653830 0.78736394073 0.11271483653 0.15480220311 0.78752676696 -0.11271550219 0.15480224900 0.78752681727 -0.33552582071 0.15572667526 0.78736409159 -0.55047607948 0.15757548122 0.78703858986 -0.75232623896 0.16034866620 0.78655031202 -0.93583625959 0.16404622950 0.78589925802 0.96067872598 0.14139990176 0.79431120239 0.76251469111 0.13822412698 0.79013836983 0.55286050480 0.13584230797 0.78700875698 0.33499906765 0.13425444430 0.78492236433 0.11221328028 0.13346053557 0.78387919238 -0.11221395672 0.13346058136 0.78387924160 -0.33499974273 0.13425458125 0.78492251251 -0.55286117716 0.13584253483 0.78700900557 -0.76251535938 0.13822444167 0.79013872130 -0.96067938880 0.14140030136 0.79431166018 0.97835776295 0.11917749522 0.79924999970 0.76970161385 0.11675656816 0.79191840231 0.55447789194 0.11494088464 0.78641971502 0.33456304681 0.11373044441 0.78275393870 0.11183352810 0.11312524728 0.78092107423 -0.11183421460 0.11312529300 0.78092112248 -0.33456373166 0.11373058137 0.78275408434 -0.55447857347 0.11494111216 0.78641996068 -0.76970229042 0.11675688515 0.79191875237 -0.97835843288 0.11917790012 0.79925046030 0.98996264849 0.09779406088 0.80048120952 0.77430714008 0.09624197549 0.79162326275 0.55539942994 0.09507792299 0.78497981282 0.33416871882 0.09430190329 0.78055086087 0.11154420746 0.09391391633 0.77833640803 -0.11154490341 0.09391396203 0.77833645541 -0.33416941303 0.09430204030 0.78055100415 -0.55540012066 0.09507815106 0.78498005536 -0.77430782557 0.09624229425 0.79162361018 -0.98996332700 0.09779446977 0.80048166973 0.99658331771 0.07766504214 0.79777084238 0.77675206322 0.07697664628 0.78898615573 0.55569697097 0.07646036076 0.78239765049 0.33376770912 0.07611618561 0.77800532791 0.11131394583 0.07594412087 0.77580918929 -0.11131465072 0.07594416656 0.77580923588 -0.33376841237 0.07611632272 0.77800546895 -0.55569767097 0.07646058938 0.78239788979 -0.77675275833 0.07697696657 0.78898649966 -0.99658400631 0.07766545432 0.79777129982 0.99930970569 0.05920588241 0.79088490881 0.77745717668 0.05925687788 0.78374028586 0.55544236714 0.05929513571 0.77838182810 0.33331164313 0.05932065604 0.77480953687 0.11111137069 0.05933343900 0.77302341352 -0.11111208412 0.05933348471 0.77302345938 -0.33331235524 0.05932079332 0.77480967581 -0.55544307663 0.05929536494 0.77838206415 -0.77745788223 0.05925719971 0.78374062574 -0.99931040598 0.05920629776 0.79088536193 0.99923174754 0.04283202511 0.77958941933 0.77684327390 0.04337896762 0.77561885773 0.55470747062 0.04378918558 0.77264094576 0.33275214630 0.04406267925 0.77065568480 0.11090510950 0.04419944884 0.76966307623 -0.11090583118 0.04419949461 0.76966312142 -0.33275286717 0.04406281678 0.77065582176 -0.55470818989 0.04378941559 0.77264117861 -0.77684399075 0.04337929128 0.77561919337 -0.99923246117 0.04283244408 0.77958986739 0.99743937834 0.02895891364 0.76365038449 0.77533114828 0.02963921283 0.76435507593 0.55356413354 0.03014944812 0.76488360355 0.33204084405 0.03048961990 0.76523596875 0.11066378973 0.03065972852 0.76541217293 -0.11066451950 0.03065977436 0.76541221749 -0.33204157371 0.03048975779 0.76523610384 -0.55356486299 0.03014967917 0.76488383337 -0.77533187741 0.02963953888 0.76435540748 -0.99744010704 0.02895933729 0.76365082757 </DataArray>
</Points>
</Piece>
</StructuredGrid>
</VTKFile>
