<?xml version="1.0"?>
<VTKFile type="StructuredGrid" version="0.1">
<StructuredGrid WholeExtent="0 9 0 9 0 9">
<Piece Extent="0 9 0 9 0 9">
<PointData>
<DataArray type="Float32" Name="Deformation" format="ascii" NumberOfComponents="3">
-0.00212203953 -1.04736952374 0.10176792058 -0.00211692460 -1.04116413462 0.10521716657 -0.00211973846 -1.03388077027 0.10997765538 -0.00212912443 -1.02576151992 0.11581435161 -0.00214372583 -1.01704847283 0.12249221985 -0.00216218597 -1.00798371822 0.12977622469 -0.00218314816 -0.99880934535 0.13743133074 -0.00220525571 -0.98976744345 0.14522250257 -0.00222715195 -0.98110010177 0.15291470479 -0.00224748017 -0.97304940955 0.16027290199 -0.00221025575 -1.05752630026 0.12279310971 -0.00219220897 -1.05123082000 0.12607793899 -0.00218591262 -1.04376542740 0.13035378753 -0.00218909907 -1.03542834015 0.13543022033 -0.00219950068 -1.02651777595 0.14111680236 -0.00221484981 -1.01733195248 0.14722309862 -0.00223287882 -1.00816908744 0.15355867410 -0.00225132007 -0.99932739852 0.15993309378 -0.00226790592 -0.99110510342 0.16615592265 -0.00228036874 -0.98380041982 0.17203672570 -0.00228463860 -1.06676346309 0.14191274154 -0.00225856429 -1.06042476497 0.14507875214 -0.00224648030 -1.05287491839 0.14900241185 -0.00224548024 -1.04444476941 0.15352432502 -0.00225265772 -1.03546516409 0.15848509597 -0.00226510635 -1.02626694846 0.16372532906 -0.00227991974 -1.01718096859 0.16908562860 -0.00229419152 -1.00853807052 0.17440659895 -0.00230501528 -1.00066910030 0.17952884444 -0.00230948464 -0.99390490399 0.18429296941 -0.00234746401 -1.07519657854 0.15936519048 -0.00231725432 -1.06885170724 0.16245116891 -0.00230198519 -1.06129461501 0.16613508336 -0.00229834496 -1.05286974547 0.17027725481 -0.00230302201 -1.04392154227 0.17473800427 -0.00231270468 -1.03479444905 0.17937765274 -0.00232408135 -1.02583290944 0.18405652119 -0.00233384036 -1.01738136710 0.18863493064 -0.00233867009 -1.00978426566 0.19297320208 -0.00233525888 -1.00338604876 0.19693165651 -0.00240100792 -1.08294121289 0.17538883092 -0.00236954281 -1.07661738455 0.17842675220 -0.00235297095 -1.06910988902 0.18196335707 -0.00234777025 -1.06076220608 0.18586959885 -0.00235041861 -1.05191781552 0.19001643085 -0.00235739391 -1.04292019713 0.19427480640 -0.00236517404 -1.03411283067 0.19851567881 -0.00237023691 -1.02583919595 0.20261000139 -0.00236906041 -1.01844277274 0.20642872747 -0.00235812242 -1.01226704082 0.20984281036 -0.00244754626 -1.09011293246 0.19022203726 -0.00241669348 -1.08382753461 0.19323706490 -0.00239998127 -1.07640611219 0.19669878801 -0.00239383314 -1.06818108901 0.20048194626 -0.00239467258 -1.05948488888 0.20446127930 -0.00239892311 -1.05064993559 0.20851152679 -0.00240300824 -1.04200865294 0.21250742838 -0.00240335147 -1.03389346473 0.21632372374 -0.00239637630 -1.02663679477 0.21983515251 -0.00237850625 -1.02057106686 0.22291645436 -0.00248935497 -1.09682730354 0.20410318392 -0.00245997011 -1.09058789513 0.20711366990 -0.00244355983 -1.08326865629 0.21055293119 -0.00243661063 -1.07518533203 0.21429488617 -0.00243560898 -1.06665366736 0.21821345320 -0.00243704140 -1.05798940731 0.22218255064 -0.00243739435 -1.04950829689 0.22607609686 -0.00243315434 -1.04152608112 0.22976801023 -0.00242080784 -1.03435850500 0.23313220911 -0.00239684136 -1.02832131357 0.23604261187 -0.00252870998 -1.10319989244 0.21727064529 -0.00250063642 -1.09700420385 0.22028813009 -0.00248425030 -1.08978289309 0.22373734164 -0.00247617974 -1.08183387289 0.22748900772 -0.00247305288 -1.07345505601 0.23141385613 -0.00247149785 -1.06494435520 0.23538261469 -0.00246814279 -1.05659968320 0.23926601118 -0.00245961582 -1.04871895278 0.24293477341 -0.00244254509 -1.04160007668 0.24625962917 -0.00241355872 -1.03554096764 0.24911130627 -0.00256788721 -1.10934626544 0.22996279578 -0.00253995617 -1.10318219848 0.23299200838 -0.00252259636 -1.09603419435 0.23646357436 -0.00251261750 -1.08818564936 0.24024490003 -0.00250682933 -1.07991995984 0.24420339170 -0.00250204157 -1.07152052212 0.24820645568 -0.00249506396 -1.06327073253 0.25212149828 -0.00248270623 -1.05545398739 0.25581592582 -0.00246177810 -1.04835368303 0.25915714460 -0.00242908932 -1.04225321577 0.26201256093 -0.00260916261 -1.11538198885 0.24241800978 -0.00257919311 -1.10922761675 0.24545686765 -0.00255914169 -1.10210793184 0.24894318439 -0.00254600092 -1.09429959920 0.25274315225 -0.00253676339 -1.08607928389 0.25672296349 -0.00252842165 -1.07772365098 0.26074881035 -0.00251796828 -1.06950936553 0.26468688511 -0.00250239586 -1.06171309262 0.26840338000 -0.00247869695 -1.05461149730 0.27176448729 -0.00244386414 -1.04848124464 0.27463639923 -0.00216074789 -1.05259343948 0.09965806557 -0.00215455959 -1.04521142675 0.10423428156 -0.00215348090 -1.03706691583 0.10981725215 -0.00215726230 -1.02832754697 0.11631986702 -0.00216565427 -1.01916096039 0.12365501588 -0.00217840729 -1.00973479634 0.13173558840 -0.00219527182 -1.00021669505 0.14047447430 -0.00221599835 -0.99077429678 0.14978456324 -0.00224033735 -0.98157524176 0.15957874494 -0.00226803931 -0.97278717022 0.16976990908 -0.00224938526 -1.06264795598 0.12051593645 -0.00223351668 -1.05513051815 0.12482676046 -0.00222525111 -1.04678281294 0.12988419855 -0.00222346248 -1.03781082119 0.13560587369 -0.00222702470 -1.02842052378 0.14190940885 -0.00223481169 -1.01881790155 0.14871242700 -0.00224569737 -1.00920893536 0.15593255112 -0.00225855564 -0.99979960606 0.16348740416 -0.00227226042 -0.99079589451 0.17129460910 -0.00228568563 -0.98240378156 0.17927178891 -0.00232361448 -1.07181265689 0.13951957830 -0.00230149677 -1.06420587534 0.14362623585 -0.00228825309 -1.05573853926 0.14829044788 -0.00228219246 -1.04663912031 0.15343175885 -0.00228162394 -1.03713609017 0.15896971319 -0.00228485656 -1.02745792050 0.16482385534 -0.00229019936 -1.01783308298 0.17091372974 -0.00229596137 -1.00849004927 0.17715888082 -0.00230045163 -0.99965729105 0.18347885304 -0.00230197919 -0.99156327999 0.18979319082 -0.00238581259 -1.08019796519 0.15689873306 -0.00236013415 -1.07253974601 0.16085464501 -0.00234364209 -1.06402035509 0.16523927350 -0.00233433363 -1.05487790848 0.16997188781 -0.00233020602 -1.04535052219 0.17497175722 -0.00232925650 -1.03567631224 0.18015815102 -0.00232948229 -1.02609339468 0.18545033848 -0.00232888063 -1.01683988551 0.19076758891 -0.00232544876 -1.00815390077 0.19602917158 -0.00231718392 -1.00027355648 0.20115435578 -0.00243835661 -1.08791430390 0.17288314264 -0.00241106307 -1.08023437783 0.17673392526 -0.00239257335 -1.07171452073 0.18093394878 -0.00238076736 -1.06259264985 0.18540062589 -0.00237352499 -1.05310668247 0.19005136928 -0.00236872613 -1.04349453583 0.19480359166 -0.00236425067 -1.03399412721 0.19957470569 -0.00235797853 -1.02484337386 0.20428212410 -0.00234778958 -1.01628019305 0.20884325955 -0.00233156373 -1.00854250203 0.21317552475 -0.00248362358 -1.09507209603 0.18770254899 -0.00245591780 -1.08739201850 0.19148601388 -0.00243620215 -1.07890729644 0.19557774707 -0.00242237503 -1.06984880859 0.19989233840 -0.00241233487 -1.06044743364 0.20434437772 -0.00240398006 -1.05093405032 0.20884845487 -0.00239520902 -1.04153953734 0.21331915970 -0.00238392015 -1.03249477342 0.21767108206 -0.00236801186 -1.02403063728 0.22181881178 -0.00234538257 -1.01637800764 0.22567693872 -0.00252399053 -1.10178176457 0.20158669405 -0.00249633260 -1.09411491569 0.20533284817 -0.00247568371 -1.08568494253 0.20937394173 -0.00246003803 -1.07671184884 0.21362139065 -0.00244738971 -1.06741563834 0.21798661086 -0.00243573292 -1.05801631476 0.22238101828 -0.00242306183 -1.04873388183 0.22671602884 -0.00240737060 -1.03978834329 0.23090305847 -0.00238665338 -1.03139970286 0.23485352309 -0.00235890435 -1.02378796428 0.23847883863 -0.00256183450 -1.10815373253 0.21476531973 -0.00253394175 -1.10050531708 0.21849636543 -0.00251217330 -1.09213371928 0.22252580613 -0.00249463772 -1.08324723477 0.22676214796 -0.00247944354 -1.07405415920 0.23111389704 -0.00246469932 -1.06476278820 0.23548955949 -0.00244851361 -1.05558141744 0.23979764144 -0.00242899496 -1.04671834254 0.24394664901 -0.00240425191 -1.03838185917 0.24784508831 -0.00237239302 -1.03078026295 0.25140146548 -0.00259953253 -1.11429842291 0.22746816798 -0.00257037950 -1.10666547037 0.23119850294 -0.00254682617 -1.09833988698 0.23523661362 -0.00252705548 -1.08952043054 0.23948897564 -0.00250925040 -1.08040585885 0.24386206460 -0.00249159388 -1.07119492971 0.24826235613 -0.00247226888 -1.06208640092 0.25259632584 -0.00244945834 -1.05327903028 0.25677044935 -0.00242134522 -1.04497157559 0.26069120227 -0.00238611249 -1.03736279465 0.26426506022 -0.00263946163 -1.12032625872 0.23992498074 -0.00260728013 -1.11269762323 0.24366119801 -0.00258079756 -1.10438970591 0.24770963757 -0.00255817271 -1.09559690030 0.25197623899 -0.00253756433 -1.08651359993 0.25636694187 -0.00251713122 -1.07733419834 0.26078768581 -0.00249503212 -1.06825308905 0.26514441038 -0.00246942583 -1.05946466560 0.26934305518 -0.00243847110 -1.05116332152 0.27328955979 -0.00240032670 -1.04354345035 0.27688986382 -0.00217901147 -1.05702338335 0.09870202353 -0.00217359029 -1.04872255168 0.10411073108 -0.00216999920 -1.03989635486 0.11029326307 -0.00216896877 -1.03065558481 0.11727021761 -0.00217122954 -1.02111103340 0.12506219280 -0.00217751208 -1.01137349254 0.13368978672 -0.00218854694 -1.00155375412 0.14317359748 -0.00220506468 -0.99176261003 0.15353422318 -0.00222779585 -0.98211085218 0.16479226190 -0.00225747101 -0.97270927245 0.17696831176 -0.00226616953 -1.06679171747 0.11910464971 -0.00225264280 -1.05834868861 0.12420481153 -0.00224284804 -1.04932638307 0.12986028752 -0.00223659300 -1.03986160539 0.13606774986 -0.00223368543 -1.03009116009 0.14282387071 -0.00223393308 -1.02015185170 0.15012532227 -0.00223714370 -1.01018048474 0.15796877671 -0.00224312503 -1.00031386374 0.16635090620 -0.00225168481 -0.99068879323 0.17526838293 -0.00226263081 -0.98144207774 0.18471787906 -0.00234013685 -1.07575118525 0.13779501178 -0.00232083712 -1.06720136140 0.14264486724 -0.00230620158 -1.05804787969 0.14789274835 -0.00229545932 -1.04844305625 0.15351632130 -0.00228783943 -1.03853920720 0.15949325227 -0.00228257099 -1.02848864867 0.16580120746 -0.00227888310 -1.01844369678 0.17241785305 -0.00227600483 -1.00855666767 0.17932085523 -0.00227316528 -0.99897987746 0.18648788019 -0.00226959354 -0.98986564228 0.19389659412 -0.00240299252 -1.08399927891 0.15497906420 -0.00237975228 -1.07537296525 0.15963119583 -0.00236136509 -1.06614199021 0.16457576246 -0.00234675522 -1.05646565406 0.16977579224 -0.00233484697 -1.04650325707 0.17519431330 -0.00232456463 -1.03641409951 0.18079435379 -0.00231483248 -1.02635748165 0.18653894184 -0.00230457480 -1.01649270376 0.19239110560 -0.00229271590 -1.00697906611 0.19831387320 -0.00227818005 -0.99797586896 0.20427027278 -0.00245681567 -1.09163349068 0.17086276146 -0.00243096733 -1.08295589532 0.17536409493 -0.00240964382 -1.07368986008 0.18009444676 -0.00239166819 -1.06399511549 0.18500602298 -0.00237586349 -1.05403139206 0.19005102964 -0.00236105280 -1.04395842031 0.19518167276 -0.00234605916 -1.03393593077 0.20035015841 -0.00232970564 -1.02412365396 0.20550869262 -0.00231081530 -1.01468132040 0.21060948143 -0.00228821118 -1.00576866062 0.21560473088 -0.00250368539 -1.09875131280 0.18565205803 -0.00247606129 -1.09004254680 0.19004386219 -0.00245234302 -1.08077263479 0.19463391815 -0.00243138570 -1.07109715719 0.19936687382 -0.00241204443 -1.06117169449 0.20418737709 -0.00239317432 -1.05115182712 0.20904007588 -0.00237363049 -1.04119313555 0.21386961809 -0.00235226805 -1.03145120022 0.21862065162 -0.00232794211 -1.02208160160 0.22323782438 -0.00229950778 -1.01323992013 0.22766578427 -0.00254568082 -1.10545023749 0.19955290841 -0.00251661321 -1.09672531488 0.20387079524 -0.00249076796 -1.08747145979 0.20837929354 -0.00246709524 -1.07783749585 0.21301820505 -0.00244454521 -1.06797224671 0.21772733151 -0.00242206800 -1.05802453601 0.22244647465 -0.00239861379 -1.04814318739 0.22711543621 -0.00237313273 -1.03847702448 0.23167401793 -0.00234457498 -1.02917487092 0.23606202155 -0.00231189068 -1.02038555037 0.24021924880 -0.00258488105 -1.11182775698 0.21277126707 -0.00255420211 -1.10309659472 0.21704519171 -0.00252622389 -1.09386748056 0.22151568983 -0.00249998431 -1.08428184813 0.22611987698 -0.00247452126 -1.07448113108 0.23079486871 -0.00244887266 -1.06460676305 0.23547778057 -0.00242207640 -1.05480017771 0.24010572811 -0.00239317039 -1.04520280868 0.24461582688 -0.00236119254 -1.03595608962 0.24894519242 -0.00232518074 -1.02720145418 0.25303094029 -0.00262336519 -1.11798136350 0.22551308848 -0.00259040703 -1.10924878152 0.22976734923 -0.00256001607 -1.10004184257 0.23422822392 -0.00253124038 -1.09049593069 0.23883174991 -0.00250312804 -1.08074642992 0.24351396453 -0.00247472710 -1.07092872431 0.24821090515 -0.00244508564 -1.06117819792 0.25285860911 -0.00241325173 -1.05163023477 0.25739311377 -0.00237827342 -1.04242021893 0.26175045649 -0.00233919880 -1.03368353444 0.26586667461 -0.00266321236 -1.12400854928 0.23798432713 -0.00262680700 -1.11527427045 0.24223756545 -0.00259344974 -1.10607569129 0.24670201273 -0.00256205094 -1.09654546020 0.25131368412 -0.00253152096 -1.08681622558 0.25600859479 -0.00250077014 -1.07702063586 0.26072275988 -0.00246870885 -1.06729133943 0.26539219455 -0.00243424744 -1.05776098470 0.26995291395 -0.00239629627 -1.04856222009 0.27434093325 -0.00235376570 -1.03982769401 0.27849226759 -0.00217152239 -1.06075739797 0.09878349277 -0.00216741465 -1.05181070933 0.10482438468 -0.00216198537 -1.04248860852 0.11145310488 -0.00215676855 -1.03286472410 0.11876231907 -0.00215329816 -1.02301268460 0.12684469296 -0.00215310818 -1.01300611859 0.13579289225 -0.00215773260 -1.00291865460 0.14569958265 -0.00216870540 -0.99282392120 0.15665742986 -0.00218756056 -0.98279554693 0.16875909958 -0.00221583208 -0.97290716035 0.18209725751 -0.00225810778 -1.07004973482 0.11850702115 -0.00224617816 -1.06098409591 0.12421256246 -0.00223474401 -1.05149587588 0.13032210001 -0.00222433689 -1.04167713924 0.13688493241 -0.00221548840 -1.03161995052 0.14395035831 -0.00220873010 -1.02141637424 0.15156767632 -0.00220459358 -1.01115847493 0.15978618507 -0.00220361041 -1.00093831709 0.16865518319 -0.00220631216 -0.99084796527 0.17822396930 -0.00221323043 -0.98097948397 0.18854184204 -0.00233351125 -1.07866124160 0.13672996346 -0.00231537482 -1.06949434174 0.14214920376 -0.00229873938 -1.05988373158 0.14784233980 -0.00228350008 -1.04993262126 0.15382553297 -0.00226955203 -1.03974422093 0.16011494468 -0.00225679038 -1.02942174075 0.16672673632 -0.00224511024 -1.01906839086 0.17367706927 -0.00223440676 -1.00878738143 0.18098210494 -0.00222457506 -0.99868192260 0.18865800470 -0.00221551028 -0.98885522452 0.19672092997 -0.00239929668 -1.08666994423 0.15362291363 -0.00237626472 -1.07741838133 0.15880252991 -0.00235511496 -1.06772257048 0.16417106904 -0.00233539702 -1.05769093768 0.16972042421 -0.00231666052 -1.04743190894 0.17544248860 -0.00229845506 -1.03705391027 0.18132915539 -0.00228033027 -1.02666536767 0.18737231778 -0.00226183575 -1.01637470714 0.19356386894 -0.00224252112 -1.00629035469 0.19989570206 -0.00222193599 -0.99652073633 0.20635971033 -0.00245702797 -1.09415386859 0.16935646553 -0.00243010798 -1.08483314915 0.17434076225 -0.00240501421 -1.07508278742 0.17946553253 -0.00238116666 -1.06501185605 0.18470590958 -0.00235798533 -1.05472942770 0.19003702657 -0.00233489022 -1.04434457500 0.19543401669 -0.00231130133 -1.03396637060 0.20087201312 -0.00228663865 -1.02370388716 0.20632614905 -0.00226032217 -1.01366619732 0.21177155767 -0.00223177191 -1.00396237372 0.21718337215 -0.00250826903 -1.10119104057 0.18410121309 -0.00247816470 -1.09181557970 0.18893212211 -0.00244958058 -1.08203477727 0.19388297507 -0.00242194790 -1.07195514393 0.19891829254 -0.00239469793 -1.06168319033 0.20400259511 -0.00236726191 -1.05132542711 0.20910040334 -0.00233907110 -1.04098836492 0.21417623782 -0.00230955674 -1.03077851441 0.21919461911 -0.00227815009 -1.02080238624 0.22412006780 -0.00224428240 -1.01116649103 0.22891710446 -0.00255458373 -1.10785948608 0.19802775019 -0.00252169500 -1.09844260747 0.20274483083 -0.00248995754 -1.08864893487 0.20758064144 -0.00245887969 -1.07858056884 0.21249387656 -0.00242796979 -1.06833960996 0.21744323073 -0.00239673619 -1.05802815879 0.22238739850 -0.00236468725 -1.04774831589 0.22728507440 -0.00233133131 -1.03760218185 0.23209495297 -0.00229617672 -1.02769185722 0.23677572875 -0.00225873182 -1.01811944258 0.24128609627 -0.00259753597 -1.11423723099 0.21130667075 -0.00256195899 -1.10479116696 0.21594710974 -0.00252728856 -1.09499565508 0.22071577643 -0.00249310093 -1.08494789835 0.22556896509 -0.00245897237 -1.07474509973 0.23046296996 -0.00242447913 -1.06448446221 0.23535408531 -0.00238919747 -1.05426318877 0.24019860540 -0.00235270364 -1.04417848238 0.24495282447 -0.00231457391 -1.03432754603 0.24957303679 -0.00227438453 -1.02480758269 0.25401553662 -0.00263868965 -1.12040230122 0.22410856865 -0.00260021677 -1.11093819264 0.22870718017 -0.00256271709 -1.10114533275 0.23344562485 -0.00252575057 -1.09111689998 0.23827986159 -0.00248887715 -1.08094607277 0.24316584931 -0.00245165678 -1.07072602957 0.24805954692 -0.00241364942 -1.06054994881 0.25291691333 -0.00237441502 -1.05051100896 0.25769390746 -0.00233351352 -1.04070238843 0.26234648823 -0.00229050487 -1.03121726569 0.26683061453 -0.00267960867 -1.12643272264 0.23660403780 -0.00263772845 -1.11696061903 0.24119326347 -0.00259738660 -1.10716836273 0.24592743148 -0.00255796751 -1.09714734128 0.25076286952 -0.00251885558 -1.08698894220 0.25565590528 -0.00247943521 -1.07678455303 0.26056286646 -0.00243909079 -1.06662556129 0.26544008073 -0.00239720672 -1.05660335450 0.27024387579 -0.00235316740 -1.04680932020 0.27493057933 -0.00230635722 -1.03733484591 0.27945651903 -0.00213297276 -1.06389352596 0.09978617163 -0.00212943063 -1.05458909965 0.10635311194 -0.00212213144 -1.04496319798 0.11334419429 -0.00211318638 -1.03507405549 0.12089308707 -0.00210470663 -1.02497990672 0.12913345871 -0.00209880338 -1.01473898623 0.13819897760 -0.00209758784 -1.00440952857 0.14822331215 -0.00210317119 -0.99404976827 0.15934013077 -0.00211766462 -0.98371793990 0.17168310185 -0.00214317933 -0.97347227801 0.18538589381 -0.00222269922 -1.07251415811 0.11867082240 -0.00221071360 -1.06313550461 0.12485048349 -0.00219697963 -1.05339102944 0.13130968156 -0.00218254044 -1.04335386926 0.13812650495 -0.00216843914 -1.03309716074 0.14537904200 -0.00215571888 -1.02269404052 0.15314538104 -0.00214542278 -1.01221764527 0.16150361040 -0.00213859396 -1.00174111164 0.17053181841 -0.00213627555 -0.99133757629 0.18030809341 -0.00213951068 -0.98108017588 0.19091052373 -0.00230304324 -1.08062501939 0.13631535486 -0.00228389935 -1.07116793496 0.14215380284 -0.00226428009 -1.06132688679 0.14817224876 -0.00224453399 -1.05118385935 0.15440691448 -0.00222500959 -1.04082083711 0.16089402187 -0.00220605544 -1.03031980453 0.16766979280 -0.00218802006 -1.01976274610 0.17477044911 -0.00217125201 -1.00923164627 0.18223221268 -0.00215609981 -0.99880848953 0.19009130537 -0.00214291201 -0.98857526033 0.19838394903 -0.00237501794 -1.08827938571 0.15284701106 -0.00234982744 -1.07874301061 0.15839035581 -0.00232485246 -1.06882514602 0.16405171205 -0.00230004632 -1.05861171479 0.16983723982 -0.00227536233 -1.04818863980 0.17575309917 -0.00225075379 -1.03764184392 0.18180545015 -0.00222617402 -1.02705725000 0.18800045280 -0.00220157634 -1.01652078092 0.19434426717 -0.00217691404 -1.00611835955 0.20084305330 -0.00215214044 -0.99593590874 0.20750297126 -0.00243963641 -1.09553053300 0.16839303304 -0.00240933739 -1.08591735145 0.17368742823 -0.00237951638 -1.07594018308 0.17906788762 -0.00234995671 -1.06568512462 0.18452040514 -0.00232044170 -1.05523827279 0.19003097475 -0.00229075468 -1.04468572432 0.19558559037 -0.00226067898 -1.03411357593 0.20117024597 -0.00222999793 -1.02360792435 0.20677093547 -0.00219849484 -1.01325486630 0.21237365282 -0.00216595306 -1.00314049850 0.21796439197 -0.00249791179 -1.10243173716 0.18308066286 -0.00246326876 -1.09274757735 0.18817230591 -0.00242909149 -1.08272637395 0.19334059162 -0.00239514443 -1.07245177788 0.19855933460 -0.00236119206 -1.06200744005 0.20380234944 -0.00232699885 -1.05147701140 0.20904345075 -0.00229232927 -1.04094414284 0.21425645314 -0.00225694778 -1.03049248531 0.21941517118 -0.00222061885 -1.02020568972 0.22449341950 -0.00218310696 -1.01016740701 0.22946501269 -0.00255085716 -1.10903627412 0.19703714257 -0.00251246108 -1.09929030823 0.20197227466 -0.00247439741 -1.08923809461 0.20698964023 -0.00243648877 -1.07895936360 0.21205695236 -0.00239855778 -1.06853384554 0.21714192411 -0.00236042705 -1.05804127079 0.22221226857 -0.00232191921 -1.04756136968 0.22723569881 -0.00228285688 -1.03717387256 0.23217992791 -0.00224306269 -1.02695850977 0.23701266894 -0.00220235924 -1.01699501166 0.24170163498 -0.00259948565 -1.11539741979 0.21038971423 -0.00255775390 -1.10560216396 0.21521462031 -0.00251625380 -1.09552972102 0.22013484962 -0.00247486901 -1.08525557082 0.22511618258 -0.00243348319 -1.07485519324 0.23012439960 -0.00239198001 -1.06440406814 0.23512528110 -0.00235024314 -1.05397767539 0.24008460752 -0.00230815624 -1.04365149484 0.24496815925 -0.00226560297 -1.03350100637 0.24974171673 -0.00222246700 -1.02360168984 0.25437106038 -0.00264481037 -1.12156845009 0.22326561987 -0.00259998676 -1.11173976444 0.22802662867 -0.00255548028 -1.10165562915 0.23289603596 -0.00251116442 -1.09138808859 0.23783994942 -0.00246691265 -1.08100918712 0.24282447675 -0.00242259848 -1.07059096911 0.24781572563 -0.00237809537 -1.06020547893 0.25277980375 -0.00233327683 -1.04992476093 0.25768281880 -0.00228801632 -1.03982085948 0.26249087846 -0.00224218734 -1.02996581895 0.26717009042 -0.00268784442 -1.12760264095 0.23579210155 -0.00263999919 -1.11775972955 0.24053558556 -0.00259289649 -1.10767019497 0.24539301542 -0.00254625428 -1.09740460593 0.25033117706 -0.00249979053 -1.08703353115 0.25531685642 -0.00245322320 -1.07662753935 0.26031683944 -0.00240627025 -1.06625719925 0.26529791203 -0.00235864965 -1.05599307957 0.27022686015 -0.00231007937 -1.04590574904 0.27507046972 -0.00226027736 -1.03606577637 0.27979552666 -0.00205805469 -1.06652980993 0.10159375844 -0.00205303620 -1.05717092258 0.10867478242 -0.00204312943 -1.04743964440 0.11601394802 -0.00203074698 -1.03740266963 0.12375943731 -0.00201830147 -1.02712669250 0.13205943239 -0.00200820552 -1.01667840723 0.14106211537 -0.00200287174 -1.00612450807 0.15091566834 -0.00200471274 -0.99553168924 0.16176827339 -0.00201614114 -0.98496664498 0.17376811263 -0.00203956956 -0.97449606953 0.18706336813 -0.00215744306 -1.07427713746 0.11954382515 -0.00214283994 -1.06490167924 0.12611904486 -0.00212559551 -1.05511158182 0.13286307773 -0.00210704989 -1.04498824195 0.13986155105 -0.00208854320 -1.03461305638 0.14720009215 -0.00207141556 -1.02406742185 0.15496432833 -0.00205700707 -1.01343273511 0.16323988690 -0.00204665786 -1.00279039291 0.17211239516 -0.00204170804 -0.99222179199 0.18166748043 -0.00204349772 -0.98180832911 0.19199077001 -0.00224803839 -1.08172471205 0.13654210748 -0.00222520022 -1.07230525965 0.14267322192 -0.00220123730 -1.06245813722 0.14891550176 -0.00217678032 -1.05227281456 0.15530798642 -0.00215245996 -1.04183876149 0.16188971529 -0.00212890691 -1.03124544782 0.16869972778 -0.00210675183 -1.02058234336 0.17577706329 -0.00208662543 -1.00993891792 0.18316076122 -0.00206915837 -0.99940464131 0.19088986097 -0.00205498134 -0.98906898335 0.19900340195 -0.00233044916 -1.08889702791 0.15266808621 -0.00230059643 -1.07941386947 0.15841638210 -0.00227053835 -1.06951276695 0.16424421031 -0.00224049040 -1.05928594086 0.17015769519 -0.00221066806 -1.04882561167 0.17616296109 -0.00218128680 -1.03822399987 0.18226613238 -0.00215256210 -1.02757332595 0.18847333340 -0.00212470944 -1.01696581040 0.19479068851 -0.00209794429 -1.00649367369 0.20122432205 -0.00207248212 -0.99624913632 0.20778035838 -0.00240528386 -1.09581857928 0.16800124214 -0.00236950796 -1.08625971435 0.17342759392 -0.00233398221 -1.07630892739 0.17892219353 -0.00229873227 -1.06605717425 0.18446962913 -0.00226378380 -1.05559541075 0.19005448883 -0.00222916247 -1.04501459273 0.19566136078 -0.00219489394 -1.03440567602 0.20127483312 -0.00216100388 -1.02385961645 0.20687949396 -0.00212751793 -1.01346736987 0.21245993145 -0.00209446177 -1.00331989210 0.21800073373 -0.00247315099 -1.10251386036 0.18262105605 -0.00243241420 -1.09287499994 0.18778592587 -0.00239205242 -1.08288007489 0.19302244162 -0.00235205806 -1.07261606813 0.19830274002 -0.00231242351 -1.06216996256 0.20359895778 -0.00227314117 -1.05162874110 0.20888323164 -0.00223420345 -1.04107938668 0.21412769831 -0.00219560274 -1.03060888220 0.21930449452 -0.00215733144 -1.02030421059 0.22438575697 -0.00211938196 -1.01025235475 0.22934362240 -0.00253465902 -1.10900736538 0.19660700873 -0.00248979452 -1.09929193191 0.20157044647 -0.00244523253 -1.08925966582 0.20661794475 -0.00240101990 -1.07899217589 0.21171597963 -0.00235720348 -1.06857107093 0.21683102722 -0.00231383012 -1.05807795973 0.22192956361 -0.00227094668 -1.04759445108 0.22697806487 -0.00222860002 -1.03720215377 0.23194300711 -0.00218683697 -1.02698267660 0.23679086640 -0.00214570441 -1.01701762837 0.24148811885 -0.00259041646 -1.11532358857 0.21003858096 -0.00254212833 -1.10554271591 0.21486022423 -0.00249400610 -1.09548115653 0.21978169309 -0.00244616994 -1.08521505095 0.22476829976 -0.00239874003 -1.07482053970 0.22978535644 -0.00235183657 -1.06437376332 0.23479817534 -0.00230557973 -1.05395086233 0.23977206868 -0.00226008970 -1.04362797726 0.24467234868 -0.00221548666 -1.03348124864 0.24946432754 -0.00217189080 -1.02358681701 0.25411331747 -0.00264103178 -1.12148702414 0.22299525353 -0.00258989501 -1.11165955760 0.22773432765 -0.00253885666 -1.10157800339 0.23258667684 -0.00248806030 -1.09131424669 0.23751865216 -0.00243764948 -1.08094017270 0.24249660469 -0.00238776775 -1.07052766660 0.24748688549 -0.00233855866 -1.06014861357 0.25245584562 -0.00229016578 -1.04987489880 0.25736983616 -0.00224273265 -1.03977840746 0.26219520817 -0.00219640284 -1.02993102475 0.26689831271 -0.00268711349 -1.12752216632 0.23555650722 -0.00263357394 -1.11767466262 0.24027182523 -0.00258026778 -1.10758366275 0.24510588616 -0.00252724313 -1.09731931653 0.25002598863 -0.00247454813 -1.08695177377 0.25499943127 -0.00242223090 -1.07655118430 0.25999351271 -0.00237033956 -1.06618769793 0.26497553158 -0.00231892225 -1.05593146449 0.26991278649 -0.00226802709 -1.04585263380 0.27477257609 -0.00221770222 -1.03602135567 0.27952219899 -0.00194146031 -1.06876429250 0.10408995151 -0.00193162931 -1.05966937805 0.11176726569 -0.00191767135 -1.05003746896 0.11950978278 -0.00190197508 -1.03996965718 0.12745828545 -0.00188692921 -1.02956703466 0.13575355636 -0.00187492240 -1.01893069334 0.14453637818 -0.00186834336 -1.00816172517 0.15394753358 -0.00186958075 -0.99736122209 0.16412780523 -0.00188102326 -0.98663027606 0.17521797579 -0.00190505958 -0.97606997902 0.18735882794 -0.00205983853 -1.07543082295 0.12107380103 -0.00203914801 -1.06638138435 0.12801871683 -0.00201663225 -1.05675727111 0.13502233407 -0.00199371154 -1.04667670382 0.14215915431 -0.00197180612 -1.03625790310 0.14950367913 -0.00195233626 -1.02561908955 0.15713041009 -0.00193672223 -1.01487848378 0.16511384876 -0.00192638429 -1.00415430641 0.17352849672 -0.00192274270 -0.99356477804 0.18244885554 -0.00192721773 -0.98322811928 0.19194942677 -0.00216780225 -1.08204251300 0.13740114281 -0.00213806690 -1.07298943440 0.14372201843 -0.00210802462 -1.06335827474 0.15010512536 -0.00207845834 -1.05327553091 0.15657626940 -0.00205015099 -1.04286769983 0.16316125640 -0.00202388551 -1.03226127840 0.16988589217 -0.00200044483 -1.02158276351 0.17677598253 -0.00198061187 -1.01095865209 0.18385733331 -0.00196516957 -1.00051544102 0.19115575032 -0.00195490086 -0.99037962721 0.19869703940 -0.00226588322 -1.08859229537 0.15310286882 -0.00222872768 -1.07949797426 0.15890231732 -0.00219213339 -1.06984848342 0.16477508261 -0.00215651655 -1.05977157135 0.17071324641 -0.00212229338 -1.04939498656 0.17670889044 -0.00208988008 -1.03884647754 0.18275409643 -0.00205969286 -1.02825379280 0.18884094610 -0.00203214792 -1.01774468083 0.19496152120 -0.00200766148 -1.00744689014 0.20110790343 -0.00198664975 -0.99748816921 0.20727217452 -0.00235461320 -1.09507310279 0.16820987101 -0.00231147207 -1.08591144998 0.17358476033 -0.00226924355 -1.07623590070 0.17904913180 -0.00222818727 -1.06617025801 0.18457370099 -0.00218856284 -1.05583832497 0.19012918349 -0.00215062989 -1.04536390464 0.19568629487 -0.00211464803 -1.03487080009 0.20121575072 -0.00208087688 -1.02448281436 0.20668826661 -0.00204957606 -1.01432375054 0.21207455812 -0.00202100518 -1.00451741166 0.21734534083 -0.00243452394 -1.10147786798 0.18275304137 -0.00238664174 -1.09223430763 0.18779449428 -0.00233964005 -1.08252853014 0.19294419887 -0.00229377156 -1.07247702376 0.19816124882 -0.00224928894 -1.06219627675 0.20340473781 -0.00220644488 -1.05180277734 0.20863375951 -0.00216549206 -1.04141301381 0.21380740761 -0.00212668318 -1.03114347440 0.21888477577 -0.00209027091 -1.02111064736 0.22382495768 -0.00205650794 -1.01143102094 0.22858704702 -0.00250614721 -1.10779952366 0.19676327184 -0.00245457841 -1.09847099328 0.20155666599 -0.00240360787 -1.08873437532 0.20647720980 -0.00235357049 -1.07869730151 0.21147950558 -0.00230480121 -1.06846740359 0.21651815566 -0.00225763496 -1.05815231331 0.22154776236 -0.00221240667 -1.04785966242 0.22652292800 -0.00216945126 -1.03769708265 0.23139825490 -0.00212910366 -1.02777220574 0.23612834539 -0.00209169881 -1.01819266345 0.24066780179 -0.00257001475 -1.11403100256 0.21027145440 -0.00251562378 -1.10462595299 0.21489642230 -0.00246143195 -1.09486143978 0.21966509054 -0.00240788514 -1.08483652412 0.22453208693 -0.00235542923 -1.07465026719 0.22945203928 -0.00230451007 -1.06440173020 0.23437957541 -0.00225557356 -1.05418997435 0.23926932311 -0.00220906555 -1.04411406083 0.24407591021 -0.00216543193 -1.03427305083 0.24875396451 -0.00212511857 -1.02476600555 0.25325811383 -0.00262665834 -1.12016523739 0.22330848100 -0.00257011954 -1.11070363283 0.22783891002 -0.00251339728 -1.10091772710 0.23252476705 -0.00245701660 -1.09090012447 0.23732260855 -0.00240150254 -1.08074342924 0.24218899094 -0.00234738014 -1.07054024567 0.24708047068 -0.00229517445 -1.06038317805 0.25195360419 -0.00224541050 -1.05036483066 0.25676494793 -0.00219861333 -1.04057780776 0.26147105833 -0.00215530799 -1.03111471365 0.26602849184 -0.00267660973 -1.12619516089 0.23590524363 -0.00261840740 -1.11670847885 0.24040927598 -0.00255978881 -1.10691124082 0.24507316531 -0.00250126593 -1.09689353546 0.24985468610 -0.00244335070 -1.08674545143 0.25471161289 -0.00238655509 -1.07655707737 0.25960172017 -0.00233139105 -1.06641850196 0.26448278246 -0.00227837052 -1.05641981384 0.26931257427 -0.00222800548 -1.04665110168 0.27404887012 -0.00218080787 -1.03720245412 0.27864944451 -0.00177788172 -1.07069501628 0.10715844918 -0.00175860793 -1.06219766599 0.11560843131 -0.00173844922 -1.05287619281 0.12387911531 -0.00171939542 -1.04289410878 0.13208654718 -0.00170343635 -1.03241492594 0.14034677294 -0.00169256185 -1.02160215631 0.14877583862 -0.00168876176 -1.01061931192 0.15748979022 -0.00169402589 -0.99962990482 0.16660467375 -0.00171034409 -0.98879744703 0.17623653525 -0.00173970618 -0.97828545059 0.18650142072 -0.00192738485 -1.07606736468 0.12320852171 -0.00189622864 -1.06767338449 0.13054996964 -0.00186613048 -1.05842783537 0.13782749613 -0.00183837164 -1.04851570137 0.14508839830 -0.00181423342 -1.03812196654 0.15237997328 -0.00179499712 -1.02743161495 0.15974951820 -0.00178194402 -1.01662963064 0.16724433020 -0.00177635542 -1.00590099768 0.17491170639 -0.00177951261 -0.99543070012 0.18279894391 -0.00179269688 -0.98540372202 0.19095333990 -0.00206164039 -1.08166061569 0.13888338236 -0.00202128888 -1.07330357781 0.14531474982 -0.00198305563 -1.06410809124 0.15177414607 -0.00194778729 -1.05426805243 0.15825928403 -0.00191633052 -1.04397735788 0.16476787664 -0.00188953198 -1.03342990406 0.17129763684 -0.00186823831 -1.02281958744 0.17784627754 -0.00185329618 -1.01234030450 0.18441151169 -0.00184555225 -1.00218595171 0.19099105221 -0.00184585316 -0.99255042556 0.19758261203 -0.00218161299 -1.08743461265 0.15416808859 -0.00213437719 -1.07906234134 0.15986987004 -0.00208959835 -1.06989534552 0.16567084778 -0.00204791207 -1.06012656172 0.17153534959 -0.00200995396 -1.04994892648 0.17742770327 -0.00197635962 -1.03955537634 0.18331223661 -0.00194776465 -1.02913884784 0.18915327741 -0.00192480466 -1.01889227751 0.19491515346 -0.00190811525 -1.00900860191 0.20056219256 -0.00189833202 -0.99968075756 0.20605872250 -0.00228826730 -1.09334919891 0.16904769782 -0.00223608209 -1.08492377048 0.17418242850 -0.00218613227 -1.07576798333 0.17946938393 -0.00213901564 -1.06606662896 0.18485274019 -0.00209533002 -1.05600449885 0.19027667338 -0.00205567322 -1.04576638450 0.19568535960 -0.00202064306 -1.03553707738 0.20102297494 -0.00199083733 -1.02550136899 0.20623369550 -0.00196685385 -1.01584405082 0.21126169739 -0.00194929044 -1.00674991435 0.21605115668 -0.00238256796 -1.09936421782 0.18350726750 -0.00232699213 -1.09086196060 0.18821952340 -0.00227303106 -1.08170438976 0.19312153718 -0.00222136771 -1.07206365388 0.19814760105 -0.00217268503 -1.06211190152 0.20323200721 -0.00212766600 -1.05202128123 0.20830904789 -0.00208699356 -1.04196394160 0.21331301529 -0.00205135067 -1.03211203119 0.21817820163 -0.00202142030 -1.02263769855 0.22283889911 -0.00199788541 -1.01371309226 0.22722939997 -0.00246547962 -1.10543951272 0.19753185508 -0.00240769584 -1.09685100711 0.20194825294 -0.00235066837 -1.08768294993 0.20657909020 -0.00229523795 -1.07809303622 0.21135607738 -0.00224224529 -1.06823896099 0.21621092499 -0.00219253113 -1.05827841926 0.22107534356 -0.00214693618 -1.04836910604 0.22588104360 -0.00210630118 -1.03866871635 0.23055973563 -0.00207146685 -1.02933494522 0.23504313016 -0.00204327391 -1.02052548765 0.23926293773 -0.00253796692 -1.11153492695 0.21110651799 -0.00247878174 -1.10286500538 0.21533571530 -0.00241941785 -1.09368204894 0.21979382564 -0.00236089604 -1.08413017572 0.22441431440 -0.00230423710 -1.07435350380 0.22913064695 -0.00225046180 -1.06449615127 0.23387628870 -0.00220059095 -1.05470223622 0.23858470502 -0.00215564533 -1.04511587674 0.24318936131 -0.00211664572 -1.03588119092 0.24762372296 -0.00208461292 -1.02714229685 0.25182125535 -0.00260099450 -1.11761030386 0.22421631368 -0.00254083838 -1.10887805083 0.22834900870 -0.00247965316 -1.09968007190 0.23271752618 -0.00241861168 -1.09015047210 0.23725845732 -0.00235888676 -1.08042335645 0.24190839332 -0.00230165122 -1.07063282997 0.24660392538 -0.00224807789 -1.06091299768 0.25128164471 -0.00219933960 -1.05139796460 0.25587814249 -0.00215660917 -1.04222183577 0.26033000993 -0.00212105943 -1.03351871619 0.26457383823 -0.00265552703 -1.12362548679 0.23684629959 -0.00259445429 -1.11486423883 0.24095523132 -0.00253174796 -1.10565540391 0.24530197447 -0.00246865455 -1.09612932510 0.24982465136 -0.00240642058 -1.08641634547 0.25446138433 -0.00234629256 -1.07664680806 0.25915029570 -0.00228951702 -1.06695105595 0.26382950780 -0.00223734047 -1.05745943220 0.26843714296 -0.00219100944 -1.04830227987 0.27291132349 -0.00215177042 -1.03960994201 0.27719017173 -0.00156201104 -1.07242002391 0.11068294976 -0.00152737001 -1.06486898635 0.12017614885 -0.00149815507 -1.05607533713 0.12916936231 -0.00147553271 -1.04629511510 0.13774113818 -0.00146066942 -1.03578435907 0.14597002450 -0.00145473168 -1.02479910789 0.15393456930 -0.00145888600 -1.01359540039 0.16171332061 -0.00147429887 -1.00242927541 0.16938482646 -0.00150213676 -0.99155677178 0.17702763489 -0.00154356618 -0.98123392833 0.18472029392 -0.00175758122 -1.07627891275 0.12589575884 -0.00171067267 -1.06887644420 0.13371327355 -0.00167013078 -1.06022301268 0.14131860947 -0.00163687647 -1.05060168110 0.14871836662 -0.00161183066 -1.04029551236 0.15591914498 -0.00159591427 -1.02958756937 0.16292754457 -0.00159004822 -1.01876091503 0.16975016539 -0.00159515344 -1.00809861224 0.17639360745 -0.00161215084 -0.99788372391 0.18286447074 -0.00164196134 -0.98839931295 0.18916935527 -0.00192885836 -1.08066121354 0.14097974764 -0.00187365566 -1.07333080848 0.14746597352 -0.00182474395 -1.06478837859 0.15395559043 -0.00178298646 -1.05532642315 0.16040455091 -0.00174924641 -1.04523744139 0.16676880748 -0.00172438704 -1.03481393259 0.17300431268 -0.00170927157 -1.02434839600 0.17906701905 -0.00170476323 -1.01413333087 0.18491287913 -0.00171172525 -1.00446123646 0.19049784543 -0.00173102085 -0.99562461202 0.19577787050 -0.00207793135 -1.08549340429 0.15588047524 -0.00201770093 -1.07817398710 0.16134074881 -0.00196289398 -1.06971640340 0.16695802462 -0.00191446423 -1.06040886743 0.17265546084 -0.00187336545 -1.05053959345 0.17835621566 -0.00184055140 -1.04039679567 0.18398344726 -0.00181697584 -1.03026868835 0.18946031382 -0.00180359252 -1.02044348572 0.19470997354 -0.00180135521 -1.01120940202 0.19965558458 -0.00181121766 -1.00285465149 0.20422030514 -0.00220688905 -1.09070196301 0.17054350072 -0.00214419043 -1.08334788797 0.17524409947 -0.00208548024 -1.07495205562 0.18020363145 -0.00203191132 -1.06578854017 0.18532686618 -0.00198463655 -1.05613141581 0.19051857317 -0.00194480877 -1.04625475673 0.19568352191 -0.00191358084 -1.03643263715 0.20072648193 -0.00189210561 -1.02693913125 0.20555222273 -0.00188153594 -1.01804831323 0.21006551381 -0.00188302470 -1.01003425730 0.21417112469 -0.00231782036 -1.09621336769 0.18491438316 -0.00225450610 -1.08879441901 0.18908252553 -0.00219340212 -1.08044030381 0.19357013036 -0.00213592929 -1.07140496756 0.19827453672 -0.00208350848 -1.06194235576 0.20309308366 -0.00203756055 -1.05230641389 0.20792311027 -0.00199950637 -1.04275108743 0.21266195561 -0.00197076678 -1.03353032187 0.21720695874 -0.00195276267 -1.02489806270 0.22145545874 -0.00194691489 -1.01710825540 0.22530479466 -0.00241281416 -1.10195409634 0.19893868162 -0.00235002987 -1.09445548814 0.20276252704 -0.00228755901 -1.08612611648 0.20693524077 -0.00222711968 -1.07719767582 0.21135424222 -0.00217043003 -1.06790186060 0.21591695081 -0.00211920817 -1.05847036526 0.22052078596 -0.00207517223 -1.04913488426 0.22506316710 -0.00204004033 -1.04012711204 0.22944151363 -0.00201553061 -1.03167874305 0.23355324499 -0.00200336118 -1.02402147173 0.23729578059 -0.00249395931 -1.10785062697 0.21256195519 -0.00243214371 -1.10027300326 0.21619060405 -0.00236885029 -1.09195446218 0.22017668210 -0.00230608405 -1.08310619115 0.22442175246 -0.00224584996 -1.07393937760 0.22882737825 -0.00219015302 -1.06466520897 0.23329512260 -0.00214099822 -1.05549487269 0.23772654862 -0.00210039054 -1.04663955619 0.24202321944 -0.00207033497 -1.03831044690 0.24608669818 -0.00205283650 -1.03071873225 0.24981854797 -0.00256334471 -1.11382943756 0.22572976294 -0.00250222955 -1.10618887230 0.22927325660 -0.00243817535 -1.09787030943 0.23317217378 -0.00237342392 -1.08907003976 0.23733283722 -0.00231021705 -1.07998435406 0.24166156965 -0.00225079653 -1.07080954313 0.24606469380 -0.00219740415 -1.06174189776 0.25044853241 -0.00215228170 -1.05297770874 0.25471940821 -0.00211767098 -1.04471326686 0.25878364394 -0.00209581378 -1.03714486291 0.26254756232 -0.00262305924 -1.11981700614 0.23838766394 -0.00256166933 -1.11214500316 0.24191698473 -0.00249643358 -1.10381862677 0.24579943524 -0.00242974087 -1.09502874785 0.24994326628 -0.00236398008 -1.08596623725 0.25425672867 -0.00230154010 -1.07682196586 0.25864807321 -0.00224480982 -1.06778680453 0.26302555071 -0.00219617811 -1.05905162414 0.26729741200 -0.00215803386 -1.05080729556 0.27137190788 -0.00213276596 -1.04324468964 0.27515728916 -0.00128854039 -1.07403735798 0.11454715160 -0.00123131352 -1.06779653905 0.12544828786 -0.00118948092 -1.05975442308 0.13542794051 -0.00116291169 -1.05029176676 0.14451897414 -0.00115147492 -1.03978932679 0.15275425338 -0.00115503971 -1.02862785985 0.16016664283 -0.00117347516 -1.01718812264 0.16678900711 -0.00120665036 -1.00585087186 0.17265421083 -0.00125443440 -0.99499686419 0.17779511860 -0.00131669638 -0.98500685634 0.18224459504 -0.00154792687 -1.07615761724 0.12908328408 -0.00147907092 -1.07008932801 0.13750909879 -0.00142467377 -1.06224254112 0.14553571964 -0.00138507230 -1.05303108953 0.15311814284 -0.00136060336 -1.04286880621 0.16021136459 -0.00135160384 -1.03216952414 0.16677038109 -0.00135841060 -1.02134707628 0.17275018856 -0.00138136051 -1.01081529561 0.17810578319 -0.00142079045 -1.00098801510 0.18279216119 -0.00147703729 -0.99227906771 0.18676431878 -0.00176876172 -1.07912649999 0.14368116014 -0.00169395672 -1.07315424498 0.15019024697 -0.00163150317 -1.06547992869 0.15668248499 -0.00158227509 -1.05652668707 0.16305959064 -0.00154714650 -1.04671765612 0.16922328036 -0.00152699142 -1.03647597179 0.17507527059 -0.00152268386 -1.02622477007 0.18051727778 -0.00153509785 -1.01638718692 0.18545101836 -0.00156510740 -1.00738635832 0.18977820878 -0.00161358653 -0.99964542024 0.19340056548 -0.00195513115 -1.08283809486 0.15825675851 -0.00187885491 -1.07689992787 0.16333666220 -0.00181198104 -1.06937470716 0.16866313194 -0.00175596032 -1.06067644395 0.17410503626 -0.00171224353 -1.05121914947 0.17953124367 -0.00168228142 -1.04141683495 0.18481062270 -0.00166752478 -1.03168351163 0.18981204185 -0.00166942438 -1.02243319074 0.19440436965 -0.00168943099 -1.01407988350 0.19845647461 -0.00172899538 -1.00703760115 0.20183722526 -0.00211112133 -1.08718649045 0.17272605790 -0.00203664946 -1.08123501459 0.17679327425 -0.00196811931 -1.07383499792 0.18127255588 -0.00190756824 -1.06537824471 0.18601619843 -0.00185703362 -1.05625655923 0.19087649751 -0.00181855281 -1.04686174578 0.19570574877 -0.00179416319 -1.03758560862 0.20035624785 -0.00178590212 -1.02881995203 0.20468029036 -0.00179580696 -1.02095658029 0.20853017195 -0.00182591508 -1.01438729767 0.21175818824 -0.00224081846 -1.09206577540 0.18700503704 -0.00217022437 -1.08606814305 0.19040501294 -0.00210192990 -1.07876892233 0.19430565221 -0.00203853909 -1.07052997390 0.19855479586 -0.00198265596 -1.06171315838 0.20300028486 -0.00193688456 -1.05268033643 0.20748996019 -0.00190382892 -1.04379336867 0.21187166284 -0.00188609308 -1.03541411576 0.21599323379 -0.00188628106 -1.02790443833 0.21970251403 -0.00190699690 -1.02162619703 0.22284734454 -0.00234830872 -1.09737003831 0.20100967465 -0.00228246361 -1.09130795115 0.20401680804 -0.00221542474 -1.08408460179 0.20755731632 -0.00215031311 -1.07602951608 0.21148254729 -0.00209024974 -1.06747221988 0.21564384869 -0.00203835564 -1.05874223904 0.21989256831 -0.00199775181 -1.05016909943 0.22408005391 -0.00197155927 -1.04208232688 0.22805765326 -0.00196289903 -1.03481144727 0.23167671413 -0.00197489210 -1.02868598644 0.23478858428 -0.00243767831 -1.10299336782 0.21465594945 -0.00237625118 -1.09686307681 0.21747358934 -0.00231061576 -1.08969015766 0.22082244360 -0.00224433057 -1.08177475580 0.22456117143 -0.00218095414 -1.07341701669 0.22854843200 -0.00212404501 -1.06491708578 0.23264288450 -0.00207716169 -1.05657510853 0.23670318812 -0.00204386272 -1.04869123037 0.24058800205 -0.00202770663 -1.04156559675 0.24415598547 -0.00203225194 -1.03549835314 0.24726579758 -0.00251301342 -1.10882985253 0.22785984016 -0.00245447106 -1.10264215794 0.23062028664 -0.00238951488 -1.09549371132 0.23389592945 -0.00232203170 -1.08766357761 0.23755238701 -0.00225590834 -1.07943082179 0.24145527776 -0.00219503163 -1.07107450880 0.24547022013 -0.00214328839 -1.06287370361 0.24946283256 -0.00210456544 -1.05510747117 0.25329873348 -0.00208274959 -1.04805487643 0.25684354133 -0.00208172768 -1.04199498436 0.25996287454 -0.00257840023 -1.11477358108 0.24053732550 -0.00252000723 -1.10855383245 0.24330182973 -0.00245413403 -1.10140338414 0.24657266925 -0.00238485675 -1.09359386607 0.25021791275 -0.00231625153 -1.08539690814 0.25410562895 -0.00225239449 -1.07708414025 0.25810388657 -0.00219736175 -1.06892719232 0.26208075430 -0.00215522943 -1.06119769425 0.26590430086 -0.00213007367 -1.05416727594 0.26944259496 -0.00212597058 -1.04810756731 0.27256370530 </DataArray>
</PointData>
<Points>
<DataArray type="Float32" NumberOfComponents="3">
0.88503596047 -0.50310752374 2.39008692058 0.91751729900 -0.49643701117 2.38538843132 0.94238353177 -0.48784222706 2.38020906965 0.96007557927 -0.47769118659 2.37468183309 0.97103436196 -0.46635190493 2.36893971916 0.97570080032 -0.45419239723 2.36311572538 0.97451581481 -0.44158067868 2.35734284925 0.96792032591 -0.42888476444 2.35175408830 0.95635525409 -0.41647266967 2.34648244004 0.94026151983 -0.40471240955 2.34166090199 0.88429639034 -0.48616377900 2.41111210971 0.91658136790 -0.47961998068 2.40626531176 0.94121407321 -0.47144352213 2.40067455476 0.95854222080 -0.46198345340 2.39455481790 0.96891352519 -0.45158882455 2.38812108037 0.97267570091 -0.44060868562 2.38158832135 0.97017646249 -0.42939208668 2.37517152006 0.96176352446 -0.41828807777 2.36908565566 0.94778460134 -0.40764570894 2.36354570737 0.92858740767 -0.39781403024 2.35876665437 0.88337897457 -0.47077699670 2.43023174154 0.91543226328 -0.46433943252 2.42529571065 0.93980773832 -0.45649409421 2.41945397482 0.95677136267 -0.44757348745 2.41297123179 0.96658909931 -0.43791011793 2.40611217928 0.96952691121 -0.42783649134 2.39914151502 0.96585076135 -0.41768511338 2.39232393674 0.95582661272 -0.40778848973 2.38592414217 0.93972042829 -0.39847912609 2.38020682903 0.91779817105 -0.39008952813 2.37543669506 0.88221798043 -0.45675317113 2.44768419048 0.91401837739 -0.45040270618 2.44270708610 0.93812551433 -0.44281139660 2.43674501208 0.95473492116 -0.43429753148 2.43008617937 0.96404212777 -0.42517939991 2.42301879892 0.96624266406 -0.41577529099 2.41583108169 0.96153205994 -0.40640349381 2.40881123862 0.95010584531 -0.39738229745 2.40224748066 0.93215955005 -0.38902999101 2.39642801878 0.90788870408 -0.38166486357 2.39164106391 0.88074767520 -0.44389829657 2.46370783092 0.91228810248 -0.43761714112 2.45872689623 0.93612838847 -0.43021288259 2.45274534877 0.95240481253 -0.42199182824 2.44605476524 0.96125365404 -0.41326028535 2.43894672231 0.96281119234 -0.40432456117 2.43171279666 0.95721370682 -0.39549096297 2.42464456500 0.94459747683 -0.38706579802 2.41803360401 0.92509878173 -0.37935537358 2.41217149037 0.89885390090 -0.37266599692 2.40734980076 0.87890232616 -0.43201836730 2.47854103726 0.91018983082 -0.42579007682 2.47358259917 0.93377734797 -0.41851600548 2.46765266716 0.94975295308 -0.41049262049 2.46103209400 0.95820472157 -0.40201638908 2.45400173245 0.95922072891 -0.39338377847 2.44684243527 0.95288905054 -0.38489125589 2.43983505522 0.93929776190 -0.37683528856 2.43326044506 0.91853493844 -0.36951234370 2.42739945755 0.89068865561 -0.36321888853 2.42253294544 0.87661620058 -0.42091937762 2.49242218392 0.90767195465 -0.41472885276 2.48750165303 0.93103338007 -0.40753821855 2.48166464948 0.94675125906 -0.39963615096 2.47517327026 0.95487637384 -0.39131132595 2.46828961237 0.95545950664 -0.38285241951 2.46127577281 0.94855143967 -0.37454810759 2.45439384858 0.93420295515 -0.36668706618 2.44790593666 0.91246483530 -0.35955797124 2.44207413407 0.88338786234 -0.35344949875 2.43716053779 0.87382356574 -0.41040732179 2.50558964529 0.90468286624 -0.40424080841 2.50071151594 0.92785747199 -0.39709697511 2.49497897797 0.94337164676 -0.38925866240 2.48863339861 0.95124965430 -0.38100871082 2.48191614508 0.95151575838 -0.37262996087 2.47506858460 0.94419422276 -0.36440525309 2.46833208439 0.92930931118 -0.35661742799 2.46194801168 0.90688528741 -0.34954932610 2.45615773370 0.87694641522 -0.34348378794 2.45120261765 0.87045868892 -0.40028819411 2.51828179578 0.90117095784 -0.39413328325 2.51343964602 0.92421061097 -0.38700972844 2.50779333490 0.93958603245 -0.37919639757 2.50156758367 0.94730560642 -0.37097215851 2.49498711360 0.94737771701 -0.36261587916 2.48827664595 0.93981074836 -0.35440642739 2.48166090198 0.92461308461 -0.34662267110 2.47536460297 0.90179310990 -0.33954347816 2.46961247017 0.87135920835 -0.33344771646 2.46462922485 0.86645583739 -0.39036798885 2.53073700978 0.89708462171 -0.38421361675 2.52591350140 0.92005378424 -0.37709393184 2.52030540250 0.93536633241 -0.36928559920 2.51413093003 0.94302527365 -0.36106528389 2.50760830093 0.94303361539 -0.35270965098 2.50095573217 0.93539436505 -0.34449536553 2.49439144066 0.92011053007 -0.33669909262 2.48813364338 0.89718511786 -0.32959749730 2.48240055725 0.86662113586 -0.32346724464 2.47741039923 0.84331505458 -0.50785999092 2.39434119863 0.86651000476 -0.49942068410 2.38894683827 0.88435331513 -0.48953423792 2.38325594990 0.89724146020 -0.47837687435 2.37739776333 0.90557091446 -0.46612481535 2.37150150835 0.90973815242 -0.45295428288 2.36569641478 0.91013964857 -0.43904149889 2.36011171242 0.90717187742 -0.42456268536 2.35487663107 0.90123131346 -0.40969406423 2.35012040055 0.89271443120 -0.39461185746 2.34597225064 0.84290083680 -0.49103267434 2.41519227626 0.86594576197 -0.48280623326 2.40954790240 0.88361318635 -0.47337165398 2.40339936992 0.89623135829 -0.46291948294 2.39691969867 0.90412852612 -0.45164026659 2.39028190855 0.90763293819 -0.43972455135 2.38365901941 0.90707284282 -0.42736288369 2.37722405114 0.90277648837 -0.41474581003 2.37115002360 0.89507212317 -0.40206387681 2.36560995668 0.88428799556 -0.38950763049 2.36077687024 0.84241838689 -0.47572434843 2.43419027979 0.86526336355 -0.46767150333 2.42836562823 0.88271428456 -0.45859365464 2.42190780486 0.89503405520 -0.44869044868 2.41501481216 0.90248558072 -0.43816153176 2.40788465263 0.90533176640 -0.42720655020 2.40071532875 0.90383551748 -0.41602515030 2.39370484302 0.89825973923 -0.40481697838 2.38705119794 0.88886733691 -0.39378168076 2.38095239599 0.87592121578 -0.38311890375 2.37560643967 0.84176448584 -0.46174709002 2.45156485616 0.86437665303 -0.45383224483 2.44561910260 0.88158610550 -0.44502714083 2.43897526028 0.89359466486 -0.43553622028 2.43184116620 0.90060415270 -0.42556392542 2.42442465740 0.90281639060 -0.41531469852 2.41693357088 0.90043320016 -0.40499298184 2.40957574368 0.89365640296 -0.39480321763 2.40255901280 0.88268782059 -0.38494984815 2.39609121528 0.86772927465 -0.37563731566 2.39038018812 0.84083591464 -0.44891297592 2.46754565232 0.86319947395 -0.44110420829 2.46152741235 0.88015814493 -0.43249901348 2.45479574171 0.89185830123 -0.42330324643 2.44755682321 0.89844631649 -0.41372276211 2.44001683967 0.90006856437 -0.40396341546 2.43238197389 0.89687141850 -0.39423106143 2.42485840870 0.88900125255 -0.38473155499 2.41765232691 0.87660444015 -0.37567075108 2.41096991131 0.85982735496 -0.36725450465 2.40501734474 0.83952945426 -0.43703408295 2.48236231523 0.86164566987 -0.42930314423 2.47630964431 0.87835989861 -0.42083617351 2.46956325468 0.88977007824 -0.41183797586 2.46231984559 0.89597414654 -0.40251335637 2.45477611624 0.89707004125 -0.39306712012 2.44712876587 0.89315570014 -0.38370407219 2.43957449371 0.88432906097 -0.37462901766 2.43230999898 0.87068806150 -0.36604676161 2.42553198090 0.85233063950 -0.35816210912 2.41943713870 0.83774188571 -0.42592248793 2.49624449184 0.85962908432 -0.41824480317 2.49018488533 0.87612086228 -0.40986552184 2.48347180476 0.88727510985 -0.40098685725 2.47628829575 0.89314971727 -0.39181102274 2.46881740393 0.89380257480 -0.38254023162 2.46124217491 0.88929157270 -0.37337669721 2.45374565430 0.87967460120 -0.36452263284 2.44651088773 0.86500955057 -0.35618025184 2.43972092081 0.84535431106 -0.34855176751 2.43355879916 0.83536998996 -0.41539026768 2.50942182909 0.85706356084 -0.40774493564 2.50337222223 0.87337053170 -0.39941395940 2.49671539746 0.88431850999 -0.39059633932 2.48962023611 0.88993510314 -0.38149107576 2.48225561954 0.89024791860 -0.37229716907 2.47479042908 0.88528456381 -0.36321361962 2.46739354608 0.87507264623 -0.35443942776 2.46023385189 0.85963977329 -0.34617359384 2.45348022784 0.83901355243 -0.33861511823 2.44730155529 0.83231054801 -0.40524949900 2.52212397394 0.85386294299 -0.39761929215 2.51609074188 0.87003840263 -0.38930838711 2.50948803834 0.88084539260 -0.38051287077 2.50247372908 0.88629237857 -0.37142882998 2.49520567988 0.88638782618 -0.36225235161 2.48784175648 0.88114020111 -0.35317952253 2.48053982466 0.87055796902 -0.34440642961 2.47345775017 0.85464959556 -0.33612915971 2.46675339878 0.83342354640 -0.32854379971 2.46058463626 0.82846034084 -0.39531225872 2.53458057333 0.84994107429 -0.38768362323 2.52855953109 0.86605397082 -0.37937570591 2.52198373293 0.87680087165 -0.37058290030 2.51500683707 0.88218361801 -0.36149959993 2.50778250175 0.88220405112 -0.35232019834 2.50046438519 0.87686401223 -0.34323908905 2.49320614563 0.86616534255 -0.33445066560 2.48616144130 0.85010988332 -0.32614932152 2.47948393042 0.82869947577 -0.31852945035 2.47332727123 0.79235414902 -0.51093423932 2.39833038430 0.80877924105 -0.50115731120 2.39236769912 0.82147775482 -0.49029803831 2.38624522743 0.83078953141 -0.47839102559 2.38008631262 0.83705441192 -0.46547087797 2.37401429808 0.84061223745 -0.45157220037 2.36815252719 0.84180284908 -0.43672959774 2.36262434335 0.84096608792 -0.42097767500 2.35755308995 0.83844179505 -0.40435103708 2.35306211036 0.83456981157 -0.38688428891 2.34927474797 0.79259682006 -0.49443427362 2.41867866446 0.80888703868 -0.48491465992 2.41243430373 0.82143950108 -0.47451360429 2.40585818887 0.83054616365 -0.46330429098 2.39909036009 0.83649898276 -0.45135990425 2.39227085759 0.83958991479 -0.43875362837 2.38553972157 0.84011091614 -0.42555864758 2.37903699222 0.83835394317 -0.41184814615 2.37290270976 0.83461095228 -0.39769530833 2.36727691438 0.82917389984 -0.38317331838 2.36229964628 0.79296661308 -0.47934655299 2.43732391993 0.80901736411 -0.47004115585 2.43085774674 0.82133880550 -0.46000634858 2.42395234286 0.83017244717 -0.44934311719 2.41675524155 0.83575979903 -0.43815244767 2.40941397609 0.83834237098 -0.42653532603 2.40207607974 0.83816167295 -0.41459273826 2.39488908580 0.83545921484 -0.40242567037 2.38800052752 0.83047650656 -0.39013510836 2.38155793819 0.82345505802 -0.37782203823 2.37570885108 0.79328980233 -0.46550106766 2.45447134530 0.80902805999 -0.45637010282 2.44783628828 0.82106034526 -0.44661966572 2.44070715611 0.82957735544 -0.43636941918 2.43323171455 0.83476978788 -0.42573902601 2.42555772934 0.83682833989 -0.41484814901 2.41783296624 0.83594370879 -0.40381645101 2.41020519101 0.83230659192 -0.39276359480 2.40282216939 0.82610768659 -0.38180924320 2.39583166715 0.81753769014 -0.37107305902 2.38938145004 0.79339266201 -0.45272780784 2.47032613521 0.80877696900 -0.44373480464 2.46356818846 0.82048879756 -0.43419695022 2.45630209534 0.82866986196 -0.42424511192 2.44867053663 0.83346187646 -0.41401015706 2.44081619310 0.83500655536 -0.40362295299 2.43288174556 0.83344561291 -0.39321436704 2.42500987477 0.82892076339 -0.38291526655 2.41734326153 0.82157372108 -0.37285651885 2.41002458662 0.81154620024 -0.36316899129 2.40319653082 0.79310146635 -0.44085676376 2.48509348426 0.80812193379 -0.43196856515 2.47825170740 0.81950883960 -0.42258159660 2.47091662725 0.82735894018 -0.41283211035 2.46322246534 0.83176899193 -0.40285635861 2.45530344316 0.83283575126 -0.39279059362 2.44729378222 0.83065597456 -0.38277106759 2.43932770403 0.82532641825 -0.37293403276 2.43153943012 0.81694383871 -0.36341574135 2.42406318197 0.80560499235 -0.35435244558 2.41703318110 0.79224248958 -0.42971792564 2.49897858707 0.80692079702 -0.42090468816 2.49208510521 0.81800514857 -0.41161699938 2.48473021857 0.82555356359 -0.40199232944 2.47703825823 0.82962406143 -0.39216814845 2.46913355525 0.83027466146 -0.38228192656 2.46114044072 0.82756338302 -0.37247113388 2.45318324572 0.82154824547 -0.36287324055 2.44538630130 0.81228726818 -0.35362571670 2.43787393855 0.79983847049 -0.34486603246 2.43077048855 0.79064200592 -0.41914128371 2.51218663824 0.80503140134 -0.41037647750 2.50526664200 0.81586240166 -0.40114655308 2.49792233599 0.82316270566 -0.39158768414 2.49026867284 0.82696001211 -0.38183604437 2.48242060516 0.82728201981 -0.37202780747 2.47449308559 0.82415642753 -0.36229914713 2.46660106675 0.81761093407 -0.35278623706 2.45885950125 0.80767323820 -0.34362525093 2.45138334174 0.79437103870 -0.33495236245 2.44428754082 0.78812628958 -0.40895682818 2.52492283241 0.80231158942 -0.40021723699 2.51799457791 0.81296527607 -0.39101365221 2.51067244624 0.82009533986 -0.38148008940 2.50306446672 0.82370977112 -0.37175056415 2.49527866865 0.82381656018 -0.36195909202 2.48742308133 0.82042369736 -0.35223968857 2.47960573406 0.81353917301 -0.34272636940 2.47193465614 0.80317097745 -0.33355315006 2.46451787689 0.78932710102 -0.32485404612 2.45746342560 0.78452161480 -0.39899454928 2.53739236417 0.79861920392 -0.39026027045 2.53046717303 0.80919844900 -0.38106169129 2.52316001603 0.81626043968 -0.37153146020 2.51557639743 0.81980626561 -0.36180222558 2.50782182148 0.81983701642 -0.35200663586 2.50000179244 0.81635378177 -0.34227733943 2.49222181457 0.80935765130 -0.33274698470 2.48458739213 0.79884971465 -0.32354822009 2.47720402937 0.78483106146 -0.31481369401 2.47017723055 0.73403647761 -0.51251628686 2.40210341870 0.74542865125 -0.50174196813 2.39576178807 0.75427964192 -0.49015868991 2.38932781077 0.76086488714 -0.47770616854 2.38292156873 0.76545982444 -0.46432412036 2.37666314391 0.76833989132 -0.44995226170 2.37067261826 0.76978052529 -0.43453030892 2.36507007373 0.77005716388 -0.41799797836 2.35997559228 0.76944524460 -0.40029498635 2.35550925585 0.76822020496 -0.38136104924 2.35179114640 0.73545361360 -0.49648490537 2.42164352925 0.74670382748 -0.48600983432 2.41502868842 0.75541811760 -0.47489265747 2.40817450697 0.76184025076 -0.46312860266 2.40120007583 0.76621399375 -0.45071289768 2.39422448592 0.76878311336 -0.43764077036 2.38736682816 0.76979137641 -0.42390744850 2.38074619346 0.76948254968 -0.40950815993 2.37448167274 0.76810039997 -0.39443813244 2.36869235693 0.76588869407 -0.37869259386 2.36349733693 0.73717887437 -0.48170960740 2.43971423679 0.74810367259 -0.47149011795 2.43286501886 0.75653587453 -0.46075304043 2.42568579169 0.76268211629 -0.44953431239 2.41829164731 0.76674903396 -0.43786987139 2.41079767769 0.76894326363 -0.42579565501 2.40331897484 0.76947144140 -0.41334760080 2.39597063075 0.76854020338 -0.40056164631 2.38886773742 0.76635618564 -0.38747372912 2.38212538684 0.76312602429 -0.37411978678 2.37585867102 0.73895579797 -0.46804712941 2.45648357069 0.74942487681 -0.45804170984 2.44943721208 0.75747250034 -0.44760696985 2.44201604720 0.76326517555 -0.43680695658 2.43432900390 0.76696940946 -0.42570571716 2.42648501004 0.76875170907 -0.41436729872 2.41859299350 0.76877858138 -0.40285574840 2.41076188212 0.76721653341 -0.39123511333 2.40310060378 0.76423207215 -0.37956944065 2.39571808634 0.75999170462 -0.36792277748 2.38872325766 0.74052792249 -0.45535420786 2.47211956029 0.75046413040 -0.44552350077 2.46491170079 0.75806758265 -0.43532157682 2.45731965575 0.76346412036 -0.42483019408 2.44944486636 0.76677958465 -0.41413111064 2.44138877382 0.76813981664 -0.40330608456 2.43325281933 0.76767065745 -0.39243687392 2.42513844409 0.76549794821 -0.38160523681 2.41714708930 0.76174753003 -0.37089293129 2.40938019616 0.75654524404 -0.36038171544 2.40193920587 0.74163878600 -0.44348757921 2.48679023494 0.75101812361 -0.43379438155 2.47945491767 0.75816070911 -0.42376399243 2.47175099961 0.76315364253 -0.41348768376 2.46377195544 0.76608402391 -0.40305672751 2.45561125984 0.76703895329 -0.39256239559 2.44736238752 0.76610553071 -0.38209595996 2.43911881315 0.76337085621 -0.37174869255 2.43097401142 0.75892202981 -0.36161186529 2.42302145703 0.75284615158 -0.35177675014 2.41535462465 0.74203192656 -0.43230397990 2.50066362399 0.75088354669 -0.42271324297 2.49323329541 0.75759146735 -0.41280134774 2.48546446104 0.76220843388 -0.40266308447 2.47744299189 0.76478719165 -0.39239324343 2.46925475896 0.76538048600 -0.38208661489 2.46098563327 0.76404106228 -0.37183798911 2.45272148582 0.76082166584 -0.36174215637 2.44454818763 0.75577504204 -0.35189390693 2.43655160969 0.74895393622 -0.34238803105 2.42881762302 0.74145088226 -0.42166014640 2.51390775681 0.74985708988 -0.41213897583 2.50641326670 0.75619944498 -0.40230077384 2.49861442231 0.76050318622 -0.39224005505 2.49059069646 0.76279355224 -0.38205133407 2.48242156200 0.76309578170 -0.37182912551 2.47418649177 0.76143511325 -0.36166794398 2.46596495862 0.75783678554 -0.35166230409 2.45783643537 0.75232603723 -0.34190672045 2.44988039488 0.74492810696 -0.33249570767 2.44217630998 0.73963919116 -0.41141281516 2.52669066274 0.74773544344 -0.40193047091 2.51916126424 0.75382422966 -0.39212940181 2.51135526567 0.75791259137 -0.38210225437 2.50334778990 0.76000757009 -0.37194167511 2.49521395980 0.76011620737 -0.36174031054 2.48702889822 0.75824554474 -0.35159080717 2.47886772804 0.75440262375 -0.34158581153 2.47080557212 0.74859448593 -0.33181797012 2.46291755333 0.74082817282 -0.32237992946 2.45527879454 0.73634039133 -0.40141872264 2.53918037113 0.74431529761 -0.39194661903 2.53164372071 0.75030540901 -0.38215436273 2.52384137341 0.75431134113 -0.37213334128 2.51584699297 0.75633370958 -0.36197494220 2.50773424319 0.75637312995 -0.35177055303 2.49957678781 0.75443021786 -0.34161156129 2.49144829060 0.75050558889 -0.33158935450 2.48342241534 0.74459985867 -0.32179532020 2.47557282578 0.73671364278 -0.31232084591 2.46797318570 0.67024527416 -0.51279215147 2.40570924297 0.67756187869 -0.50126973057 2.39923987938 0.68328176750 -0.48914125441 2.39265460846 0.68761262163 -0.47629483144 2.38607761941 0.69076212209 -0.46261857010 2.37963310140 0.69293794992 -0.44800057886 2.37344524361 0.69434778614 -0.43232896615 2.36763823523 0.69519931177 -0.41549184043 2.36233626544 0.69570020784 -0.39737731016 2.35766352341 0.69605815538 -0.37787348377 2.35374419834 0.67354049094 -0.49730089811 2.42415912556 0.68069475784 -0.48615633011 2.41743522916 0.68627413612 -0.47453209798 2.41047181958 0.69046723352 -0.46238314314 2.40338211959 0.69346265774 -0.44966440702 2.39627935199 0.69544901653 -0.43633083103 2.38927673953 0.69661491761 -0.42233735660 2.38248750498 0.69714896870 -0.40763892515 2.37602487114 0.69723977753 -0.39219047811 2.37000206076 0.69707595184 -0.37594695688 2.36453229662 0.67721039196 -0.48287950868 2.44144280523 0.68393169663 -0.47206011750 2.43448039725 0.68916006507 -0.46085459457 2.42720635424 0.69305864029 -0.44926685369 2.41972315679 0.69579056526 -0.43730080868 2.41213328547 0.69751898298 -0.42496037332 2.40453922087 0.69840703644 -0.41224946143 2.39704344357 0.69861786863 -0.39917198681 2.38974843414 0.69831462253 -0.38573186327 2.38275667316 0.69766044114 -0.37193300460 2.37617064121 0.68092434085 -0.46941730067 2.45768144509 0.68701938200 -0.45887249561 2.45050044294 0.69174683749 -0.44800705180 2.44297728115 0.69524030785 -0.43685866084 2.43520421376 0.69763339361 -0.42546501434 2.42727349482 0.69905969531 -0.41386380390 2.41927737840 0.69965281347 -0.40209272113 2.41130811855 0.69954634865 -0.39018945764 2.40345796933 0.69887390135 -0.37819170502 2.39581918478 0.69776907213 -0.36613715489 2.38848401897 0.68435170123 -0.45680359154 2.47299620825 0.68970450092 -0.44648486730 2.46562042555 0.69384173652 -0.43588777728 2.45790366900 0.69686570211 -0.42507126233 2.44992877326 0.69887869175 -0.41409426327 2.44177857300 0.69998299954 -0.40301572095 2.43353590286 0.70028091954 -0.39189457620 2.42528359751 0.69987474585 -0.38078976985 2.41710449160 0.69886677253 -0.36976024274 2.40908141978 0.69735929367 -0.35886493570 2.40129721673 0.68716183673 -0.44492769878 2.48750825786 0.69173374036 -0.43478863542 2.47996540436 0.69525204532 -0.42439507863 2.47210458648 0.69778828897 -0.41381735590 2.46400031807 0.69941400865 -0.40312579474 2.45572711296 0.70020074170 -0.39239072264 2.44735948499 0.70022002548 -0.38168246712 2.43897194801 0.69954339733 -0.37107135568 2.43063901584 0.69824239459 -0.36062771580 2.42243520234 0.69638855462 -0.35042187500 2.41443502134 0.68902411098 -0.43367893987 2.50133875701 0.69285378726 -0.42367520285 2.49366043867 0.69578504703 -0.41342726345 2.48569910230 0.69786153434 -0.40300963930 2.47752233094 0.69912689326 -0.39249684799 2.46919770767 0.69962476784 -0.38196340715 2.46079281554 0.69939880212 -0.37148383440 2.45237523762 0.69849264018 -0.36113264734 2.44401255695 0.69694992606 -0.35098436359 2.43577235661 0.69481430382 -0.34111350076 2.42772221965 0.68960788761 -0.42294663227 2.51460886885 0.69281132859 -0.41303597244 2.50683058779 0.69524802479 -0.40288263938 2.49880628514 0.69693890414 -0.39256081027 2.49059829465 0.69790489455 -0.38214466230 2.48226895010 0.69816692397 -0.37170837266 2.47388058526 0.69774592031 -0.36132611852 2.46549553391 0.69666281150 -0.35107207706 2.45717612982 0.69493852547 -0.34102042547 2.44898470676 0.69259399014 -0.33124534093 2.44098359849 0.68858253024 -0.41262009347 2.52743975648 0.69135305131 -0.40276234705 2.51960091102 0.69344826175 -0.39265951401 2.51154520369 0.69487386425 -0.38238356657 2.50333169194 0.69563556149 -0.37200647693 2.49501943320 0.69573905613 -0.36160021733 2.48666748489 0.69519005087 -0.35123675997 2.47833490446 0.69399424838 -0.34098807706 2.47008074933 0.69215735134 -0.33092614083 2.46196407694 0.68968506243 -0.32112292348 2.45404394472 0.68561740249 -0.40258864095 2.53995258303 0.68822564237 -0.39274572955 2.53209646764 0.69019304107 -0.38265619497 2.52403492666 0.69151988060 -0.37239060593 2.51582600559 0.69220644302 -0.36201953115 2.50752774994 0.69225301035 -0.35161353935 2.49919820518 0.69165986464 -0.34124319925 2.49089541684 0.69042728791 -0.33097907957 2.48267743039 0.68855556220 -0.32089174904 2.47460229134 0.68604496955 -0.31105177637 2.46672804518 0.60286377247 -0.51194785108 2.40919679822 0.60628256674 -0.49983567418 2.40291274725 0.60900692265 -0.48727079348 2.39637652906 0.61117782910 -0.47412954252 2.38972855243 0.61293627498 -0.46028825479 2.38310922612 0.61442324917 -0.44562326382 2.37665895890 0.61577974057 -0.43001090313 2.37051815953 0.61714673805 -0.41332750622 2.36482723678 0.61866523051 -0.39544940662 2.35972659941 0.62047620685 -0.37625293784 2.35535665620 0.60892672556 -0.49699858036 2.42629770834 0.61215845921 -0.48541872096 2.41975809863 0.61473265686 -0.47345521023 2.41287362203 0.61678072582 -0.46105863758 2.40576976506 0.61843407340 -0.44817959239 2.39857201421 0.61982410692 -0.43476866407 2.39140585601 0.62108223370 -0.42077644201 2.38439677695 0.62233986105 -0.40615351562 2.37767026355 0.62372839628 -0.39085047428 2.37135180232 0.62537924670 -0.37481790740 2.36556687976 0.61521638710 -0.48292225385 2.44259120006 0.61791084385 -0.47179288237 2.43579683459 0.62006595052 -0.46033187541 2.42861223337 0.62179759688 -0.44854356053 2.42114889735 0.62322167268 -0.43643226525 2.41351832747 0.62445406770 -0.42400231713 2.40583202468 0.62561067168 -0.41125804369 2.39820148994 0.62680737440 -0.39820377248 2.39073822418 0.62816006561 -0.38484383104 2.38355372835 0.62978463508 -0.37118254690 2.37675950340 0.62135729905 -0.46964360679 2.45814488127 0.62326385408 -0.45888788984 2.45110454980 0.62480762345 -0.44783791016 2.44366620558 0.62608493499 -0.43653436035 2.43592852362 0.62719211649 -0.42501793304 2.42799017898 0.62822549576 -0.41332932082 2.41994984670 0.62928140061 -0.40150921630 2.41190620181 0.63045615885 -0.38959831210 2.40395791937 0.63184609829 -0.37763730082 2.39620367440 0.63354754673 -0.36566687508 2.38874214195 0.62697400340 -0.45708737441 2.47302635982 0.62794162333 -0.44663347481 2.46575683895 0.62875849547 -0.43591043560 2.45810938116 0.62949923284 -0.42498108603 2.45017121821 0.63023844847 -0.41390825540 2.44202958185 0.63105075538 -0.40275477296 2.43377170383 0.63201076661 -0.39158346800 2.42548481591 0.63319309517 -0.38045716978 2.41725614984 0.63467235410 -0.36943870758 2.40917293737 0.63652315642 -0.35859091067 2.40132241026 0.63169104212 -0.44517829197 2.48730324361 0.63166828505 -0.43495936873 2.47982929670 0.63171938639 -0.42448657286 2.47201560262 0.63189698314 -0.41383378655 2.46393955543 0.63225371228 -0.40307489199 2.45567854916 0.63284221083 -0.39228377139 2.44730997786 0.63371511577 -0.38153430693 2.43891123556 0.63492506409 -0.37090038082 2.43055971632 0.63652469280 -0.36045587525 2.42233281417 0.63856663888 -0.35027467241 2.41430792316 0.63513295720 -0.43384109469 2.50104314052 0.63416797266 -0.42379530303 2.49339751773 0.63349111603 -0.41350344308 2.48545871247 0.63313467857 -0.40304251087 2.47729610961 0.63313095159 -0.39248950247 2.46897909401 0.63351222638 -0.38192141391 2.46057705055 0.63431079421 -0.37141524124 2.45215936410 0.63555894638 -0.36104798051 2.44379541953 0.63728897417 -0.35089662776 2.43555460171 0.63953316888 -0.34103817904 2.42750629550 0.63692429061 -0.42300051783 2.51431365842 0.63516481961 -0.41307100915 2.50653709673 0.63387450420 -0.40289816738 2.49851255321 0.63306881185 -0.39255730799 2.49030345507 0.63276321006 -0.38212374649 2.48197322950 0.63297316629 -0.37167279836 2.47358530370 0.63371414804 -0.36127977908 2.46520310486 0.63500162278 -0.35102000416 2.45689006019 0.63685105799 -0.34096878907 2.44870959687 0.63927792117 -0.33120144931 2.44072514211 0.63668958433 -0.41258129663 2.52718240518 0.63438295932 -0.40271621854 2.51932362836 0.63267037072 -0.39260786689 2.51125096735 0.63155587567 -0.38232822688 2.50302416615 0.63104353132 -0.37194928370 2.49470296873 0.63113739484 -0.36154302254 2.48634711908 0.63184152336 -0.35118142860 2.47801636118 0.63315997404 -0.34093648705 2.46977043901 0.63509680404 -0.33088018310 2.46166909657 0.63765607049 -0.32108450194 2.45377207783 0.63405338034 -0.40250816632 2.53971698870 0.63154652523 -0.39266066262 2.53183270731 0.62967953540 -0.38256966275 2.52374779740 0.62845236272 -0.37230531653 2.51552081716 0.62786495906 -0.36193777377 2.50721032478 0.62791727629 -0.35153718430 2.49887487846 0.62860926629 -0.34117369793 2.49057303638 0.62994088093 -0.33091746449 2.48236335673 0.63191207208 -0.32083863380 2.47430439771 0.63452279161 -0.31100735567 2.46645471751 0.53377520636 -0.51016940361 2.41261502558 0.53269435875 -0.49753487462 2.40689116591 0.53197789844 -0.48457236882 2.40064448110 0.53170560379 -0.47118283002 2.39404845554 0.53195725318 -0.45726720201 2.38727657363 0.53281262497 -0.44272642859 2.38050231975 0.53435149752 -0.42746145356 2.37389917830 0.53665364920 -0.41137322072 2.36764063366 0.53979885836 -0.39436267387 2.36190017022 0.54386690339 -0.37633075680 2.35685127239 0.54368159097 -0.49569428066 2.42813153252 0.54239356105 -0.48386158053 2.42210146952 0.54151878001 -0.47168527866 2.41550340970 0.54113434155 -0.45914581111 2.40849628591 0.54131733937 -0.44622361393 2.40123903104 0.54214486718 -0.43289912317 2.39389057795 0.54369401867 -0.41915277489 2.38660985951 0.54604188754 -0.40496500512 2.37955580859 0.54926556749 -0.39031624993 2.37288735807 0.55344215224 -0.37518694537 2.36676344080 0.55335208100 -0.48190383993 2.44324099614 0.55145052188 -0.47073014041 2.43690728357 0.55010810428 -0.45920574735 2.43000163196 0.54939456379 -0.44736725230 2.42266799634 0.54937963597 -0.43525124687 2.41505033172 0.55013305643 -0.42289432261 2.40729259311 0.55172456074 -0.41033307110 2.39953873555 0.55422388449 -0.39760408393 2.39193271405 0.55770076327 -0.38474395266 2.38461848363 0.56222493266 -0.37178926888 2.37773999932 0.56241654065 -0.46875807315 2.45795379200 0.55961057156 -0.45811332223 2.45132810161 0.55757912497 -0.44711754351 2.44415816810 0.55638123963 -0.43584388350 2.43657311299 0.55607595426 -0.42436548873 2.42870205783 0.55672230758 -0.41275550573 2.42067412413 0.55837933834 -0.40108708102 2.41261843343 0.56110608526 -0.38943336113 2.40466410725 0.56496158706 -0.37786749257 2.39694026714 0.57000488249 -0.36646262189 2.38957603460 0.57050483414 -0.45621697202 2.47228029569 0.56661904039 -0.44598389393 2.46538341720 0.56376509580 -0.43540443577 2.45799203829 0.56198933822 -0.42457243460 2.45022116205 0.56133810550 -0.41358172745 2.44218579156 0.56185773550 -0.40252615139 2.43400092990 0.56359456605 -0.39149954346 2.42578158016 0.56659493502 -0.38059574070 2.41764274543 0.57090518025 -0.36990858018 2.40969942879 0.57657163959 -0.35953189893 2.40206663332 0.57724682570 -0.44424052824 2.48623088280 0.57222125871 -0.43431462346 2.47909272392 0.56849927049 -0.42405019278 2.47152226276 0.56611382870 -0.41354963552 2.46362166969 0.56509790099 -0.40291535097 2.45549311509 0.56548445502 -0.39224973844 2.44723876933 0.56730645847 -0.38165519723 2.43896080278 0.57059687897 -0.37123412665 2.43076138581 0.57538868420 -0.36108892600 2.42274268879 0.58171484180 -0.35132199458 2.41500688211 0.58227237954 -0.43278873354 2.49981592890 0.57616255683 -0.42307827876 2.49247551531 0.57161490276 -0.41303858316 2.48476786168 0.56864968018 -0.40277221615 2.47678416208 0.56728715198 -0.39238174719 2.46861561060 0.56754758102 -0.38196974571 2.46035340130 0.56945123017 -0.37163878115 2.45208872828 0.57301836230 -0.36149142295 2.44391278561 0.57826924028 -0.35163024054 2.43591676737 0.58522412698 -0.34215780336 2.42819186763 0.58521135988 -0.42182157960 2.51304580957 0.57818826508 -0.41224762780 2.50555128496 0.57294524633 -0.40235337553 2.49774785527 0.56949186182 -0.39223690642 2.48971816541 0.56783766977 -0.38199630406 2.48154486026 0.56799222835 -0.37172965206 2.47331058473 0.56996509577 -0.36153503404 2.46509798370 0.57376583022 -0.35151053359 2.45698970206 0.57940398988 -0.34175423432 2.44906838471 0.58688913297 -0.33236421985 2.44141667655 0.58569363094 -0.41129905815 2.52593090040 0.57804371376 -0.40179543851 2.51833952641 0.57232355491 -0.39197833855 2.51048126372 0.56853534275 -0.38194043622 2.50243320584 0.56668126562 -0.37177440950 2.49427244627 0.56676351186 -0.36157293634 2.48607607850 0.56878426984 -0.35142869470 2.47792119604 0.57274572789 -0.34143436256 2.46988489239 0.57865007437 -0.33168261786 2.46204426105 0.58649949763 -0.32226613858 2.45447639551 0.58334905694 -0.40118116089 2.53848157696 0.57547423321 -0.39169447885 2.53085973323 0.56958308224 -0.38189724082 2.52298710723 0.56567509210 -0.37187953546 2.51493880956 0.56374975081 -0.36173145143 2.50678995079 0.56380654642 -0.35154307737 2.49861564152 0.56584496698 -0.34140450196 2.49049099234 0.56986450053 -0.33140581384 2.48249111383 0.57586463512 -0.32163710168 2.47469111657 0.58384485879 -0.31218845412 2.46716611117 0.46486280964 -0.50764282698 2.41601286619 0.45790089807 -0.49446240756 2.41128590960 0.45271748593 -0.48107104211 2.40560937312 0.44934103993 -0.46742722218 2.39921141651 0.44780002679 -0.45348943934 2.39232019949 0.44812291323 -0.43921618515 2.38516388182 0.45033816595 -0.42456595115 2.37797062322 0.45447425168 -0.40949722892 2.37096858344 0.46055963713 -0.39396851001 2.36438592223 0.46862278902 -0.37793828598 2.35845079932 0.47987436066 -0.49350432751 2.42973285305 0.47269869282 -0.48154948247 2.42456951452 0.46735760579 -0.46924558770 2.41848467792 0.46388169461 -0.45663538891 2.41169495585 0.46230155431 -0.44376163179 2.40441696091 0.46264777992 -0.43066706204 2.39686730569 0.46495096647 -0.41739442536 2.38926260281 0.46924170898 -0.40398646745 2.38181946486 0.47555060249 -0.39048593401 2.37475450444 0.48390824202 -0.37693557074 2.36828433415 0.49377269488 -0.47989026395 2.44347376828 0.48596013836 -0.46891361951 2.43790469686 0.48014109976 -0.45749707477 2.43147275290 0.47634511872 -0.44574074844 2.42437958112 0.47460173487 -0.43374475925 2.41682682624 0.47494048783 -0.42160922593 2.40901613299 0.47739091723 -0.40943426719 2.40114914609 0.48198256271 -0.39732000176 2.39342751026 0.48874496389 -0.38536654838 2.38605287022 0.49770766040 -0.37367402575 2.37922687069 0.50626393372 -0.46679272513 2.45718809006 0.49751181296 -0.45657422251 2.45124966730 0.49098560879 -0.44586395043 2.44452851632 0.48671140444 -0.43479705865 2.43720916137 0.48471528308 -0.42350869689 2.42947612666 0.48502332793 -0.41213401489 2.42151393644 0.48766162220 -0.40080816238 2.41350711492 0.49265624907 -0.38966628910 2.40564018634 0.50003329175 -0.37884354478 2.39809767493 0.50981883345 -0.36847507915 2.39106410491 0.51705419863 -0.45420379991 2.47082829658 0.50718029487 -0.44455069526 2.46456263653 0.49980877382 -0.43438466182 2.45760688648 0.49496064391 -0.42385807741 2.45012756566 0.49265691356 -0.41312331987 2.44229119333 0.49291859121 -0.40233276702 2.43426428874 0.49576668529 -0.39163879669 2.42621337114 0.50122220425 -0.38119378671 2.41830495977 0.50930615650 -0.37115011490 2.41070557390 0.52003955048 -0.36166015910 2.40358173275 0.52584961103 -0.44211557710 2.48434686602 0.51479216237 -0.43286244158 2.47780181526 0.50652823579 -0.42309765605 2.47066278163 0.50107292930 -0.41297756260 2.46307866305 0.49844134091 -0.40265850335 2.45519835741 0.49864856863 -0.39229682040 2.44717076262 0.50170971047 -0.38204885585 2.43914477660 0.50763986444 -0.37207095182 2.43126929724 0.51645412855 -0.36251945041 2.42369322247 0.52816760080 -0.35355069373 2.41656545017 0.53235629237 -0.43052014555 2.49769627656 0.52017399370 -0.42152886529 2.49092541416 0.51106163563 -0.41204138025 2.48365112006 0.50502835278 -0.40220927209 2.47600632258 0.50208327976 -0.39218412249 2.46812395005 0.50223555118 -0.38211751311 2.46013693080 0.50549430168 -0.37216102562 2.45217819315 0.51186866585 -0.36246624169 2.44438066543 0.52136777832 -0.35318474299 2.43687727598 0.53400077370 -0.34446811119 2.42980095312 0.53628036407 -0.41940959409 2.51082900638 0.52315236713 -0.41056937019 2.50389164394 0.51332661429 -0.40125428154 2.49652682005 0.50680700650 -0.39160696375 2.48885441333 0.50359744471 -0.38177005244 2.48099430243 0.50370182984 -0.37188618323 2.47306636598 0.50712406285 -0.36209799173 2.46519048264 0.51386804466 -0.35254811355 2.45748653102 0.52393767623 -0.34337918431 2.45007438978 0.53733685848 -0.33473383962 2.44307393756 0.53732794758 -0.40877601156 2.52369753368 0.52355386091 -0.40000336010 2.51665871529 0.51324081271 -0.39077480705 2.50924479986 0.50638898264 -0.38122439547 2.50156680434 0.50299855038 -0.37148616839 2.49373574570 0.50306969558 -0.36169416886 2.48586264090 0.50660259793 -0.35198243992 2.47805850691 0.51359743708 -0.34248502464 2.47043436070 0.52405439270 -0.33333596604 2.46310121921 0.53797364446 -0.32466930718 2.45617009943 0.53520516433 -0.39861148679 2.53625433663 0.52120505331 -0.38985023883 2.52918483890 0.51072187181 -0.38064140391 2.52175997777 0.50375437334 -0.37111532510 2.51408736467 0.50030131137 -0.36140234547 2.50627461103 0.50036143939 -0.35163280806 2.49842932827 0.50393351087 -0.34193705595 2.49065912783 0.51101627930 -0.33244543220 2.48307162114 0.52160849816 -0.32328827987 2.47577441961 0.53570892093 -0.31459594201 2.46887513469 0.39800981612 -0.50455413913 2.41943926115 0.38300582808 -0.49071334867 2.41620775253 0.37174847622 -0.47679187502 2.41142211367 0.36422923176 -0.46283524724 2.40539152308 0.36043956590 -0.44888899437 2.39842515927 0.36037094984 -0.43499864548 2.39083220073 0.36401485479 -0.42120972961 2.38292182597 0.37136275196 -0.40756777583 2.37500321349 0.38240611254 -0.39411831317 2.36738554180 0.39713640775 -0.38090687071 2.36037798940 0.41957430813 -0.49054504945 2.43117392485 0.40437248396 -0.47854700045 2.42726640630 0.39297423440 -0.46615942179 2.42194092205 0.38537639889 -0.45351809612 2.41549904855 0.38157581687 -0.44075880609 2.40824236224 0.38156932779 -0.42801733436 2.40047243957 0.38535377108 -0.41542946358 2.39249085699 0.39292598618 -0.40313097640 2.38459919094 0.40428281255 -0.39125765548 2.37709901788 0.41942108962 -0.37994528346 2.37029191424 0.43863344997 -0.47694752291 2.44337109132 0.42284910091 -0.46638504753 2.43888202713 0.41101951037 -0.45522672208 2.43312379904 0.40314483942 -0.44366686836 2.42638277904 0.39922524913 -0.43189980816 2.41894533909 0.39926090056 -0.42011986327 2.41109785117 0.40325195478 -0.40852135548 2.40312668726 0.41119857285 -0.39729860660 2.39531821932 0.42310091585 -0.38664593841 2.38795881933 0.43895914484 -0.37675767271 2.38133485927 0.45506134636 -0.46377958811 2.45592768822 0.43841985680 -0.45429602037 2.45094781581 0.42595134166 -0.44409512952 2.44485259787 0.41765761206 -0.43340371420 2.43790784825 0.41354047912 -0.42244857301 2.43037938080 0.41360175397 -0.41145650457 2.42253300937 0.41784324773 -0.40065430750 2.41463454781 0.42626677151 -0.39026878043 2.40694980997 0.43887413646 -0.38052672196 2.39974460971 0.45566715367 -0.37165493072 2.39328476086 0.46873210201 -0.45105927362 2.46874064318 0.45106892955 -0.44234844940 2.46335697315 0.43783676584 -0.43286599773 2.45700917177 0.42903777555 -0.42285078387 2.44993938990 0.42467412333 -0.41254167309 2.44238977836 0.42474797385 -0.40217753065 2.43460248802 0.42926149175 -0.39199722183 2.42681966971 0.43821684171 -0.38223961190 2.41928347427 0.45161618837 -0.37314356612 2.41223605256 0.46946169640 -0.36494794975 2.40591955543 0.47951982166 -0.43880460802 2.48170688385 0.46078049705 -0.43061086508 2.47600269995 0.44674282046 -0.42164068031 2.46947537399 0.43740838861 -0.41213022760 2.46234253768 0.43277879822 -0.40231568083 2.45482182276 0.43285564600 -0.39243321389 2.44713086096 0.43764052869 -0.38271900065 2.43948728399 0.44713504298 -0.37340921502 2.43210872358 0.46134078561 -0.36474003087 2.42521281146 0.48025935329 -0.35694762208 2.41901717935 0.48729861002 -0.42703361989 2.49472333787 0.46753873720 -0.41915179785 2.48877819701 0.45273654307 -0.41052053089 2.48213305774 0.44289250997 -0.40136419563 2.47498242531 0.43800712025 -0.39190716868 2.46752080499 0.43808085626 -0.38237382665 2.45994270204 0.44311420036 -0.37298854615 2.45244262171 0.45310763488 -0.36397570379 2.44521506925 0.46806164218 -0.35555967620 2.43845454994 0.48797670461 -0.34796483997 2.43235556903 0.49194257181 -0.41576433782 2.50768693290 0.47132782790 -0.40803977816 2.50157666514 0.45588497121 -0.39960690309 2.49486407627 0.44561319835 -0.39067483819 2.48772418650 0.44051170589 -0.38145270907 2.48033201604 0.44057969045 -0.37214964131 2.47286258511 0.44581634860 -0.36297476050 2.46549091391 0.45622087696 -0.35413719223 2.45839202266 0.47179247210 -0.34584606210 2.45174093158 0.49253033064 -0.33831049568 2.44571266087 0.49332581176 -0.40501479037 2.52049459657 0.47213194705 -0.39734333644 2.51429130514 0.45625514245 -0.38900115051 2.50755028282 0.44569351247 -0.38018430552 2.50043295495 0.44044517161 -0.37108887445 2.49310074689 0.44050823437 -0.36191093026 2.48571508401 0.44588081525 -0.35284654590 2.47843739165 0.45656102875 -0.34409179435 2.47142909516 0.47254698938 -0.33584274855 2.46485161991 0.49383681163 -0.32829548148 2.45886639125 0.49132243459 -0.39480300614 2.53304325654 0.46993527255 -0.38713100316 2.52681531781 0.45391409434 -0.37880462677 2.52007353061 0.44325651108 -0.37001474785 2.51297386436 0.43796013388 -0.36095223725 2.50567228854 0.43802257385 -0.35180796586 2.49832477259 0.44344144213 -0.34277280453 2.49108728597 0.45421434981 -0.33403762414 2.48411579812 0.47033890802 -0.32579329556 2.47756627850 0.49181272786 -0.31823068964 2.47159469657 0.33509945961 -0.50108935798 2.42294315160 0.30911279211 -0.48638277362 2.42176746893 0.28959366037 -0.47175992926 2.41823361129 0.27651527350 -0.45737943343 2.41276286303 0.26985084058 -0.44339989469 2.40577650852 0.26957357071 -0.42997992158 2.39769583213 0.27565667299 -0.41727812264 2.38894211822 0.28807335650 -0.40545310643 2.37993665116 0.30679683035 -0.39466348148 2.37110071531 0.33180030362 -0.38506785634 2.36285559504 0.36485070688 -0.48693277499 2.43252700287 0.33871356395 -0.47491870812 2.43029631755 0.31909376606 -0.46245006535 2.42599563745 0.30597206828 -0.44978465789 2.42004183771 0.29932922570 -0.43718029697 2.41285179348 0.29914599340 -0.42489479383 2.40484237993 0.30540312646 -0.41318595968 2.39643047220 0.31808137996 -0.40231160576 2.38803294545 0.33716150899 -0.39252954329 2.38006667484 0.36262426861 -0.38409758349 2.37294853551 0.39008956749 -0.47314161385 2.44301454011 0.36352681715 -0.46318615233 2.43993222706 0.34359790949 -0.45241555368 2.43505297328 0.33028930358 -0.44114843147 2.42877671745 0.32358745848 -0.42970339931 2.42150339829 0.32347883326 -0.41839907079 2.41363295448 0.32994988699 -0.40755405950 2.40556532472 0.34298707873 -0.39748697904 2.39770044772 0.36257686754 -0.38851644299 2.39043826217 0.38870571251 -0.38096106496 2.38417870677 0.41097064663 -0.45975068745 2.45425249925 0.38378698160 -0.45130414552 2.45050111609 0.36340059031 -0.44182907936 2.44520576035 0.34980204516 -0.43167367852 2.43874035313 0.34298191854 -0.42118613255 2.43147881554 0.34293078285 -0.41071463102 2.42379506867 0.34963921047 -0.40060736348 2.41606303362 0.36309777381 -0.39121251950 2.40865663150 0.38329704526 -0.38287828862 2.40194978341 0.41022759722 -0.37595286041 2.39631641044 0.42764854945 -0.44679480869 2.46608761620 0.39972848718 -0.43939172697 2.46182890327 0.37879630816 -0.43086332751 2.45625414025 0.36484535881 -0.42156332335 2.44970559562 0.35786898553 -0.41184542753 2.44252553785 0.35786053473 -0.40206335307 2.43505623539 0.36481335284 -0.39257081301 2.42763995673 0.37872078625 -0.38372152037 2.42061897033 0.39957618139 -0.37586918819 2.41433554466 0.42737288465 -0.36936752950 2.40913194819 0.44027788113 -0.43430879048 2.47836662689 0.41158576377 -0.42756793593 2.47374150723 0.39007956267 -0.41969098323 2.46799825456 0.37575431028 -0.41102029031 2.46144529578 0.36860503906 -0.40189821510 2.45439105781 0.36862678148 -0.39266711551 2.44714396755 0.37581457000 -0.38366934947 2.44001245190 0.39016343707 -0.37524727490 2.43330493776 0.41166841515 -0.36774324972 2.42732985204 0.44032453671 -0.36149963187 2.42239562164 0.44901324683 -0.42232744572 2.49093626724 0.41959324126 -0.41595181169 2.48606484660 0.39754485347 -0.40848473165 2.48023824484 0.38286396535 -0.40024750373 2.47373230449 0.37554645879 -0.39156142610 2.46682286805 0.37558821567 -0.38274779689 2.45978577803 0.38298511787 -0.37412791424 2.45289687695 0.39773304729 -0.36602307631 2.44643200732 0.41982788581 -0.35875458124 2.44066701164 0.44926551531 -0.35264372718 2.43587773243 0.45400925173 -0.41088558729 2.50364327318 0.42398534953 -0.40466239351 2.49862484001 0.40148668021 -0.39741725786 2.49277425268 0.38650938980 -0.38944788794 2.48633947260 0.37904962434 -0.38105199138 2.47956846115 0.37910352985 -0.37252727576 2.47270917974 0.38666725237 -0.36417144872 2.46600958974 0.40173693794 -0.35628221785 2.45971765256 0.42430873259 -0.34915729077 2.45408132958 0.45437878235 -0.34309437509 2.44934858221 0.45542050098 -0.40001802811 2.51633438063 0.42499651847 -0.39381872068 2.51124740609 0.40219954252 -0.38666124699 2.50540641966 0.38702564940 -0.37882436728 2.49903965099 0.37947091534 -0.37058684177 2.49237532974 0.37953141660 -0.36222743070 2.48564168555 0.38720322942 -0.35402489428 2.47906694809 0.40248243005 -0.34625799275 2.47287934701 0.42536509475 -0.33920548633 2.46730711197 0.45584729976 -0.33314613525 2.46257847262 0.45340159977 -0.38975958108 2.52885632550 0.42286117796 -0.38353983245 2.52375846348 0.39997794005 -0.37638938414 2.51793488735 0.38474780991 -0.36857986607 2.51160569053 0.37716671143 -0.36038290814 2.50499096640 0.37723056847 -0.35207014025 2.49831080838 0.38493530492 -0.34391319232 2.49178530985 0.40027684464 -0.33618369425 2.48563456423 0.42325111152 -0.32915327594 2.48007866491 0.45385402942 -0.32309356731 2.47533770530 </DataArray>
</Points>
</Piece>
</StructuredGrid>
</VTKFile>
