<?xml version="1.0"?>
<VTKFile type="StructuredGrid" version="0.1">
<StructuredGrid WholeExtent="0 9 0 9 0 9">
<Piece Extent="0 9 0 9 0 9">
<PointData>
<DataArray type="Float32" Name="Deformation" format="ascii" NumberOfComponents="3">
0.00005347181 0.01349311617 0.00335717917 0.00005076700 0.01340426351 0.00333491571 0.00004666565 0.01328728838 0.00332563924 0.00004151348 0.01314391668 0.00332762796 0.00003565620 0.01297587430 0.00333916010 0.00002943951 0.01278488714 0.00335851387 0.00002320913 0.01257268108 0.00338396750 0.00001731077 0.01234098203 0.00341379920 0.00001209014 0.01209151587 0.00344628719 0.00000789296 0.01182600849 0.00347970970 0.00007600026 0.01346337628 0.00353163396 0.00007843361 0.01334350839 0.00354742224 0.00007893125 0.01320484290 0.00356700876 0.00007803900 0.01304831189 0.00359069068 0.00007630266 0.01287484743 0.00361876518 0.00007426802 0.01268538158 0.00365152939 0.00007248088 0.01248084643 0.00368928049 0.00007148706 0.01226217404 0.00373231564 0.00007183234 0.01203029648 0.00378093199 0.00007406254 0.01178614583 0.00383542671 0.00010101537 0.01342841167 0.00372969013 0.00010952211 0.01328710453 0.00377448086 0.00011545847 0.01313448125 0.00381780638 0.00011958364 0.01297085499 0.00386111182 0.00012265683 0.01279653889 0.00390584226 0.00012543725 0.01261184610 0.00395344283 0.00012868410 0.01241708978 0.00400535864 0.00013315658 0.01221258308 0.00406303478 0.00013961390 0.01199863916 0.00412791636 0.00014881526 0.01177557116 0.00420144851 0.00012698487 0.01338986948 0.00394470786 0.00014185885 0.01323600201 0.00401097558 0.00015352243 0.01307649980 0.00407360602 0.00016294954 0.01291126179 0.00413450181 0.00017111412 0.01274018693 0.00419556557 0.00017899012 0.01256317416 0.00425869994 0.00018755148 0.01238012242 0.00432580753 0.00019777213 0.01219093066 0.00439879097 0.00021062602 0.01199549782 0.00447955290 0.00022708709 0.01179372283 0.00456999594 0.00015237646 0.01334939683 0.00417004731 0.00017327016 0.01319115087 0.00425179039 0.00019039828 0.01303119489 0.00432998156 0.00020493887 0.01286924812 0.00440647111 0.00021806994 0.01270502983 0.00448310931 0.00023096955 0.01253825926 0.00456174644 0.00024481572 0.01236865566 0.00464423278 0.00026078649 0.01219593829 0.00473241861 0.00028005990 0.01201982639 0.00482815420 0.00030381398 0.01184003921 0.00493328985 0.00017565785 0.01330864085 0.00439906865 0.00020158236 0.01315350119 0.00449180928 0.00022336117 0.01299886288 0.00458250691 0.00024235378 0.01284452980 0.00467263017 0.00025991970 0.01269030584 0.00476364768 0.00027741845 0.01253599488 0.00485702808 0.00029620954 0.01238140079 0.00495423999 0.00031765246 0.01222632747 0.00505675204 0.00034310674 0.01207057880 0.00516603287 0.00037393188 0.01191395865 0.00528355110 0.00019529675 0.01326924866 0.00462513205 0.00022462178 0.01312400301 0.00472591626 0.00024968621 0.01297980012 0.00482675598 0.00027199643 0.01283682264 0.00492858945 0.00029305881 0.01269525322 0.00503235490 0.00031437975 0.01255527449 0.00513899060 0.00033746562 0.01241706911 0.00524943476 0.00036382283 0.01228081972 0.00536462565 0.00039495774 0.01214670897 0.00548550149 0.00043237675 0.01201491949 0.00561300053 0.00020976089 0.01323286740 0.00484159769 0.00024021476 0.01310360640 0.00494899532 0.00026664857 0.01297430298 0.00505830266 0.00029066897 0.01284584247 0.00516995939 0.00031388267 0.01271911023 0.00528440519 0.00033789635 0.01259499160 0.00540207973 0.00036431669 0.01247437192 0.00552342271 0.00039475038 0.01235813655 0.00564887379 0.00043080410 0.01224717082 0.00577887266 0.00047408454 0.01214236009 0.00591385900 0.00021751795 0.01320114418 0.00504182573 0.00024618763 0.01309326143 0.00515593045 0.00027152336 0.01298266781 0.00527272086 0.00029517358 0.01287130511 0.00539235045 0.00031878671 0.01276111514 0.00551497274 0.00034401118 0.01265403968 0.00564074123 0.00037249544 0.01255202052 0.00576980943 0.00040588791 0.01245699946 0.00590233085 0.00044583702 0.01237091829 0.00603845899 0.00049399120 0.01229571881 0.00617834737 0.00021703568 0.01317572614 0.00521917633 0.00024036671 0.01309391814 0.00534160566 0.00026158574 0.01300519096 0.00546558448 0.00028231239 0.01291292638 0.00559137309 0.00030416632 0.01282050620 0.00571923177 0.00032876716 0.01273131221 0.00584942083 0.00035773458 0.01264872620 0.00598220053 0.00039268821 0.01257612997 0.00611783118 0.00043524770 0.01251690530 0.00625657307 0.00048703269 0.01247443400 0.00639868647 0.00003832210 0.01358799184 0.00324037691 0.00003099515 0.01350647817 0.00317711120 0.00002388427 0.01339636230 0.00313941395 0.00001691121 0.01326060621 0.00312311512 0.00000999771 0.01310217185 0.00312404469 0.00000306554 0.01292402116 0.00313803264 -0.00000396356 0.01272911611 0.00316090893 -0.00001116784 0.01252041865 0.00318850354 -0.00001862554 0.01230089074 0.00321664645 -0.00002641492 0.01207349433 0.00324116763 0.00005812101 0.01358180072 0.00342030500 0.00005577856 0.01347375261 0.00340248205 0.00005323721 0.01334559169 0.00339932020 0.00005055988 0.01319938483 0.00340871574 0.00004780949 0.01303719888 0.00342856494 0.00004504897 0.01286110070 0.00345676408 0.00004234125 0.01267315716 0.00349120946 0.00003974925 0.01247543511 0.00352979736 0.00003733589 0.01227000142 0.00357042405 0.00003516411 0.01205892294 0.00361098583 0.00007945464 0.01356255661 0.00362471469 0.00008316944 0.01343588287 0.00364412584 0.00008601088 0.01329603190 0.00367061349 0.00008822746 0.01314428804 0.00370339938 0.00009006772 0.01298193562 0.00374170523 0.00009178019 0.01281025898 0.00378475280 0.00009361337 0.01263054245 0.00383176381 0.00009581580 0.01244407039 0.00388196000 0.00009863601 0.01225212712 0.00393456311 0.00010232251 0.01205599698 0.00398879487 0.00010127834 0.01353236274 0.00384777927 0.00011146364 0.01339438196 0.00389759306 0.00011997852 0.01324867436 0.00394954862 0.00012728428 0.01309589816 0.00400362283 0.00013384225 0.01293671161 0.00405979258 0.00014011373 0.01277177297 0.00411803474 0.00014656003 0.01260174047 0.00417832620 0.00015364247 0.01242727236 0.00424064383 0.00016182237 0.01224902688 0.00430496451 0.00017156103 0.01206766227 0.00437126513 0.00012254748 0.01349332231 0.00408367203 0.00013895700 0.01335076288 0.00415843418 0.00015291337 0.01320451047 0.00423238038 0.00016510065 0.01305479750 0.00430584288 0.00017620289 0.01290185642 0.00437915396 0.00018690414 0.01274591966 0.00445264587 0.00019788847 0.01258721967 0.00452665086 0.00020983992 0.01242598887 0.00460150120 0.00022344255 0.01226245971 0.00467752915 0.00023938041 0.01209686463 0.00475506697 0.00014221742 0.01344753853 0.00432656625 0.00016394536 0.01330653863 0.00442219969 0.00018258867 0.01316453166 0.00451536357 0.00019904687 0.01302156839 0.00460651633 0.00021421947 0.01287769958 0.00469611638 0.00022900598 0.01273297603 0.00478462214 0.00024430591 0.01258744851 0.00487249203 0.00026101879 0.01244116779 0.00496018448 0.00028004411 0.01229418465 0.00504815792 0.00030228140 0.01214654986 0.00513687075 0.00015924351 0.01339711460 0.00457063523 0.00018472456 0.01326322222 0.00468444007 0.00020677765 0.01312972935 0.00479475301 0.00022649326 0.01299679312 0.00490209995 0.00024496181 0.01286457065 0.00500700681 0.00026327378 0.01273321906 0.00510999951 0.00028251960 0.01260289545 0.00521160394 0.00030378974 0.01247375696 0.00531234604 0.00032817464 0.01234596070 0.00541275170 0.00035676475 0.01221966379 0.00551334684 0.00017258111 0.01334415375 0.00481005227 0.00019959044 0.01322232664 0.00494070582 0.00022325356 0.01310109496 0.00506680348 0.00024481012 0.01298105403 0.00518905054 0.00026549976 0.01286279918 0.00530815226 0.00028656209 0.01274692571 0.00542481393 0.00030923677 0.01263402897 0.00553974083 0.00033476342 0.01252470426 0.00565363822 0.00036438169 0.01241954691 0.00576721138 0.00039933119 0.01231915224 0.00588116560 0.00018118559 0.01329075916 0.00503899064 0.00020683884 0.01318536490 0.00518654740 0.00022978963 0.01307961991 0.00532776980 0.00025136778 0.01297493343 0.00546382488 0.00027290312 0.01287271470 0.00559587972 0.00029572547 0.01277437298 0.00572510138 0.00032116465 0.01268131751 0.00585265691 0.00035055050 0.01259495753 0.00597971339 0.00038521283 0.01251670228 0.00610743786 0.00042648148 0.01244796101 0.00623699741 0.00018401230 0.01323903407 0.00525162364 0.00020476562 0.01315385001 0.00541751531 0.00022415910 0.01306629561 0.00557390675 0.00024353655 0.01297901362 0.00572287977 0.00026424173 0.01289464679 0.00586651618 0.00028761845 0.01281583785 0.00600689779 0.00031501048 0.01274522955 0.00614610643 0.00034776162 0.01268546463 0.00628622391 0.00038721565 0.01263918584 0.00642933203 0.00043471636 0.01260903593 0.00657751262 0.00002668306 0.01365916626 0.00315266776 0.00001864345 0.01358315723 0.00305864357 0.00001145380 0.01347818620 0.00299962060 0.00000487270 0.01334814193 0.00296959367 -0.00000134123 0.01319691320 0.00296255762 -0.00000742938 0.01302838880 0.00297250727 -0.00001363315 0.01284645750 0.00299343745 -0.00002019392 0.01265500807 0.00301934299 -0.00002735309 0.01245792931 0.00304421873 -0.00003535205 0.01225910998 0.00306205948 0.00004204947 0.01367063871 0.00333670061 0.00003809831 0.01357145571 0.00329366019 0.00003470354 0.01345117322 0.00327342697 0.00003171671 0.01331270906 0.00327209702 0.00002898942 0.01315898102 0.00328576643 0.00002637324 0.01299290692 0.00331053129 0.00002371973 0.01281740456 0.00334248769 0.00002088048 0.01263539174 0.00337773170 0.00001770706 0.01244978629 0.00341235941 0.00001405105 0.01226350600 0.00344246691 0.00005829481 0.01366318613 0.00354587622 0.00005938357 0.01354748763 0.00354624259 0.00006045049 0.01341721566 0.00356009219 0.00006149015 0.01327438284 0.00358497927 0.00006249710 0.01312100182 0.00361845809 0.00006346591 0.01295908522 0.00365808291 0.00006439113 0.01279064567 0.00370140797 0.00006526732 0.01261769580 0.00374598755 0.00006608906 0.01244224825 0.00378937589 0.00006685089 0.01226631565 0.00382912724 0.00007475196 0.01363925391 0.00377497766 0.00008127488 0.01351318830 0.00381244089 0.00008704669 0.01337782628 0.00385638146 0.00009223841 0.01323439551 0.00390533173 0.00009702103 0.01308412363 0.00395782405 0.00010156556 0.01292823831 0.00401239078 0.00010604301 0.01276796720 0.00406756427 0.00011062437 0.01260453794 0.00412187689 0.00011548066 0.01243917820 0.00417386098 0.00012078289 0.01227311561 0.00422204890 0.00009075377 0.01360128743 0.00401878799 0.00010254790 0.01347049301 0.00408830520 0.00011284415 0.01333451787 0.00415905996 0.00012200688 0.01319397928 0.00423024568 0.00013040042 0.01304949450 0.00430105575 0.00013838913 0.01290168083 0.00437068357 0.00014633733 0.01275115552 0.00443832254 0.00015460939 0.01259853586 0.00450316605 0.00016356964 0.01244443911 0.00456440751 0.00017358242 0.01228948255 0.00462124031 0.00010563311 0.01355173208 0.00427209027 0.00012197828 0.01342133708 0.00436988563 0.00013619490 0.01328880321 0.00446489288 0.00014884097 0.01315436637 0.00455681242 0.00016047451 0.01301826246 0.00464534464 0.00017165354 0.01288072737 0.00473018994 0.00018293607 0.01274199700 0.00481104873 0.00019488013 0.01260230724 0.00488762138 0.00020804373 0.01246189399 0.00495960831 0.00022298489 0.01232099315 0.00502670991 0.00011872283 0.01349303326 0.00452966756 0.00013834169 0.01336765579 0.00465323231 0.00015545095 0.01324219507 0.00477064541 0.00017078607 0.01311678902 0.00488212325 0.00018508251 0.01299157554 0.00498788218 0.00019907572 0.01286669257 0.00508813857 0.00021350119 0.01274227801 0.00518310879 0.00022909436 0.01261846980 0.00527300922 0.00024659071 0.01249540584 0.00535805620 0.00026672570 0.01237322407 0.00543846613 0.00012935579 0.01342763634 0.00478630292 0.00015041378 0.01331138446 0.00493439534 0.00016896434 0.01319620624 0.00507308274 0.00018588758 0.01308247943 0.00520326946 0.00020206364 0.01297058178 0.00532585981 0.00021837262 0.01286089102 0.00544175811 0.00023569465 0.01275378492 0.00555186870 0.00025490984 0.01264964121 0.00565709589 0.00027689833 0.01254883766 0.00575834402 0.00030254023 0.01245175199 0.00585651739 0.00013686486 0.01335798671 0.00503677940 0.00015697021 0.01325445838 0.00520942484 0.00017508708 0.01315234950 0.00536897006 0.00019219091 0.01305266985 0.00551734235 0.00020925712 0.01295642921 0.00565646898 0.00022726114 0.01286463736 0.00578827723 0.00024717841 0.01277830409 0.00591469440 0.00026998434 0.01269843919 0.00603764775 0.00029665436 0.01262605243 0.00615906457 0.00032816390 0.01256215359 0.00628087214 0.00014058290 0.01328652977 0.00527588007 0.00015678662 0.01319881286 0.00547437093 0.00017217119 0.01311213762 0.00565507255 0.00018774144 0.01302859248 0.00582143321 0.00020450218 0.01295026586 0.00597690114 0.00022345824 0.01287924619 0.00612492460 0.00024561444 0.01281762190 0.00626895184 0.00027197560 0.01276748141 0.00641243112 0.00030354654 0.01273091315 0.00655881069 0.00034133209 0.01271000555 0.00671153880 0.00001755022 0.01370663688 0.00309406515 0.00001159071 0.01363429821 0.00297952637 0.00000641597 0.01353275746 0.00290627435 0.00000180776 0.01340652113 0.00286708129 -0.00000245216 0.01326009568 0.00285471936 -0.00000658202 0.01309798761 0.00286196076 -0.00001080007 0.01292470340 0.00288157769 -0.00001532454 0.01274474952 0.00290634233 -0.00002037367 0.01256263247 0.00292902687 -0.00002616569 0.01238285872 0.00294240350 0.00002726712 0.01372988725 0.00328083238 0.00002396981 0.01363661489 0.00322096815 0.00002128309 0.01352158485 0.00318934133 0.00001904114 0.01338828212 0.00318084808 0.00001707814 0.01324019171 0.00319038461 0.00001522825 0.01308079863 0.00321284708 0.00001332567 0.01291358787 0.00324313167 0.00001120455 0.01274204444 0.00327613457 0.00000869908 0.01256965335 0.00330675196 0.00000564344 0.01239989959 0.00332988001 0.00003741890 0.01373029697 0.00349318491 0.00003742907 0.01362191589 0.00348084084 0.00003766503 0.01349802993 0.00348625228 0.00003805076 0.01336113719 0.00350586165 0.00003851023 0.01321373580 0.00353611139 0.00003896742 0.01305832385 0.00357344392 0.00003934631 0.01289739947 0.00361430166 0.00003957085 0.01273346076 0.00365512703 0.00003956503 0.01256900584 0.00369236247 0.00003925282 0.01240653281 0.00372245040 0.00004763726 0.01371053968 0.00372631217 0.00005123133 0.01359241813 0.00375552732 0.00005455024 0.01346395312 0.00379411227 0.00005763351 0.01332675188 0.00383963592 0.00006052064 0.01318242165 0.00388966717 0.00006325113 0.01303256969 0.00394177494 0.00006586449 0.01287880322 0.00399352811 0.00006840023 0.01272272948 0.00404249560 0.00007089785 0.01256595573 0.00408624630 0.00007339687 0.01241008920 0.00412234913 0.00005755389 0.01367328899 0.00397540360 0.00006463943 0.01355033854 0.00404141049 0.00007092719 0.01342121483 0.00411002636 0.00007658629 0.01328679171 0.00417968481 0.00008178585 0.01314794300 0.00424881942 0.00008669500 0.01300554252 0.00431586380 0.00009148287 0.01286046412 0.00437925152 0.00009631857 0.01271358161 0.00443741617 0.00010137124 0.01256576882 0.00448879136 0.00010681000 0.01241789960 0.00453181066 0.00006680049 0.01362121852 0.00423564862 0.00007691624 0.01349789402 0.00433487322 0.00008578435 0.01337167549 0.00443109961 0.00009370600 0.01324292223 0.00452352225 0.00010098239 0.01311199355 0.00461133561 0.00010791469 0.01297924876 0.00469373415 0.00011480408 0.01284504719 0.00476991234 0.00012195175 0.01270974813 0.00483906465 0.00012965887 0.01257371091 0.00490038554 0.00013822664 0.01243729483 0.00495306947 0.00007500876 0.01355700189 0.00450223668 0.00008732458 0.01343730152 0.00463229842 0.00009811016 0.01331719550 0.00475443708 0.00010778955 0.01319680896 0.00486866217 0.00011678676 0.01307626702 0.00497498319 0.00012552583 0.01295569481 0.00507340966 0.00013443078 0.01283521745 0.00516395107 0.00014392564 0.01271496006 0.00524661693 0.00015443443 0.01259504778 0.00532141674 0.00016638119 0.01247560572 0.00538836001 0.00008181041 0.01348331273 0.00477035720 0.00009512730 0.01337077794 0.00493006895 0.00010689310 0.01325963528 0.00507714382 0.00011763382 0.01315011744 0.00521261849 0.00012787547 0.01304245713 0.00533752965 0.00013814406 0.01293688705 0.00545291398 0.00014896561 0.01283363990 0.00555980817 0.00016086612 0.01273294839 0.00565924890 0.00017437161 0.01263504523 0.00575227287 0.00019000809 0.01254016310 0.00583991675 0.00008683713 0.01340282466 0.00503519962 0.00009958726 0.01330054022 0.00522456773 0.00011112162 0.01320085524 0.00539632491 0.00012203572 0.01310451321 0.00555290515 0.00013292503 0.01301225759 0.00569674244 0.00014438503 0.01292483189 0.00583027077 0.00015701122 0.01284297957 0.00595592411 0.00017139908 0.01276744413 0.00607613647 0.00018814409 0.01269896905 0.00619334182 0.00020784173 0.01263829781 0.00630997415 0.00008972062 0.01331821129 0.00529195337 0.00009996729 0.01322880528 0.00551217762 0.00010978420 0.01314271581 0.00570908539 0.00011979215 0.01306166179 0.00588703607 0.00013061194 0.01298736213 0.00605038903 0.00014286438 0.01292153572 0.00620350368 0.00015717026 0.01286590147 0.00635073938 0.00017415038 0.01282217827 0.00649645553 0.00019442554 0.01279208504 0.00664501150 0.00021861655 0.01277734068 0.00680076669 0.00000991910 0.01373040117 0.00306458251 0.00000771574 0.01365989859 0.00293977315 0.00000581254 0.01356007352 0.00285939037 0.00000412619 0.01343574113 0.00281559563 0.00000257339 0.01329171662 0.00280055039 0.00000107083 0.01313281517 0.00280641611 -0.00000046479 0.01296385198 0.00282535427 -0.00000211678 0.01278964224 0.00284952633 -0.00000396844 0.01261500113 0.00287109374 -0.00000610307 0.01244474385 0.00288221798 0.00001325549 0.01375954334 0.00325271195 0.00001197002 0.01366922737 0.00318441743 0.00001092873 0.01355682394 0.00314707555 0.00001006478 0.01342610157 0.00313498248 0.00000931131 0.01328082882 0.00314243440 0.00000860147 0.01312477423 0.00316372750 0.00000786840 0.01296170634 0.00319315794 0.00000704527 0.01279539370 0.00322502192 0.00000606521 0.01262960484 0.00325361560 0.00000486137 0.01246810832 0.00327323518 0.00001670993 0.01376388591 0.00346665097 0.00001657053 0.01365916477 0.00344793031 0.00001654220 0.01353847214 0.00344910354 0.00001658835 0.01340454889 0.00346605666 0.00001667239 0.01326013587 0.00349467568 0.00001675775 0.01310797393 0.00353084658 0.00001680784 0.01295080393 0.00357045538 0.00001678608 0.01279136672 0.00360938807 0.00001665589 0.01263240316 0.00364353065 0.00001638068 0.01247665411 0.00366876912 0.00002016578 0.01374621678 0.00370179195 0.00002127177 0.01363206861 0.00372686060 0.00002231247 0.01350705243 0.00376274877 0.00002329119 0.01337296531 0.00380654283 0.00002421125 0.01323160433 0.00385532915 0.00002507594 0.01308476658 0.00390619411 0.00002588857 0.01293424913 0.00395622408 0.00002665245 0.01278184907 0.00400250542 0.00002737088 0.01262936346 0.00404212450 0.00002804717 0.01247858940 0.00407216770 0.00002350640 0.01370932379 0.00395352724 0.00002582819 0.01359029673 0.00401775708 0.00002789906 0.01346459910 0.00408528563 0.00002976761 0.01333323307 0.00415416560 0.00003148247 0.01319720082 0.00422244975 0.00003309226 0.01305750452 0.00428819081 0.00003464561 0.01291514635 0.00434944151 0.00003619112 0.01277112849 0.00440425458 0.00003777743 0.01262645311 0.00445068277 0.00003945316 0.01248212238 0.00448677880 0.00002661514 0.01365599483 0.00421724921 0.00002999430 0.01353620698 0.00431716857 0.00003296150 0.01341314647 0.00441398853 0.00003561190 0.01328723442 0.00450664963 0.00003804067 0.01315889192 0.00459409241 0.00004034298 0.01302854007 0.00467525741 0.00004261400 0.01289659998 0.00474908516 0.00004494888 0.01276349275 0.00481451621 0.00004744281 0.01262963947 0.00487049107 0.00005019095 0.01249546124 0.00491595030 0.00002937538 0.01358901777 0.00448835024 0.00003352458 0.01347215717 0.00462164385 0.00003715932 0.01335472884 0.00474613188 0.00004041836 0.01323685159 0.00486171955 0.00004344045 0.01311864422 0.00496831206 0.00004636434 0.01300022556 0.00506581465 0.00004932877 0.01288171441 0.00515413252 0.00005247250 0.01276322959 0.00523317091 0.00005593428 0.01264488990 0.00530283502 0.00005985285 0.01252681416 0.00536303008 0.00003167046 0.01351118048 0.00476222267 0.00003617349 0.01340050516 0.00492773174 0.00004015205 0.01329138051 0.00507899010 0.00004378130 0.01318396681 0.00521709999 0.00004723642 0.01307842432 0.00534316363 0.00005069258 0.01297491331 0.00545828325 0.00005432496 0.01287359404 0.00556356107 0.00005830874 0.01277462677 0.00566009932 0.00006281909 0.01267817178 0.00574900023 0.00006803118 0.01258438932 0.00583136603 0.00003338375 0.01342527083 0.00503425889 0.00003769553 0.01332360877 0.00523198102 0.00004159920 0.01322513579 0.00540983758 0.00004529500 0.01313046234 0.00557051559 0.00004898317 0.01304019881 0.00571670204 0.00005286396 0.01295495564 0.00585108394 0.00005713761 0.01287534325 0.00597634829 0.00006200438 0.01280197205 0.00609518208 0.00006766451 0.01273545247 0.00621027233 0.00007431825 0.01267639492 0.00632430602 0.00003439860 0.01333407670 0.00529985125 0.00003784519 0.01324382583 0.00553094049 0.00004116032 0.01315802899 0.00573594874 0.00004455377 0.01307822039 0.00591969100 0.00004823531 0.01300593428 0.00608698224 0.00005241471 0.01294270489 0.00624263746 0.00005730175 0.01289006644 0.00639147166 0.00006310619 0.01284955318 0.00653829981 0.00007003781 0.01282269933 0.00668793691 0.00007830637 0.01281103913 0.00684519795 0.00000278523 0.01373045658 0.00306423324 0.00000489734 0.01365995589 0.00293939745 0.00000668523 0.01356013177 0.00285898381 0.00000823778 0.01343579924 0.00281515437 0.00000964387 0.01329177332 0.00280007118 0.00001099239 0.01313286904 0.00280589632 0.00001237224 0.01296390141 0.00282479182 0.00001387229 0.01278968545 0.00284891976 0.00001558144 0.01261503620 0.00287044219 0.00001758857 0.01244476865 0.00288152117 -0.00000050394 0.01375960397 0.00325235091 0.00000067589 0.01366929036 0.00318401952 0.00000159332 0.01355688785 0.00314664190 0.00000231925 0.01342616496 0.00313451374 0.00000292461 0.01328089021 0.00314193075 0.00000348031 0.01312483212 0.00316318860 0.00000405728 0.01296175921 0.00319258300 0.00000472642 0.01279544000 0.00322440965 0.00000555867 0.01262964301 0.00325296423 0.00000662494 0.01246813676 0.00327254244 -0.00000394911 0.01376394971 0.00346628460 -0.00000392744 0.01365923135 0.00344752074 -0.00000403026 0.01353853971 0.00344865578 -0.00000421801 0.01340461572 0.00346557445 -0.00000445114 0.01326020033 0.00349416150 -0.00000469009 0.01310803447 0.00353030166 -0.00000489532 0.01295085909 0.00356987968 -0.00000502727 0.01279141512 0.00360878028 -0.00000504638 0.01263244351 0.00364288820 -0.00000491311 0.01247668518 0.00366808819 -0.00000743094 0.01374628190 0.00370142613 -0.00000866503 0.01363213685 0.00372644896 -0.00000984333 0.01350712175 0.00376229867 -0.00001096693 0.01337303383 0.00380605987 -0.00001203696 0.01323167034 0.00385481718 -0.00001305450 0.01308482850 0.00390565519 -0.00001402067 0.01293430557 0.00395565853 -0.00001493657 0.01278189877 0.00400191179 -0.00001580331 0.01262940535 0.00404149958 -0.00001662199 0.01247862256 0.00407150652 -0.00001083013 0.01370938864 0.00395316731 -0.00001328924 0.01359036488 0.00401735202 -0.00001550368 0.01346466842 0.00408484380 -0.00001752043 0.01333330163 0.00415369339 -0.00001938641 0.01319726689 0.00422195150 -0.00002114859 0.01305756660 0.00428766887 -0.00002285390 0.01291520313 0.00434889623 -0.00002454929 0.01277117888 0.00440368430 -0.00002628171 0.01262649621 0.00445008382 -0.00002809811 0.01248215752 0.00448614552 -0.00001402735 0.01365605802 0.00421689995 -0.00001755241 0.01353627344 0.00431677778 -0.00002066914 0.01341321413 0.00441356441 -0.00002347141 0.01328730143 0.00450619837 -0.00002605308 0.01315895666 0.00459361819 -0.00002850803 0.01302860117 0.00467476238 -0.00003093011 0.01289665630 0.00474856946 -0.00003341321 0.01276354338 0.00481397796 -0.00003605118 0.01262968374 0.00486992640 -0.00003893789 0.01249549872 0.00491535331 -0.00001690327 0.01358907816 0.00448801587 -0.00002120693 0.01347222054 0.00462127407 -0.00002499752 0.01335479332 0.00474573372 -0.00002841280 0.01323691555 0.00486129821 -0.00003159055 0.01311870630 0.00496787097 -0.00003466851 0.01300028462 0.00506535540 -0.00003778444 0.01288176957 0.00515365491 -0.00004107612 0.01276328021 0.00523267290 -0.00004468129 0.01264493561 0.00530231278 -0.00004873773 0.01252685480 0.00536247797 -0.00001933858 0.01351123714 0.00476190688 -0.00002400514 0.01340056418 0.00492738875 -0.00002814662 0.01329144040 0.00507862495 -0.00003193752 0.01318402632 0.00521671629 -0.00003555238 0.01307848246 0.00534276357 -0.00003916570 0.01297496933 0.00545786762 -0.00004295200 0.01287364745 0.00556312924 -0.00004708582 0.01277467732 0.00565964924 -0.00005174166 0.01267821947 0.00574852843 -0.00005709405 0.01258443441 0.00583086762 -0.00002121394 0.01342532307 0.00503396481 -0.00002569942 0.01332366236 0.00523166967 -0.00002977425 0.01322518981 0.00540951134 -0.00003363848 0.01313051607 0.00557017598 -0.00003749215 0.01304025182 0.00571634972 -0.00004153528 0.01295500772 0.00585071872 -0.00004596791 0.01287539443 0.00597596914 -0.00005099010 0.01280202264 0.00609478711 -0.00005680187 0.01273550299 0.00620985880 -0.00006360326 0.01267644617 0.00632387034 -0.00002241003 0.01333412404 0.00529958146 -0.00002604212 0.01324387310 0.00553066467 -0.00002953824 0.01315807596 0.00573566612 -0.00003310861 0.01307826711 0.00591940066 -0.00003696343 0.01300598102 0.00608668313 -0.00004131292 0.01294275217 0.00624232839 -0.00004636729 0.01289011504 0.00639115129 -0.00005233675 0.01284960410 0.00653796666 -0.00005943151 0.01282275384 0.00668758936 -0.00006786178 0.01281109873 0.00684483424 -0.00000485587 0.01370680057 0.00309303078 0.00000101433 0.01363446759 0.00297841283 0.00000607579 0.01353292962 0.00290506984 0.00001055233 0.01340669277 0.00286577518 0.00001466775 0.01326026312 0.00285330223 0.00001864590 0.01309814678 0.00286042436 0.00002271057 0.01292484984 0.00287991497 0.00002708560 0.01274487840 0.00290454741 0.00003199480 0.01256273857 0.00292709508 0.00003766199 0.01238293643 0.00294033135 -0.00001452966 0.01373006614 0.00327976088 -0.00001133561 0.01363680107 0.00321978593 -0.00000877030 0.01352177396 0.00318805266 -0.00000666383 0.01338846984 0.00317945544 -0.00000484629 0.01324037374 0.00318888859 -0.00000314777 0.01308097068 0.00321124645 -0.00000139837 0.01291374571 0.00324142337 0.00000057183 0.01274218384 0.00327431368 0.00000293272 0.01256977010 0.00330481174 0.00000585422 0.01239998953 0.00332781186 -0.00002467518 0.01373048512 0.00349209600 -0.00002480028 0.01362211274 0.00347962186 -0.00002516466 0.01349823005 0.00348491878 -0.00002568928 0.01336133549 0.00350442517 -0.00002629510 0.01321392750 0.00353457941 -0.00002690311 0.01305850453 0.00357181991 -0.00002743425 0.01289756502 0.00361258507 -0.00002780950 0.01273360742 0.00365331327 -0.00002794982 0.01256913016 0.00369044291 -0.00002777617 0.01240663169 0.00372041238 -0.00003492137 0.01371073176 0.00372522386 -0.00003864030 0.01359262000 0.00375430065 -0.00004209385 0.01346415865 0.00379276970 -0.00004531928 0.01332695550 0.00383819448 -0.00004835381 0.01318261833 0.00388813845 -0.00005123468 0.01303275494 0.00394016507 -0.00005399914 0.01287897312 0.00399183782 -0.00005668443 0.01272288067 0.00404072015 -0.00005932778 0.01256608538 0.00408437554 -0.00006196643 0.01241019503 0.00412036745 -0.00004489714 0.01367348033 0.00397433219 -0.00005211627 0.01355054026 0.00404020234 -0.00005854447 0.01342142053 0.00410870695 -0.00006434910 0.01328699564 0.00417827348 -0.00006969751 0.01314814014 0.00424732942 -0.00007475705 0.01300572853 0.00431430223 -0.00007969510 0.01286063536 0.00437761938 -0.00008467900 0.01271373513 0.00443570835 -0.00008987612 0.01256590238 0.00448699660 -0.00009545381 0.01241801163 0.00452991160 -0.00005423142 0.01362140509 0.00423460873 -0.00006448882 0.01349809093 0.00433370695 -0.00007350310 0.01337187644 0.00442983203 -0.00008157401 0.01324312171 0.00452217229 -0.00008900132 0.01311218685 0.00460991607 -0.00009608479 0.01297943193 0.00469225170 -0.00010312419 0.01284521706 0.00476836751 -0.00011041927 0.01270990232 0.00483745184 -0.00011826981 0.01257384781 0.00489869301 -0.00012697556 0.01243741361 0.00495127937 -0.00006255313 0.01355718032 0.00450124122 -0.00007501856 0.01343748940 0.00463119452 -0.00008595631 0.01331738713 0.00475324646 -0.00009578928 0.01319699948 0.00486740100 -0.00010494036 0.01307645237 0.00497366213 -0.00011383246 0.01295587176 0.00507203379 -0.00012288847 0.01283538358 0.00516251997 -0.00013253128 0.01271511377 0.00524512463 -0.00014318381 0.01259518829 0.00531985175 -0.00015526893 0.01247573306 0.00538670528 -0.00006949121 0.01348348027 0.00476941739 -0.00008296610 0.01337095307 0.00492904507 -0.00009489069 0.01325981338 0.00507605176 -0.00010579017 0.01315029473 0.00521146974 -0.00011618975 0.01304263063 0.00533633133 -0.00012661462 0.01293705463 0.00545166882 -0.00013759000 0.01283380025 0.00555851451 -0.00014964108 0.01273310102 0.00565790072 -0.00016329307 0.01263519045 0.00575085974 -0.00017907117 0.01254030210 0.00583842387 -0.00007467456 0.01340297920 0.00503432498 -0.00008759206 0.01330069936 0.00522363864 -0.00009929282 0.01320101594 0.00539534943 -0.00011037195 0.01310467323 0.00555188860 -0.00012142459 0.01301241555 0.00569568740 -0.00013304584 0.01292498718 0.00582917708 -0.00014583084 0.01284313243 0.00595478890 -0.00016037471 0.01276759558 0.00607495410 -0.00017727256 0.01269912094 0.00619210395 -0.00019711953 0.01263845281 0.00630866969 -0.00007773212 0.01331835139 0.00529115171 -0.00008815706 0.01322894566 0.00551135526 -0.00009814928 0.01314285556 0.00570824101 -0.00010832990 0.01306180078 0.00588616770 -0.00011932000 0.01298750104 0.00604949409 -0.00013174069 0.01292167602 0.00620257890 -0.00014621306 0.01286604544 0.00634978088 -0.00016335821 0.01282232899 0.00649545877 -0.00018379724 0.01279224638 0.00664397131 -0.00020815125 0.01277751730 0.00679967725 -0.00001400866 0.01365943061 0.00315098854 -0.00000605448 0.01358343120 0.00305683284 0.00000102596 0.01347846449 0.00299766363 0.00000747963 0.01334841902 0.00296747574 0.00001355351 0.01319718333 0.00296026400 0.00001949456 0.01302864595 0.00297002326 0.00002554976 0.01284669544 0.00299074833 0.00003196607 0.01265522033 0.00301643405 0.00003899048 0.01245810916 0.00304107526 0.00004686995 0.01225925047 0.00305866679 -0.00002934016 0.01367092686 0.00333495348 -0.00002548753 0.01357175670 0.00329172814 -0.00002220927 0.01345147961 0.00327132011 -0.00001935284 0.01331301375 0.00326982110 -0.00001676571 0.01315927726 0.00328332286 -0.00001429534 0.01299318832 0.00330791710 -0.00001178918 0.01281766509 0.00333969555 -0.00000909472 0.01263562571 0.00337474995 -0.00000605940 0.01244998837 0.00340917202 -0.00000253069 0.01226367121 0.00343905348 -0.00004558530 0.01366348890 0.00354409536 -0.00004678339 0.01354780603 0.00354424339 -0.00004797325 0.01341754058 0.00355790234 -0.00004914637 0.01327470598 0.00358261895 -0.00005029422 0.01312131569 0.00361593996 -0.00005140827 0.01295938314 0.00365541209 -0.00005248001 0.01279092178 0.00369858208 -0.00005350090 0.01261794505 0.00374299665 -0.00005446244 0.01244246641 0.00378620254 -0.00005535609 0.01226649928 0.00382574648 -0.00006207396 0.01363956306 0.00377319427 -0.00006871525 0.01351351519 0.00381042391 -0.00007461581 0.01337816067 0.00385416958 -0.00007994423 0.01323472833 0.00390295406 -0.00008486912 0.01308444697 0.00395530015 -0.00008955909 0.01292854540 0.00400973064 -0.00009418275 0.01276825242 0.00406476831 -0.00009890871 0.01260479685 0.00411893597 -0.00010390557 0.01243940750 0.00417075640 -0.00010934194 0.01227331317 0.00421875240 -0.00007813605 0.01360159567 0.00401703028 -0.00009005633 0.01347082016 0.00408631507 -0.00010048674 0.01333485317 0.00415688110 -0.00010978967 0.01319431339 0.00422791121 -0.00011832750 0.01304981947 0.00429858828 -0.00012646264 0.01290199009 0.00436809515 -0.00013455746 0.01275144392 0.00443561468 -0.00014297436 0.01259879962 0.00450032973 -0.00015207572 0.01244467587 0.00456142316 -0.00016222394 0.01228969133 0.00461807782 -0.00009310148 0.01355203305 0.00427038348 -0.00010957983 0.01342165694 0.00436796220 -0.00012393587 0.01328913136 0.00446279615 -0.00013672596 0.01315469375 0.00455457518 -0.00014850647 0.01301858156 0.00464298919 -0.00015983375 0.01288103222 0.00472772803 -0.00017126416 0.01274228317 0.00480848160 -0.00018335407 0.01260257187 0.00488493976 -0.00019665982 0.01246213574 0.00495679239 -0.00021173778 0.01232121224 0.00502372936 -0.00010630014 0.01349332152 0.00452803394 -0.00012605894 0.01336796153 0.00465141066 -0.00014331300 0.01324250851 0.00476867399 -0.00015879638 0.01311710202 0.00488003075 -0.00017324312 0.01299188159 0.00498568772 -0.00018738728 0.01286698677 0.00508585169 -0.00020196291 0.01274255709 0.00518072947 -0.00021770406 0.01261873210 0.00527052786 -0.00023534479 0.01249565134 0.00535545364 -0.00025561915 0.01237345435 0.00543571361 -0.00011706194 0.01342790742 0.00478476175 -0.00013826689 0.01331166992 0.00493270577 -0.00015696796 0.01319649791 0.00507127389 -0.00017404418 0.01308277079 0.00520136269 -0.00019037454 0.01297086794 0.00532386871 -0.00020683805 0.01286116874 0.00543968854 -0.00022431372 0.01275405257 0.00554971873 -0.00024368056 0.01264989883 0.00565485586 -0.00026581757 0.01254908689 0.00575599648 -0.00029160375 0.01245199615 0.00585403717 -0.00012471677 0.01335823706 0.00503534699 -0.00014497686 0.01325471810 0.00520789289 -0.00016325056 0.01315261284 0.00536735511 -0.00018051263 0.01305293267 0.00551565577 -0.00019773784 0.01295668897 0.00565471702 -0.00021590092 0.01286489313 0.00578646098 -0.00023597665 0.01277855653 0.00591280979 -0.00025893979 0.01269869057 0.00603568558 -0.00028576507 0.01262630662 0.00615701049 -0.00031742727 0.01256241609 0.00627870665 -0.00012859455 0.01328675679 0.00527456975 -0.00014496207 0.01319904208 0.00547301737 -0.00016051061 0.01311236658 0.00565367690 -0.00017624501 0.01302882024 0.00581999479 -0.00019317010 0.01295049303 0.00597541748 -0.00021229073 0.01287947492 0.00612339142 -0.00023461174 0.01281785586 0.00626736305 -0.00026113796 0.01276772582 0.00641077883 -0.00029287423 0.01273117476 0.00655708521 -0.00033082540 0.01271029264 0.00670972863 -0.00002567761 0.01358834414 0.00323811994 -0.00001843028 0.01350684422 0.00317467101 -0.00001142252 0.01339673379 0.00313678033 -0.00000457051 0.01326097532 0.00312027371 0.00000220959 0.01310253127 0.00312097699 0.00000900160 0.01292436413 0.00313471599 0.00001588934 0.01272943637 0.00315731654 0.00002295664 0.01252071045 0.00318460446 0.00003028732 0.01230114886 0.00321240559 0.00003796521 0.01207371407 0.00323654574 -0.00004545395 0.01358218311 0.00341794031 -0.00004320292 0.01347415448 0.00339985766 -0.00004077073 0.01334600218 0.00339645650 -0.00003821616 0.01319979424 0.00340562429 -0.00003559798 0.01303759865 0.00342524850 -0.00003297495 0.01286148342 0.00345321661 -0.00003040584 0.01267351658 0.00348741607 -0.00002794941 0.01247576612 0.00352573437 -0.00002566444 0.01227030005 0.00356605897 -0.00002360970 0.01205918639 0.00360627733 -0.00006679643 0.01356295782 0.00362229290 -0.00007061218 0.01343630833 0.00364139506 -0.00007356834 0.01329646872 0.00366761625 -0.00007591024 0.01314472500 0.00370016595 -0.00007788321 0.01298236320 0.00373825369 -0.00007973258 0.01281066933 0.00378108895 -0.00008170366 0.01263092941 0.00382788123 -0.00008404178 0.01244442947 0.00387784005 -0.00008699227 0.01225245553 0.00393017489 -0.00009080046 0.01205629360 0.00398409526 -0.00008865718 0.01353277252 0.00384534652 -0.00009895113 0.01339481954 0.00389482700 -0.00010758589 0.01324912537 0.00394650603 -0.00011502018 0.01309635037 0.00400034605 -0.00012171272 0.01293715492 0.00405630949 -0.00012812223 0.01277219936 0.00411435878 -0.00013470742 0.01260214406 0.00417445637 -0.00014192702 0.01242764939 0.00423656469 -0.00015023975 0.01224937569 0.00430064616 -0.00016010432 0.01206798334 0.00436666324 -0.00010998831 0.01349373146 0.00408126997 -0.00012651283 0.01335120183 0.00415569726 -0.00014059392 0.01320496409 0.00422937231 -0.00015291341 0.01305525312 0.00430261190 -0.00016415311 0.01290230381 0.00437573283 -0.00017499484 0.01274635104 0.00444905188 -0.00018612043 0.01258762972 0.00452288584 -0.00019821169 0.01242637471 0.00459755148 -0.00021195044 0.01226282092 0.00467336560 -0.00022801850 0.01209720323 0.00475064498 -0.00012974196 0.01344793888 0.00432423209 -0.00015159033 0.01330696898 0.00441954964 -0.00017036296 0.01316497687 0.00451246155 -0.00018695735 0.01302201601 0.00460341087 -0.00020227098 0.01287813987 0.00469284067 -0.00021720135 0.01273340189 0.00478119402 -0.00023264597 0.01258785555 0.00486891399 -0.00024950233 0.01244155431 0.00495644362 -0.00026866792 0.01229455161 0.00504422600 -0.00029104024 0.01214690093 0.00513270419 -0.00014687024 0.01339749902 0.00456840166 -0.00017247670 0.01326363471 0.00468192793 -0.00019466356 0.01313015566 0.00479202020 -0.00021451943 0.01299722181 0.00489919028 -0.00023313294 0.01286499309 0.00500394994 -0.00025159271 0.01273362943 0.00510681097 -0.00027098736 0.01260329077 0.00520828517 -0.00029240551 0.01247413703 0.00530888431 -0.00031693578 0.01234632816 0.00540912019 -0.00034566679 0.01222002408 0.00550950459 -0.00016032529 0.01334451614 0.00480794751 -0.00018746499 0.01322271278 0.00493837591 -0.00021126624 0.01310149244 0.00506429474 -0.00023296709 0.01298145328 0.00518639747 -0.00025380560 0.01286319347 0.00530537757 -0.00027501985 0.01274731117 0.00542192850 -0.00029784788 0.01263440454 0.00553674373 -0.00032352777 0.01252507174 0.00565051673 -0.00035329758 0.01241991094 0.00576394096 -0.00038839537 0.01231952031 0.00587770989 -0.00016905922 0.01329109449 0.00503703845 -0.00019484827 0.01318571694 0.00518443738 -0.00021794155 0.01307997918 0.00532553162 -0.00023966775 0.01297529320 0.00546147979 -0.00026135557 0.01287307101 0.00559344051 -0.00028433371 0.01277472463 0.00572257238 -0.00030993084 0.01268166605 0.00585003403 -0.00033947568 0.01259530729 0.00597698407 -0.00037429691 0.01251706036 0.00610458113 -0.00041572322 0.01244833726 0.00623398380 -0.00017202417 0.01323933830 0.00524984329 -0.00019291959 0.01315416094 0.00541565613 -0.00021246002 0.01306660784 0.00557197731 -0.00023198885 0.01297932432 0.00572088458 -0.00025284946 0.01289495571 0.00586445568 -0.00027638523 0.01281614733 0.00600476838 -0.00030393954 0.01274554450 0.00614390042 -0.00033685578 0.01268579255 0.00628392954 -0.00037647733 0.01263953680 0.00642693350 -0.00042414757 0.01260942258 0.00657499005 -0.00004086721 0.01349353863 0.00335443841 -0.00003823427 0.01340470415 0.00333194091 -0.00003422792 0.01328773493 0.00332243511 -0.00002918829 0.01314435896 0.00332418677 -0.00002345552 0.01297630427 0.00333546166 -0.00001736976 0.01278529888 0.00335452555 -0.00001127113 0.01257307079 0.00337964421 -0.00000549978 0.01234134802 0.00340908341 -0.00000039584 0.01209185859 0.00344110891 0.00000370054 0.01182633051 0.00347398649 -0.00006338952 0.01346383190 0.00352873299 -0.00006590480 0.01334399160 0.00354418599 -0.00006650183 0.01320533903 0.00356347412 -0.00006572217 0.01304880886 0.00358687854 -0.00006410742 0.01287533575 0.00361468045 -0.00006219916 0.01268585438 0.00364716102 -0.00006053898 0.01248129942 0.00368460143 -0.00005966845 0.01226260554 0.00372728286 -0.00006012917 0.01203070740 0.00377548648 -0.00006246272 0.01178653968 0.00382949348 -0.00008842558 0.01342888864 0.00372669881 -0.00009702206 0.01328761674 0.00377108661 -0.00010306220 0.01313501189 0.00381407030 -0.00010730183 0.01297139034 0.00385707632 -0.00011049681 0.01279706834 0.00390153115 -0.00011340301 0.01261236214 0.00394886124 -0.00011677626 0.01241758799 0.00400049306 -0.00012137242 0.01221306213 0.00405785307 -0.00012794735 0.01199910082 0.00412236773 -0.00013725690 0.01177602030 0.00419546351 -0.00011443948 0.01339035685 0.00394168974 -0.00012940915 0.01323653019 0.00400751814 -0.00014118081 0.01307705028 0.00406978676 -0.00015072554 0.01291181966 0.00413037785 -0.00015901444 0.01274074084 0.00419117365 -0.00016701858 0.01256371634 0.00425405640 -0.00017570906 0.01238064867 0.00432090835 -0.00018605695 0.01219144036 0.00439361175 -0.00019903336 0.01199599392 0.00447404884 -0.00021560936 0.01179421188 0.00456410186 -0.00013989534 0.01334988450 0.00416705966 -0.00016088918 0.01319168258 0.00424835594 -0.00017812945 0.01303175103 0.00432618663 -0.00019279159 0.01286981311 0.00440238088 -0.00020605101 0.01270559208 0.00447876785 -0.00021908316 0.01253881117 0.00455717669 -0.00023306346 0.01236919365 0.00463943656 -0.00024916733 0.01219646278 0.00472737661 -0.00026857020 0.01202034179 0.00482282598 -0.00029244749 0.01184055395 0.00492761384 -0.00016325728 0.01330911959 0.00439616247 -0.00018928524 0.01315402455 0.00448847537 -0.00021117989 0.01299941094 0.00457883299 -0.00023029823 0.01284508696 0.00466868315 -0.00024799728 0.01269086086 0.00475947366 -0.00026563405 0.01253654084 0.00485265233 -0.00028456556 0.01238193512 0.00494966696 -0.00030614882 0.01222685194 0.00505196536 -0.00033174085 0.01207109950 0.00516099535 -0.00036269866 0.01191448604 0.00527820472 -0.00018298938 0.01326971009 0.00462235203 -0.00021242046 0.01312450673 0.00472275179 -0.00023760392 0.01298032679 0.00482328897 -0.00026004375 0.01283735749 0.00492488243 -0.00028124396 0.01269578600 0.00502845099 -0.00030270852 0.01255579953 0.00513491350 -0.00032594144 0.01241758527 0.00524518880 -0.00035244670 0.01228133040 0.00536019572 -0.00038372830 0.01214722213 0.00548085311 -0.00042129023 0.01201544766 0.00560807981 -0.00019755577 0.01323330401 0.00483898223 -0.00022811793 0.01310407974 0.00494606057 -0.00025467331 0.01297479541 0.00505511768 -0.00027882643 0.01284634096 0.00516657645 -0.00030218178 0.01271960632 0.00528085973 -0.00032634387 0.01259548144 0.00539839041 -0.00035291719 0.01247485626 0.00551959134 -0.00038350625 0.01235862072 0.00564488540 -0.00041971554 0.01224766476 0.00577469546 -0.00046314958 0.01214287833 0.00590944439 -0.00020542056 0.01320154931 0.00503940695 -0.00023420075 0.01309369423 0.00515327706 -0.00025965985 0.01298311360 0.00526988222 -0.00028344453 0.01287175366 0.00538936296 -0.00030720148 0.01276156063 0.00551185979 -0.00033257737 0.01265448077 0.00563751325 -0.00036121890 0.01255246029 0.00576646385 -0.00039477274 0.01245744545 0.00589885212 -0.00043488557 0.01237138246 0.00603481858 -0.00048320408 0.01229621758 0.00617450375 -0.00020504784 0.01317609399 0.00521698007 -0.00022849204 0.01309430081 0.00533927664 -0.00024983531 0.01300557815 0.00546314571 -0.00027069633 0.01291331185 0.00558883972 -0.00029269378 0.01282088775 0.00571661108 -0.00031744632 0.01273169170 0.00584671223 -0.00034657265 0.01264910955 0.00597939558 -0.00038169144 0.01257652714 0.00611491358 -0.00042442137 0.01251733032 0.00625351863 -0.00047638111 0.01247490493 0.00639546318 </DataArray>
</PointData>
<Points>
<DataArray type="Float32" NumberOfComponents="3">
-0.16661352819 0.57168011617 -1.45654582083 -0.18031686537 0.57396647476 -1.46094265905 -0.19401561555 0.57536390429 -1.46716144032 -0.20826456059 0.57616428705 -1.47491555723 -0.22361848235 0.57665950530 -1.48391840232 -0.24063216269 0.57714144132 -1.49388336816 -0.25986038347 0.57790197738 -1.50452384731 -0.28185792654 0.57923299575 -1.51555323235 -0.30717957378 0.58142637869 -1.52668491582 -0.33638010704 0.58477400849 -1.53763229030 -0.17893648122 0.56072941743 -1.45655045520 -0.19963684959 0.56124212420 -1.46161078020 -0.21812163867 0.56134873197 -1.46818112395 -0.23531318063 0.56117822100 -1.47597911813 -0.25213380759 0.56085957154 -1.48472239447 -0.26950585172 0.56052176386 -1.49412858465 -0.28835164516 0.56029377820 -1.50391532038 -0.30959352006 0.56030459483 -1.51380023336 -0.33415380856 0.56068319400 -1.52350095529 -0.36295484281 0.56155855598 -1.53273511787 -0.18817057722 0.54761574089 -1.45739535651 -0.21411192222 0.54661280827 -1.46286915441 -0.23617787142 0.54545113257 -1.46959768715 -0.25557738329 0.54416289055 -1.47730780867 -0.27351941632 0.54278025900 -1.48572637291 -0.29121292901 0.54133541466 -1.49458023382 -0.30986687984 0.53986053433 -1.50359624534 -0.33069022730 0.53838779475 -1.51250126140 -0.35489192987 0.53694937270 -1.52102213596 -0.38368094605 0.53557744496 -1.52888572296 -0.19431734846 0.53287098059 -1.45896169955 -0.22373764610 0.53056178766 -1.46463581084 -0.24815878469 0.52816388516 -1.47135938077 -0.26899272124 0.52566409170 -1.47887243509 -0.28765141278 0.52304922590 -1.48691499954 -0.30554681631 0.52030610639 -1.49522709984 -0.32409088885 0.51742155178 -1.50354876174 -0.34469558742 0.51438238069 -1.51162001099 -0.36877286902 0.51117541175 -1.51918087330 -0.39773469068 0.50778746357 -1.52597137443 -0.19737832725 0.51702703057 -1.46113065914 -0.22850958403 0.51357232309 -1.46682877865 -0.25403884939 0.50997976883 -1.47341445564 -0.27549474716 0.50622762042 -1.48064380365 -0.29440590121 0.50229413050 -1.48827293621 -0.31230093539 0.49815755167 -1.49605796687 -0.33070847356 0.49379613658 -1.50375500916 -0.35115713959 0.48918813785 -1.51112017661 -0.37517555733 0.48431180811 -1.51790958276 -0.40429235063 0.47914539998 -1.52387934115 -0.19735504585 0.50061578488 -1.46378341009 -0.22842329885 0.49612767526 -1.46936608701 -0.25379253642 0.49139156267 -1.47571116258 -0.27501901370 0.48639927272 -1.48259272059 -0.29365898585 0.48114263102 -1.48978484483 -0.31126870801 0.47561346317 -1.49706161908 -0.32940443534 0.46980359477 -1.50419712713 -0.34962242298 0.46370485142 -1.51096545277 -0.37347892609 0.45730905874 -1.51714067979 -0.40253019981 0.45060804232 -1.52249689198 -0.19424903658 0.48416913755 -1.46680112720 -0.22347435337 0.47871110487 -1.47216576509 -0.24739431668 0.47289204576 -1.47819775243 -0.26750107353 0.46672484459 -1.48468999217 -0.28528677094 0.46022238572 -1.49143538726 -0.30224355593 0.45339755352 -1.49822684063 -0.31986357553 0.44626323235 -1.50485725522 -0.33963897675 0.43883230659 -1.51111953398 -0.36306190661 0.43111766060 -1.51680657985 -0.39162451214 0.42313217875 -1.52171129577 -0.18806183171 0.46821898262 -1.47006498530 -0.21365831042 0.46180587264 -1.47514584205 -0.23481866109 0.45497399720 -1.48082247602 -0.25287647933 0.44775013201 -1.48690642465 -0.26916536074 0.44016105283 -1.49320922539 -0.28501890093 0.43223353537 -1.49954241569 -0.30177069550 0.42399435536 -1.50571753299 -0.32075434006 0.41547028855 -1.51154611474 -0.34330343021 0.40668811065 -1.51683969839 -0.37075156156 0.39767459740 -1.52140982138 -0.17879496353 0.45329721414 -1.47345615918 -0.19897073280 0.44589523927 -1.47822434706 -0.21604004053 0.43813019605 -1.48353358417 -0.23108078375 0.43002093098 -1.48921282427 -0.24517085948 0.42158629058 -1.49509102110 -0.25938816476 0.41284512136 -1.50099712842 -0.27481059662 0.40381626982 -1.50676009998 -0.29251605208 0.39451858248 -1.51220888955 -0.31358242819 0.38497090585 -1.51717245086 -0.33908762197 0.37519208644 -1.52147973768 -0.16644996432 0.43993572614 -1.47685582367 -0.17940718335 0.43146246547 -1.48131930930 -0.19103292592 0.42285342141 -1.48627932773 -0.20204953946 0.41408303749 -1.49157999728 -0.21317937141 0.40512575723 -1.49706543626 -0.22514476919 0.39595602415 -1.50257976299 -0.23866808024 0.38654828176 -1.50796709576 -0.25447165198 0.37687697359 -1.51307155290 -0.27327783186 0.36691654316 -1.51773725272 -0.29580896731 0.35664143400 -1.52180831353 -0.13599292756 0.57778654740 -1.45393699346 -0.14614269792 0.58250238753 -1.45850744339 -0.15719331783 0.58549998426 -1.46496561125 -0.16927534221 0.58715448001 -1.47300896993 -0.18251932599 0.58784101720 -1.48233499229 -0.19705582409 0.58793473823 -1.49264115123 -0.21301539145 0.58781078552 -1.50362491960 -0.23052858297 0.58784430150 -1.51498377030 -0.24972595361 0.58841042857 -1.52641517619 -0.27073805826 0.58988430915 -1.53761661015 -0.14462682006 0.56609432259 -1.45309424100 -0.16008436867 0.56822807750 -1.45861404823 -0.17449923303 0.56927470358 -1.46563698396 -0.18835215872 0.56946387794 -1.47389555980 -0.20212389130 0.56902527769 -1.48312228736 -0.21629517635 0.56818857995 -1.49304967823 -0.23134675945 0.56718346184 -1.50341024404 -0.24775938616 0.56623960047 -1.51393649637 -0.26601380206 0.56558667296 -1.52436094684 -0.28659075272 0.56545435641 -1.53441610704 -0.15109575498 0.55236222541 -1.45338993455 -0.17052597290 0.55223186195 -1.45955291409 -0.18745095897 0.55144810538 -1.46690384827 -0.20262366783 0.55014497427 -1.47520791503 -0.21679705410 0.54845648718 -1.48423029236 -0.23072407241 0.54651666268 -1.49373615820 -0.24515767737 0.54445951933 -1.50349069053 -0.26085082362 0.54241907570 -1.51325906731 -0.27855646577 0.54052935036 -1.52280646650 -0.29902755846 0.53892436187 -1.53189806607 -0.15540077698 0.53703408290 -1.45469091346 -0.17746204909 0.53490239395 -1.46122914102 -0.19602201701 0.53239891228 -1.46870114026 -0.21202781603 0.52959980747 -1.47690189173 -0.22642658145 0.52658124908 -1.48562637593 -0.24016544855 0.52341940667 -1.49466957341 -0.25419155263 0.52019044981 -1.50382646469 -0.26945202896 0.51697054807 -1.51289203030 -0.28689401284 0.51383587101 -1.52166125076 -0.30746463955 0.51086258820 -1.52992910661 -0.15754293070 0.52055372209 -1.45686401710 -0.18088713572 0.51662832657 -1.46354782904 -0.20018592849 0.51250584689 -1.47096379605 -0.21650254980 0.50823041600 -1.47893334598 -0.23090024040 0.50384616679 -1.48727790672 -0.24444224108 0.49939723219 -1.49581890614 -0.25819179262 0.49492774510 -1.50437777210 -0.27321213577 0.49048183845 -1.51277593249 -0.29056651133 0.48610364514 -1.52083481518 -0.31131816005 0.48183729810 -1.52837584804 -0.15752326076 0.50336497002 -1.45977608482 -0.18079577126 0.49779831287 -1.46641407821 -0.19991621478 0.49214763184 -1.47362675171 -0.21598581560 0.48643883832 -1.48125813391 -0.23010579801 0.48069784373 -1.48915225337 -0.24337738630 0.47495055949 -1.49715313867 -0.25690180476 0.46922289701 -1.50510481838 -0.27178027767 0.46354076770 -1.51285132107 -0.28911402933 0.45793008298 -1.52023667533 -0.31000428401 0.45241675425 -1.52710490972 -0.15534281182 0.48591165370 -1.46329395599 -0.17718249420 0.47880100594 -1.46973298855 -0.19518639721 0.47170298972 -1.47662494335 -0.21041555991 0.46462711289 -1.48383211160 -0.22393102132 0.45758288331 -1.49121678451 -0.23679382049 0.45057980885 -1.49864125327 -0.25006499645 0.44362739736 -1.50596780910 -0.26480558825 0.43673515671 -1.51305874321 -0.28207663492 0.42991259475 -1.51977634679 -0.30293917550 0.42316921935 -1.52598291105 -0.15100262851 0.46863760017 -1.46728446996 -0.17004184300 0.46002505885 -1.47340966011 -0.18596999716 0.45155064317 -1.47989330707 -0.19972972921 0.44319727818 -1.48661113518 -0.21226367740 0.43494788894 -1.49343886879 -0.22451447996 0.42678540052 -1.50025223224 -0.23742477512 0.41869273796 -1.50692694988 -0.25193720112 0.41065282633 -1.51333874606 -0.26899439619 0.40264859068 -1.51936334511 -0.28953899858 0.39466295608 -1.52487647139 -0.14450375548 0.45198663647 -1.47161446610 -0.15936835616 0.44185912467 -1.47734919293 -0.17224053596 0.43206931479 -1.48336677895 -0.18386626998 0.42255137264 -1.48955106073 -0.19499153330 0.41323946403 -1.49578587484 -0.20636230100 0.40406775476 -1.50195505785 -0.21872454817 0.39497041063 -1.50794244631 -0.23282424988 0.38588159745 -1.51363187681 -0.24940738123 0.37673548101 -1.51890718589 -0.26921991729 0.36746622713 -1.52365221013 -0.13584723736 0.43640258963 -1.47615078377 -0.14515657213 0.42469185646 -1.48145668705 -0.15397153498 0.41363772720 -1.48698029510 -0.16276312870 0.40309143475 -1.49260774438 -0.17200235608 0.39290421199 -1.49822517132 -0.18216021991 0.38292729184 -1.50371871238 -0.19370772300 0.37301190719 -1.50897450399 -0.20711586813 0.36300929093 -1.51387868261 -0.22285565810 0.35277067596 -1.51831738468 -0.24139809571 0.34214729519 -1.52217674664 -0.10056779568 0.58236638848 -1.45198048039 -0.10754529273 0.58890434018 -1.45668114589 -0.11565076499 0.59310206269 -1.46331886383 -0.12481624654 0.59539714330 -1.47157916627 -0.13497377146 0.59622716931 -1.48114758529 -0.14605537384 0.59602972803 -1.49170965297 -0.15799308775 0.59524240674 -1.50295090137 -0.17071894729 0.59430279276 -1.51455686256 -0.18416498654 0.59364847338 -1.52621306863 -0.19826323957 0.59371703590 -1.53760505163 -0.10622559292 0.57011802112 -1.45050218803 -0.11692238439 0.57346756241 -1.45636661597 -0.12723898013 0.57521920222 -1.46372900579 -0.13739200668 0.57567814017 -1.47233302856 -0.14759809062 0.57514957586 -1.48192235535 -0.15807385853 0.57393870891 -1.49224065723 -0.16903593696 0.57235073893 -1.50303160528 -0.18070095248 0.57069086553 -1.51403887058 -0.19328553167 0.56926428834 -1.52500612418 -0.20700630109 0.56837620696 -1.53567703718 -0.11046422030 0.55592210961 -1.45038597497 -0.12394310922 0.55644617321 -1.45706585084 -0.13590520770 0.55594585576 -1.46488359574 -0.14678797608 0.55463155707 -1.47363313058 -0.15702887470 0.55271367697 -1.48310837631 -0.16706536390 0.55040261527 -1.49310325385 -0.17733490400 0.54790877179 -1.50341168414 -0.18827495534 0.54544254635 -1.51382758811 -0.20032297826 0.54321433876 -1.52414488669 -0.21391643310 0.54143454885 -1.53415750081 -0.11328434498 0.54015643086 -1.45148792906 -0.12860248897 0.53815787003 -1.45867425393 -0.14162698642 0.53557520363 -1.46670758399 -0.15295344083 0.53255161438 -1.47542411607 -0.16317745572 0.52923028497 -1.48466004701 -0.17289463461 0.52575439812 -1.49425157365 -0.18270058101 0.52226713653 -1.50403489282 -0.19319089844 0.51891168292 -1.51384620136 -0.20496119041 0.51583121998 -1.52352169610 -0.21860706043 0.51316893043 -1.53289757387 -0.11468663408 0.52319876175 -1.45366413814 -0.13089554542 0.51892035029 -1.46108722866 -0.14438185498 0.51440042616 -1.46912592088 -0.15583768700 0.50973253242 -1.47765062877 -0.16595516571 0.50501021215 -1.48653176631 -0.17542641535 0.50032700843 -1.49563974746 -0.18494356015 0.49577646434 -1.50484498620 -0.19519872436 0.49145212294 -1.51401789651 -0.20688403219 0.48744752732 -1.52302889234 -0.22069160790 0.48385622055 -1.53174838769 -0.11467175474 0.50542687916 -1.45677069005 -0.13081730032 0.49905131144 -1.46420017846 -0.14414735208 0.49271470367 -1.47206355674 -0.15539000066 0.48646853156 -1.48025731242 -0.16527333669 0.48036427083 -1.48867793303 -0.17452545078 0.47445339721 -1.49722190609 -0.18387443357 0.46878738640 -1.50578571915 -0.19404837567 0.46341771413 -1.51426585974 -0.20577536772 0.45839585611 -1.52255881538 -0.21978350035 0.45377328807 -1.53056107361 -0.11324037411 0.48721856001 -1.46066367263 -0.12836277543 0.47886845092 -1.46790850677 -0.14090101642 0.47081121649 -1.47544544191 -0.15155966790 0.46305383215 -1.48318881076 -0.16104330068 0.45560327332 -1.49105294601 -0.17005648558 0.44846651544 -1.49895218037 -0.17930379340 0.44165053392 -1.50680084655 -0.18948979497 0.43516230420 -1.51451327724 -0.20131906109 0.42900880170 -1.52200380514 -0.21549616258 0.42319700184 -1.52918676295 -0.11039315932 0.46895158116 -1.46519917374 -0.12352699252 0.45868946615 -1.47210761701 -0.13462038671 0.44898314495 -1.47919652671 -0.14429597479 0.43978265454 -1.48638976752 -0.15317638972 0.43103803192 -1.49361120410 -0.16188426441 0.42269931411 -1.50078470113 -0.17104223180 0.41471653808 -1.50783412327 -0.18127292482 0.40703974084 -1.51468333519 -0.19319897639 0.39961895939 -1.52125620157 -0.20744301944 0.39240423073 -1.52747658706 -0.10613077752 0.45100371953 -1.47023328121 -0.11630497336 0.43883205459 -1.47669291260 -0.12528300163 0.42752366936 -1.48324176147 -0.13354820742 0.41694921908 -1.48980482644 -0.14158393583 0.40697935895 -1.49630710613 -0.14987353196 0.39748474421 -1.50267359918 -0.15890034092 0.38833603008 -1.50882930419 -0.16914770781 0.37940387178 -1.51469921979 -0.18109897771 0.37055892454 -1.52020834461 -0.19523749575 0.36167184358 -1.52528167727 -0.10045389584 0.43375275199 -1.47562208289 -0.10669173971 0.41961391366 -1.48155979698 -0.11286639989 0.40672597007 -1.48750609652 -0.11926565185 0.39484774612 -1.49337863126 -0.12617727103 0.38373806671 -1.49909505095 -0.13388903290 0.37315575674 -1.50457300534 -0.14268871290 0.36285964110 -1.50973014418 -0.15286408651 0.35260854471 -1.51448411722 -0.16470292916 0.34216129246 -1.51875257421 -0.17849301633 0.33127670925 -1.52245316490 -0.06171085719 0.58541963688 -1.45067626818 -0.06578843317 0.59317233022 -1.45546375301 -0.07073660222 0.59817013698 -1.46222118289 -0.07645009622 0.60089227421 -1.47062612859 -0.08282364705 0.60181795897 -1.48035616084 -0.08975198659 0.60142640828 -1.49108885039 -0.09712984671 0.60019683920 -1.50250176799 -0.10485195930 0.59860846877 -1.51427248437 -0.11281305624 0.59714051404 -1.52607857029 -0.12090786939 0.59627219205 -1.53759759650 -0.06490182067 0.57280051002 -1.44877428467 -0.07118218511 0.57696057614 -1.45486847193 -0.07738026621 0.57918222526 -1.46245717716 -0.08357533408 0.57982100523 -1.47129151085 -0.08984665883 0.57923246390 -1.48112258350 -0.09627351056 0.57777214911 -1.49170150558 -0.10293515939 0.57579560870 -1.50277938761 -0.10991087544 0.57365839052 -1.51410734006 -0.11727992881 0.57171604241 -1.52543647343 -0.12512158961 0.57032411221 -1.53651789822 -0.06729217918 0.55829539025 -1.44838346758 -0.07521959448 0.55925573915 -1.45540795493 -0.08234600178 0.55894438112 -1.46353691976 -0.08889373111 0.55762263676 -1.47258344516 -0.09508511248 0.55555182668 -1.48236061422 -0.10114247592 0.55299327148 -1.49268151001 -0.10728815146 0.55020829176 -1.50335921564 -0.11374446912 0.54745820813 -1.51420681419 -0.12073375893 0.54500434120 -1.52503738875 -0.12847835090 0.54310801155 -1.53566402239 -0.06888230101 0.54223802116 -1.44935273721 -0.07789724317 0.54032821303 -1.45697114133 -0.08561891272 0.53769275676 -1.46537870422 -0.09237230278 0.53451951045 -1.47443910071 -0.09848240649 0.53099633224 -1.48401600559 -0.10427421696 0.52731108023 -1.49397309368 -0.11007272734 0.52365161254 -1.50417403979 -0.11620293074 0.52020578730 -1.51448251873 -0.12298982030 0.51716146262 -1.52476220530 -0.13075838914 0.51470649661 -1.53487677433 -0.06967255448 0.52496214633 -1.45153101387 -0.07921171310 0.52044839155 -1.45944697046 -0.08718410284 0.51566350436 -1.46790082409 -0.09397806460 0.51073396795 -1.47679564670 -0.09998193934 0.50578626550 -1.48603451021 -0.10558406798 0.50094688018 -1.49552048658 -0.11117279145 0.49634229519 -1.50515664774 -0.11713645069 0.49209899370 -1.51484606562 -0.12386338663 0.48834345889 -1.52449181218 -0.13174194019 0.48520217395 -1.53399695934 -0.06966330788 0.50680150933 -1.45476721786 -0.07915958619 0.49988666847 -1.46272438167 -0.08702667594 0.49309277614 -1.47102157291 -0.09367803207 0.48648835092 -1.47959025233 -0.09952710953 0.48014191140 -1.48836188068 -0.10498736327 0.47412197618 -1.49726791871 -0.11047224823 0.46849706385 -1.50623982718 -0.11639521936 0.46333569300 -1.51520906684 -0.12316973160 0.45870638222 -1.52410709845 -0.13120923991 0.45467765011 -1.53286538275 -0.06885492951 0.48808985374 -1.45891026949 -0.07773744433 0.47891343757 -1.46669231430 -0.08513173583 0.47021672428 -1.47465924422 -0.09143922066 0.46200500100 -1.48276008680 -0.09706131553 0.45428355488 -1.49094386957 -0.10239943711 0.44705767306 -1.49915962006 -0.10785500208 0.44033264269 -1.50735636580 -0.11382942712 0.43411375090 -1.51548313433 -0.12072412892 0.42840628483 -1.52348895318 -0.12894052416 0.42321553164 -1.53132284987 -0.06724778767 0.46916092316 -1.46380908907 -0.07494186945 0.45779909262 -1.47123970767 -0.08148438631 0.44727150098 -1.47873213156 -0.08722864589 0.43750625985 -1.48624231932 -0.09252795584 0.42843148086 -1.49372622949 -0.09773562381 0.41997527565 -1.50113982064 -0.10320495744 0.41206575584 -1.50843905131 -0.10928926438 0.40463103306 -1.51557988005 -0.11634185229 0.39759921894 -1.52251826544 -0.12471602880 0.39089842511 -1.52921016601 -0.06484225066 0.45034846115 -1.46931259691 -0.07076944346 0.43681402739 -1.47625550112 -0.07606973120 0.42449325843 -1.48315852848 -0.08101332324 0.41321446911 -1.48997411909 -0.08587042894 0.40280597428 -1.49665471304 -0.09091125765 0.39309608878 -1.50315275043 -0.09640601873 0.38391312746 -1.50942067138 -0.10262492153 0.37508540517 -1.51541091597 -0.10983817540 0.36644123675 -1.52107592431 -0.11831598970 0.35780893705 -1.52636813650 -0.06163868679 0.43198621129 -1.47526971330 -0.06521674825 0.41622863564 -1.48162863400 -0.06887287429 0.40211814882 -1.48785672851 -0.07276026821 0.38935197044 -1.49389265529 -0.07703213332 0.37762732006 -1.49967507279 -0.08184167294 0.36664141729 -1.50514263944 -0.08734209037 0.35609148171 -1.51023401371 -0.09368658894 0.34567473291 -1.51488785403 -0.10102837195 0.33508839048 -1.51904281886 -0.10952064271 0.32402967401 -1.52263756664 -0.02079483673 0.58694629006 -1.45002434342 -0.02213590258 0.59530635513 -1.45485525119 -0.02379947468 0.60070420454 -1.46167255329 -0.02573971388 0.60363987007 -1.47014983922 -0.02791078104 0.60461338349 -1.47996069846 -0.03026683701 0.60412477656 -1.49077872050 -0.03276204265 0.60267408106 -1.50227749484 -0.03535055882 0.60076132877 -1.51413061095 -0.03798654638 0.59888655145 -1.52601165833 -0.04062416617 0.59754978088 -1.53759422646 -0.02182452417 0.57414178629 -1.44791051932 -0.02389505917 0.57870711589 -1.45411960462 -0.02596247755 0.58116377005 -1.46182148581 -0.02804475049 0.58189247069 -1.47077099314 -0.03015984917 0.58127393969 -1.48072295687 -0.03232574476 0.57968889896 -1.49143220724 -0.03456040846 0.57751807040 -1.50265357450 -0.03688181143 0.57514217592 -1.51414188890 -0.03930792487 0.57294193740 -1.52565198069 -0.04185671994 0.57129807677 -1.53693868013 -0.02259583760 0.55948206409 -1.44738240217 -0.02521169196 0.56066055686 -1.45457921662 -0.02757872538 0.56044367887 -1.46286381055 -0.02976435596 0.55911821112 -1.47205884863 -0.03183600178 0.55697093461 -1.48198699553 -0.03386108094 0.55428863034 -1.49247091593 -0.03590701153 0.55135807930 -1.50333327451 -0.03804121164 0.54846606250 -1.51439673594 -0.04033109936 0.54589936094 -1.52548396489 -0.04284409278 0.54394475561 -1.53641762604 -0.02310889366 0.54327885052 -1.44828532876 -0.02608458910 0.54141342009 -1.45611979497 -0.02864301570 0.53875156921 -1.46471449325 -0.03088710903 0.53550349373 -1.47394683821 -0.03291980464 0.53187938954 -1.48369424446 -0.03484403809 0.52808945249 -1.49383412660 -0.03676274495 0.52434387846 -1.50424389923 -0.03877886076 0.52085286330 -1.51480097695 -0.04099532109 0.51782660290 -1.52538277437 -0.04351506150 0.51547529310 -1.53586670610 -0.02336380900 0.52584387264 -1.45046463590 -0.02651253874 0.52121244761 -1.45862704741 -0.02915014604 0.51629507925 -1.46728849963 -0.03140158845 0.51123472087 -1.47636839443 -0.03339182351 0.50617432575 -1.48578613367 -0.03524580878 0.50125684721 -1.49546111924 -0.03708850180 0.49662523855 -1.50531275300 -0.03904486013 0.49242245308 -1.51526043683 -0.04123984132 0.48879144410 -1.52522357261 -0.04379840291 0.48587516491 -1.53512156220 -0.02336070026 0.50748885751 -1.45376566035 -0.02649432905 0.50030438147 -1.46198668173 -0.02909491394 0.49328184722 -1.47050079544 -0.03129637297 0.48649829487 -1.47925694981 -0.03323262417 0.48003076452 -1.48820409318 -0.03503758556 0.47395629629 -1.49729117386 -0.03684517519 0.46835193028 -1.50646714018 -0.03878931109 0.46329470661 -1.51568094047 -0.04100391128 0.45886166538 -1.52488152306 -0.04362289380 0.45512984670 -1.53401783626 -0.02309968406 0.48852553217 -1.45803373893 -0.02602874817 0.47893596370 -1.46608440568 -0.02847211693 0.46991951130 -1.47426634640 -0.03056004135 0.46148061809 -1.48254593691 -0.03242277238 0.45362372713 -1.49088955299 -0.03419056100 0.44635328151 -1.49926357046 -0.03599365820 0.43967372432 -1.50763436511 -0.03796231495 0.43358949864 -1.51596831275 -0.04022678222 0.42810504756 -1.52423178918 -0.04291731100 0.42322481416 -1.53239117019 -0.02258087707 0.46926562371 -1.46311420841 -0.02511458425 0.45735393633 -1.47080592702 -0.02727655255 0.44641570971 -1.47850011826 -0.02918117232 0.43636809287 -1.48616878825 -0.03094283391 0.42712823485 -1.49378394313 -0.03267592765 0.41861328467 -1.50131758906 -0.03449484392 0.41074039136 -1.50874173216 -0.03651397305 0.40342670396 -1.51602837857 -0.03884770539 0.39658937148 -1.52314953443 -0.04161043129 0.39014554296 -1.53007720588 -0.02180439591 0.45002085916 -1.46885240559 -0.02375062546 0.43580504141 -1.47603695353 -0.02550301834 0.42297808064 -1.48311707673 -0.02714834465 0.41134712157 -1.49005893637 -0.02877337452 0.40071930897 -1.49682869361 -0.03046487808 0.39090178756 -1.50339250965 -0.03230962543 0.38170170210 -1.50971654566 -0.03439438671 0.37292619732 -1.51576696281 -0.03680593202 0.36438241796 -1.52150992228 -0.03963103150 0.35587750878 -1.52691158525 -0.02077035723 0.43110296559 -1.47509366726 -0.02193565995 0.41453602098 -1.48166319297 -0.02314631182 0.39981426229 -1.48803218757 -0.02445013708 0.38660410654 -1.49414981380 -0.02589496000 0.37457197076 -1.49996523444 -0.02752860483 0.36338427198 -1.50542761224 -0.02939889583 0.35270742721 -1.51048610996 -0.03155365726 0.34220785349 -1.51508989035 -0.03404071337 0.33155196784 -1.51918811618 -0.03690788841 0.32040618728 -1.52272995020 0.02080754106 0.58694634547 -1.45002469269 0.02214851566 0.59530641242 -1.45485562688 0.02381197245 0.60070426279 -1.46167295985 0.02575207784 0.60363992818 -1.47015028048 0.02792299829 0.60461344019 -1.47996117766 0.03027890023 0.60412483043 -1.49077924030 0.03277395010 0.60267413049 -1.50227805729 0.03536231433 0.60076137199 -1.51413121751 0.03799815938 0.59888658652 -1.52601230988 0.04063565167 0.59754980569 -1.53759492327 0.02183727572 0.57414184692 -1.44791088035 0.02390770509 0.57870717888 -1.45412000253 0.02597499961 0.58116383397 -1.46182191945 0.02805713452 0.58189253407 -1.47077146188 0.03017208509 0.58127400107 -1.48072346052 0.03233782654 0.57968895685 -1.49143274613 0.03457233414 0.57751812327 -1.50265414943 0.03689358312 0.57514222222 -1.51414250117 0.03931954874 0.57294197557 -1.52565263207 0.04186820624 0.57129810521 -1.53693937286 0.02260859842 0.55948212788 -1.44738276854 0.02522433505 0.56066062344 -1.45457962619 0.02759123732 0.56044374644 -1.46286425832 0.02977672629 0.55911827796 -1.47205933084 0.03184822303 0.55697099908 -1.48198750971 0.03387314860 0.55428869089 -1.49247146085 0.03591892405 0.55135813447 -1.50333385021 0.03805297045 0.54846611091 -1.51439734373 0.04034270886 0.54589940129 -1.52548460734 0.04285556035 0.54394478669 -1.53641830697 0.02312162850 0.54327891564 -1.44828569458 0.02609719583 0.54141348834 -1.45612020661 0.02865548484 0.53875163853 -1.46471494334 0.03089943329 0.53550356226 -1.47394732117 0.03293197893 0.53187945554 -1.48369475643 0.03485605953 0.52808951441 -1.49383466552 0.03677461284 0.52434393489 -1.50424446478 0.03879057663 0.52085291301 -1.51480157058 0.04100688866 0.51782664479 -1.52538339930 0.04352648668 0.51547532626 -1.53586736728 0.02337648526 0.52584393749 -1.45046499583 0.02652507770 0.52121251576 -1.45862745248 0.02916254142 0.51629514857 -1.46728894145 0.03141383563 0.51123478942 -1.47636886664 0.03340391957 0.50617439182 -1.48578663193 0.03525775246 0.50125690929 -1.49546164118 0.03710029351 0.49662529534 -1.50531329828 0.03905650197 0.49242250347 -1.51526100711 0.04125133704 0.48879148720 -1.52522417155 0.04380975795 0.48587520005 -1.53512219548 0.02337328805 0.50748892070 -1.45376600962 0.02650677094 0.50030444794 -1.46198707252 0.02910720630 0.49328191488 -1.47050121956 0.03130851346 0.48649836187 -1.47925740107 0.03324461176 0.48003082926 -1.48820456740 0.03504942052 0.47395635739 -1.49729166889 0.03685685907 0.46835198660 -1.50646765588 0.03880084676 0.46329475724 -1.51568147871 0.04101530292 0.45886170965 -1.52488208772 0.04363414686 0.45512988418 -1.53401843326 0.02311215617 0.48852559256 -1.45803407330 0.02604106581 0.47893602706 -1.46608477546 0.02848427874 0.46991957578 -1.47426674457 0.03057204690 0.46148068205 -1.48254635824 0.03243462228 0.45362378920 -1.49088999408 0.03420225683 0.44635334057 -1.49926402971 0.03600520253 0.43967377948 -1.50763484273 0.03797371133 0.43358954927 -1.51596881076 0.04023803520 0.42810509327 -1.52423231142 0.04292842612 0.42322485480 -1.53239172230 0.02259320895 0.46926568037 -1.46311452420 0.02512675260 0.45735399535 -1.47080627001 0.02728855798 0.44641576959 -1.47850048340 0.02919301610 0.43636815238 -1.48616917195 0.03095451795 0.42712829299 -1.49378434319 0.03268745454 0.41861334069 -1.50131800468 0.03450621688 0.41074044477 -1.50874216399 0.03652519597 0.40342675451 -1.51602882865 0.03885878282 0.39658941917 -1.52315000624 0.04162136843 0.39014558804 -1.53007770430 0.02181656572 0.45002091139 -1.46885269967 0.02376262158 0.43580509501 -1.47603726488 0.02551484329 0.42297813465 -1.48311740297 0.02716000116 0.41134717531 -1.49005927598 0.02878486555 0.40071936197 -1.49682904594 0.03047620676 0.39090183963 -1.50339287487 0.03232079513 0.38170175328 -1.50971692480 0.03440540099 0.37292624790 -1.51576735777 0.03681679467 0.36438246849 -1.52151033581 0.03964174649 0.35587756002 -1.52691202094 0.02078234580 0.43110301293 -1.47509393706 0.02194746302 0.41453606824 -1.48166346880 0.02315793390 0.39981430926 -1.48803247019 0.02446158224 0.38660415326 -1.49415010414 0.02590623188 0.37457201750 -1.49996553355 0.02753970662 0.36338431926 -1.50542792131 0.02940983029 0.35270747580 -1.51048643033 0.03156442670 0.34220790441 -1.51509022350 0.03405131967 0.33155202235 -1.51918846373 0.03691833301 0.32040624688 -1.52273031390 0.06172355154 0.58541980057 -1.45067730256 0.06580103821 0.59317249960 -1.45546486654 0.07074909398 0.59817030914 -1.46222238741 0.07646245630 0.60089244585 -1.47062743470 0.08283586264 0.60181812640 -1.48035757797 0.08976405046 0.60142656744 -1.49109038679 0.09714175721 0.60019698564 -1.50250343071 0.10486372036 0.59860859765 -1.51427427929 0.11282467737 0.59714062014 -1.52608050208 0.12091936569 0.59627226977 -1.53759966865 0.06491455813 0.57280068891 -1.44877535617 0.07119481932 0.57696076231 -1.45486965416 0.07739277900 0.57918241437 -1.46245846583 0.08358771139 0.57982119295 -1.47129290350 0.08985889068 0.57923264592 -1.48112407952 0.09628559104 0.57777232117 -1.49170310621 0.10294708669 0.57579576654 -1.50278109591 0.10992265182 0.57365852992 -1.51410916095 0.11729156061 0.57171615916 -1.52543841366 0.12513308726 0.57032420215 -1.53651996637 0.06730492290 0.55829557840 -1.44838455649 0.07523222326 0.55925593600 -1.45540917391 0.08235850215 0.55894458124 -1.46353825326 0.08890609259 0.55762283506 -1.47258488165 0.09509732761 0.55555201838 -1.48236214619 0.10115454024 0.55299345216 -1.49268313402 0.10730006352 0.55020845732 -1.50336093223 0.11375623047 0.54745835479 -1.51420862796 0.12074537414 0.54500446552 -1.52503930831 0.12848982755 0.54310811043 -1.53566606041 0.06889501690 0.54223821324 -1.44935382553 0.07790983420 0.54032841490 -1.45697236800 0.08563136911 0.53769296229 -1.46538004679 0.09238461701 0.53451971407 -1.47444054215 0.09849457332 0.53099652891 -1.48401753432 0.10428623341 0.52731126548 -1.49397470355 0.11008459269 0.52365178245 -1.50417573008 0.11621464655 0.52020593849 -1.51448429417 0.12300139038 0.51716159226 -1.52476407607 0.13076981958 0.51470660244 -1.53487875600 0.06968521123 0.52496233767 -1.45153208528 0.07922423627 0.52044859328 -1.45944817861 0.08719648556 0.51566371006 -1.46790214351 0.09399030180 0.51073417189 -1.47679705802 0.09999402769 0.50578646264 -1.48603600021 0.10559600593 0.50094706619 -1.49552204815 0.11118457922 0.49634246643 -1.50515827987 0.11714809026 0.49209914722 -1.51484777345 0.12387488175 0.48834359244 -1.52449360694 0.13175329638 0.48520228598 -1.53399885840 0.06967587695 0.50680169590 -1.45476825775 0.07917201360 0.49988686538 -1.46272554794 0.08703895718 0.49309297709 -1.47102284049 0.09369016406 0.48648855041 -1.47959160229 0.09953909060 0.48014210470 -1.48836330021 0.10499919316 0.47412215935 -1.49726940116 0.11048392812 0.46849723372 -1.50624137201 0.11640675183 0.46333584719 -1.51521067965 0.12318112066 0.45870651912 -1.52410879097 0.13122049098 0.45467776889 -1.53286717285 0.06886738514 0.48809003217 -1.45891126495 0.07774975035 0.47891362545 -1.46669341819 0.08514388968 0.47021691592 -1.47466043484 0.09145122093 0.46200519152 -1.48276134797 0.09707316193 0.45428374024 -1.49094519064 0.10241113048 0.44705785001 -1.49916099593 0.10786654439 0.44033280882 -1.50735779690 0.11384082148 0.43411390461 -1.51548462662 0.12073537955 0.42840642534 -1.52349051817 0.12895163642 0.42321565899 -1.53132450460 0.06726010687 0.46916109069 -1.46381002888 0.07495403065 0.45779926775 -1.47124073155 0.08149638872 0.44727167908 -1.47873322363 0.08724048954 0.43750643713 -1.48624346808 0.09253964157 0.42843165437 -1.49372742782 0.09774715325 0.41997544324 -1.50114106580 0.10321633305 0.41206591619 -1.50844034496 0.10930048943 0.40463118568 -1.51558122823 0.11635293083 0.39759936417 -1.52251967856 0.12472696572 0.39089856410 -1.52921165889 0.06485441323 0.45034861569 -1.46931347155 0.07078143865 0.43681418652 -1.47625643020 0.07608156000 0.42449341912 -1.48315950395 0.08102498701 0.41321462914 -1.48997513563 0.08588192938 0.40280613224 -1.49665576807 0.09092259685 0.39309624408 -1.50315384412 0.09641719911 0.38391328032 -1.50942180659 0.10263594590 0.37508555662 -1.51541209833 0.10984904692 0.36644138864 -1.52107716218 0.11832671190 0.35780909204 -1.52636944097 0.06165067528 0.43198635139 -1.47527051495 0.06522855848 0.41622877602 -1.48162945636 0.06888450920 0.40211828857 -1.48785757289 0.07277173046 0.38935210942 -1.49389352366 0.07704342526 0.37762745897 -1.49967596773 0.08185279663 0.36664155760 -1.50514356422 0.08735304757 0.35609162569 -1.51023497221 0.09369738111 0.34567488363 -1.51488885078 0.10103900025 0.33508855182 -1.51904385905 0.10953110801 0.32402985063 -1.52263865609 0.10058047008 0.58236665283 -1.45198215961 0.10755788171 0.58890461415 -1.45668295663 0.11566324475 0.59310234099 -1.46332082080 0.12482859887 0.59539742039 -1.47158128421 0.13498598374 0.59622743944 -1.48114987891 0.14606743902 0.59602998518 -1.49171213698 0.15800500436 0.59524264468 -1.50295359049 0.17073071944 0.59430300501 -1.51455977150 0.18417662392 0.59364865323 -1.52621621209 0.19827475747 0.59371717640 -1.53760844432 0.10623830222 0.57011830927 -1.45050393515 0.11693499517 0.57346786341 -1.45636854802 0.12725147439 0.57521950861 -1.46373111265 0.13740437055 0.57567844486 -1.47233530448 0.14761031434 0.57514987210 -1.48192479892 0.15808593643 0.57393899031 -1.49224327143 0.16904786750 0.57235099946 -1.50303439741 0.18071273825 0.57069109950 -1.51404185232 0.19329717934 0.56926449042 -1.52500931158 0.20701782145 0.56837637217 -1.53568045061 0.11047692982 0.55592241239 -1.45038775583 0.12395570940 0.55644649162 -1.45706785005 0.13591768494 0.55594618069 -1.46488578559 0.14680031986 0.55463188022 -1.47363549090 0.15704107759 0.55271399084 -1.48311089444 0.16707742153 0.55040291319 -1.49310592467 0.17734681511 0.54790904790 -1.50341451004 0.18828672176 0.54544279560 -1.51383057901 0.20033460489 0.54321455692 -1.52414806003 0.21392792791 0.54143473248 -1.53416088157 0.11329702298 0.54015674002 -1.45148971245 0.12861504860 0.53815819692 -1.45867627090 0.14163941730 0.53557553803 -1.46670979587 0.15296573501 0.53255194720 -1.47542649373 0.16318960763 0.52923060830 -1.48466257091 0.17290664108 0.52575470520 -1.49425423379 0.18271244126 0.52226742175 -1.50403768878 0.19320261410 0.51891194183 -1.51384914227 0.20497276550 0.51583144928 -1.52352480067 0.21861850138 0.51316912798 -1.53290087037 0.11469925179 0.52319906999 -1.45366589585 0.13090803698 0.51892067744 -1.46108921879 0.14439421239 0.51440076146 -1.46912809974 0.15584990421 0.50973286653 -1.47765296323 0.16596723863 0.50501053712 -1.48653423378 0.17543834184 0.50032731770 -1.49564233588 0.18495534003 0.49577675273 -1.50484769406 0.19521035939 0.49145238670 -1.51402073282 0.20689552611 0.48744776408 -1.52303187669 0.22070296638 0.48385642933 -1.53175155018 0.11468428637 0.50542718013 -1.45677239684 0.13082969877 0.49905163130 -1.46420210189 0.14415961111 0.49271503182 -1.47206565348 0.15540211567 0.48646885894 -1.48025954966 0.16528530473 0.48036458993 -1.48868028848 0.17453727057 0.47445370205 -1.49722436800 0.18388610548 0.46878767257 -1.50578828628 0.19405990174 0.46341797875 -1.51426854136 0.20578675164 0.45839609786 -1.52256163130 0.21979474746 0.45377350716 -1.53056405416 0.11325279679 0.48721884827 -1.46066530625 0.12837505818 0.47886875665 -1.46791032842 0.14091315437 0.47081152993 -1.47544741333 0.15157165760 0.46305414515 -1.48319090326 0.16105514007 0.45560357937 -1.49105514047 0.17006817403 0.44846680964 -1.49895446725 0.17931533169 0.44165081300 -1.50680322587 0.18950118527 0.43516256650 -1.51451575859 0.20133030701 0.42900904719 -1.52200640770 0.21550726913 0.42319723213 -1.52918951547 0.11040545317 0.46895185224 -1.46520071491 0.12353913942 0.45868975161 -1.47210930657 0.13463238308 0.44898343661 -1.47919833556 0.14430781820 0.43978294590 -1.48639167429 0.15318807882 0.43103831809 -1.49361319519 0.16189579898 0.42269959182 -1.50078677070 0.17105361273 0.41471680573 -1.50783627323 0.18128415411 0.40703999846 -1.51468557522 0.19321005716 0.39961920863 -1.52125854910 0.20745395592 0.39240447488 -1.52747906728 0.10614292561 0.45100396988 -1.47023471362 0.11631696671 0.43883231431 -1.47669444455 0.12529483815 0.42752393270 -1.48324337642 0.13355988569 0.41694948189 -1.48980651301 0.14159545511 0.40697961871 -1.49630885809 0.14988489218 0.39748499997 -1.50267541543 0.15891154267 0.38833628252 -1.50883118880 0.16915875236 0.37940412316 -1.51470118196 0.18110986700 0.37055917874 -1.52021039869 0.19524823238 0.36167210607 -1.52528384276 0.10046588419 0.43375297901 -1.47562339321 0.10670356426 0.41961414288 -1.48156115054 0.11287806048 0.40672619902 -1.48750749218 0.11927714828 0.39484797387 -1.49338006968 0.12618860311 0.38373829388 -1.49909653461 0.13390020040 0.37315598546 -1.50457453852 0.14269971560 0.36285987507 -1.50973173297 0.15287492414 0.35260878912 -1.51448576951 0.16471360147 0.34216155407 -1.51875429969 0.17850352302 0.33127699634 -1.52245497508 0.13600557204 0.57778689970 -1.45393925043 0.14615526279 0.58250275359 -1.45850988358 0.15720577958 0.58550035575 -1.46496824487 0.16928768291 0.58715484912 -1.47301181134 0.18253153329 0.58784137662 -1.48233806000 0.19706789123 0.58793508120 -1.49264446788 0.21302731722 0.58781110578 -1.50362851200 0.23054037177 0.58784459330 -1.51498766938 0.24973761538 0.58841068669 -1.52641941705 0.27074960856 0.58988452888 -1.53762123204 0.14463948711 0.56609470498 -1.45309660569 0.16009694431 0.56822847937 -1.45861667262 0.17451169951 0.56927511407 -1.46563984767 0.18836450243 0.56946428735 -1.47389865125 0.20213610281 0.56902567746 -1.48312560379 0.21630725038 0.56818896268 -1.49305322571 0.23135869486 0.56718382126 -1.50341403743 0.24777118600 0.56623993148 -1.51394055936 0.26602547351 0.56558697159 -1.52436531192 0.28660230713 0.56545461986 -1.53442081554 0.15110841319 0.55236262662 -1.45339235634 0.17053853016 0.55223228741 -1.45955564487 0.18746340151 0.55144854220 -1.46690684551 0.20263598505 0.55014541123 -1.47521114846 0.21680923862 0.54845691476 -1.48423374390 0.23073612002 0.54651707303 -1.49373982205 0.24516958709 0.54445990629 -1.50349457311 0.26086259764 0.54241943479 -1.51326318726 0.27856810951 0.54052967877 -1.52281085472 0.29903908051 0.53892465849 -1.53190276568 0.15541339815 0.53703449269 -1.45469334621 0.17747456160 0.53490283152 -1.46123190708 0.19603440964 0.53239936329 -1.46870418285 0.21204008014 0.52960025969 -1.47690516851 0.22643871098 0.52658169238 -1.48562985902 0.24017744005 0.52341983306 -1.49467324937 0.25420340524 0.52019085341 -1.50383033451 0.26946374441 0.51697092510 -1.51289610944 0.28690559546 0.51383621983 -1.52166556911 0.30747609626 0.51086290926 -1.52993370850 0.15755548987 0.52055413125 -1.45686641915 0.18089957989 0.51662876552 -1.46355056596 0.20019824794 0.51250630052 -1.47096680411 0.21651473704 0.50823087162 -1.47893657696 0.23091229018 0.50384661418 -1.48728132785 0.24445415039 0.49939766357 -1.49582250012 0.25820356066 0.49492815515 -1.50438153713 0.27322376401 0.49048222429 -1.51277988222 0.29057800344 0.48610400635 -1.52083897873 0.31132952196 0.48183763670 -1.52838027003 0.15753573622 0.50336537037 -1.45977841898 0.18080812628 0.49779874322 -1.46641672825 0.19992844048 0.49214807704 -1.47362965374 0.21599790512 0.48643928595 -1.48126123937 0.23011774650 0.48069828402 -1.48915552907 0.24338919092 0.47495098536 -1.49715656678 0.25691346470 0.46922330406 -1.50510839642 0.27179179413 0.46354115422 -1.51285506194 0.28912540552 0.45793044994 -1.52024060725 0.31001552517 0.45241710532 -1.52710907628 0.15535518508 0.48591203812 -1.46329618956 0.17719474205 0.47880141844 -1.46973550069 0.19519851131 0.47170341603 -1.47662767616 0.21042753374 0.46462754158 -1.48383502127 0.22394285019 0.45758330575 -1.49121984138 0.23680550156 0.45058021922 -1.49864444181 0.25007652870 0.44362779267 -1.50597112788 0.26481697248 0.43673553677 -1.51306220493 0.28208787378 0.42991296220 -1.51977997830 0.30295027346 0.42316957963 -1.52598675330 0.15101488433 0.46863796257 -1.46728657472 0.17005396844 0.46002544499 -1.47341199002 0.18598198448 0.45155104065 -1.47989581581 0.19974157225 0.44319767743 -1.48661378824 0.21227537155 0.43494828324 -1.49344164348 0.22452602220 0.42678578597 -1.50025511768 0.23743616401 0.41869311353 -1.50692994698 0.25194843677 0.41065319381 -1.51334186755 0.26900548030 0.40264895472 -1.51936661554 0.28954993440 0.39466332415 -1.52487992711 0.14451588184 0.45198697179 -1.47161641829 0.15938034673 0.44185947671 -1.47735130295 0.17225238405 0.43206967406 -1.48336901712 0.18387797002 0.42255173241 -1.48955340582 0.19500308085 0.41323982034 -1.49578831406 0.20637369276 0.40406810640 -1.50195758685 0.21873578197 0.39497075917 -1.50794506920 0.23283532470 0.38588194721 -1.51363460612 0.24941829715 0.37673583909 -1.51891004263 0.26923067556 0.36746660338 -1.52365522374 0.13585922549 0.43640289386 -1.47615256412 0.14516841817 0.42469216739 -1.48145854623 0.15398323407 0.41363803943 -1.48698222454 0.16277467640 0.40309174544 -1.49260973957 0.17201374835 0.39290452091 -1.49822723181 0.18217145313 0.38292760132 -1.50372084179 0.19371879394 0.37301222214 -1.50897671001 0.20712677397 0.36300961885 -1.51388097698 0.22286639642 0.35277102692 -1.51831978321 0.24140866450 0.34214768183 -1.52217926921 0.16662613279 0.57168053863 -1.45654856159 0.18032939810 0.57396691540 -1.46094563385 0.19402805329 0.57536435084 -1.46716464445 0.20827688578 0.57616472933 -1.47491899842 0.22363068302 0.57665993527 -1.48392210075 0.24064423244 0.57714185306 -1.49388735648 0.25987232146 0.57790236709 -1.50452817060 0.28186973753 0.57923336174 -1.51555794814 0.30719126808 0.58142672142 -1.52669009411 0.33639170054 0.58477433051 -1.53763801351 0.17894909196 0.56072987305 -1.45655335617 0.19964937839 0.56124260742 -1.46161401645 0.21813406810 0.56134922810 -1.46818465859 0.23532549746 0.56117871797 -1.47598293028 0.25214600283 0.56086005987 -1.48472647919 0.26951792058 0.56052223666 -1.49413295302 0.28836358707 0.56029423119 -1.50391999944 0.30960533866 0.56030502633 -1.51380526614 0.33416551173 0.56068360492 -1.52350640080 0.36296644263 0.56155894983 -1.53274105110 0.18818316702 0.54761621786 -1.45739834783 0.21412442227 0.54661332047 -1.46287254866 0.23619026769 0.54545166320 -1.46960142324 0.25558966510 0.54416342590 -1.47731184417 0.27353157634 0.54278078845 -1.48573068403 0.29122496325 0.54133593070 -1.49458481542 0.30987878768 0.53986103253 -1.50360111091 0.33070201146 0.53838827380 -1.51250644311 0.35490359642 0.53694983436 -1.52102768460 0.38369250442 0.53557789410 -1.52889170796 0.19432989385 0.53287146796 -1.45896471767 0.22375009580 0.53056231584 -1.46463926827 0.24817112631 0.52816443564 -1.47136320003 0.26900494524 0.52566464957 -1.47887655905 0.28766351247 0.52304977981 -1.48691939146 0.30555878785 0.52030664856 -1.49523174338 0.32410273127 0.51742207802 -1.50355366092 0.34470730259 0.51438289039 -1.51162519021 0.36878446169 0.51117590786 -1.51918637737 0.39774616841 0.50778795262 -1.52597726851 0.19739080836 0.51702751825 -1.46113364678 0.22852196502 0.51357285480 -1.46683221310 0.25405111822 0.50998032498 -1.47341825057 0.27550689444 0.50622818541 -1.48064789388 0.29441792013 0.50229469274 -1.48827727767 0.31231282177 0.49815810359 -1.49606253661 0.33072022583 0.49379667458 -1.50375980537 0.35116875876 0.48918866234 -1.51112521861 0.37518704703 0.48431232352 -1.51791491098 0.40430371712 0.47914591472 -1.52388501716 0.19736744643 0.50061626362 -1.46378631627 0.22843559597 0.49612819862 -1.46936942093 0.25380471769 0.49139211073 -1.47571483650 0.27503106924 0.48639982989 -1.48259666761 0.29367090827 0.48114318604 -1.48978901884 0.31128049241 0.47561400913 -1.49706599483 0.32941607931 0.46980412910 -1.50420170016 0.34963392662 0.46370537589 -1.51097023945 0.37349029198 0.45730957945 -1.51714571731 0.40254143303 0.45060856971 -1.52250223835 0.19426134395 0.48416959898 -1.46680390723 0.22348655470 0.47871160859 -1.47216892956 0.24740639898 0.47289257244 -1.47820121944 0.26751302620 0.46672537944 -1.48469369919 0.28529858579 0.46022291850 -1.49143929117 0.30225522716 0.45339807855 -1.49823091773 0.31987509972 0.44626374850 -1.50486150119 0.33965035287 0.43883281727 -1.51112396391 0.36307313605 0.43111817377 -1.51681122823 0.39163559866 0.42313270691 -1.52171621649 0.18807403682 0.46821941923 -1.47006760076 0.21367040725 0.46180634598 -1.47514877681 0.23483063634 0.45497448963 -1.48082566100 0.25288832187 0.44775063050 -1.48690980759 0.26917706163 0.44016154892 -1.49321277084 0.28503045341 0.43223402521 -1.49954610501 0.30178209501 0.42399483970 -1.50572136436 0.32076558419 0.41547077272 -1.51155010313 0.34331451877 0.40668860459 -1.51684387559 0.37076249651 0.39767511564 -1.52141423600 0.17880706093 0.45329761927 -1.47345857796 0.19898271968 0.44589567207 -1.47822700046 0.21605190404 0.43813064184 -1.48353642281 0.23109251279 0.43002137953 -1.48921581176 0.24518244471 0.42158673608 -1.49509413404 0.25939959857 0.41284556245 -1.50100035640 0.27482187316 0.40381670960 -1.50676344556 0.29252716726 0.39451902847 -1.51221236828 0.31359337964 0.38497137002 -1.51717609128 0.33909840909 0.37519258520 -1.52148358130 0.16646195216 0.43993609399 -1.47685801993 0.17941905803 0.43146284814 -1.48132163831 0.19104467635 0.42285380860 -1.48628176650 0.20206115552 0.41408342296 -1.49158253065 0.21319084395 0.40512613878 -1.49706805696 0.22515609003 0.39595640364 -1.50258247159 0.23867924216 0.38654866511 -1.50796990071 0.25448264875 0.37687737076 -1.51307447051 0.27328865819 0.36691696818 -1.51774030715 0.29581961889 0.35664190493 -1.52181153682 </DataArray>
</Points>
</Piece>
</StructuredGrid>
</VTKFile>
