<?xml version="1.0"?>
<VTKFile type="StructuredGrid" version="0.1">
<StructuredGrid WholeExtent="0 9 0 9 0 9">
<Piece Extent="0 9 0 9 0 9">
<PointData>
<DataArray type="Float32" Name="Deformation" format="ascii" NumberOfComponents="3">
-0.00301518124 -1.27854560115 0.22476588026 -0.00298397231 -1.27218892490 0.22830229793 -0.00294206887 -1.26479416061 0.23232915573 -0.00289201347 -1.25665499005 0.23668933522 -0.00283634867 -1.24806509503 0.24122571795 -0.00277761701 -1.23931815732 0.24578118548 -0.00271836103 -1.23070785871 0.25019861935 -0.00266112329 -1.22252788098 0.25432090111 -0.00260844634 -1.21507190592 0.25799091233 -0.00256287271 -1.20863361532 0.26105153456 -0.00313282808 -1.28525387262 0.23777237058 -0.00309517837 -1.27891917014 0.24131567414 -0.00304653315 -1.27154298706 0.24534433308 -0.00298958234 -1.26341863356 0.24970198422 -0.00292701584 -1.25483941982 0.25423226439 -0.00286152355 -1.24609865604 0.25877881041 -0.00279579537 -1.23748965240 0.26318525912 -0.00273252122 -1.22930571910 0.26729524733 -0.00267439099 -1.22184016633 0.27095241187 -0.00262409458 -1.21538630426 0.27400038958 -0.00324866263 -1.29194560035 0.25076226009 -0.00320473262 -1.28563071884 0.25431194694 -0.00314954437 -1.27827166576 0.25834221881 -0.00308594907 -1.27016131320 0.26269734815 -0.00301679793 -1.26159253325 0.26722160744 -0.00294494215 -1.25285819799 0.27175926913 -0.00287323292 -1.24425117953 0.27615460570 -0.00280452144 -1.23606434996 0.28025188960 -0.00274165891 -1.22859058136 0.28389539330 -0.00268749653 -1.22212274582 0.28692938926 -0.00336290398 -1.29861954412 0.26373356425 -0.00331289252 -1.29232277514 0.26728923389 -0.00325139642 -1.28497966133 0.27132098859 -0.00318143162 -1.27688260152 0.27567363204 -0.00310601405 -1.26832399454 0.28019196791 -0.00302815964 -1.25959623921 0.28472079988 -0.00295088432 -1.25099173436 0.28910493161 -0.00287720402 -1.24280287882 0.29318916679 -0.00281013467 -1.23532207142 0.29681830909 -0.00275269221 -1.22884171098 0.29983716218 -0.00347577122 -1.30527446370 0.27668429858 -0.00341991552 -1.29899454319 0.28024565256 -0.00335238323 -1.29166643840 0.28427881812 -0.00327634797 -1.28358207107 0.28862904092 -0.00319498331 -1.27503336293 0.29314156662 -0.00311146288 -1.26631223571 0.29766164088 -0.00302896026 -1.25771061115 0.30203450937 -0.00295064905 -1.24952041097 0.30610541776 -0.00287970287 -1.24203355692 0.30971961171 -0.00281929530 -1.23554197072 0.31272233687 -0.00358748344 -1.31190911887 0.28961247855 -0.00352605908 -1.30564522713 0.29317932054 -0.00345279872 -1.29833146159 0.29721388308 -0.00337101606 -1.29025929438 0.30156177980 -0.00328402482 -1.28172019764 0.30606862436 -0.00319513869 -1.27300564352 0.31058003038 -0.00310767139 -1.26440710415 0.31494161151 -0.00302493661 -1.25621605169 0.31899898138 -0.00295024807 -1.24872395827 0.32259775363 -0.00288691947 -1.24222229604 0.32558354190 -0.00369825976 -1.31852226938 0.30251611967 -0.00363158067 -1.31227403112 0.30608835539 -0.00355293679 -1.30497419553 0.31012435914 -0.00346575388 -1.29691384399 0.31447005372 -0.00337345767 -1.28838405790 0.31897136195 -0.00327947392 -1.27967591865 0.32347420662 -0.00318722837 -1.27108050764 0.32782451053 -0.00310014677 -1.26288890624 0.33186819650 -0.00302165486 -1.25539219587 0.33545118732 -0.00295517840 -1.24888145790 0.33841940581 -0.00380831924 -1.32511267502 0.31539323742 -0.00373673773 -1.31888015931 0.31897087469 -0.00365309137 -1.31159410484 0.32300842199 -0.00356087938 -1.30354529245 0.32735206770 -0.00346360099 -1.29502450294 0.33184800019 -0.00336475542 -1.28632251714 0.33634240782 -0.00326784188 -1.27773011586 0.34068147896 -0.00317635961 -1.26953807992 0.34471140199 -0.00309380783 -1.26203719013 0.34827836526 -0.00302368575 -1.25551822731 0.35122855716 -0.00391788100 -1.33167909557 0.32824184731 -0.00384178773 -1.32546281583 0.33182499601 -0.00375355636 -1.31819065415 0.33586424732 -0.00365671053 -1.31015321229 0.34020602676 -0.00355477387 -1.30164109199 0.34469675989 -0.00345127001 -1.29294489501 0.34918287222 -0.00334972258 -1.28435522309 0.35351078932 -0.00325365521 -1.27616267799 0.35752693671 -0.00316659154 -1.26865786145 0.36107773992 -0.00309205519 -1.26213137523 0.36400962451 -0.00402716412 -1.33822029078 0.34105996480 -0.00394698812 -1.33202120484 0.34464883693 -0.00385462569 -1.32476330809 0.34869001080 -0.00375356530 -1.31673717605 0.35303013593 -0.00364729543 -1.30823338427 0.35751586185 -0.00353930454 -1.29954250827 0.36199383807 -0.00343308113 -1.29095512358 0.36631071412 -0.00333211365 -1.28276180573 0.37031313951 -0.00323989058 -1.27525313024 0.37384776377 -0.00315990040 -1.26871967265 0.37676123640 -0.00303850903 -1.28364598195 0.22182259632 -0.00299249267 -1.27572188546 0.22610440037 -0.00293998989 -1.26707078343 0.23072702528 -0.00288250955 -1.25789860840 0.23558049653 -0.00282156046 -1.24841129290 0.24055483961 -0.00275865146 -1.23881476948 0.24554008000 -0.00269529137 -1.22931497066 0.25042624318 -0.00263298903 -1.22011782899 0.25510335463 -0.00257325326 -1.21142927700 0.25946143982 -0.00251759290 -1.20345524723 0.26339052425 -0.00315823524 -1.29033389428 0.23481954707 -0.00310713165 -1.28242530271 0.23910290929 -0.00304838658 -1.27378736010 0.24372394096 -0.00298386270 -1.26462589512 0.24857308128 -0.00291542265 -1.25514673642 0.25354076946 -0.00284492911 -1.24555571268 0.25851744472 -0.00277424473 -1.23605865257 0.26339354626 -0.00270523216 -1.22686138474 0.26805951330 -0.00263975406 -1.21816973788 0.27240578504 -0.00257967310 -1.21018954063 0.27632280070 -0.00327696765 -1.29700556161 0.24780022739 -0.00322056478 -1.28911214361 0.25208429798 -0.00315564809 -1.28048715848 0.25670329691 -0.00308436275 -1.27133633076 0.26154794180 -0.00300885390 -1.26186538498 0.26650895026 -0.00293126671 -1.25228004567 0.27147703991 -0.00285374633 -1.24278603737 0.27634292835 -0.00277843792 -1.23358908460 0.28099733320 -0.00270748663 -1.22489491191 0.28533097208 -0.00264303762 -1.21690924382 0.28923456260 -0.00339477533 -1.30365958784 0.26076263775 -0.00333289554 -1.29578113050 0.26504675627 -0.00326188484 -1.28716897980 0.26966337594 -0.00318410229 -1.27802875904 0.27450338582 -0.00310190695 -1.26856609151 0.27945767499 -0.00301765786 -1.25898660050 0.28441713252 -0.00293371408 -1.24949590931 0.28927264749 -0.00285243465 -1.24029964123 0.29391510898 -0.00277617864 -1.23160341956 0.29823540605 -0.00270730508 -1.22361286759 0.30212442779 -0.00351172733 -1.31029457683 0.27370477865 -0.00344422739 -1.30243098573 0.27798847402 -0.00336720723 -1.29383162530 0.28260246083 -0.00328317393 -1.28470202367 0.28743772103 -0.00319463455 -1.27524770894 0.29238523660 -0.00310409617 -1.26567420923 0.29733598951 -0.00301406587 -1.25618705264 0.30218096174 -0.00292705071 -1.24699176730 0.30681113526 -0.00284555777 -1.23829388130 0.31111749204 -0.00277209411 -1.23029892277 0.31499101406 -0.00362789268 -1.31690913248 0.28662465056 -0.00355466380 -1.30906043164 0.29090764108 -0.00347172567 -1.30047389622 0.29551883438 -0.00338167024 -1.29135496836 0.30034925514 -0.00328708945 -1.28190909021 0.30528992807 -0.00319057526 -1.27234170392 0.31023187785 -0.00309471960 -1.26285825162 0.31506612916 -0.00300211443 -1.25366417547 0.31968370671 -0.00291535170 -1.24496491761 0.32397563517 -0.00283702334 -1.23696592018 0.32783293923 -0.00374334045 -1.32350185867 0.29952025399 -0.00366430824 -1.31566819060 0.30380244729 -0.00357555056 -1.30709459380 0.30841077939 -0.00347968381 -1.29798643684 0.31323629588 -0.00337932440 -1.28854908826 0.31817004238 -0.00327708872 -1.27898791662 0.32310306448 -0.00317559317 -1.26950829048 0.32792640781 -0.00307745417 -1.26031557840 0.33253111795 -0.00298528811 -1.25161514894 0.33680824052 -0.00290171139 -1.24361237064 0.34064882112 -0.00385813968 -1.33007135928 0.31238958940 -0.00377326419 -1.32225298494 0.31667108250 -0.00367879232 -1.31369251928 0.32127657865 -0.00357730725 -1.30459527280 0.32609715094 -0.00347139215 -1.29516655601 0.33102387248 -0.00336363017 -1.28561167940 0.33594781637 -0.00325660448 -1.27613595349 0.34076005572 -0.00315289826 -1.26694468877 0.34535166363 -0.00305509467 -1.25824319576 0.34961371320 -0.00296577688 -1.25023678496 0.35343727754 -0.00397235942 -1.33661623819 0.32523065729 -0.00388163510 -1.32881353702 0.32951173657 -0.00378156136 -1.32026647390 0.33411451497 -0.00367463314 -1.31118031997 0.33893012804 -0.00356334544 -1.30176034639 0.34384971136 -0.00345019321 -1.29221182431 0.34876440048 -0.00333767142 -1.28274002488 0.35356533097 -0.00322827506 -1.27355021924 0.35814363840 -0.00312449908 -1.26484767855 0.36239045832 -0.00302883845 -1.25683767396 0.36619692630 -0.00408606871 -1.34313509929 0.33804145814 -0.00398952446 -1.33534856919 0.34232259934 -0.00388396807 -1.32681525890 0.34692287113 -0.00377175408 -1.31774042207 0.35173353488 -0.00365523703 -1.30832931236 0.35664585197 -0.00353677145 -1.29878718342 0.36155108376 -0.00341871190 -1.28931928890 0.36634049161 -0.00330341290 -1.28013088247 0.37090533689 -0.00319322900 -1.27142721777 0.37513688097 -0.00309051473 -1.26341354846 0.37892638521 -0.00304486707 -1.28745229844 0.21951130231 -0.00299033240 -1.27836128452 0.22433611037 -0.00293137411 -1.26877487390 0.22939217568 -0.00286901670 -1.25883355133 0.23460469286 -0.00280428468 -1.24867780157 0.23989885653 -0.00273820254 -1.23844810938 0.24519986135 -0.00267179480 -1.22828495952 0.25043290192 -0.00260608596 -1.21832883674 0.25552317289 -0.00254210052 -1.20872022581 0.26039586888 -0.00248086298 -1.19959961147 0.26497618453 -0.00316641562 -1.29411671894 0.23249978026 -0.00310660712 -1.28503801624 0.23732153832 -0.00304130804 -1.27546214774 0.24237298919 -0.00297185603 -1.26552965784 0.24757944243 -0.00289958876 -1.25538109096 0.25286620761 -0.00282584388 -1.24515699152 0.25815859430 -0.00275195903 -1.23499790392 0.26338191206 -0.00267927187 -1.22504437259 0.26846147047 -0.00260912006 -1.21543694193 0.27332257908 -0.00254284125 -1.20631615636 0.27789054748 -0.00328772482 -1.30076436174 0.24547137396 -0.00322224922 -1.29169836722 0.25028927803 -0.00315053075 -1.28213337766 0.25533558212 -0.00307413132 -1.27221000922 0.26053562369 -0.00299461282 -1.26206887808 0.26581474019 -0.00291353716 -1.25185060041 0.27109826906 -0.00283246625 -1.24169579239 0.27631154776 -0.00275296198 -1.23174507018 0.28137991374 -0.00267658626 -1.22213904997 0.28622870446 -0.00260490100 -1.21301834792 0.29078325735 -0.00340873906 -1.30739384712 0.25842411751 -0.00333724532 -1.29834090808 0.26323755467 -0.00325903535 -1.28878710532 0.26827828740 -0.00317581486 -1.27887313183 0.27347161819 -0.00308928957 -1.26873968059 0.27874284951 -0.00300116521 -1.25852744457 0.28401728384 -0.00291314751 -1.24837711676 0.28922022366 -0.00282694218 -1.23842939012 0.29427697144 -0.00274425495 -1.22882495764 0.29911282967 -0.00266679154 -1.21970451230 0.30365310081 -0.00352940275 -1.31400379537 0.27135604499 -0.00345158203 -1.30496420941 0.27616459340 -0.00336681491 -1.29542187237 0.28119943795 -0.00327687895 -1.28551755204 0.28638580749 -0.00318355173 -1.27539201616 0.29164893084 -0.00308861084 -1.26518603252 0.29691403687 -0.00299383386 -1.25504036888 0.30210635440 -0.00290099836 -1.24509579300 0.30715111229 -0.00281188193 -1.23549307266 0.31197353937 -0.00272826215 -1.22637297562 0.31649886449 -0.00364966029 -1.32059282679 0.28426519048 -0.00356524596 -1.31156684184 0.28906861939 -0.00347386252 -1.30203622048 0.29409736669 -0.00337729589 -1.29214179619 0.29927657312 -0.00327733202 -1.28202440246 0.30453137942 -0.00317575686 -1.27182487277 0.30978692634 -0.00307435635 -1.26168404060 0.31496835462 -0.00297491642 -1.25174273943 0.32000080501 -0.00287922303 -1.24214180274 0.32480941824 -0.00278906212 -1.23302206403 0.32931933506 -0.00376945608 -1.32715956165 0.29714958810 -0.00367822373 -1.31814737597 0.30194785782 -0.00358017127 -1.30862869128 0.30697040655 -0.00347703799 -1.29874439065 0.31214229665 -0.00337056317 -1.28863535715 0.31738859050 -0.00326248609 -1.27844247383 0.32263435048 -0.00315454603 -1.26830662376 0.32780463896 -0.00304848226 -1.25836868999 0.33282451831 -0.00294603407 -1.24876955560 0.33761905092 -0.00284894074 -1.23965010365 0.34211329917 -0.00388873453 -1.33370262025 0.31000727191 -0.00379050193 -1.32470438241 0.31480053385 -0.00368573425 -1.31519782644 0.31981689044 -0.00357607755 -1.30532386178 0.32498135962 -0.00346317790 -1.29522339789 0.33021895932 -0.00334868134 -1.28503734422 0.33545470749 -0.00323423394 -1.27490661021 0.34061362205 -0.00312148176 -1.26497210530 0.34562072094 -0.00301207086 -1.25537473896 0.35040102210 -0.00290764729 -1.24625542062 0.35487954346 -0.00400744004 -1.34022062287 0.32283627602 -0.00390206719 -1.33123643177 0.32762487264 -0.00379054455 -1.32174216760 0.33263515129 -0.00367438687 -1.31187873594 0.33779214358 -0.00355510891 -1.30178704236 0.34302088114 -0.00343422542 -1.29160799245 0.34824639558 -0.00331325114 -1.28148249179 0.35339371853 -0.00319370082 -1.27155144595 0.35838788160 -0.00307708922 -1.26195576052 0.36315391641 -0.00296493108 -1.25283634108 0.36761685459 -0.00412551702 -1.34671218981 0.33563463451 -0.00401290611 -1.33774209467 0.34041909937 -0.00389459525 -1.32826025643 0.34542352203 -0.00377193825 -1.31840753948 0.35057303010 -0.00364628895 -1.30832480822 0.35579275121 -0.00351900115 -1.29815292704 0.36100781298 -0.00339142867 -1.28803276035 0.36614334305 -0.00326492534 -1.27810517254 0.37112446903 -0.00314084497 -1.26851102801 0.37587631854 -0.00302054137 -1.25939119116 0.38032401921 -0.00303546755 -1.28996872142 0.21784339518 -0.00297705521 -1.28010779203 0.22301038815 -0.00291495195 -1.26990513141 0.22833830866 -0.00285005656 -1.25945768194 0.23377590520 -0.00278326783 -1.24886238598 0.23927192622 -0.00271548454 -1.23821618594 0.24477512020 -0.00264760549 -1.22761602418 0.25023423560 -0.00258052946 -1.21715884309 0.25559802091 -0.00251515525 -1.20694158504 0.26081522458 -0.00245238163 -1.19706119242 0.26583459508 -0.00315884042 -1.29660669439 0.23082371992 -0.00309405814 -1.28675670707 0.23598366725 -0.00302512345 -1.27656362351 0.24130420438 -0.00295307303 -1.26612451576 0.24673396909 -0.00287894356 -1.25553645592 0.25222159919 -0.00280377174 -1.24489651606 0.25771573244 -0.00272859427 -1.23430176826 0.26316500665 -0.00265444781 -1.22384928460 0.26851805959 -0.00258236908 -1.21363613715 0.27372352907 -0.00251339475 -1.20375939799 0.27873005286 -0.00328260762 -1.30322682325 0.24378569673 -0.00321101651 -1.29338814820 0.24893807444 -0.00313502055 -1.28320500434 0.25425072400 -0.00305573236 -1.27277458759 0.25967216413 -0.00297426457 -1.26219409388 0.26515091354 -0.00289172980 -1.25156071916 0.27063549096 -0.00280924069 -1.24097165934 0.27607441510 -0.00272790987 -1.23052411036 0.28141620469 -0.00264884997 -1.22031526816 0.28660937843 -0.00257317361 -1.21044232866 0.29160245505 -0.00340661060 -1.30982787978 0.25672746711 -0.00332782792 -1.30000078870 0.26187189498 -0.00324456670 -1.28982787161 0.26717626365 -0.00315796196 -1.27940643691 0.27258897429 -0.00306914874 -1.26883379298 0.27805842806 -0.00297926207 -1.25820724821 0.28353302612 -0.00288943699 -1.24762411098 0.28896116964 -0.00280080853 -1.23718168967 0.29429125977 -0.00271451173 -1.22697729267 0.29947169768 -0.00263168161 -1.21710822837 0.30445088452 -0.00353069083 -1.31640863576 0.26964717253 -0.00344438997 -1.30659330183 0.27478341411 -0.00335368532 -1.29643082303 0.28007921945 -0.00325968921 -1.28601860323 0.28548288358 -0.00316351397 -1.27545404633 0.29094270152 -0.00306627192 -1.26483455621 0.29640696829 -0.00296907538 -1.25425753674 0.30182397892 -0.00287303668 -1.24382039181 0.30714202843 -0.00277926814 -1.23362052530 0.31230941183 -0.00268888210 -1.22375534109 0.31727442415 -0.00365468976 -1.32296786297 0.28254295447 -0.00356060025 -1.31316436088 0.28767091708 -0.00346229986 -1.30301245629 0.29295798752 -0.00336084152 -1.29260962605 0.29835237599 -0.00325727816 -1.28205334705 0.30380229269 -0.00315266270 -1.27144109614 0.30925594784 -0.00304804807 -1.26087035019 0.31466155162 -0.00294448720 -1.25043858606 0.31996731424 -0.00284303302 -1.24024328063 0.32512144591 -0.00274473845 -1.23038191075 0.33007215683 -0.00377844885 -1.32950433318 0.29541295443 -0.00367635638 -1.31971263912 0.30053268915 -0.00357033376 -1.30957136909 0.30581096398 -0.00346134628 -1.29917804487 0.31119593551 -0.00335035919 -1.28863018825 0.31663576035 -0.00323833777 -1.27802532099 0.32207859511 -0.00312624728 -1.26746096489 0.32747259639 -0.00301505298 -1.25703464172 0.33276592080 -0.00290572015 -1.24684387326 0.33790672494 -0.00279921404 -1.23698618130 0.34284316541 -0.00390180955 -1.33601681817 0.30825531388 -0.00379155594 -1.32623680983 0.31336701557 -0.00367771046 -1.31610615914 0.31863654495 -0.00356113089 -1.30572239919 0.32401204614 -0.00344267498 -1.29518306303 0.32944166328 -0.00332320050 -1.28458568375 0.33487354049 -0.00320356522 -1.27402779440 0.34025582192 -0.00308462691 -1.26360692806 0.34553665169 -0.00296724333 -1.25342061780 0.35066417394 -0.00285227225 -1.24356639668 0.35558653279 -0.00402461332 -1.34250408971 0.32106817430 -0.00390609655 -1.33273554627 0.32617218159 -0.00378435340 -1.32261542414 0.33143312655 -0.00366012273 -1.31224122850 0.33679919187 -0.00353414340 -1.30171046453 0.34221856023 -0.00340715424 -1.29112063740 0.34763941433 -0.00327989411 -1.28056925229 0.35300993685 -0.00315310187 -1.27015381438 0.35827831049 -0.00302751636 -1.25997182884 0.36339271792 -0.00290387643 -1.25012080085 0.36830134184 -0.00414670162 -1.34896491960 0.33384967718 -0.00401987580 -1.33920752174 0.33894647246 -0.00389018601 -1.32909776180 0.34419910490 -0.00375824922 -1.31873307232 0.34955585669 -0.00362468235 -1.30821088585 0.35496501000 -0.00349010236 -1.29762863493 0.36037484700 -0.00335512618 -1.28708375212 0.36573364987 -0.00322037076 -1.27667366995 0.37098970079 -0.00308645304 -1.26649582098 0.37609128191 -0.00295398997 -1.25664763775 0.38098667544 -0.00301152265 -1.29119942171 0.21683027187 -0.00295222477 -1.28096207793 0.22214019388 -0.00288945383 -1.27046025534 0.22757912595 -0.00282415075 -1.25976886327 0.23310811456 -0.00275725641 -1.24896281106 0.23868820617 -0.00268971173 -1.23811700804 0.24428044725 -0.00262245760 -1.22730636353 0.24984588426 -0.00255643492 -1.21660578688 0.25534556369 -0.00249258459 -1.20609018740 0.26074053198 -0.00243184752 -1.19583447444 0.26599183561 -0.00313698079 -1.29780816841 0.22980201581 -0.00306993808 -1.28758077155 0.23510140209 -0.00299965874 -1.27708806095 0.24053031314 -0.00292702434 -1.26640506293 0.24604956270 -0.00285291644 -1.25560680378 0.25161996455 -0.00277821662 -1.24476830983 0.25720233245 -0.00270380643 -1.23396460737 0.26275748017 -0.00263056744 -1.22327072272 0.26824622145 -0.00255938122 -1.21276168218 0.27362937008 -0.00249112933 -1.20251251206 0.27886773981 -0.00326328955 -1.30439776867 0.24275319261 -0.00318809723 -1.29418024507 0.24804187456 -0.00310994569 -1.28369671957 0.25346037212 -0.00302964344 -1.27302230488 0.25896933343 -0.00294799902 -1.26223211373 0.26452940667 -0.00286582093 -1.25140125885 0.27010123999 -0.00278391770 -1.24060485297 0.27564548154 -0.00270309786 -1.22991800880 0.28112277950 -0.00262416992 -1.21941583908 0.28649378201 -0.00254794240 -1.20917345652 0.29171913724 -0.00339020543 -1.31096724363 0.25568215014 -0.00330652938 -1.30075945319 0.26096004312 -0.00322019763 -1.29028511240 0.26636784535 -0.00313193624 -1.27961939129 0.27186609924 -0.00304247128 -1.26883745988 0.27741534720 -0.00295252882 -1.25801448819 0.28297613163 -0.00286283492 -1.24722564625 0.28850899494 -0.00277411566 -1.23654610407 0.29397447953 -0.00268709710 -1.22605103167 0.29933312782 -0.00260250530 -1.21581559908 0.30454548222 -0.00351748495 -1.31751561444 0.26858723622 -0.00342506170 -1.30731735058 0.27385433957 -0.00333029751 -1.29685212067 0.27925127528 -0.00323383091 -1.28619512433 0.28473853261 -0.00313630038 -1.27542156120 0.29027660081 -0.00303834444 -1.26460663092 0.29582596914 -0.00294060159 -1.25382553312 0.30134712688 -0.00284371033 -1.24315346744 0.30680056326 -0.00274830918 -1.23266563352 0.31214676756 -0.00265503662 -1.22243723099 0.31734622903 -0.00364488463 -1.32404190222 0.28146679869 -0.00354352133 -1.31385289194 0.28672319574 -0.00344012829 -1.30339662558 0.29210920436 -0.00333525562 -1.29274830615 0.29758530602 -0.00322945346 -1.28198313665 0.30311198218 -0.00312327194 -1.27117632010 0.30864971432 -0.00301726120 -1.26040305950 0.31415898390 -0.00291197137 -1.24973855787 0.31960027239 -0.00280795258 -1.23925801821 0.32493406125 -0.00270575496 -1.22903664353 0.33012083196 -0.00377216097 -1.33054512812 0.29431918541 -0.00366173545 -1.32036503196 0.29956504345 -0.00354957289 -1.30991750837 0.30494017504 -0.00343613854 -1.29927773893 0.31040509196 -0.00332189765 -1.28852090522 0.31592030599 -0.00320731548 -1.27772218882 0.32144632892 -0.00309285726 -1.26695677131 0.32694367254 -0.00297898826 -1.25629983428 0.33237284862 -0.00286617372 -1.24582655930 0.33769436896 -0.00275487889 -1.23561212796 0.34286874533 -0.00389907049 -1.33702431327 0.30714274422 -0.00377953120 -1.32685272532 0.31237831452 -0.00365851427 -1.31641365024 0.31774272977 -0.00353640786 -1.30578222482 0.32319656291 -0.00341360012 -1.29503358585 0.32870038691 -0.00329047920 -1.28424287014 0.33421477473 -0.00316743328 -1.27348521445 0.33970029933 -0.00304485050 -1.26283575560 0.34511753367 -0.00292311902 -1.25236963036 0.35042705071 -0.00280262701 -1.24216197554 0.35558942341 -0.00402536970 -1.34347847883 0.31993582295 -0.00389673576 -1.33331492671 0.32516144078 -0.00376683539 -1.32288393241 0.33051541100 -0.00363599174 -1.31226056599 0.33595839136 -0.00350452798 -1.30151989754 0.34145103962 -0.00337276726 -1.29073699713 0.34695401352 -0.00324103274 -1.27998693485 0.35242797080 -0.00310964757 -1.26934478077 0.35783356923 -0.00297893490 -1.25888560497 0.36313146655 -0.00284921791 -1.24868447753 0.36828232050 -0.00415081511 -1.34990664591 0.33269676945 -0.00401317627 -1.33975059082 0.33791285403 -0.00387441917 -1.32932723609 0.34325676118 -0.00373481837 -1.31871156460 0.34868924980 -0.00359464840 -1.30797855923 0.35417107879 -0.00345418382 -1.29720320287 0.35966300706 -0.00331369916 -1.28646047841 0.36512579350 -0.00317346896 -1.27582536872 0.37052019702 -0.00303376778 -1.26537285668 0.37580697652 -0.00289487016 -1.25517792520 0.38094689090 -0.00297424457 -1.29114857012 0.21648332933 -0.00291540477 -1.28092481214 0.22173848776 -0.00285361020 -1.27043894506 0.22712832927 -0.00278982090 -1.25976495842 0.23261530195 -0.00272499694 -1.24897684175 0.23816185389 -0.00266009838 -1.23814858459 0.24373043319 -0.00259608528 -1.22735417649 0.24928348794 -0.00253391770 -1.21666760697 0.25478346623 -0.00247455569 -1.20616286559 0.26019281616 -0.00241895932 -1.19591394187 0.26547398582 -0.00310230791 -1.29772548878 0.22944531769 -0.00303470028 -1.28750960600 0.23468684887 -0.00296473982 -1.27703173362 0.24006404207 -0.00289322064 -1.26636589337 0.24553912468 -0.00282093680 -1.25558610702 0.25107432407 -0.00274868239 -1.24476639633 0.25663186764 -0.00267725150 -1.23398078303 0.26217398275 -0.00260743821 -1.22330328890 0.26766289681 -0.00254003659 -1.21280793568 0.27306083718 -0.00247584074 -1.20256874513 0.27833003126 -0.00323144410 -1.30428202051 0.24238385852 -0.00315472193 -1.29407341635 0.24761186575 -0.00307613436 -1.28360320439 0.25297617605 -0.00299634214 -1.27294540010 0.25843890193 -0.00291600605 -1.26217401896 0.26396215591 -0.00283578684 -1.25136307644 0.26950805051 -0.00275634530 -1.24058658802 0.27503869825 -0.00267834218 -1.22991856916 0.28051621164 -0.00260243826 -1.21943303534 0.28590270321 -0.00252929430 -1.20920400203 0.29116028547 -0.00336133899 -1.31081749647 0.25529763017 -0.00327523575 -1.30061558237 0.26051226500 -0.00318764690 -1.29015266140 0.26586357316 -0.00309913036 -1.27950271198 0.27131363816 -0.00301024403 -1.26873971248 0.27682454348 -0.00292154583 -1.25793764130 0.28235837262 -0.00283359368 -1.24717047684 0.28787720906 -0.00274694549 -1.23651219748 0.29334313631 -0.00266215917 -1.22603678163 0.29871823785 -0.00257979264 -1.21581820767 0.30396459717 -0.00349167846 -1.31733124782 0.26818531098 -0.00339600773 -1.30713544325 0.27338677320 -0.00329913054 -1.29667940870 0.27872507539 -0.00320153022 -1.28603706238 0.28416233785 -0.00310369008 -1.27528232250 0.28966068087 -0.00300609345 -1.26448910727 0.29518222477 -0.00290922365 -1.25373133491 0.30068908984 -0.00281356399 -1.24308292363 0.30614339638 -0.00271959781 -1.23261779164 0.31150726469 -0.00262780842 -1.22240985715 0.31674281508 -0.00362214838 -1.32382260572 0.28104557930 -0.00351680388 -1.31363233820 0.28623411697 -0.00341043838 -1.30318275031 0.29155952470 -0.00330348667 -1.29254768468 0.29698400546 -0.00319638354 -1.28180098394 0.30246976216 -0.00308956379 -1.27101649072 0.30797899777 -0.00298346220 -1.26026804765 0.31347391520 -0.00287851356 -1.24962949735 0.31891671741 -0.00277515265 -1.23917468244 0.32426960734 -0.00267381428 -1.22897744556 0.32949478791 -0.00375243464 -1.33029090133 0.29387711348 -0.00363739020 -1.32010560639 0.29905302288 -0.00352142350 -1.30966199025 0.30436576308 -0.00340494464 -1.29903381225 0.30977764546 -0.00328836375 -1.28829483173 0.31525098144 -0.00317209095 -1.27751880802 0.32074808242 -0.00305653634 -1.26677950046 0.32623125980 -0.00294211005 -1.25615066838 0.33166282498 -0.00282922219 -1.24570607111 0.33700508937 -0.00271828288 -1.23551946800 0.34222036437 -0.00388222309 -1.33673546581 0.30667859186 -0.00375753270 -1.32655458702 0.31184221755 -0.00363193900 -1.31611643256 0.31714263248 -0.00350584908 -1.30549467847 0.32254226233 -0.00337967005 -1.29476300078 0.32800353279 -0.00325380902 -1.28399507553 0.33348886954 -0.00312867308 -1.27326457874 0.33896069827 -0.00300466933 -1.26264518647 0.34438144466 -0.00288220489 -1.25221057473 0.34971353439 -0.00276168686 -1.24203441957 0.35491939317 -0.00401119961 -1.34315563031 0.31944869278 -0.00387699738 -1.33297861928 0.32460042756 -0.00374183797 -1.32254538128 0.32988897488 -0.00360614492 -1.31192951671 0.33527686053 -0.00347034177 -1.30120462602 0.34072661028 -0.00333485209 -1.29044430962 0.34620074993 -0.00320009941 -1.27972216793 0.35166180524 -0.00306650728 -1.26911180137 0.35707230200 -0.00293449925 -1.25868681038 0.36239476600 -0.00280449887 -1.24852079537 0.36759172302 -0.00413905007 -1.34955072601 0.33218609459 -0.00399555025 -1.33937704237 0.33732637951 -0.00385097351 -1.32894814042 0.34260363226 -0.00370577709 -1.31833756035 0.34798044453 -0.00356041826 -1.30761884236 0.35341940801 -0.00341535426 -1.29686552665 0.35888311439 -0.00327104233 -1.28615115341 0.36433415536 -0.00312793974 -1.27554926283 0.36973512259 -0.00298650373 -1.26513339513 0.37504860779 -0.00284719156 -1.25497709048 0.38023720264 -0.00292484548 -1.28982033746 0.21681396451 -0.00286615891 -1.27999666462 0.22181822999 -0.00280615146 -1.26983989996 0.22699962034 -0.00274558864 -1.25944383044 0.23231144836 -0.00268523592 -1.24890224297 0.23770702688 -0.00262585878 -1.23830892449 0.24313966871 -0.00256822271 -1.22775766193 0.24856268666 -0.00251309319 -1.21734224222 0.25392939355 -0.00246123569 -1.20715645230 0.25919310219 -0.00241341572 -1.19729407908 0.26430712541 -0.00305629295 -1.29636300330 0.22976427533 -0.00298879810 -1.28654260678 0.23475211360 -0.00292019263 -1.27639091504 0.23991811780 -0.00285117259 -1.26600160113 0.24521555645 -0.00278243403 -1.25546833812 0.25059769810 -0.00271467297 -1.24488479907 0.25601781129 -0.00264858547 -1.23434465705 0.26142916455 -0.00258486757 -1.22394158511 0.26678502643 -0.00252421530 -1.21376925632 0.27203866545 -0.00246732471 -1.20392134374 0.27714335017 -0.00318874476 -1.30288440131 0.24268769137 -0.00311212120 -1.29306642056 0.24765923535 -0.00303441477 -1.28291913984 0.25280978536 -0.00295630603 -1.27253611226 0.25809263992 -0.00287847554 -1.26201089090 0.26346109759 -0.00280160385 -1.25143702886 0.26886845690 -0.00272637151 -1.24090807923 0.27426801639 -0.00265345910 -1.23051759509 0.27961307459 -0.00258354717 -1.22035912955 0.28485693004 -0.00251731626 -1.21052623570 0.28995288128 -0.00332182673 -1.30938419612 0.25558337079 -0.00323583307 -1.29956785707 0.26053882652 -0.00314863326 -1.28942435235 0.26567398775 -0.00306093695 -1.27904711598 0.27094223617 -0.00297345381 -1.26852958197 0.27629695348 -0.00288689349 -1.25796518431 0.28169152137 -0.00280196565 -1.24744735702 0.28707932154 -0.00271937996 -1.23706953411 0.29241373568 -0.00263984608 -1.22692514957 0.29764814550 -0.00256407366 -1.21710763743 0.30273593268 -0.00345516472 -1.31586205236 0.26845047177 -0.00335963858 -1.30604666744 0.27339011843 -0.00326266346 -1.29590633054 0.27851008974 -0.00316501333 -1.28553436446 0.28376388259 -0.00306746219 -1.27502409198 0.28910499389 -0.00297078398 -1.26446883589 0.29448692052 -0.00287575271 -1.25396191900 0.29986315938 -0.00278314233 -1.24359666409 0.30518720737 -0.00269372682 -1.23346639395 0.31041256138 -0.00260828016 -1.22366443138 0.31549271831 -0.00358838455 -1.32231763467 0.28128815246 -0.00348324256 -1.31250260281 0.28621234236 -0.00337632073 -1.30236485239 0.29131745606 -0.00326848317 -1.29199760984 0.29655711658 -0.00316059403 -1.28149410159 0.30188494694 -0.00305351743 -1.27094755407 0.30725457016 -0.00294811750 -1.26045119373 0.31261960927 -0.00284525837 -1.25009824698 0.31793368729 -0.00274580418 -1.23998194027 0.32315042722 -0.00265061905 -1.23019550002 0.32822345211 -0.00372111206 -1.32875060767 0.29409557106 -0.00360634989 -1.31893541430 0.29900472962 -0.00348942043 -1.30879969587 0.30409545145 -0.00337129445 -1.29843660428 0.30932147552 -0.00325294269 -1.28793929146 0.31463654076 -0.00313533590 -1.27740090931 0.31999438614 -0.00301944485 -1.26691460976 0.32534875060 -0.00290624027 -1.25657354471 0.33065337309 -0.00279669294 -1.24647086609 0.33586199258 -0.00269177359 -1.23669972580 0.34092834800 -0.00385297310 -1.33516063600 0.30687188571 -0.00372866542 -1.32534485305 0.31176651150 -0.00360177794 -1.31521063896 0.31684344068 -0.00347339515 -1.30485109995 0.32205649681 -0.00334460152 -1.29435934225 0.32735950348 -0.00321648150 -1.28382847207 0.33270628426 -0.00309011957 -1.27335159566 0.33805066272 -0.00296660021 -1.26302181922 0.34334646244 -0.00284700788 -1.25293224899 0.34854750699 -0.00273242704 -1.24317599118 0.35360761994 -0.00398359350 -1.34154738429 0.31961625460 -0.00384989400 -1.33173067018 0.32449691931 -0.00371320862 -1.32159745964 0.32956078847 -0.00357473327 -1.31124084900 0.33476171785 -0.00343566386 -1.30075393461 0.34005356322 -0.00329719631 -1.29022981283 0.34539018036 -0.00316052650 -1.27976157999 0.35072542502 -0.00302685036 -1.26944233244 0.35601315297 -0.00289736379 -1.25936516654 0.36120722000 -0.00277326269 -1.24962317863 0.36626148185 -0.00411259910 -1.34791051716 0.33232783589 -0.00396974049 -1.33809261683 0.33719518433 -0.00382352782 -1.32795993588 0.34224685957 -0.00367525679 -1.31760560359 0.34743667603 -0.00352622309 -1.30712274922 0.35271844811 -0.00337772241 -1.29660450204 0.35804599025 -0.00323105045 -1.28614399131 0.36337311686 -0.00308750290 -1.27583434632 0.36865364235 -0.00294837545 -1.26576869632 0.37384138115 -0.00281496381 -1.25604017059 0.37889014767 -0.00286453759 -1.28721889456 0.21783357435 -0.00280405086 -1.27817830529 0.22239238077 -0.00274580807 -1.26866181942 0.22720670089 -0.00268997560 -1.25880334240 0.23221053481 -0.00263671985 -1.24873677966 0.23733788265 -0.00258620720 -1.23859603663 0.24252274450 -0.00253860404 -1.22851501876 0.24769912046 -0.00249407676 -1.21862763148 0.25280101064 -0.00245279174 -1.20906778023 0.25776241514 -0.00241491537 -1.19996937044 0.26251733406 -0.00300040709 -1.29372505975 0.23076953850 -0.00293268489 -1.28467917023 0.23530930232 -0.00286584308 -1.27516187877 0.24010526693 -0.00280039087 -1.26530678025 0.24509175945 -0.00273683752 -1.25524746956 0.25020310701 -0.00267569226 -1.24511754159 0.25537363672 -0.00261746433 -1.23505059120 0.26053767570 -0.00256266298 -1.22518021329 0.26562955108 -0.00251179744 -1.21564000274 0.27058358996 -0.00246537695 -1.20656355443 0.27533411948 -0.00313686503 -1.30020973357 0.24367468808 -0.00306152560 -1.29115801622 0.24819517071 -0.00298561512 -1.28163920699 0.25297284962 -0.00291001268 -1.27178668038 0.25794231775 -0.00283559736 -1.26173381090 0.26303816807 -0.00276324823 -1.25161397306 0.26819499354 -0.00269384437 -1.24156054134 0.27334738713 -0.00262826487 -1.23170689027 0.27842994179 -0.00256738879 -1.22218639433 0.28337725050 -0.00251209523 -1.21313242803 0.28812390621 -0.00327348412 -1.30667290037 0.25654883558 -0.00319020740 -1.29761495810 0.26104999362 -0.00310487545 -1.28809401896 0.26580962979 -0.00301874867 -1.27824332032 0.27076253841 -0.00293308744 -1.26819609955 0.27584351376 -0.00284915216 -1.25808559401 0.28098735015 -0.00276820322 -1.24804504107 0.28612884187 -0.00269150101 -1.23820767812 0.29120278323 -0.00262030593 -1.22870674250 0.29614396851 -0.00255587837 -1.21967547160 0.30088719202 -0.00340983709 -1.31311454448 0.26939179350 -0.00331836474 -1.30405011073 0.27387377867 -0.00322337530 -1.29452652959 0.27861578828 -0.00312650644 -1.28467697762 0.28355275013 -0.00302939581 -1.27463463137 0.28861959202 -0.00293368108 -1.26453266741 0.29375124174 -0.00284099993 -1.25450426228 0.29888262707 -0.00275299001 -1.24468259255 0.30394867581 -0.00267128899 -1.23520083477 0.30888431575 -0.00259753454 -1.22619216550 0.31362447469 -0.00354549663 -1.31953465024 0.28220337434 -0.00344563206 -1.31046358895 0.28666653352 -0.00334086592 -1.30093695376 0.29139150591 -0.00323319362 -1.29108792982 0.29631328163 -0.00312461053 -1.28104970225 0.30136685079 -0.00301711204 -1.27095545622 0.30648720349 -0.00291269354 -1.26093837684 0.31160932985 -0.00281335043 -1.25113164927 0.31666821998 -0.00272107808 -1.24166845864 0.32159886399 -0.00263787189 -1.23268199009 0.32633625199 -0.00368003546 -1.32593320200 0.29498339057 -0.00357164378 -1.31685550760 0.29942826582 -0.00345709855 -1.30732550635 0.30413696352 -0.00333871783 -1.29747645444 0.30904446160 -0.00321881965 -1.28744160806 0.31408573799 -0.00309972207 -1.27735422340 0.31919577059 -0.00298374313 -1.26734755664 0.32430953734 -0.00287320087 -1.25755486398 0.32936201616 -0.00277041335 -1.24810940161 0.33428818497 -0.00267769861 -1.23914442572 0.33902302170 -0.00381302628 -1.33231018409 0.30773165470 -0.00369603433 -1.32322598154 0.31215898322 -0.00357182443 -1.31369240226 0.31685234194 -0.00344298669 -1.30384282905 0.32174661875 -0.00331211124 -1.29381064467 0.32677670155 -0.00318178822 -1.28372923192 0.33187747823 -0.00305460774 -1.27373197357 0.33698383668 -0.00293315993 -1.26395225240 0.34203066480 -0.00282003492 -1.25452345121 0.34695285047 -0.00271782284 -1.24557895276 0.35168528159 -0.00394404181 -1.33866558085 0.32044797922 -0.00381843817 -1.32957512560 0.32485869338 -0.00368479480 -1.32003785637 0.32953782200 -0.00354590782 -1.31018733116 0.33442008179 -0.00340457335 -1.30015710795 0.33944018942 -0.00326358751 -1.29008074474 0.34453286160 -0.00312574642 -1.28009179950 0.34963281500 -0.00299384618 -1.27032383023 0.35467476632 -0.00287068293 -1.26091039493 0.35959343224 -0.00275905277 -1.25198505157 0.36432352944 -0.00407265476 -1.34499937663 0.33313217663 -0.00393848971 -1.33590305464 0.33752740393 -0.00379576090 -1.32636208358 0.34219358453 -0.00364738885 -1.31651023833 0.34706517941 -0.00349629405 -1.30648129379 0.35207664953 -0.00334539701 -1.29640902482 0.35716245588 -0.00319761823 -1.28642720633 0.36225705943 -0.00305587823 -1.27666961318 0.36729492116 -0.00292309749 -1.26727002028 0.37221050203 -0.00280219654 -1.25836220250 0.37693826303 -0.00279453308 -1.28334841221 0.21955355581 -0.00272864433 -1.27547040409 0.22347390028 -0.00267131044 -1.26690340282 0.22776327263 -0.00262150342 -1.25784135738 0.23232654230 -0.00257819525 -1.24847821675 0.23706857869 -0.00254035792 -1.23900792992 0.24189425125 -0.00250696344 -1.22962444588 0.24670842938 -0.00247698379 -1.22052171360 0.25141598251 -0.00244939097 -1.21189368208 0.25592178008 -0.00242315697 -1.20393430029 0.26013069149 -0.00293612148 -1.28981600591 0.23247175696 -0.00286681403 -1.28191869268 0.23637052102 -0.00280151709 -1.27334089834 0.24063821606 -0.00274038614 -1.26427602477 0.24518063510 -0.00268357667 -1.25491747383 0.24990357114 -0.00263124415 -1.24545864737 0.25471281722 -0.00258354407 -1.23609294727 0.25951416634 -0.00254063189 -1.22701377540 0.26421341152 -0.00250266312 -1.21841453360 0.26871634579 -0.00246979322 -1.21048862376 0.27292876215 -0.00307747839 -1.29626283982 0.24535484557 -0.00300416569 -1.28834696185 0.24923085920 -0.00293056361 -1.27975808686 0.25347701840 -0.00285793967 -1.27068934346 0.25799970571 -0.00278756140 -1.26133386029 0.26270530366 -0.00272069630 -1.25188476597 0.26750019479 -0.00265861191 -1.24253518911 0.27229076163 -0.00260257574 -1.23347825834 0.27698338673 -0.00255385531 -1.22490710227 0.28148445260 -0.00251371815 -1.21701484954 0.28570034180 -0.00321812661 -1.30268916704 0.25820348813 -0.00314024478 -1.29475556630 0.26205603218 -0.00305809222 -1.28615549497 0.26628103994 -0.00297395815 -1.27708204201 0.27078518998 -0.00289013175 -1.26772829641 0.27547516089 -0.00280890223 -1.25828734717 0.28025763123 -0.00273255877 -1.24895228327 0.28503927958 -0.00266339058 -1.23991619369 0.28972678452 -0.00260368686 -1.23137216743 0.29422682462 -0.00255573680 -1.22351329346 0.29844607847 -0.00335758893 -1.30909524062 0.27101835114 -0.00327459674 -1.30114486072 0.27484715734 -0.00318374513 -1.29253364927 0.27905164096 -0.00308823571 -1.28345484894 0.28353852376 -0.00299127006 -1.27410170243 0.28821452745 -0.00289604978 -1.26466745243 0.29298637378 -0.00280577646 -1.25534534164 0.29776078449 -0.00272365170 -1.24632861272 0.30244448130 -0.00265287709 -1.23781050839 0.30694418595 -0.00259665422 -1.22998427133 0.31116662019 -0.00349538813 -1.31548131364 0.28380010108 -0.00340676703 -1.30751519979 0.28760535204 -0.00330716455 -1.29889307636 0.29179018177 -0.00320056649 -1.28980849282 0.29626114288 -0.00309095865 -1.28045499862 0.30092478800 -0.00298232681 -1.27102614322 0.30568766972 -0.00287865678 -1.26171547610 0.31045634067 -0.00278393435 -1.25271654670 0.31513735346 -0.00270214530 -1.24422290450 0.31963726069 -0.00263727545 -1.23642809895 0.32386261499 -0.00363104702 -1.32184763918 0.29654940446 -0.00353630111 -1.31386693819 0.30033173366 -0.00342799269 -1.30523430284 0.30449802264 -0.00331074464 -1.29614370218 0.30895448321 -0.00318917984 -1.28678910522 0.31360732716 -0.00306792118 -1.27736448100 0.31836276631 -0.00295159153 -1.26806379855 0.32312701245 -0.00284481379 -1.25908102690 0.32780627740 -0.00275221083 -1.25061013509 0.33230677295 -0.00267840554 -1.24284509214 0.33653471092 -0.00376408837 -1.32819447032 0.30926692776 -0.00366274444 -1.32020043061 0.31302741957 -0.00354587176 -1.31155785532 0.31717652387 -0.00341856429 -1.30246120556 0.32161998057 -0.00328591596 -1.29310494249 0.32626352957 -0.00315302073 -1.28368352721 0.33101291079 -0.00302497252 -1.27439142086 0.33577386414 -0.00290686529 -1.26542308457 0.34045212951 -0.00280379298 -1.25697297948 0.34495344683 -0.00272084952 -1.24923556670 0.34918355599 -0.00389403499 -1.33452206012 0.32195333747 -0.00378564247 -1.32651603173 0.32569352713 -0.00366044398 -1.31786426037 0.32982704574 -0.00352381958 -1.30876173153 0.33425907081 -0.00338114934 -1.29940343068 0.33889477988 -0.00323781331 -1.28998434332 0.34363935045 -0.00309919155 -1.28069945493 0.34839796005 -0.00297066411 -1.27174375100 0.35307578620 -0.00285761106 -1.26331221701 0.35757800643 -0.00276541246 -1.25559983844 0.36180979825 -0.00402040966 -1.34083066166 0.33460930008 -0.00390454065 -1.33281409624 0.33833117372 -0.00377135155 -1.32415404461 0.34245094855 -0.00362630466 -1.31504600861 0.34687318979 -0.00347486230 -1.30568549006 0.35150246270 -0.00332248678 -1.29626799079 0.35624333252 -0.00317464042 -1.28698901264 0.36100036450 -0.00303678552 -1.27804405743 0.36567812386 -0.00291438441 -1.26962862700 0.37018117586 -0.00281289938 -1.26193822318 0.37441408574 -0.00271604413 -1.27821306124 0.22198530583 -0.00263950299 -1.27187363098 0.22507574872 -0.00258138900 -1.26456334954 0.22868303731 -0.00253869371 -1.25655573844 0.23267345182 -0.00250840861 -1.24812431918 0.23691327252 -0.00248752522 -1.23954261326 0.24126877965 -0.00247303507 -1.23108414218 0.24560625345 -0.00246192966 -1.22302242744 0.24979197418 -0.00245120052 -1.21563099055 0.25369222207 -0.00243783916 -1.20918335301 0.25717327739 -0.00286490730 -1.28464018957 0.23488158047 -0.00279163885 -1.27826057047 0.23794787574 -0.00272704059 -1.27092424730 0.24152969182 -0.00267066908 -1.26290392872 0.24549508482 -0.00262208087 -1.25447232339 0.24971211087 -0.00258083255 -1.24590213995 0.25404882609 -0.00254648066 -1.23746608706 0.25837328661 -0.00251858177 -1.22943687338 0.26255354854 -0.00249669244 -1.22208720756 0.26645766801 -0.00248036923 -1.21568979826 0.26995370113 -0.00301225835 -1.29104854259 0.24773816075 -0.00294127206 -1.28463201598 0.25077748815 -0.00287008844 -1.27727046050 0.25433394128 -0.00280056457 -1.26923634052 0.25827657413 -0.00273455752 -1.26080212041 0.26247444072 -0.00267392435 -1.25224026454 0.26679659503 -0.00262052214 -1.24382323727 0.27111209108 -0.00257620796 -1.23582350297 0.27528998286 -0.00254283887 -1.22851352600 0.27919932436 -0.00252227195 -1.22216577074 0.28270916961 -0.00315756965 -1.29743855393 0.26055679201 -0.00308783125 -1.29098836249 0.26356720813 -0.00301000233 -1.28360261408 0.26709875886 -0.00292795805 -1.27555399804 0.27102083602 -0.00284557357 -1.26711520375 0.27520283142 -0.00276672407 -1.25855892057 0.27951413687 -0.00269528469 -1.25015783787 0.28382414417 -0.00263513061 -1.24218464501 0.28800224514 -0.00259013698 -1.23491203136 0.29191783159 -0.00256417897 -1.22861268627 0.29544029532 -0.00330031360 -1.30381065721 0.27333921960 -0.00323074507 -1.29733000500 0.27631965786 -0.00314625199 -1.28992133297 0.27982711775 -0.00305242734 -1.28185792548 0.28373078676 -0.00295486406 -1.27341306690 0.28789985235 -0.00285915512 -1.26486004160 0.29220350200 -0.00277089347 -1.25647213396 0.29651092320 -0.00269567208 -1.24852262834 0.30069130341 -0.00263908390 -1.24128480913 0.30461383012 -0.00260672189 -1.23503196068 0.30814769080 -0.00343996258 -1.31016528604 0.28608718886 -0.00336944216 -1.30365733850 0.28903745952 -0.00327830720 -1.29622724212 0.29252199112 -0.00317355029 -1.28814914704 0.29640934260 -0.00306216401 -1.27969720335 0.30056807286 -0.00295114094 -1.27114556117 0.30486674085 -0.00284747365 -1.26276837061 0.30917390549 -0.00275815474 -1.25483978178 0.31335812570 -0.00269017677 -1.24763394481 0.31728796041 -0.00265053235 -1.24142500979 0.32083196856 -0.00357598896 -1.31650287407 0.29880244514 -0.00350335116 -1.30997075796 0.30172323530 -0.00340563771 -1.30252096647 0.30518635216 -0.00329090475 -1.29442868691 0.30905941981 -0.00316720845 -1.28596910659 0.31321006233 -0.00304260495 -1.27741741281 0.31750590381 -0.00292515040 -1.26904879290 0.32181456834 -0.00282290095 -1.26113843416 0.32600368001 -0.00274391275 -1.25396152389 0.32994086291 -0.00269624196 -1.24779324942 0.33349374112 -0.00370786513 -1.32282385491 0.31148673378 -0.00363190071 -1.31627065839 0.31437960738 -0.00352771326 -1.30880313096 0.31782317404 -0.00340406857 -1.30069756930 0.32168393465 -0.00326973241 -1.29223027012 0.32582839011 -0.00313347059 -1.28367753009 0.33012304129 -0.00300404889 -1.27531564592 0.33443438908 -0.00289023309 -1.26742091428 0.33862893437 -0.00280078898 -1.26026963187 0.34257317805 -0.00274448235 -1.25413809538 0.34613362101 -0.00383506348 -1.32912866219 0.32414180013 -0.00375451946 -1.32255743477 0.32700919793 -0.00364400362 -1.31507436052 0.33043542994 -0.00351261957 -1.30695681841 0.33428580340 -0.00336947092 -1.29848218743 0.33842562557 -0.00322366129 -1.28992784655 0.34272020369 -0.00308429428 -1.28157117474 0.34703484502 -0.00296047351 -1.27368955098 0.35123485680 -0.00286130260 -1.26656035425 0.35518554629 -0.00279588515 -1.26046096351 0.35875222073 -0.00395705638 -1.33541772952 0.33676938954 -0.00387063606 -1.32883148208 0.33961462915 -0.00375397855 -1.32133528009 0.34302609304 -0.00361613562 -1.31320745844 0.34686794231 -0.00346615901 -1.30472635202 0.35100433807 -0.00331310047 -1.29617029573 0.35529944143 -0.00316601174 -1.28781762445 0.35961741347 -0.00303394459 -1.27994667308 0.36382241532 -0.00292595075 -1.27283577651 0.36777860807 -0.00285108197 -1.26676326963 0.37135015282 </DataArray>
</PointData>
<Points>
<DataArray type="Float32" NumberOfComponents="3">
0.86604981876 -0.55353160115 3.02635188026 0.89667984251 -0.54717492490 3.02202622934 0.91967085706 -0.53978016061 3.01695890333 0.93502031986 -0.53164099005 3.01134481670 0.94272568837 -0.52305109503 3.00537888393 0.94278442003 -0.51430415732 2.99925601950 0.93519397230 -0.50569385871 2.99317113786 0.91995180263 -0.49751388098 2.98731915351 0.89705536848 -0.49005790592 2.98189498092 0.86650212729 -0.48361961532 2.97709353456 0.86126582212 -0.54433557358 3.03935837058 0.89188432394 -0.53800087110 3.03503960556 0.91486860824 -0.53062468802 3.02997408068 0.93021598510 -0.52250033452 3.02435746570 0.93792376463 -0.51392112078 3.01838543037 0.93798925692 -0.50518035700 3.01225364443 0.93040977207 -0.49657135336 3.00615777763 0.91518262017 -0.48838742006 3.00029349973 0.89230511132 -0.48092186729 2.99485648046 0.86177455562 -0.47446800522 2.99004238958 0.85568835383 -0.53512305989 3.05234826009 0.88635112812 -0.52880817838 3.04803587835 0.90937044959 -0.52144912529 3.04297196640 0.92474346702 -0.51333877273 3.03735282963 0.93246732923 -0.50476999278 3.03137477342 0.93253918502 -0.49603565753 3.02523410315 0.92495618318 -0.48742863907 3.01912712422 0.90971547252 -0.47924180949 3.01325014200 0.88681420184 -0.47176804089 3.00779946189 0.85624951994 -0.46530020535 3.00297138926 0.84922131825 -0.52589280338 3.06531956425 0.87997083039 -0.51959603440 3.06101316530 0.90305695200 -0.51225292059 3.05595073619 0.91847666714 -0.50415586078 3.05032911352 0.92622695988 -0.49559725380 3.04434513389 0.92630481429 -0.48686949847 3.03819563390 0.91870721444 -0.47826499362 3.03207745013 0.90343114440 -0.47007613808 3.02618741919 0.88047358824 -0.46259533068 3.02072237767 0.84983153002 -0.45611497024 3.01587916218 0.84176861973 -0.51664354738 3.07827029858 0.87263400609 -0.51036362687 3.07396958398 0.89580868637 -0.50303552208 3.06890856572 0.91128948697 -0.49495115475 3.06328452240 0.91907323428 -0.48640244660 3.05729473260 0.91915675472 -0.47768131939 3.05113647490 0.91153687468 -0.46907969482 3.04500702789 0.89621042055 -0.46088949465 3.03910367016 0.87317421874 -0.45340264060 3.03362368029 0.84242509565 -0.44691105440 3.02876433687 0.83323416265 -0.50737403519 3.09119847855 0.86423123056 -0.50111014346 3.08690325195 0.88750622358 -0.49379637791 3.08184363068 0.90305582802 -0.48572421070 3.07621726129 0.91087673015 -0.47718511396 3.07022179034 0.91096561628 -0.46847055984 3.06405486440 0.90331917269 -0.45987202048 3.05791413003 0.88793408569 -0.45168096801 3.05199723378 0.86480704157 -0.44418887459 3.04650182221 0.83393472662 -0.43768721236 3.04162554190 0.82352185136 -0.49808301012 3.10410211967 0.85465307914 -0.49183477186 3.09981228680 0.87803013454 -0.48453493627 3.09475410674 0.89364959180 -0.47647458473 3.08912553520 0.90150802518 -0.46794479864 3.08312452793 0.90160200893 -0.45923665939 3.07694904063 0.89392811731 -0.45064124838 3.07079702905 0.87848292456 -0.44244964698 3.06486644890 0.85526300494 -0.43495293661 3.05935525591 0.82426493271 -0.42844219864 3.05446140581 0.81253559022 -0.48876921549 3.11697923742 0.84379012718 -0.48253669977 3.11269480610 0.86726099012 -0.47525064531 3.10763816959 0.88294467983 -0.46720183291 3.10200754918 0.89083769708 -0.45868104341 3.09600116617 0.89093654266 -0.44997905761 3.08981724184 0.88323771733 -0.44138665633 3.08365399748 0.86773772188 -0.43319462038 3.07770965439 0.84443305708 -0.42569373059 3.07218243385 0.81332022372 -0.41917476777 3.06727055716 0.80017928361 -0.47943139461 3.12982784731 0.83153295001 -0.47321511487 3.12554892742 0.85507936123 -0.46594295319 3.12049399492 0.87081499363 -0.45790551133 3.11486150824 0.87873632357 -0.44939339103 3.10884992587 0.87883982743 -0.44069719405 3.10265770624 0.87112198158 -0.43210752213 3.09648330784 0.85557926238 -0.42391497703 3.09052518911 0.83220814621 -0.41641016049 3.08498180851 0.80100510942 -0.40988367427 3.08005162451 0.78635683588 -0.47006829078 3.14264596480 0.81777212299 -0.46386920484 3.13837276834 0.84136581876 -0.45661130809 3.13331975840 0.85713443470 -0.44858517605 3.12768561741 0.86507448235 -0.44008138427 3.12166902783 0.86518247323 -0.43139050827 3.11546867209 0.85745491887 -0.42280312358 3.10928323264 0.84188833080 -0.41460980573 3.10331139191 0.81847922053 -0.40710113024 3.09775183235 0.78722409960 -0.40056767265 3.09280323640 0.82806129343 -0.55863198195 3.02974518891 0.84955586175 -0.55070788546 3.02427003071 0.86569477849 -0.54205678343 3.01826864688 0.87647653480 -0.53288460840 3.01187878734 0.88189962188 -0.52339729290 3.00523820201 0.88196253088 -0.51380076948 2.99848464079 0.87666375298 -0.50430097066 2.99175585360 0.86600177935 -0.49510382899 2.98518959036 0.84997510116 -0.48641527700 2.97892360098 0.82858220957 -0.47844124723 2.97309563536 0.82329751471 -0.54941559524 3.04274213966 0.84478457910 -0.54150700367 3.03726853963 0.86092029477 -0.53286906106 3.03126556256 0.87170279906 -0.52370759608 3.02487137209 0.87713022930 -0.51422843738 3.01822413186 0.87720072284 -0.50463741364 3.01146200551 0.87191241703 -0.49514035353 3.00472315669 0.86126344920 -0.48594308570 2.99814574904 0.84525195669 -0.47725143884 2.99186794619 0.82387607684 -0.46927124159 2.98602791181 0.81767003471 -0.54018302115 3.05572281998 0.83918902939 -0.53228960314 3.05024992832 0.85535088993 -0.52366461801 3.04424491852 0.86615347118 -0.51451379029 3.03784623261 0.87159462798 -0.50504284451 3.03119231266 0.87167221517 -0.49545750520 3.02442160070 0.86638408760 -0.48596349690 3.01767253877 0.85572810011 -0.47676654413 3.01108356894 0.83970210754 -0.46807237144 3.00479313324 0.81830396474 -0.46008670335 2.99893967371 0.81109939045 -0.53093284710 3.06868523034 0.83268039898 -0.52305438976 3.06321238661 0.84889075623 -0.51444223906 3.05720499754 0.85972810315 -0.50530201830 3.05080167663 0.86519008067 -0.49583935077 3.04414103738 0.86527432976 -0.48625985976 3.03736169331 0.85997849136 -0.47676916857 3.03060225792 0.84930020642 -0.46757290049 3.02400134471 0.83323711588 -0.45887667882 3.01769756720 0.81178686069 -0.45088612685 3.01182953890 0.80350611893 -0.52166366051 3.08162737124 0.82516987424 -0.51380006940 3.07615410436 0.84144408593 -0.50520070898 3.07014408243 0.85232624692 -0.49607110735 3.06373601184 0.85781385014 -0.48661679262 3.05706859899 0.85790438852 -0.47704329290 3.05028055030 0.85259535498 -0.46755613632 3.04351057217 0.84188424245 -0.45836085097 3.03689737100 0.82576854386 -0.44966296498 3.03057965320 0.80424575214 -0.44166800645 3.02469612517 0.79481075718 -0.51237404881 3.09454724316 0.81656864155 -0.50452534797 3.08907327142 0.83291507130 -0.49593881255 3.08306045598 0.84384745448 -0.48681988469 3.07664754595 0.84936319914 -0.47737400654 3.06997329047 0.84945971333 -0.46780662024 3.06317643864 0.84413440511 -0.45832316794 3.05639573959 0.83338468254 -0.44912909179 3.04976994244 0.81720795365 -0.44042983393 3.04343779632 0.79560162652 -0.43243083651 3.03753805034 0.78493384219 -0.50306259941 3.10744284658 0.80678788727 -0.49522893134 3.10196807763 0.82320790461 -0.48665533455 3.09595240099 0.83419127779 -0.47754717758 3.08953458669 0.83973539043 -0.46810982900 3.08285340477 0.83983762611 -0.45854865736 3.07604762527 0.83449536843 -0.44906903122 3.06925601823 0.82370600100 -0.43987631914 3.06261735369 0.80746690741 -0.43117588968 3.05627040167 0.78577547126 -0.42317311138 3.05035393223 0.77379591100 -0.49372789975 3.12031218199 0.79573879778 -0.48590952541 3.11483671284 0.81222677812 -0.47734905975 3.10881820025 0.82325726883 -0.46825181327 3.10239544175 0.82882768676 -0.45882309647 3.09570723488 0.82893544874 -0.44926821987 3.08889237716 0.82357797160 -0.43979249395 3.08208966615 0.81275267218 -0.43060122924 3.07543789937 0.79645696730 -0.42189973623 3.06907587436 0.77468827380 -0.41389332543 3.06314238865 0.76131750061 -0.48436853723 3.13315324988 0.78333255945 -0.47656583606 3.12767736691 0.79987588409 -0.46801877294 3.12165613657 0.81094497957 -0.45893261901 3.11522841885 0.81653735091 -0.44951264543 3.10853307375 0.81665050314 -0.43996412335 3.10170896127 0.81128194129 -0.43049232392 3.09489494140 0.80042917039 -0.42130251828 3.08822987413 0.78408969547 -0.41259997759 3.08185261947 0.76226102157 -0.40458997300 3.07590203741 0.74741914802 -0.47498309929 3.14596405074 0.76948035864 -0.46719656919 3.14048822968 0.78605941480 -0.45866325890 3.13446449273 0.79715396197 -0.44958842207 3.12803182569 0.80276164561 -0.44017731236 3.12132921436 0.80288011119 -0.43063518342 3.11449564454 0.79750700415 -0.42116728890 3.10767010203 0.78663996997 -0.41197888247 3.10099157262 0.77027665410 -0.40327521777 3.09459904212 0.74841470201 -0.39526154846 3.08863149632 0.78413996009 -0.56243829844 3.03218633935 0.79825567852 -0.55334728452 3.02583301491 0.80886052463 -0.54376087390 3.01911770278 0.81595347392 -0.53381955133 3.01213509066 0.81953350189 -0.52366380157 3.00497986624 0.81959958402 -0.51343410938 2.99774671721 0.81615069582 -0.50327095952 2.99053033128 0.80918581278 -0.49331483674 2.98342539613 0.79870391040 -0.48370622581 2.97652659946 0.78470396418 -0.47458561147 2.96992862897 0.77940014951 -0.55319841990 3.04517481730 0.79351288731 -0.54411971720 3.03881844286 0.80411788336 -0.53454384870 3.03209851629 0.81121380001 -0.52461135880 3.02510984023 0.81479929960 -0.51446279192 3.01794721731 0.81487304449 -0.50423869248 3.01070545016 0.81143369702 -0.49407960488 3.00347934142 0.80447991953 -0.48412607355 2.99636369370 0.79401037437 -0.47451864289 2.98945330966 0.78002372389 -0.46539785732 2.98284299192 0.77371558814 -0.54394182127 3.05814641100 0.78785145171 -0.53487582676 3.05178618257 0.79847596116 -0.52531083719 3.04506110923 0.80558755458 -0.51538746875 3.03806602150 0.80918467007 -0.50524633761 3.03089574989 0.80926574573 -0.49502805994 3.02364512492 0.80582921965 -0.48487325192 3.01640897712 0.79887352993 -0.47492252972 3.00928213698 0.78839711467 -0.46531650950 3.00235943504 0.77439841195 -0.45619580746 2.99573570180 0.76702600555 -0.53466710638 3.07109915455 0.78120495158 -0.52561416734 3.06473445920 0.79186375079 -0.51606036458 3.05800381451 0.79900069743 -0.50614639109 3.05100201600 0.80261408579 -0.49601293985 3.04382385922 0.80270221015 -0.48580070383 3.03656413971 0.79926336478 -0.47565037601 3.02931765302 0.79229584396 -0.46570264938 3.02217919468 0.78179794196 -0.45609821690 3.01524356025 0.76776795306 -0.44697777156 3.00860554525 0.75927113131 -0.52537287905 3.08403108202 0.77350696680 -0.51633329309 3.07766149794 0.78421024501 -0.50679095605 3.07092496506 0.79137918836 -0.49688663571 3.06391620529 0.79501201926 -0.48676109984 3.05672994055 0.79510696015 -0.47655511620 3.04946089273 0.79166223344 -0.46640945255 3.04220378376 0.78467606155 -0.45646487668 3.03505333553 0.77414666690 -0.44686215634 3.02810426995 0.76007227190 -0.43774205930 3.02145130894 0.75039069501 -0.51605774311 3.09694022752 0.76469107721 -0.50703175816 3.09056552393 0.77544443657 -0.49750113680 3.08382289380 0.78264898714 -0.48760671251 3.07680697093 0.78630294298 -0.47748931878 3.06961238913 0.78640451814 -0.46728978909 3.06233378221 0.78295192669 -0.45714895692 3.05506578398 0.77594338267 -0.44720765575 3.04790302824 0.76537710014 -0.43760671907 3.04094014882 0.75125129317 -0.42848698035 3.03427177951 0.74032442620 -0.50672030239 3.10982462513 0.75469086269 -0.49770811671 3.10344476236 0.76549531825 -0.48818943202 3.09669593365 0.77273605359 -0.47830513139 3.08967269445 0.77641132945 -0.46819609789 3.08246960020 0.77651940653 -0.45800321457 3.07518120634 0.77305854556 -0.44786736450 3.06790206831 0.76602700726 -0.43792943073 3.06072674155 0.75542305235 -0.42833029634 3.05374978150 0.74124494155 -0.41921084439 3.04706574361 0.72901205448 -0.49735916071 3.12268230895 0.74343990310 -0.48836092288 3.11629743839 0.75429188279 -0.47885436690 3.10954241754 0.76156634749 -0.46898040225 3.10251175742 0.76526165115 -0.45887993836 3.09529996903 0.76537614771 -0.44869388469 3.08800156335 0.76190819110 -0.43856315067 3.08071105140 0.75485613527 -0.42862864577 3.07352294418 0.74421833417 -0.41903127943 3.06653175268 0.72999314172 -0.40991196109 3.05983198790 0.71639330941 -0.48797292191 3.13551131305 0.73087177829 -0.47898873081 3.12912177718 0.74176312295 -0.46949446664 3.12236067840 0.74906582863 -0.45963103498 3.11532254139 0.75277838060 -0.44953934140 3.10810189085 0.75289926409 -0.43936029149 3.10079325145 0.74942696436 -0.42923479083 3.09349114789 0.74235996667 -0.41930374499 3.08629010484 0.73169675626 -0.40970805956 3.07928464699 0.71743581838 -0.40058864012 3.07256929904 0.70240792057 -0.47856018981 3.14830967155 0.71692006814 -0.46959009467 3.14191600391 0.72783803149 -0.46010825643 3.13514904913 0.73516045681 -0.45025553948 3.12810342790 0.73888599028 -0.44017280822 3.12087376091 0.73901327808 -0.43000092704 3.11355466885 0.73554096639 -0.41988076035 3.10624077240 0.72846770140 -0.40995317254 3.09902669226 0.71779212928 -0.40035902801 3.09200704912 0.70351289621 -0.39123919116 3.08527646366 0.73598453245 -0.56495472142 3.03368672851 0.74397597086 -0.55509379203 3.02672814215 0.74998784366 -0.54489113141 3.01951977277 0.75401925208 -0.53444368194 3.01212770767 0.75606929733 -0.52384838598 3.00461803413 0.75613708062 -0.51320218594 2.99705683945 0.75422170315 -0.50260202418 2.98951021091 0.75032226615 -0.49214484309 2.98204423581 0.74443787082 -0.48192758504 2.97472500144 0.73656761837 -0.47204719242 2.96761859508 0.73127118636 -0.55568839535 3.04666705325 0.73926433770 -0.54583840803 3.03970142125 0.74527954919 -0.53564532447 3.03248566848 0.74931578414 -0.52520621672 3.02508577156 0.75137200587 -0.51461815688 3.01756770710 0.75144717769 -0.50397821702 3.00999745169 0.74954026290 -0.49338346922 3.00244098196 0.74565022482 -0.48293098556 2.99496427450 0.73977602676 -0.47271783811 2.98763330593 0.73191663203 -0.46284109895 2.98051405286 0.72552438573 -0.54640428278 3.05962903007 0.73353419572 -0.53656560774 3.05265582844 0.73956385585 -0.52638246387 3.04543218811 0.74361225348 -0.51595204712 3.03802396660 0.74567827600 -0.50537155342 3.03049702145 0.74576081076 -0.49473817869 3.02291721021 0.74385874515 -0.48414911887 3.01535039041 0.73997096652 -0.47370156990 3.00786241959 0.73409636226 -0.46349272769 3.00051915529 0.72623381973 -0.45361978819 2.99338645505 0.71870487774 -0.53710113904 3.07257080044 0.72674279023 -0.52727404796 3.06558964898 0.73279539881 -0.51710113087 3.05835772776 0.73686156845 -0.50667969617 3.05094077676 0.73894016412 -0.49610705224 3.04340453597 0.73903005079 -0.48548050747 3.03581474537 0.73713009341 -0.47489737024 3.02823714495 0.73323915697 -0.46445494893 3.02073747468 0.72735610642 -0.45425055193 3.01338147454 0.71947980673 -0.44438148763 3.00623488452 0.71077340956 -0.52777771944 3.08549050586 0.71884736652 -0.51796238551 3.07850116811 0.72492881324 -0.50779990670 3.07126068356 0.72901663740 -0.49738768691 3.06383468605 0.73110972667 -0.48682313001 3.05628880943 0.73120696872 -0.47620363988 3.04868868755 0.72930725123 -0.46562662042 3.04109995423 0.72540946188 -0.45518947549 3.03358824333 0.71951248834 -0.44498960898 3.02621918869 0.71161521830 -0.43512442477 3.01905842415 0.70169072836 -0.51843277929 3.09838628781 0.70980516991 -0.50862927720 3.09138867108 0.71591873432 -0.49847737261 3.08413945163 0.72003036868 -0.48807454238 3.07670417846 0.72213902005 -0.47751826337 3.06914840061 0.72224363551 -0.46690601246 3.06153766709 0.72034316213 -0.45633526651 3.05393752693 0.71643654698 -0.44590350239 3.04641352915 0.71052273714 -0.43570819695 3.03903122277 0.70260067968 -0.42584682707 3.03185615683 0.69141758133 -0.50906507392 3.11125628776 0.69957344569 -0.49927337986 3.10425044315 0.70571979721 -0.48913210983 3.09699242809 0.70985567064 -0.47873878561 3.08954773798 0.71198010070 -0.46819092899 3.08198186826 0.71209212212 -0.45758606173 3.07436031436 0.71019076964 -0.44702170563 3.06674857170 0.70627507800 -0.43659538246 3.05921213571 0.70034408192 -0.42640461400 3.05181650180 0.69239681613 -0.41654692204 3.04462716541 0.67991471562 -0.49967335863 3.12409864721 0.68810943916 -0.48989335029 3.11708476957 0.69428663709 -0.47976269961 3.10981800906 0.69844545163 -0.46937893966 3.10236384861 0.70058502502 -0.45883960350 3.09478777119 0.70070449950 -0.44824222422 3.08715525974 0.69880301730 -0.43768433487 3.07953179723 0.69487972064 -0.42726346853 3.07198286659 0.68893375178 -0.41707715827 3.06457395080 0.68096425293 -0.40722293715 3.05737053279 0.66714287842 -0.49025638875 3.13691150763 0.67537039564 -0.48048784531 3.12988993559 0.68157388912 -0.47036772318 3.12261459066 0.68575262001 -0.45999352754 3.11515099434 0.68790584945 -0.44946276357 3.10756466814 0.68803283861 -0.43887293644 3.09992113358 0.68613284862 -0.42832155133 3.09228591216 0.68220514065 -0.41790611342 3.08472452539 0.67624897583 -0.40772412788 3.07730249478 0.66826361531 -0.39787309989 3.07008534184 0.65306281690 -0.48081291960 3.14969301052 0.66131356042 -0.47105552174 3.14266422646 0.66753618847 -0.46094576180 3.13538056901 0.67173008411 -0.45058107232 3.12790765916 0.67389463041 -0.44005888585 3.12031111791 0.67402921040 -0.42947663493 3.11265656625 0.67213320715 -0.41893175212 3.10500962518 0.66820600373 -0.40852166995 3.09743591569 0.66224698317 -0.39834382098 3.09000105878 0.65425552855 -0.38849563775 3.08277067544 0.68529372426 -0.56618542171 3.03425775335 0.68791341680 -0.55594807793 3.02696837261 0.68989648373 -0.54544625534 3.01948855856 0.69124198414 -0.53475486327 3.01187061936 0.69194897714 -0.52394881106 3.00416686318 0.69201652182 -0.51310300804 2.99642959819 0.69144367729 -0.50229236353 2.98871113255 0.69022950264 -0.49159178688 2.98106377443 0.68837305698 -0.48107618740 2.97353983199 0.68587339939 -0.47082047444 2.96619161339 0.68060808509 -0.55688986937 3.04722949729 0.68323401941 -0.54666247251 3.03992958082 0.68522346746 -0.53616976191 3.03243974574 0.68657554766 -0.52548676389 3.02481206750 0.68728937845 -0.51468850474 3.01709862157 0.68736407828 -0.50385001079 3.00935148340 0.68679876557 -0.49304630833 3.00162272845 0.68559255875 -0.48235242368 2.99396443219 0.68374457627 -0.47184338314 2.98642867008 0.68125393655 -0.46159421302 2.97906751758 0.67479579910 -0.54757522820 3.06018067410 0.67743306206 -0.53735770460 3.05287005330 0.67943276659 -0.52687417910 3.04536980472 0.68079410416 -0.51619976441 3.03773183823 0.68151626625 -0.50540957326 3.03000806368 0.68159844433 -0.49457871839 3.02225039093 0.68103982990 -0.48378231250 3.01451072983 0.67983961442 -0.47309546833 3.00684099024 0.67799698938 -0.46259329861 2.99929308202 0.67551114625 -0.45235091606 2.99191891502 0.66783972121 -0.53824050289 3.07310963162 0.67049221693 -0.52803271245 3.06578822185 0.67250516343 -0.51755837166 3.05827727796 0.67387783466 -0.50689265055 3.05062860404 0.67460950454 -0.49611071914 3.04289400421 0.67469944700 -0.48528774745 3.03512528257 0.67414693598 -0.47449890551 3.02737424322 0.67295124541 -0.46381936332 3.01969269027 0.67111164922 -0.45332429093 3.01213242783 0.66862742134 -0.44308885834 3.00474525999 0.65972270636 -0.52888469811 3.08601471770 0.66239315618 -0.51868643426 3.07868251830 0.66442144029 -0.50822120434 3.07116070789 0.66580692019 -0.49756420800 3.06350103741 0.66654895735 -0.48679064487 3.05575525782 0.66664691330 -0.47597571459 3.04797512009 0.66610014950 -0.46519461680 3.04021237516 0.66490802747 -0.45452255112 3.03251877400 0.66306990870 -0.44403471720 3.02494606756 0.66058515468 -0.43380631467 3.01754600680 0.65042760948 -0.51950681854 3.09889428017 0.65311755200 -0.50931780827 3.09155137447 0.65516237947 -0.49886154191 3.08401863697 0.65656154175 -0.48821322247 3.07634781082 0.65731448872 -0.47744805298 3.06859063919 0.65742067023 -0.46664123643 3.06079886526 0.65687953616 -0.45586797583 3.05302423218 0.65569053638 -0.44520347420 3.04531848313 0.65385312075 -0.43472293453 3.03773336126 0.65136673915 -0.42450155986 3.03032060974 0.63993728551 -0.51010586886 3.11174666689 0.64264707656 -0.49992577270 3.10439322218 0.64470876326 -0.48947824911 3.09684960764 0.64612188037 -0.47883847967 3.08916759676 0.64688596264 -0.46808164596 3.08139896300 0.64700054482 -0.45728292956 3.07359547986 0.64646516165 -0.44651751205 3.06580892082 0.64527934789 -0.43586057502 3.05809105936 0.64344263828 -0.42538730004 3.05049366896 0.64095456758 -0.41517286870 3.04306852310 0.62823458938 -0.50068085374 3.12457022570 0.63096340203 -0.49050926579 3.11720649326 0.63304137398 -0.48007019070 3.10965216237 0.63446811708 -0.46943876529 3.10195906771 0.63524324316 -0.45869012632 3.09417904392 0.63536636408 -0.44789941060 3.08636392567 0.63483709166 -0.43714175492 3.07856554761 0.63365503776 -0.42649229607 3.07083574441 0.63181981421 -0.41602617083 3.06322635071 0.62933103286 -0.40581851600 3.05578920118 0.61530237603 -0.49123077787 3.13736330443 0.61804820059 -0.48106722575 3.12998961951 0.62014099392 -0.47063623145 3.12242484360 0.62158043288 -0.46001286503 3.11472089616 0.62236619429 -0.44927219658 3.10692969663 0.62249795501 -0.43848929617 3.09910316446 0.62197539188 -0.42773923389 3.09129321909 0.62079818174 -0.41709707981 3.08355177997 0.61896600144 -0.40663790401 3.07593076655 0.61647852782 -0.39643677657 3.06848209828 0.60112350039 -0.48175464591 3.15012425093 0.60388314442 -0.47159859082 3.14274103276 0.60598840540 -0.46117523609 3.13516619378 0.60743900879 -0.45055956460 3.12745175460 0.60823468005 -0.43982655923 3.11964973580 0.60837514464 -0.42905120287 3.11181215800 0.60786012801 -0.41830847841 3.10399104179 0.60668935561 -0.40767336872 3.09623840776 0.60486255290 -0.39722085668 3.08860627653 0.60237944534 -0.38702592520 3.08114666868 0.63376624926 -0.56613457012 3.03391081081 0.63126469440 -0.55591081214 3.02656666649 0.62940619299 -0.54542494506 3.01903776187 0.62818978495 -0.53475095842 3.01137780675 0.62761451025 -0.52396284175 3.00364051090 0.62767940881 -0.51313458459 2.99587958413 0.62838352057 -0.50234017649 2.98814873622 0.62972588548 -0.49165360697 2.98050167697 0.63170554348 -0.48114886559 2.97299211617 0.63432153450 -0.47089994187 2.96567376360 0.62910830557 -0.55680718974 3.04687279917 0.62661702160 -0.54659130696 3.03951502760 0.62476781335 -0.53611343458 3.03197347468 0.62355988674 -0.52544759433 3.02430162948 0.62299244768 -0.51466780798 3.01655298109 0.62306470208 -0.50384809729 3.00878101858 0.62377585587 -0.49306248399 3.00103923104 0.62512511497 -0.48238498986 2.99338110755 0.62711168528 -0.47188963664 2.98586013719 0.62973477274 -0.46165044609 2.97852980903 0.62322919987 -0.54745948005 3.05981134000 0.62074385139 -0.53725087588 3.05244004448 0.61890088597 -0.52678066392 3.04488560865 0.61769964287 -0.51612285963 3.03720140673 0.61713946130 -0.50535147849 3.02944081292 0.61721968051 -0.49454053597 3.02165720145 0.61793963971 -0.48376404755 3.01390394653 0.61929867815 -0.47309602869 3.00623442238 0.62129613506 -0.46261049487 2.99870200322 0.62393134967 -0.45238146157 2.99136006325 0.61613425015 -0.53809075573 3.07272511165 0.61365153371 -0.52788884163 3.06534044373 0.61181250781 -0.51742592066 3.05777300577 0.61061661452 -0.50677597124 3.05007614296 0.61006329593 -0.49601297174 3.04230320049 0.61015199412 -0.48521090056 3.03450752356 0.61088215119 -0.47444373610 3.02674245735 0.61225320922 -0.46378545674 3.01906134705 0.61426461029 -0.45331004089 3.01151753786 0.61691579650 -0.44309146693 3.00416437495 0.60782877439 -0.52870033150 3.08561279246 0.60534641855 -0.51850452693 3.07821495194 0.60350977581 -0.50804849238 3.07063450800 0.60231836285 -0.49740614606 3.06292484265 0.60177169634 -0.48665140617 3.05513933789 0.60186929297 -0.47585819095 3.04733137571 0.60261066942 -0.46510041859 3.03955433812 0.60399534236 -0.45445200731 3.03186160712 0.60602282847 -0.44398687532 3.02430656470 0.60869264443 -0.43377894083 3.01694259286 0.59831809058 -0.51928752204 3.09847306078 0.59583485586 -0.50909725452 3.09106229570 0.59399978694 -0.49864766663 3.08346895731 0.59281244903 -0.48801260100 3.07574651026 0.59227240735 -0.47726590027 3.06794841918 0.59237922711 -0.46648140705 3.06012814871 0.59313247350 -0.45573296397 3.05233916349 0.59453171176 -0.44509441367 3.04463492815 0.59657650708 -0.43463959876 3.03706890734 0.59926642468 -0.42444236189 3.02969456569 0.58760751669 -0.50985164207 3.11130459496 0.58512319560 -0.49966634713 3.10388120162 0.58328963816 -0.48922273099 3.09627519568 0.58210643425 -0.47859455299 3.08854015026 0.58157317375 -0.46785557247 3.08072963846 0.58168944656 -0.45707954876 3.07289723336 0.58245484255 -0.44634024120 3.06509650808 0.58386895160 -0.43571140912 3.05738103572 0.58593136361 -0.42526681185 3.04980438938 0.58864166845 -0.41508020875 3.04242014215 0.57570237072 -0.50039200627 3.12410607334 0.57321778774 -0.49021112749 3.11667039628 0.57138642642 -0.47977297303 3.10905206509 0.57020787966 -0.46915121894 3.10130476713 0.56968174034 -0.45841954125 3.09348218980 0.56980760138 -0.44765161599 3.08563802048 0.57058505566 -0.43692111921 3.07782594655 0.57201369608 -0.42630172693 3.07009965540 0.57409311555 -0.41586711520 3.06251283440 0.57682290695 -0.40569096004 3.05511917094 0.56260797063 -0.49090792935 3.13687617426 0.56012498224 -0.48073091832 3.12942860629 0.55829724869 -0.47029768032 3.12179840749 0.55712434643 -0.45968181575 3.11403936533 0.55660585192 -0.44895692506 3.10620526730 0.55674134161 -0.43819660865 3.09834990087 0.55753039194 -0.42747446696 3.09052705352 0.55897257938 -0.41686410041 3.08279051274 0.56106748037 -0.40643910942 3.07519406601 0.56381467137 -0.39627309441 3.06779150080 0.54832963443 -0.48139872601 3.14961357607 0.54585112907 -0.47122504237 3.14215455824 0.54402920192 -0.46079614042 3.13451306487 0.54286339574 -0.45018556035 3.12674294933 0.54235325328 -0.43946684236 3.11889806503 0.54249831729 -0.42871352665 3.11103226533 0.54329813051 -0.41799915341 3.10319940364 0.54475223569 -0.40739726283 3.09545333333 0.54686017558 -0.39698139513 3.08784790780 0.54962149294 -0.38682509048 3.08043698042 0.58310082118 -0.56480633746 3.03265729784 0.57522648170 -0.55498266462 3.02553598399 0.56933671959 -0.54482589996 3.01818108444 0.56543076938 -0.53442983044 3.01066325083 0.56350786559 -0.52388824297 3.00305313479 0.56356724273 -0.51329492449 2.99542138796 0.56560813532 -0.50274366193 2.98783866197 0.56962977787 -0.49232824222 2.98037560845 0.57563140491 -0.48214245230 2.97310287906 0.58361225095 -0.47228007908 2.96609112541 0.57846930761 -0.55544470426 3.04560760867 0.57060843341 -0.54562430774 3.03846986761 0.56473076208 -0.53547261600 3.03109958190 0.56083559758 -0.52508330209 3.02356735892 0.55892224388 -0.51455003908 3.01594380601 0.55899000494 -0.50396650003 3.00829953054 0.56103818470 -0.49342635801 3.00070513986 0.56506608714 -0.48302328607 2.99323124133 0.57107301620 -0.47285095728 2.98594844231 0.57905827586 -0.46300304470 2.97892735017 0.57252395966 -0.54606186084 3.05853102470 0.56466236433 -0.53624388009 3.05137698935 0.55878640659 -0.52609659938 3.04399124946 0.55489540589 -0.51571357180 3.03644444239 0.55298868166 -0.50518835044 3.02880720550 0.55306555335 -0.49461448839 3.02115017615 0.55512534040 -0.48408553876 3.01354399170 0.55916736226 -0.47369505463 3.00605928949 0.56519093836 -0.46353658909 2.99876670690 0.57319538815 -0.45370369523 2.99173688128 0.56529217875 -0.53665745537 3.07142670412 0.55741904260 -0.52684111632 3.06425658053 0.55153689506 -0.51669761161 3.05685545186 0.54764502647 -0.50632037524 3.04929403864 0.54574272716 -0.49580284123 3.04164306139 0.54582928748 -0.48523844357 3.03397324062 0.54790399777 -0.47472061628 3.02635529685 0.55196614836 -0.46434279337 3.01885995059 0.55801502960 -0.45419840883 3.01155792236 0.56604993183 -0.44438089669 3.00451993268 0.55680136635 -0.52723113603 3.08429380510 0.54890923639 -0.51741575112 3.07710787243 0.54301546944 -0.50727541422 3.06969155384 0.53911929151 -0.49690344813 3.06211568506 0.53721992864 -0.48639317565 3.05445110180 0.53731660684 -0.47583791957 3.04676863977 0.53940855214 -0.46533100268 3.03913913469 0.54349499057 -0.45496574777 3.03163342227 0.54957514815 -0.44483547763 3.02432233824 0.55764825090 -0.43503351506 3.01727671831 0.54707892389 -0.51778255099 3.09713148580 0.53916371384 -0.50796751913 3.08993009636 0.53325537166 -0.49782976871 3.08249892016 0.52935303320 -0.48746252616 3.07490891905 0.52745583433 -0.47695901791 3.06723105485 0.52756291093 -0.46641247040 3.05953628941 0.52967339887 -0.45591611005 3.05189558458 0.53378643401 -0.44556316330 3.04437990219 0.53990115223 -0.43544685659 3.03706020409 0.54801668939 -0.42566041634 3.03000745211 0.53615225282 -0.50831134841 3.10993890439 0.52821324311 -0.49849615504 3.10272248362 0.52228984365 -0.48836043661 3.09527691556 0.51838108369 -0.47799734502 3.08767327799 0.51648599248 -0.46750003220 3.07998264867 0.51660359927 -0.45696165005 3.07227610539 0.51873293330 -0.44647535050 3.06462472590 0.52287302381 -0.43613428545 3.05709958800 0.52902290006 -0.42603160683 3.04977176944 0.53718159130 -0.41626046654 3.04271234800 0.52404875458 -0.49881717647 3.12271521904 0.51608859234 -0.48900139352 3.11548426550 0.51015212736 -0.47886717943 3.10802490478 0.50623827519 -0.46850764042 3.10040829928 0.50434595134 -0.45801588271 3.09270561139 0.50447407136 -0.44748501254 3.08498800351 0.50662155077 -0.43700813612 3.07732663803 0.51078730510 -0.42667835969 3.06979267734 0.51697024988 -0.41658878945 3.06245728385 0.52516930064 -0.40683253165 3.05539161994 0.51079583062 -0.48929968333 3.13545958793 0.50282052968 -0.47948296922 3.12821467331 0.49687546473 -0.46934975868 3.12074225257 0.49295943986 -0.45899314804 3.11311352032 0.49107125915 -0.44850623365 3.10539967113 0.49120972671 -0.43798211187 3.09767189961 0.49337364663 -0.42751387903 3.09000140033 0.49756182299 -0.41719463148 3.08245936788 0.50377305989 -0.40711746558 3.07511699686 0.51200616143 -0.39737547767 3.06804548185 0.49642088239 -0.47975851716 3.14817116922 0.48843982330 -0.46994061683 3.14091293833 0.48249309769 -0.45980793588 3.13342832368 0.47857940988 -0.44945360359 3.12578847850 0.47669746415 -0.43897074922 3.11806455603 0.47684596483 -0.42845250204 3.11032770950 0.47902361622 -0.41799199131 3.10264909217 0.48322912262 -0.40768234632 3.09509985726 0.48946118833 -0.39761669632 3.08775115801 0.49771851767 -0.38788817059 3.08067414767 0.53499615377 -0.56220489456 3.03050861139 0.52099545673 -0.55316430529 3.02388928530 0.51050781170 -0.54364781942 3.01693222799 0.50353305229 -0.53378934240 3.00974093262 0.50007101210 -0.52372277966 3.00241889235 0.50012152475 -0.51358203663 2.99506960036 0.50368442385 -0.50350101876 2.98779654981 0.51075954302 -0.49361363148 2.98070323388 0.52134671586 -0.48405378023 2.97389314572 0.53544577598 -0.47495537044 2.96746977851 0.53038855108 -0.55280676071 3.04344457554 0.51640334397 -0.54376087119 3.03680620685 0.50593048882 -0.53424357973 3.02983079403 0.49896947638 -0.52438848121 3.02262215725 0.49551979741 -0.51432917052 3.01528411671 0.49558094267 -0.50419924255 3.00792049258 0.49915240292 -0.49413229216 3.00063510506 0.50623366892 -0.48426191425 2.99353177431 0.51682423143 -0.47472170370 2.98671432054 0.53092358121 -0.46564525539 2.98028656393 0.52437945008 -0.54338719310 3.05634972512 0.51038440153 -0.53433547575 3.04969207525 0.49990752102 -0.52481666652 3.04269837672 0.49294792947 -0.51496413991 3.03547271555 0.48950474780 -0.50491127044 3.02811917777 0.48957709693 -0.49479143259 3.02074184940 0.49316409778 -0.48473800088 3.01344481648 0.50026487127 -0.47488434980 3.00633216503 0.51087853833 -0.46536385386 2.99950798108 0.52500421987 -0.45630988757 2.99307635065 0.51701722121 -0.53394615963 3.06922387262 0.50299304562 -0.52488821736 3.06254689815 0.49249778835 -0.51536727822 3.05553515689 0.48553018898 -0.50551657958 3.04829293621 0.48208898713 -0.49546935881 3.04092452346 0.48217292241 -0.48535885327 3.03353420602 0.48578073442 -0.47531830033 3.02622627123 0.49291116278 -0.46548093738 3.01910500646 0.50356294709 -0.45598000176 3.01227469909 0.51773482696 -0.44694873086 3.00583963646 0.50835023491 -0.52448362815 3.08206683054 0.49428369248 -0.51541919441 3.07537068320 0.48376017084 -0.50589561327 3.06834131538 0.47677803232 -0.49604606130 3.06108314794 0.47333563925 -0.48600371505 3.05370060173 0.47343135398 -0.47590175108 3.04629809760 0.47706353883 -0.46587334596 3.03898005642 0.48423055614 -0.45605167622 3.03185089905 0.49493076824 -0.44656991845 3.02501504633 0.50916253747 -0.43756124918 3.01857691913 0.49842686164 -0.51499956657 3.09487841137 0.48431075833 -0.50592850527 3.08816343805 0.47375354855 -0.49640187008 3.08111703302 0.46675323691 -0.48655284614 3.07384367944 0.46330782803 -0.47651461858 3.06644786049 0.46341532651 -0.46642037254 3.05903405935 0.46707373698 -0.45640329316 3.05170675920 0.47428106404 -0.44659656559 3.04457044322 0.48503531230 -0.43713337496 3.03772959457 0.49933448638 -0.42814690641 3.03128869643 0.48729547183 -0.50549394274 3.10765842761 0.47312865938 -0.49641624834 3.10092517036 0.46253680151 -0.48688624710 3.09386249063 0.45551758016 -0.47703719518 3.08657485941 0.45206867731 -0.46700234880 3.07916674769 0.45218777489 -0.45691496414 3.07174262646 0.45587255486 -0.44690829738 3.06440696670 0.46312069918 -0.43711560472 3.05726423940 0.47392988980 -0.42767014235 3.05041891555 0.48829780868 -0.41870516646 3.04397546614 0.47500443594 -0.49596672456 3.12040669174 0.46079181187 -0.48688252200 3.11365588776 0.45016880977 -0.47734894273 3.10657786905 0.44313283950 -0.46749936951 3.09927701656 0.43968131094 -0.45746718514 3.09185771126 0.43981163397 -0.44738577238 3.08442433410 0.44352121845 -0.43738851403 3.07708126604 0.45080747427 -0.42760879287 3.06993288804 0.46166781128 -0.41817999167 3.06308358105 0.47609963937 -0.40923549323 3.05663772604 0.46160212439 -0.48641787989 3.13312301626 0.44735463202 -0.47732742464 3.12635559791 0.43670845337 -0.46779015541 3.11926334911 0.42966079234 -0.45793963020 3.11195047959 0.42620885280 -0.44790940699 3.10452119913 0.42634983864 -0.43783304378 3.09707971747 0.43008095374 -0.42784409854 3.08973024436 0.43739940199 -0.41807612927 3.08257698956 0.44830238726 -0.40866269397 3.07572416282 0.46278711344 -0.39973735061 3.06927597389 0.44713690765 -0.47684737663 3.14580721366 0.43287153605 -0.46775105464 3.13902430847 0.42221461236 -0.45821008358 3.13191911163 0.41516321609 -0.44835823833 3.12459557721 0.41171442673 -0.43832929379 3.11715765924 0.41186532377 -0.42825702482 3.10970931175 0.41561298671 -0.41827520633 3.10235448879 0.42295449504 -0.40851761318 3.09519714439 0.43388692826 -0.39911802028 3.08834123261 0.44840736588 -0.39021020250 3.08189070747 0.49115096075 -0.55833441221 3.02747614840 0.46976829755 -0.55045640409 3.02163953062 0.45373921748 -0.54188940282 3.01530489424 0.44306474853 -0.53282735738 3.00862483311 0.43774591871 -0.52346421675 3.00175194109 0.43778375603 -0.51399392992 2.99483881203 0.44317928850 -0.50461044588 2.98803803980 0.45393354413 -0.49550771360 2.98150221825 0.47004755091 -0.48687968208 2.97538394123 0.49152233686 -0.47892030029 2.96983580260 0.48656349580 -0.54889770687 3.04039434955 0.46519684244 -0.54100039364 3.03453615136 0.44918516878 -0.53242259930 3.02817983766 0.43852831932 -0.52335772573 3.02147892591 0.43322613859 -0.51399917479 3.01458693354 0.43327847111 -0.50454034833 3.00765737801 0.43868516140 -0.49517464823 3.00084377676 0.44944605397 -0.48609547636 2.99429964726 0.46556099335 -0.47749623456 2.98817850694 0.48702982406 -0.46957032472 2.98263387326 0.48049504274 -0.53944029936 3.05327743816 0.45910576364 -0.53152442138 3.04739648954 0.44308242186 -0.52293554639 3.04101864000 0.43242374989 -0.51386680300 3.03429799652 0.42712848022 -0.50451131983 3.02738866606 0.42719534531 -0.49506222550 3.02044475558 0.43262307766 -0.48571264864 3.01362037206 0.44341040973 -0.47665571787 3.00706962246 0.45955607402 -0.46808456181 3.00094661376 0.48105880299 -0.46019230908 2.99540545291 0.47301309170 -0.52996242630 3.06612608072 0.45157184480 -0.52202882556 3.06022166252 0.43551465079 -0.51342875422 3.05382266154 0.42483922050 -0.50435530126 3.04708348079 0.41954326471 -0.49500155567 3.04015852328 0.41962449424 -0.48556060643 3.03320219201 0.42508061988 -0.47622554253 3.02636889000 0.43590935243 -0.46718945295 3.01981302026 0.45210840271 -0.45864542669 3.01368898578 0.47367548151 -0.45078655272 3.00815118958 0.46418513277 -0.52046432429 3.07894094373 0.44267186959 -0.51251394440 3.07301278768 0.42656552966 -0.50390273294 3.06659326257 0.41586291140 -0.49482393262 3.05983681457 0.41056081320 -0.48547078611 3.05289788985 0.41065603348 -0.47603653611 3.04593093457 0.41614537064 -0.46671442531 3.03909039491 0.42702562309 -0.45769769640 3.03253071703 0.44329358924 -0.44917959207 3.02640634711 0.46494606748 -0.44135335501 3.02087173130 0.45407865606 -0.51094622996 3.09172269367 0.43248262167 -0.50298011611 3.08577098238 0.41631873253 -0.49435799269 3.07933180337 0.40558300284 -0.48527340914 3.07255943369 0.40027144681 -0.47591991494 3.06560815039 0.40038007865 -0.46649105955 3.05863223051 0.40590491255 -0.45718039242 3.05178595110 0.41684196273 -0.44818146303 3.04522358920 0.43318724340 -0.43968782082 3.03909942185 0.45493676874 -0.43189301527 3.03356772610 0.44276115168 -0.50140837992 3.10447199705 0.42108088472 -0.49342767893 3.09849736400 0.40485793348 -0.48479504359 3.09203964424 0.39408767510 -0.47570444292 3.08525277401 0.38876548668 -0.46634984596 3.07829068955 0.38888674534 -0.45692522174 3.07130732710 0.39444682820 -0.44762453929 3.06445662288 0.40544111238 -0.43864176764 3.05789251314 0.42186497500 -0.43017087583 3.05176893411 0.44371379316 -0.42240583288 3.04623982203 0.43030010974 -0.49185101078 3.11718952035 0.40854344238 -0.48385697108 3.11119304991 0.39226680659 -0.47521439578 3.10471814547 0.38146510842 -0.46611774603 3.09791827138 0.37613325392 -0.45676148295 3.09094689197 0.37626614916 -0.44734006767 3.08395747158 0.38185870019 -0.43804796133 3.07710347456 0.39290581306 -0.42907962504 3.07053836525 0.40940239385 -0.42062951994 3.06441560798 0.43134334859 -0.41289210716 3.05888866710 0.41676302034 -0.48227435916 3.12987593006 0.39494707834 -0.47426833077 3.12385915747 0.37862902593 -0.46561655941 3.11736866734 0.36780348306 -0.45651403057 3.11055736162 0.36246506967 -0.44715572972 3.10357814227 0.36260840570 -0.43773664236 3.09658391124 0.36822811110 -0.42845175397 3.08972757047 0.37931880580 -0.41949605004 3.08316202194 0.39587510974 -0.41106451604 3.07704016758 0.41789164288 -0.40335213748 3.07151490937 0.40221737360 -0.47267866166 3.14253189267 0.38036857625 -0.46466209624 3.13649680406 0.36402826558 -0.45600204461 3.12999257015 0.35319097929 -0.44689400861 3.12317148060 0.34785125506 -0.43753349006 3.11618582510 0.34800363058 -0.42811599079 3.10918789331 0.35364264353 -0.41883701264 3.10232997492 0.36476283161 -0.40989205743 3.09576435960 0.38135873250 -0.40147662700 3.08964333701 0.40342488388 -0.39378622318 3.08411919685 0.45326395587 -0.55319906124 3.02357130583 0.42274168220 -0.54685963098 3.01879968014 0.39985068507 -0.53954934954 3.01331278491 0.38459397296 -0.53154173844 3.00732893330 0.37697455436 -0.52311031918 3.00106643850 0.37699543774 -0.51452861326 2.99474361367 0.38465963160 -0.50607014218 2.98857877197 0.39997014441 -0.49800842744 2.98279022658 0.42292998466 -0.49061699055 2.97759629066 0.45354216084 -0.48416935301 2.97321527739 0.44869160161 -0.54372189053 3.03646758047 0.41818401796 -0.53734227143 3.03167180715 0.39531297714 -0.53000594826 3.02615943942 0.38007892260 -0.52198562968 3.02015056630 0.37248229778 -0.51355402435 3.01386527685 0.37252354610 -0.50498384091 3.00752366011 0.38020311102 -0.49654778802 3.00134580513 0.39552143596 -0.48851857434 2.99555180094 0.41847896437 -0.48116890852 2.99036173659 0.44907613969 -0.47477149922 2.98599570113 0.44257010928 -0.53422600213 3.04932416075 0.41202225129 -0.52780947551 3.04450141956 0.38912930169 -0.52044792003 3.03896368888 0.37388940342 -0.51241380006 3.03293205561 0.36630069940 -0.50397957995 3.02662760670 0.36636133257 -0.49541772407 3.02027142905 0.37406944585 -0.48700069680 3.01408460960 0.38942318217 -0.47900096250 3.00828823526 0.41242068447 -0.47169098553 3.00310339295 0.44306009567 -0.46534323027 2.99875116961 0.43498350442 -0.52471181319 3.06214279201 0.40435374214 -0.51826162175 3.05729113954 0.38140694555 -0.51087587334 3.05172850646 0.36613923948 -0.50282725730 3.04567631750 0.35854674879 -0.49438846301 3.03935599740 0.35862559829 -0.48583217983 3.03298897089 0.36637191284 -0.47743109713 3.02679666269 0.38178181727 -0.46945790427 3.02100049754 0.40485143641 -0.46218529062 3.01582190017 0.43557689511 -0.45588594553 3.01148229532 0.42601581260 -0.51517974088 3.07492521960 0.39527585047 -0.50869908868 3.07004358927 0.37225319555 -0.50129041665 3.06445686535 0.35694225487 -0.49322700916 3.05838626824 0.34933743549 -0.48478215057 3.05205301833 0.34943314443 -0.47622912528 3.04567833602 0.35722378874 -0.46784121764 3.03948344172 0.37270377547 -0.45989171202 3.03368955582 0.39586751164 -0.45265389280 3.02851789871 0.42670940431 -0.44640104436 3.02418969080 0.41575105937 -0.50563020237 3.08767318886 0.38488593624 -0.49912225482 3.08276139093 0.36177533853 -0.49169215845 3.07715173872 0.34641227367 -0.48361406336 3.07106482408 0.33878974906 -0.47516211967 3.06472123884 0.33890077214 -0.46661047749 3.05834157487 0.34673835031 -0.45823328693 3.05214642400 0.36229549100 -0.45030469811 3.04635637810 0.38556520162 -0.44309886113 3.04119202900 0.41654048960 -0.43688992611 3.03687396856 0.40427327030 -0.49606361481 3.10038844514 0.37328135941 -0.48953149870 3.09544716672 0.35008066133 -0.48208170721 3.08981609976 0.33466311994 -0.47398942765 3.08371490129 0.32702067906 -0.46552984733 3.07736322831 0.32714528257 -0.45697815355 3.07098073783 0.33502887429 -0.44860953364 3.06478708686 0.35066339809 -0.44069917490 3.05900193241 0.37404079781 -0.43352226463 3.05384493150 0.40515301730 -0.42735399016 3.04953574112 0.39166647095 -0.48648039538 3.11307273378 0.36055947992 -0.47992719886 3.10810353879 0.33727645079 -0.47245967142 3.10245292164 0.32180861776 -0.46435410977 3.09633941613 0.31414721505 -0.45588681058 3.08998155609 0.31428347688 -0.44733407056 3.08359787531 0.32220863744 -0.43897218638 3.07740690760 0.33791393096 -0.43107745475 3.07162718677 0.36139059165 -0.42392617234 3.06647724664 0.39262985373 -0.41779463585 3.06217562101 0.37801468686 -0.47688096123 3.12572780013 0.34681765774 -0.47030973381 3.12073312935 0.32346999373 -0.46282665956 3.11506517754 0.30796259122 -0.45470911745 3.10894128488 0.30028634658 -0.44623448647 3.10257879155 0.30043215622 -0.43768014559 3.09619503771 0.30839091651 -0.42932347378 3.09000736354 0.32415352385 -0.42144185002 3.08423310920 0.34771087461 -0.41431265329 3.07908961488 0.37905386520 -0.40821326255 3.07479422073 0.36340194362 -0.46726572952 3.13835538954 0.33215325283 -0.46067948208 3.13333856056 0.30876857700 -0.45318328009 3.12765584064 0.29323886438 -0.44505545844 3.12152342379 0.28555506321 -0.43657435202 3.11515750405 0.28570812175 -0.42801829573 3.10877427545 0.29368898826 -0.41966562445 3.10258993199 0.30948861097 -0.41179467308 3.09682066772 0.33309793814 -0.40468377651 3.09168267665 0.36450791803 -0.39861126963 3.08739215282 </DataArray>
</Points>
</Piece>
</StructuredGrid>
</VTKFile>
