<?xml version="1.0"?>
<VTKFile type="StructuredGrid" version="0.1">
<StructuredGrid WholeExtent="0 9 0 9 0 9">
<Piece Extent="0 9 0 9 0 9">
<PointData>
<DataArray type="Float32" Name="Deformation" format="ascii" NumberOfComponents="3">
0.00037535409 0.06717263583 0.01236856751 0.00036605342 0.06684085293 0.01239715473 0.00035980475 0.06647697964 0.01242610839 0.00035765912 0.06609008537 0.01246122771 0.00036066755 0.06568923956 0.01250831193 0.00036988108 0.06528351163 0.01257316030 0.00038635073 0.06488197099 0.01266157205 0.00041112753 0.06449368708 0.01277934641 0.00044526252 0.06412772932 0.01293228262 0.00048980673 0.06379316713 0.01312617993 0.00040946929 0.06702002207 0.01211298730 0.00040319172 0.06673220214 0.01214787331 0.00040095589 0.06640394511 0.01217921160 0.00040342261 0.06604636964 0.01221111222 0.00041125269 0.06567059436 0.01224768519 0.00042510696 0.06528773790 0.01229304055 0.00044564622 0.06490891891 0.01235128831 0.00047353129 0.06454525601 0.01242653853 0.00050942297 0.06420786784 0.01252290121 0.00055398210 0.06390787305 0.01264448640 0.00043023856 0.06688955157 0.01179574233 0.00042792244 0.06663566243 0.01183734949 0.00042993217 0.06633675818 0.01187215473 0.00043665405 0.06600495296 0.01190288754 0.00044847437 0.06565236091 0.01193227739 0.00046577943 0.06529109616 0.01196305376 0.00048895553 0.06493327284 0.01199794612 0.00051838895 0.06459100510 0.01203968396 0.00055446601 0.06427640707 0.01209099676 0.00059757298 0.06400159288 0.01215461399 0.00043926661 0.06677988746 0.01142893014 0.00044149674 0.06655131542 0.01147757718 0.00044783301 0.06627618382 0.01151671362 0.00045847421 0.06596675533 0.01154796985 0.00047361915 0.06563529265 0.01157297626 0.00049346662 0.06529405843 0.01159336325 0.00051821543 0.06495531536 0.01161076120 0.00054806437 0.06463132611 0.01162680051 0.00058321225 0.06433435335 0.01164311158 0.00062385786 0.06407665977 0.01166132478 0.00043815817 0.06668969290 0.01102464831 0.00044516580 0.06647924270 0.01108055028 0.00045575781 0.06622298698 0.01112466408 0.00047000386 0.06593269675 0.01115777530 0.00048797359 0.06562014301 0.01118066952 0.00050973665 0.06529709677 0.01119413232 0.00053536270 0.06497532902 0.01119894927 0.00056492137 0.06466661079 0.01119590597 0.00059848232 0.06438271307 0.01118578798 0.00063611520 0.06413540687 0.01116938089 0.00042851793 0.06661763100 0.01059499440 0.00044018077 0.06641952588 0.01065826268 0.00045480599 0.06617793265 0.01070778196 0.00047236377 0.06590369722 0.01074372008 0.00049282427 0.06560766544 0.01076624491 0.00051615766 0.06530068321 0.01077552429 0.00054233411 0.06499359641 0.01077172608 0.00057132378 0.06469725090 0.01075501812 0.00060309684 0.06442249257 0.01072556829 0.00063762347 0.06418016731 0.01068354442 0.00041195062 0.06656236493 0.01015206597 0.00042779283 0.06637224655 0.01022270830 0.00044607697 0.06614178580 0.01027784309 0.00046667472 0.06588067673 0.01031722036 0.00048945776 0.06559861338 0.01034059015 0.00051429777 0.06530528981 0.01034770246 0.00054106643 0.06501040007 0.01033830733 0.00056963543 0.06472363819 0.01031215477 0.00059987645 0.06445469824 0.01026899481 0.00063166116 0.06421327424 0.01020857747 0.00039006094 0.06652255781 0.00970796057 0.00040925314 0.06633748631 0.00978588101 0.00043067014 0.06611531138 0.00984662330 0.00045405746 0.06586455528 0.00988969232 0.00047916061 0.06559374027 0.00991459297 0.00050572510 0.06531138862 0.00992083016 0.00053349645 0.06502602258 0.00990790877 0.00056222017 0.06474616443 0.00987533370 0.00059164176 0.06448033642 0.00982260986 0.00062150674 0.06423706082 0.00974924214 0.00036445362 0.06649687278 0.00927477577 0.00038581287 0.06631532677 0.00935977474 0.00040968492 0.06609927438 0.00942589842 0.00043563277 0.06585625288 0.00947255212 0.00046321940 0.06559379955 0.00949914110 0.00049200779 0.06531945166 0.00950507067 0.00052156094 0.06504074650 0.00948974611 0.00055144181 0.06476522135 0.00945257271 0.00058121340 0.06450041348 0.00939295576 0.00061043869 0.06425386018 0.00931030055 0.00033673337 0.06648397298 0.00886460913 0.00035872318 0.06630584953 0.00895638337 0.00038422073 0.06609443977 0.00902744430 0.00041252142 0.06585668952 0.00907721593 0.00044292070 0.06559954465 0.00910512227 0.00047471397 0.06532995100 0.00911058733 0.00050719666 0.06505485441 0.00909303510 0.00053966419 0.06478120072 0.00905188960 0.00057141199 0.06451593579 0.00898657482 0.00060173547 0.06426600547 0.00889651479 0.00042494585 0.06729172145 0.01226421833 0.00043328019 0.06690493691 0.01237185468 0.00044330720 0.06650393259 0.01246456808 0.00045560227 0.06609402865 0.01254809733 0.00047074081 0.06568054526 0.01262818125 0.00048929821 0.06526880259 0.01271055866 0.00051184987 0.06486412081 0.01280096837 0.00053897118 0.06447182007 0.01290514919 0.00057123756 0.06409722055 0.01302883994 0.00060922438 0.06374564241 0.01317777942 0.00043987794 0.06713833480 0.01201358407 0.00045010697 0.06679412673 0.01209351844 0.00046249238 0.06642744048 0.01216193741 0.00047742926 0.06604530369 0.01222285351 0.00049531272 0.06565474399 0.01228027925 0.00051653789 0.06526278901 0.01233822718 0.00054149985 0.06487646639 0.01240070982 0.00057059373 0.06450280376 0.01247173970 0.00060421463 0.06414882877 0.01255532934 0.00064275766 0.06382156903 0.01265549128 0.00044550768 0.06700885853 0.01169988328 0.00045804608 0.06669775540 0.01176134246 0.00047294750 0.06635903906 0.01181328094 0.00049045523 0.06600065218 0.01185835310 0.00051081255 0.06563053741 0.01189921333 0.00053426277 0.06525663741 0.01193851600 0.00056104918 0.06488689484 0.01197891550 0.00059141507 0.06452925237 0.01202306621 0.00062560373 0.06419165265 0.01207362251 0.00066385846 0.06388203833 0.01213323877 0.00044294839 0.06690145980 0.01133515146 0.00045807499 0.06661527275 0.01138588182 0.00047558642 0.06629889029 0.01142791401 0.00049559592 0.06596053012 0.01146286743 0.00051821671 0.06560840995 0.01149236149 0.00054356204 0.06525074748 0.01151801561 0.00057174514 0.06489576041 0.01154144918 0.00060287923 0.06455166643 0.01156428161 0.00063707757 0.06422668325 0.01158813231 0.00067445337 0.06392902856 0.01161462068 0.00043331337 0.06681430573 0.01093142414 0.00045117117 0.06654612859 0.01097769162 0.00047132300 0.06624715612 0.01101515196 0.00049376708 0.06592539354 0.01104466780 0.00051850164 0.06558884607 0.01106710176 0.00054552487 0.06524551893 0.01108331649 0.00057483501 0.06490341732 0.01109417463 0.00060643027 0.06457054648 0.01110053879 0.00064030886 0.06425491162 0.01110327163 0.00067646900 0.06396451795 0.01110323578 0.00041771595 0.06674556346 0.01050073682 0.00043831208 0.06648977276 0.01054732695 0.00046107108 0.06620399853 0.01058431015 0.00048588445 0.06589569846 0.01061202552 0.00051264374 0.06557233020 0.01063081215 0.00054124044 0.06524135143 0.01064100915 0.00057156610 0.06491021983 0.01064295562 0.00060351222 0.06458639307 0.01063699066 0.00063697033 0.06427732881 0.01062345337 0.00067183195 0.06399048473 0.01060268284 0.00039726943 0.06669340012 0.01005512502 0.00042047521 0.06644565507 0.01010534290 0.00044574451 0.06616957949 0.01014470391 0.00047286378 0.06587190088 0.01017321189 0.00050161944 0.06555934678 0.01019087067 0.00053179793 0.06523864471 0.01019768408 0.00056318568 0.06491652218 0.01019365595 0.00059556912 0.06459970673 0.01017879011 0.00062873469 0.06429492588 0.01015309040 0.00066246883 0.06400890714 0.01011656064 0.00037308713 0.06665598285 0.00960662425 0.00039863802 0.06641322536 0.00966229455 0.00042625716 0.06614406094 0.00970564860 0.00045562079 0.06585445683 0.00973649824 0.00048640516 0.06555038025 0.00975465534 0.00051828650 0.06523779843 0.00975993177 0.00055094104 0.06492267861 0.00975213938 0.00058404501 0.06461098802 0.00973109004 0.00061727467 0.06430869388 0.00969659560 0.00065030623 0.06402176343 0.00964846793 0.00034628236 0.06663147878 0.00916727003 0.00037377797 0.06639193344 0.00922873701 0.00040352286 0.06612760487 0.00927645955 0.00043507125 0.06584382232 0.00931015587 0.00046797733 0.06554591505 0.00932954418 0.00050179533 0.06523921231 0.00933434271 0.00053607947 0.06492904336 0.00932426969 0.00057038394 0.06462073746 0.00929904333 0.00060426297 0.06431962386 0.00925838186 0.00063727077 0.06403103182 0.00920200351 0.00031796844 0.06661805505 0.00874909786 0.00034687256 0.06638122914 0.00881522537 0.00037845549 0.06612037323 0.00886645213 0.00041213088 0.06584045337 0.00890245609 0.00044731237 0.06554643562 0.00892291520 0.00048341361 0.06524328604 0.00892750740 0.00051984826 0.06493597068 0.00891591065 0.00055602994 0.06462945561 0.00888780289 0.00059137232 0.06432870688 0.00884286207 0.00062528904 0.06403869055 0.00878076614 0.00046572388 0.06735089498 0.01212526742 0.00048838527 0.06692105271 0.01229852497 0.00051153370 0.06649080233 0.01244439321 0.00053542907 0.06606262879 0.01256872104 0.00056033128 0.06563901706 0.01267735737 0.00058650024 0.06522245209 0.01277615111 0.00061419585 0.06481541885 0.01287095117 0.00064367802 0.06442040229 0.01296760645 0.00067520664 0.06403988738 0.01307196587 0.00070904163 0.06367635908 0.01318987833 0.00046636602 0.06719710018 0.01187929622 0.00048962220 0.06680902400 0.01199740703 0.00051357519 0.06641218300 0.01209730685 0.00053843249 0.06601054969 0.01218303647 0.00056440155 0.06560809658 0.01225863670 0.00059168986 0.06520879620 0.01232814833 0.00062050489 0.06481662104 0.01239561215 0.00065105413 0.06443554363 0.01246506896 0.00068354504 0.06406953649 0.01254055954 0.00071818511 0.06372257211 0.01262612471 0.00046055441 0.06706909170 0.01156968001 0.00048458987 0.06671357043 0.01164873728 0.00050954238 0.06634363750 0.01171579559 0.00053554377 0.06596414028 0.01177350946 0.00056272593 0.06557992615 0.01182453337 0.00059122069 0.06519584248 0.01187152186 0.00062115992 0.06481673666 0.01191712941 0.00065267549 0.06444745605 0.01196401054 0.00068589923 0.06409284804 0.01201481976 0.00072096302 0.06375776001 0.01207221157 0.00044906865 0.06696453691 0.01120823931 0.00047406135 0.06663357895 0.01126181869 0.00050019257 0.06628481037 0.01130714076 0.00052750219 0.06592345583 0.01134583700 0.00055603009 0.06555473998 0.01137953888 0.00058581614 0.06518388748 0.01140987788 0.00061690024 0.06481612300 0.01143848547 0.00064932225 0.06445667118 0.01146699312 0.00068312206 0.06411075671 0.01149703231 0.00071833955 0.06378360422 0.01153023451 0.00043268832 0.06688110319 0.01080679464 0.00045880968 0.06656793649 0.01084595420 0.00048628311 0.06623534613 0.01087862365 0.00051504699 0.06588855157 0.01090571611 0.00054503969 0.06553277227 0.01092814472 0.00057619960 0.06517322772 0.01094682259 0.00060846510 0.06481513736 0.01096266285 0.00064177457 0.06446372067 0.01097657861 0.00067606639 0.06412419712 0.01098948301 0.00071127893 0.06380178616 0.01100228916 0.00041219301 0.06681645790 0.01037716653 0.00043960792 0.06651552998 0.01041044676 0.00046857133 0.06619488929 0.01043752556 0.00049891743 0.06585948275 0.01045884381 0.00053048042 0.06551425726 0.01047484239 0.00056309448 0.06516415973 0.01048596219 0.00059659381 0.06481413706 0.01049264407 0.00063081261 0.06446913615 0.01049532894 0.00066558506 0.06413410393 0.01049445766 0.00070074536 0.06381398729 0.01049047111 0.00038836231 0.06676826842 0.00993117549 0.00041722912 0.06647524635 0.00996459933 0.00044781456 0.06616308438 0.00999112781 0.00047985277 0.06583630462 0.01001091710 0.00051307792 0.06549942914 0.01002412339 0.00054722416 0.06515698004 0.01003090286 0.00058202564 0.06481347938 0.01003141167 0.00061721651 0.06447344927 0.01002580601 0.00065253094 0.06414141179 0.01001424205 0.00068770306 0.06382188902 0.00999687598 0.00036197581 0.06673420211 0.00948064205 0.00039244633 0.06644597253 0.00951771485 0.00042477013 0.06613957593 0.00954671169 0.00045859228 0.06581907243 0.00956763300 0.00049355789 0.06548852214 0.00958047922 0.00052931205 0.06515198518 0.00958525079 0.00056549987 0.06481352165 0.00958194815 0.00060176645 0.06447719167 0.00957057174 0.00063775686 0.06414705535 0.00955112200 0.00067311623 0.06382717281 0.00952359937 0.00033381309 0.06671192634 0.00903738673 0.00036603261 0.06642659545 0.00907909629 0.00040019536 0.06612400845 0.00911155852 0.00043587520 0.06580784142 0.00913468852 0.00047264597 0.06548177047 0.00914840137 0.00051008155 0.06514947168 0.00915261219 0.00054775579 0.06481462115 0.00914723605 0.00058524256 0.06448089498 0.00913218806 0.00062211570 0.06415196926 0.00910738331 0.00065794909 0.06383152008 0.00907273690 0.00030465373 0.06669910848 0.00861323006 0.00033876101 0.06641600206 0.00865804659 0.00037484760 0.06611602646 0.00869294960 0.00041244079 0.06580266684 0.00871778066 0.00045106785 0.06547940833 0.00873238135 0.00049025605 0.06514973607 0.00873659323 0.00052953268 0.06481713520 0.00873025789 0.00056842500 0.06448509085 0.00871321688 0.00060646030 0.06415708816 0.00868531178 0.00064316585 0.06383661227 0.00864638416 0.00049968427 0.06735363633 0.01197265562 0.00053338907 0.06689297505 0.01219608188 0.00056657153 0.06644165802 0.01238298499 0.00059929880 0.06600031007 0.01253933381 0.00063163800 0.06556955602 0.01267109722 0.00066365625 0.06515002066 0.01278424411 0.00069542068 0.06474232884 0.01288474334 0.00072699843 0.06434710535 0.01297856379 0.00075845661 0.06396497501 0.01307167434 0.00078986237 0.06359656265 0.01317004386 0.00049010663 0.06720010801 0.01172791659 0.00052304832 0.06678073549 0.01187556954 0.00055561905 0.06636217621 0.01200000742 0.00058790140 0.06594640221 0.01210532462 0.00061997795 0.06553538557 0.01219561555 0.00065193126 0.06513109834 0.01227497458 0.00068384391 0.06473551259 0.01234749612 0.00071579848 0.06435060039 0.01241727454 0.00074787754 0.06397833378 0.01248840424 0.00078016366 0.06362068484 0.01256497960 0.00047594577 0.06707410463 0.01142023146 0.00050830656 0.06668686113 0.01151310752 0.00054058597 0.06629437169 0.01159208578 0.00057283318 0.06589946133 0.01165984273 0.00060509739 0.06550495511 0.01171905487 0.00063742776 0.06511367805 0.01177239870 0.00066987348 0.06472845520 0.01182255070 0.00070248374 0.06435211160 0.01187218737 0.00073530770 0.06398747228 0.01192398520 0.00076839454 0.06363736230 0.01198062069 0.00045777639 0.06697283859 0.01106101844 0.00048978909 0.06660977355 0.01111689138 0.00052209590 0.06623747852 0.01116484678 0.00055467782 0.06585922764 0.01120653306 0.00058751580 0.06547829509 0.01124359866 0.00062059085 0.06509795501 0.01127769199 0.00065388393 0.06472148158 0.01131046147 0.00068737603 0.06435214896 0.01134355554 0.00072104812 0.06399323129 0.01137862262 0.00075488118 0.06364800276 0.01141731112 0.00043617316 0.06689352227 0.01066169574 0.00046812122 0.06654789433 0.01069511667 0.00050077248 0.06619073074 0.01072391714 0.00053401897 0.06582544133 0.01074904057 0.00056775268 0.06545543596 0.01077143038 0.00060186562 0.06508412446 0.01079203000 0.00063624978 0.06471491667 0.01081178284 0.00067079719 0.06435122243 0.01083163232 0.00070539983 0.06399645158 0.01085252186 0.00073994972 0.06365401395 0.01087539488 0.00041171078 0.06683336807 0.01023368158 0.00044392825 0.06649964504 0.01025597893 0.00047723934 0.06615336239 0.01027492356 0.00051144032 0.06579784261 0.01029101019 0.00054632750 0.06543640819 0.01030473352 0.00058169715 0.06507238162 0.01031658829 0.00061734557 0.06470908539 0.01032706920 0.00065306904 0.06434984198 0.01033667097 0.00068866386 0.06399797389 0.01034588832 0.00072392630 0.06365680360 0.01035521596 0.00038496394 0.06678958835 0.00978839418 0.00041783550 0.06646344726 0.00980767372 0.00045212008 0.06612460753 0.00982349276 0.00048752554 0.06577617168 0.00983608685 0.00052375975 0.06542124224 0.00984569154 0.00056053055 0.06506292172 0.00985254239 0.00059754583 0.06470431267 0.00985687494 0.00063451343 0.06434851759 0.00985892475 0.00067114123 0.06399863901 0.00985892737 0.00070713707 0.06365777945 0.00985711835 0.00035650732 0.06675939552 0.00933725175 0.00039046827 0.06643772257 0.00935839659 0.00042603834 0.06610370019 0.00937525145 0.00046285830 0.06576016873 0.00938791551 0.00050056891 0.06540996854 0.00939648792 0.00053881091 0.06505594000 0.00940106785 0.00057722508 0.06470092343 0.00940175446 0.00061545218 0.06434775921 0.00939864692 0.00065313296 0.06399928769 0.00939184439 0.00068990819 0.06365834921 0.00938144603 0.00032691561 0.06674000196 0.00889167251 0.00036245186 0.06642089255 0.00891634308 0.00039961775 0.06608987441 0.00893582635 0.00043802228 0.06574957396 0.00895014110 0.00047727446 0.06540261758 0.00895930613 0.00051698332 0.06505163166 0.00896334022 0.00055675787 0.06469924262 0.00896226217 0.00059620712 0.06434807683 0.00895609076 0.00063494009 0.06400076070 0.00894484477 0.00067256579 0.06365992063 0.00892854300 0.00029676350 0.06672862005 0.00846307467 0.00033441159 0.06641137877 0.00848970874 0.00037348192 0.06608236426 0.00851084415 0.00041360113 0.06574412758 0.00852640856 0.00045439590 0.06539921979 0.00853632964 0.00049549288 0.06505019196 0.00854053505 0.00053651872 0.06469959514 0.00853895245 0.00057710009 0.06434998040 0.00853150951 0.00061686364 0.06400389881 0.00851813388 0.00065543603 0.06366390142 0.00849875324 0.00052882307 0.06730342541 0.01182732378 0.00057031198 0.06682447862 0.01208344168 0.00061050800 0.06636056882 0.01229774459 0.00064937079 0.06591149676 0.01247617059 0.00068686001 0.06547706319 0.01262465774 0.00072293532 0.06505706885 0.01274914411 0.00075755636 0.06465131448 0.01285556777 0.00079068281 0.06425960083 0.01294986680 0.00082227430 0.06388172865 0.01303797926 0.00085229051 0.06351749867 0.01312584323 0.00051227287 0.06715114808 0.01157723802 0.00055169626 0.06671310276 0.01174403643 0.00059003865 0.06628142366 0.01188472662 0.00062730512 0.06585715584 0.01200338145 0.00066350071 0.06544134437 0.01210407381 0.00069863048 0.06503503433 0.01219087655 0.00073269949 0.06463927078 0.01226786256 0.00076571279 0.06425509879 0.01233910470 0.00079767544 0.06388356343 0.01240867584 0.00082859250 0.06352570976 0.01248064887 0.00049224878 0.06702775091 0.01126663655 0.00052994887 0.06662138110 0.01136802672 0.00056694744 0.06621505979 0.01145453856 0.00060323694 0.06581065937 0.01152883905 0.00063880983 0.06541005224 0.01159359517 0.00067365855 0.06501511078 0.01165147390 0.00070777557 0.06462770740 0.01170514222 0.00074115334 0.06424971447 0.01175726710 0.00077378430 0.06388300440 0.01181051553 0.00080566093 0.06352944957 0.01186755448 0.00046922058 0.06693008463 0.01090631358 0.00050559146 0.06654739605 0.01096260349 0.00054174087 0.06616042915 0.01101148498 0.00057760760 0.06577154075 0.01105461015 0.00061313041 0.06538308765 0.01109363108 0.00064824810 0.06499742668 0.01113019986 0.00068289943 0.06461691463 0.01116596859 0.00071702318 0.06424390833 0.01120258936 0.00075055812 0.06388076458 0.01124171425 0.00078344304 0.06352984020 0.01128499536 0.00044365803 0.06685499998 0.01050706334 0.00047914563 0.06648923003 0.01053495770 0.00051492545 0.06611648368 0.01055987045 0.00055085842 0.06573933335 0.01058276149 0.00058680551 0.06536035148 0.01060459075 0.00062262768 0.06498211048 0.01062631811 0.00065818586 0.06460718278 0.01064890350 0.00069334103 0.06423814081 0.01067330680 0.00072795412 0.06387755699 0.01070048794 0.00076188610 0.06352800375 0.01073140681 0.00041603091 0.06679934767 0.01007968003 0.00045113303 0.06644496544 0.01009228029 0.00048700767 0.06608217530 0.01010399952 0.00052343075 0.06571357057 0.01011535986 0.00056017817 0.06534174458 0.01012688343 0.00059702585 0.06496929066 0.01013909235 0.00063374969 0.06459880215 0.01015250876 0.00067012562 0.06423287237 0.01016765478 0.00070592955 0.06387409464 0.01018505252 0.00074093737 0.06352506231 0.01020522412 0.00038680898 0.06675997844 0.00963495790 0.00042207527 0.06641268471 0.00964176221 0.00045849406 0.06605645595 0.00964817677 0.00049576592 0.06569378578 0.00965447200 0.00053359143 0.06532716782 0.00966091835 0.00057167117 0.06495909569 0.00966778628 0.00060970573 0.06459206303 0.00967534622 0.00064739568 0.06422856344 0.00968386862 0.00068444162 0.06387109056 0.00969362392 0.00072054411 0.06352213800 0.00970488258 0.00035646200 0.06673374302 0.00918369114 0.00039249399 0.06639047024 0.00919059443 0.00042989112 0.06603827756 0.00919670675 0.00046830527 0.06567951236 0.00920216468 0.00050738834 0.06531652206 0.00920710476 0.00054679221 0.06495165404 0.00921166358 0.00058616878 0.06458725572 0.00921597769 0.00062516994 0.06422567449 0.00922018367 0.00066344757 0.06386925775 0.00922441808 0.00070065357 0.06352035291 0.00922881748 0.00032545975 0.06671749213 0.00873667399 0.00036291081 0.06637640446 0.00874596789 0.00040170535 0.06602659206 0.00875389405 0.00044149013 0.06567028371 0.00876050465 0.00048191194 0.06530970816 0.00876585189 0.00052261752 0.06494709417 0.00876998794 0.00056325366 0.06458467051 0.00877296501 0.00060346710 0.06422466595 0.00877483527 0.00064290463 0.06386930924 0.00877565091 0.00068121301 0.06352082915 0.00877546412 0.00029427199 0.06670807652 0.00830470066 0.00033384735 0.06636856977 0.00831507354 0.00037444325 0.06602035139 0.00832404321 0.00041576185 0.06566563320 0.00833155868 0.00045750528 0.06530662698 0.00833756897 0.00049937567 0.06494554455 0.00834202307 0.00054107517 0.06458459772 0.00834487000 0.00058230592 0.06422599828 0.00834605875 0.00062277004 0.06387195805 0.00834553835 0.00066216969 0.06352468882 0.00834325778 0.00055513636 0.06720374213 0.01171021273 0.00060117441 0.06671933813 0.01197952063 0.00064543038 0.06625160388 0.01220607322 0.00068780435 0.06580061313 0.01239546635 0.00072819637 0.06536643965 0.01255329585 0.00076650654 0.06494915719 0.01268515757 0.00080263490 0.06454883950 0.01279664737 0.00083648155 0.06416556034 0.01289336108 0.00086794655 0.06379939347 0.01298089456 0.00089692996 0.06345041265 0.01306484364 0.00053403783 0.06705401020 0.01144505335 0.00057687693 0.06660996736 0.01161883820 0.00061824872 0.06617392890 0.01176615197 0.00065811275 0.06574710514 0.01189087046 0.00069642862 0.06533070642 0.01199686948 0.00073315591 0.06492594304 0.01208802483 0.00076825420 0.06453402533 0.01216821230 0.00080168306 0.06415616361 0.01224130768 0.00083340209 0.06379356821 0.01231118679 0.00086337086 0.06344744943 0.01238172541 0.00051003045 0.06693388413 0.01112399422 0.00055026957 0.06652088394 0.01122706845 0.00058949598 0.06610951998 0.01131554103 0.00062766854 0.06570177844 0.01139198456 0.00066474614 0.06529964551 0.01145897163 0.00070068764 0.06490510735 0.01151907486 0.00073545191 0.06452015016 0.01157486683 0.00076899782 0.06414676013 0.01162892016 0.00080128424 0.06378692342 0.01168380743 0.00083227005 0.06344262622 0.01174210126 0.00048355021 0.06683999484 0.01075694949 0.00052180173 0.06644998596 0.01081045862 0.00055957193 0.06605719672 0.01085750828 0.00059677633 0.06566409034 0.01089972276 0.00063333046 0.06527313005 0.01093872638 0.00066914982 0.06488677906 0.01097614343 0.00070414993 0.06450750060 0.01101359822 0.00073824630 0.06413775788 0.01105271506 0.00077135445 0.06378001413 0.01109511825 0.00080338990 0.06343673256 0.01114243209 0.00045503309 0.06676897329 0.01035383334 0.00049192281 0.06639517151 0.01037525594 0.00052887632 0.06601577869 0.01039532158 0.00056574073 0.06563349814 0.01041499921 0.00060236311 0.06525103317 0.01043525780 0.00063859056 0.06487108710 0.01045706632 0.00067427016 0.06449636323 0.01048139371 0.00070924901 0.06412956488 0.01050920895 0.00074337420 0.06377339536 0.01054148100 0.00077649282 0.06343055799 0.01057917882 0.00042491506 0.06671745043 0.00992455993 0.00046108222 0.06635433869 0.00992770764 0.00049780892 0.06598408549 0.00993224880 0.00053486633 0.06560945914 0.00993872805 0.00057202561 0.06523322800 0.00994769000 0.00060905795 0.06485816039 0.00995967929 0.00064573450 0.06448702465 0.00997524054 0.00068182644 0.06412258912 0.00999491838 0.00071710495 0.06376762214 0.01001925743 0.00075134118 0.06342489203 0.01004880232 0.00039363211 0.06668205719 0.00947904343 0.00042972937 0.06632538560 0.00947406093 0.00046676947 0.06596093669 0.00947155781 0.00050445774 0.06559143066 0.00947182340 0.00054249950 0.06521958766 0.00947514706 0.00058060009 0.06484812787 0.00948181813 0.00061846484 0.06447977146 0.00949212596 0.00065579909 0.06411723860 0.00950635991 0.00069230816 0.06376324948 0.00952480931 0.00072769739 0.06342052425 0.00954776351 0.00036162020 0.06665942452 0.00902719799 0.00039831367 0.06630621031 0.00902056305 0.00043615774 0.06594515190 0.00901651647 0.00047481957 0.06557886999 0.00901519941 0.00051396630 0.06520998528 0.00901675306 0.00055326509 0.06484111846 0.00902131860 0.00059238308 0.06447489024 0.00902903721 0.00063098743 0.06411392132 0.00904005008 0.00066874530 0.06376083240 0.00905449837 0.00070532383 0.06341824417 0.00907252328 0.00032931533 0.06664618337 0.00857893779 0.00036728452 0.06629471093 0.00857346123 0.00040637349 0.06593555069 0.00857039265 0.00044625642 0.06557123444 0.00856977021 0.00048660754 0.06520429398 0.00857163209 0.00052710103 0.06483726110 0.00857601648 0.00056741111 0.06447266760 0.00858296154 0.00060721198 0.06411304528 0.00859250545 0.00064617784 0.06376092592 0.00860468639 0.00068398289 0.06341884133 0.00861954254 0.00029715346 0.06663896468 0.00814417700 0.00033709133 0.06628878555 0.00813900270 0.00037781646 0.06593095265 0.00813645422 0.00041907291 0.06556798132 0.00813644993 0.00046060475 0.06520238689 0.00813890824 0.00050215603 0.06483668472 0.00814374753 0.00054347084 0.06447339013 0.00815088618 0.00058429322 0.06411501847 0.00816024258 0.00062436723 0.06376408507 0.00817173512 0.00066343696 0.06342310528 0.00818528219 0.00058062020 0.06705806638 0.01164226332 0.00062799677 0.06658132828 0.01190323502 0.00067342598 0.06611883235 0.01212537207 0.00071675878 0.06567208346 0.01231345604 0.00075784613 0.06524258646 0.01247226849 0.00079653899 0.06483184623 0.01260659096 0.00083268831 0.06444136761 0.01272120503 0.00086614505 0.06407265548 0.01282089223 0.00089676018 0.06372721469 0.01291043414 0.00092438464 0.06340655012 0.01299461230 0.00055657460 0.06691248416 0.01134915542 0.00059990128 0.06647517083 0.01151600529 0.00064166394 0.06604369547 0.01165897096 0.00068179341 0.06562054470 0.01178145515 0.00072022047 0.06520820513 0.01188686060 0.00075687593 0.06480916335 0.01197859002 0.00079169061 0.06442590598 0.01206004616 0.00082459530 0.06406091963 0.01213463174 0.00085552081 0.06371669090 0.01220574949 0.00088439795 0.06339570639 0.01227680213 0.00052985780 0.06679635784 0.01100740339 0.00057002139 0.06638912324 0.01110380626 0.00060910074 0.06598157044 0.01118748025 0.00064704148 0.06557686260 0.01126076537 0.00068378922 0.06517816287 0.01132600159 0.00071928958 0.06478863443 0.01138552894 0.00075348820 0.06441144043 0.01144168739 0.00078633069 0.06404974402 0.01149681694 0.00081776268 0.06370670837 0.01155325760 0.00084772979 0.06338549663 0.01161334936 0.00050091427 0.06670628901 0.01062575091 0.00053875315 0.06632108278 0.01067196037 0.00057603353 0.06593131564 0.01071336958 0.00061266882 0.06554057160 0.01075152542 0.00064857248 0.06515243464 0.01078797480 0.00068365794 0.06477048876 0.01082426462 0.00071783864 0.06439831795 0.01086194177 0.00075102801 0.06403950620 0.01090255314 0.00078313950 0.06369763751 0.01094764565 0.00081408654 0.06337629586 0.01099876617 0.00047018848 0.06663887923 0.01021294166 0.00050649261 0.06626894671 0.01022579007 0.00054275945 0.06589178950 0.01023910854 0.00057884128 0.06551120619 0.01025387404 0.00061459038 0.06513099538 0.01027106354 0.00064985902 0.06475495563 0.01029165400 0.00068449949 0.06438688554 0.01031662239 0.00071836406 0.06403058370 0.01034694566 0.00075130500 0.06368984869 0.01038360080 0.00078317459 0.06336847911 0.01042756475 0.00043812490 0.06659073008 0.00977771932 0.00047363578 0.06623061230 0.00977061780 0.00050957565 0.06586185042 0.00976716677 0.00054572467 0.06548830085 0.00976794996 0.00058186301 0.06511382002 0.00977355113 0.00061777083 0.06474226433 0.00978455400 0.00065322831 0.06437749021 0.00980154232 0.00068801561 0.06402335407 0.00982509981 0.00072191289 0.06368371233 0.00985581022 0.00075470033 0.06336242140 0.00989425729 0.00040516801 0.06655844313 0.00932882757 0.00044057873 0.06620397681 0.00931176600 0.00047677930 0.06584035680 0.00930001387 0.00051348484 0.06547139004 0.00929389191 0.00055041049 0.06510088351 0.00929372089 0.00058727138 0.06473264416 0.00929982154 0.00062378266 0.06437047895 0.00931251463 0.00065965946 0.06401819484 0.00933212090 0.00069461691 0.06367959879 0.00935896110 0.00072837014 0.06335849776 0.00939335599 0.00037176227 0.06653861997 0.00887501009 0.00040771749 0.06618693752 0.00885455713 0.00044466753 0.06582616705 0.00884011946 0.00048228760 0.06546000824 0.00883183861 0.00052025292 0.06509216080 0.00882985613 0.00055823868 0.06472632440 0.00883431355 0.00059592010 0.06436619876 0.00884535241 0.00063297240 0.06401548355 0.00886311424 0.00066907077 0.06367787848 0.00888774060 0.00070389043 0.06335708323 0.00891937302 0.00033835217 0.06652786216 0.00842501054 0.00037544809 0.06617739169 0.00840431363 0.00041353750 0.06581813958 0.00838995317 0.00045229880 0.06545368993 0.00838192881 0.00049141040 0.06508762682 0.00838024018 0.00053055073 0.06472353436 0.00838488694 0.00056939820 0.06436499663 0.00839586872 0.00060763122 0.06401559774 0.00841318516 0.00064492820 0.06367892178 0.00843683589 0.00068096756 0.06335855284 0.00846682058 0.00030538216 0.06652277129 0.00798757263 0.00034416659 0.06617323659 0.00796635793 0.00038368636 0.06581513280 0.00795198460 0.00042368426 0.06545196957 0.00794430121 0.00046390306 0.06508725652 0.00794315636 0.00050408555 0.06472450331 0.00794839864 0.00054397451 0.06436721958 0.00795987664 0.00058331270 0.06401891495 0.00797743895 0.00062184292 0.06368309908 0.00800093415 0.00065930794 0.06336328160 0.00803021085 0.00060727066 0.06686987808 0.01164441640 0.00065279946 0.06641422377 0.01187350110 0.00069658208 0.06596632339 0.01207304232 0.00073839340 0.06553033200 0.01224637463 0.00077800833 0.06511040468 0.01239683258 0.00081520175 0.06471069650 0.01252775073 0.00084974858 0.06433536253 0.01264246363 0.00088142371 0.06398855784 0.01274430584 0.00091000203 0.06367443751 0.01283661192 0.00093525844 0.06339715660 0.01292271642 0.00058105629 0.06673035975 0.01130733707 0.00062208021 0.06631255472 0.01145156819 0.00066169905 0.06589472693 0.01157787110 0.00069981620 0.06548176910 0.01168879901 0.00073633503 0.06507857393 0.01178690515 0.00077115894 0.06469003415 0.01187474274 0.00080419131 0.06432104247 0.01195486499 0.00083533551 0.06397649160 0.01202982513 0.00086449494 0.06366127427 0.01210217637 0.00089157297 0.06338028319 0.01217447194 0.00055229784 0.06661902564 0.01093196300 0.00058995708 0.06622985261 0.01101181371 0.00062663091 0.06583502933 0.01108274331 0.00066226923 0.06543995587 0.01114666761 0.00069682195 0.06505003230 0.01120550241 0.00073023896 0.06467065869 0.01126116352 0.00076247018 0.06430723511 0.01131556674 0.00079346549 0.06396516161 0.01137062787 0.00082317481 0.06364983828 0.01142826272 0.00085154804 0.06336666518 0.01149038710 0.00052146173 0.06653268693 0.01052554259 0.00055677900 0.06616422602 0.01055861234 0.00059157012 0.06578632037 0.01058952179 0.00062576987 0.06540467972 0.01061967264 0.00065931303 0.06502501380 0.01065046660 0.00069213440 0.06465303237 0.01068330536 0.00072416877 0.06429444514 0.01071959063 0.00075535092 0.06395496186 0.01076072409 0.00078561564 0.06364029227 0.01080810746 0.00081489773 0.06335614611 0.01086314244 0.00048901434 0.06646815477 0.01009532421 0.00052289490 0.06611378354 0.01009633874 0.00055670915 0.06574768985 0.01010006934 0.00059033547 0.06537572803 0.01010750632 0.00062365225 0.06500375244 0.01011963996 0.00065653785 0.06463761740 0.01013746056 0.00068887067 0.06428317725 0.01016195841 0.00072052907 0.06394628634 0.01019412382 0.00075139144 0.06363279899 0.01023494708 0.00078133616 0.06334856954 0.01028541848 0.00045542208 0.06642224033 0.00964855626 0.00048865368 0.06607663375 0.00962936759 0.00052224046 0.06571822756 0.00961624879 0.00055598341 0.06535288822 0.00960986083 0.00058968355 0.06498648222 0.00961086470 0.00062314190 0.06462487603 0.00961992138 0.00065615944 0.06427393614 0.00963769185 0.00068853721 0.06393952903 0.00966483708 0.00072007619 0.06362752116 0.00970201806 0.00075057741 0.06334377903 0.00974989577 0.00042115135 0.06639175478 0.00919248713 0.00045440428 0.06605088526 0.00916207357 0.00048835651 0.06569702329 0.00913992294 0.00052273105 0.06533594767 0.00912642839 0.00055725092 0.06497343714 0.00912198307 0.00059163913 0.06461527049 0.00912698012 0.00062561868 0.06426722650 0.00914181267 0.00065891261 0.06393508392 0.00916687389 0.00069124391 0.06362462154 0.00920255690 0.00072233560 0.06334161812 0.00924925485 0.00038666855 0.06637350929 0.00873436520 0.00042049561 0.06603464664 0.00869883134 0.00045524977 0.06568316686 0.00867295461 0.00049059576 0.06532469377 0.00865690121 0.00052619830 0.06496485122 0.00865083729 0.00056172213 0.06460926302 0.00865492905 0.00059683197 0.06426355301 0.00866934265 0.00063119254 0.06393334501 0.00869424427 0.00066446859 0.06362426286 0.00872980007 0.00069632482 0.06334193038 0.00877617625 0.00035244008 0.06636431502 0.00828143887 0.00038727660 0.06602602649 0.00824401558 0.00042311271 0.06567574804 0.00821720663 0.00045959491 0.06531891394 0.00820097148 0.00049636967 0.06496095846 0.00819526961 0.00053308350 0.06460731584 0.00820006046 0.00056938287 0.06426342036 0.00821530352 0.00060491428 0.06393470628 0.00824095824 0.00063932422 0.06362660786 0.00827698408 0.00067225918 0.06334455935 0.00832334051 0.00031893235 0.06636098313 0.00784095651 0.00035509617 0.06602313338 0.00780200096 0.00039213779 0.06567385664 0.00777454179 0.00042974585 0.06531839557 0.00775833142 0.00046760898 0.06496199286 0.00775312224 0.00050541581 0.06460989120 0.00775866664 0.00054285497 0.06426733326 0.00777471704 0.00057961510 0.06393956172 0.00780102583 0.00061538482 0.06363181928 0.00783734540 0.00064985277 0.06334934860 0.00788342816 0.00063708380 0.06664265713 0.01173761280 0.00067760288 0.06622179931 0.01190923515 0.00071698596 0.06579814615 0.01206648518 0.00075486751 0.06537978303 0.01221045708 0.00079088201 0.06497479537 0.01234224507 0.00082466392 0.06459126855 0.01246294334 0.00085584773 0.06423728796 0.01257364609 0.00088406791 0.06392093902 0.01267544752 0.00090895893 0.06365030711 0.01276944182 0.00093015527 0.06343347762 0.01285672321 0.00060865598 0.06651142677 0.01133739114 0.00064472465 0.06612596060 0.01144155736 0.00067976874 0.06573102683 0.01153753989 0.00071365024 0.06533507290 0.01162656554 0.00074623111 0.06494654625 0.01170986116 0.00077737332 0.06457389431 0.01178865357 0.00080693886 0.06422556452 0.01186416960 0.00083478969 0.06391000431 0.01193763609 0.00086078780 0.06363566112 0.01201027986 0.00088479514 0.06341098238 0.01208332775 0.00057791759 0.06640574111 0.01091277198 0.00061082938 0.06604682565 0.01096466436 0.00064295565 0.06567371484 0.01101371728 0.00067426530 0.06529510232 0.01106117742 0.00070472723 0.06491968176 0.01110829143 0.00073431035 0.06455614681 0.01115630598 0.00076298355 0.06421319112 0.01120646774 0.00079071574 0.06389950837 0.01126002335 0.00081747581 0.06362379219 0.01131821949 0.00084323268 0.06339473625 0.01138230282 0.00054534157 0.06632290840 0.01046914926 0.00057621254 0.06598295519 0.01048191812 0.00060662616 0.06562574533 0.01049641783 0.00063656426 0.06526010988 0.01051381895 0.00066600865 0.06489487991 0.01053529202 0.00069494113 0.06453888647 0.01056200759 0.00072334352 0.06420096063 0.01059513620 0.00075119763 0.06388993345 0.01063584840 0.00077848527 0.06361463600 0.01068531474 0.00080518826 0.06338389933 0.01074470576 0.00051140082 0.06626023692 0.01001191689 0.00054116955 0.06593290993 0.00999668061 0.00057085975 0.06558665346 0.00998704199 0.00060039869 0.06523033417 0.00998401635 0.00062971362 0.06487281871 0.00998861904 0.00065873181 0.06452297373 0.01000186537 0.00068738050 0.06418966589 0.01002477069 0.00071558697 0.06388176185 0.01005835033 0.00074327847 0.06360812824 0.01010361961 0.00077038225 0.06337763173 0.01016159387 0.00047656826 0.06621503492 0.00954646880 0.00050599587 0.06589525057 0.00951231383 0.00053573590 0.06555597437 0.00948699023 0.00056562015 0.06520601376 0.00947129586 0.00059548043 0.06485417617 0.00946602861 0.00062514851 0.06450926903 0.00947198633 0.00065445622 0.06418009976 0.00948996691 0.00068323534 0.06387547581 0.00952076822 0.00071131768 0.06360420459 0.00956518812 0.00073853504 0.06337509355 0.00962402449 0.00044131681 0.06618461066 0.00907819890 0.00047098694 0.06586853783 0.00903217975 0.00050133409 0.06553324323 0.00899766301 0.00053208022 0.06518738725 0.00897518370 0.00056294732 0.06483963031 0.00896527684 0.00059365739 0.06449863279 0.00896847745 0.00062393241 0.06417305509 0.00898532055 0.00065349435 0.06387155761 0.00901634116 0.00068206522 0.06360280075 0.00906207428 0.00070936699 0.06337544489 0.00912305494 0.00040611938 0.06616627242 0.00861250112 0.00043643821 0.06585133242 0.00855964034 0.00046773378 0.06551799517 0.00852046079 0.00049963044 0.06517469322 0.00849520609 0.00053175259 0.06482985914 0.00848411987 0.00056372458 0.06449192546 0.00848744574 0.00059517079 0.06416932474 0.00850542732 0.00062571559 0.06387048953 0.00853830824 0.00065498336 0.06360385239 0.00858633211 0.00068259848 0.06337784586 0.00864974255 0.00037144889 0.06615732843 0.00815476939 0.00040264513 0.06584219504 0.00809805759 0.00043501446 0.06550976535 0.00805678404 0.00046812240 0.06516817026 0.00803088927 0.00050153448 0.06482554066 0.00802031380 0.00053481620 0.06449000746 0.00802499817 0.00056753309 0.06416970154 0.00804488291 0.00059925065 0.06387275382 0.00807990855 0.00062953441 0.06360729520 0.00813001561 0.00065794987 0.06338145656 0.00819514464 0.00033777826 0.06615508698 0.00771039762 0.00036990312 0.06583968642 0.00765079349 0.00040325560 0.06550808893 0.00760803323 0.00043740766 0.06516805694 0.00758175946 0.00047193127 0.06482735289 0.00757161477 0.00050639841 0.06449373922 0.00757724175 0.00054038103 0.06417497837 0.00759828303 0.00057345112 0.06387883277 0.00763438118 0.00060518064 0.06361306486 0.00768517881 0.00063514155 0.06338543709 0.00775031853 0.00067205570 0.06637988344 0.01194279336 0.00070442745 0.06600782961 0.01202935344 0.00073672493 0.06561836979 0.01212310182 0.00076834043 0.06522486083 0.01222193836 0.00079866622 0.06484065959 0.01232376288 0.00082709457 0.06447912291 0.01242647525 0.00085301776 0.06415360764 0.01252797529 0.00087582805 0.06387747061 0.01262616284 0.00089491772 0.06366406869 0.01271893776 0.00090967905 0.06352675871 0.01280419989 0.00064054676 0.06625947501 0.01145711046 0.00066914552 0.06591922999 0.01150200328 0.00069728773 0.06555659870 0.01155266484 0.00072476464 0.06518475069 0.01160841824 0.00075136747 0.06481685551 0.01166858663 0.00077688746 0.06446608272 0.01173249312 0.00080111585 0.06414560187 0.01179946082 0.00082384385 0.06386858252 0.01186881287 0.00084486271 0.06364819421 0.01193987237 0.00086396367 0.06349760651 0.01201196246 0.00060728407 0.06616035780 0.01096492926 0.00063339104 0.06584379596 0.01097593176 0.00065894414 0.06550144513 0.01099278924 0.00068394317 0.06514634599 0.01101578092 0.00070838796 0.06479153920 0.01104518601 0.00073227831 0.06445006545 0.01108128371 0.00075561403 0.06413496540 0.01112435324 0.00077839495 0.06385927973 0.01117467380 0.00080062086 0.06363604912 0.01123252460 0.00082229160 0.06347831423 0.01129818485 0.00057270278 0.06608067322 0.01046939568 0.00059738701 0.06578080980 0.01045338131 0.00062164610 0.06545312496 0.01044451061 0.00064553681 0.06511055728 0.01044361885 0.00066911587 0.06476604532 0.01045154130 0.00069244005 0.06443252766 0.01046911322 0.00071556609 0.06412294289 0.01049716989 0.00073855075 0.06385022956 0.01053654656 0.00076145076 0.06362732625 0.01058807850 0.00078432289 0.06346717155 0.01065260098 0.00053723807 0.06601856267 0.00997365561 0.00056135644 0.06572955380 0.00993659435 0.00058534560 0.06541185407 0.00990886449 0.00060920633 0.06507829511 0.00989152448 0.00063293942 0.06474170852 0.00988563278 0.00065654566 0.06441492595 0.00989224784 0.00068002581 0.06411077899 0.00991242812 0.00070338067 0.06384209929 0.00994723206 0.00072661101 0.06362171846 0.00999771813 0.00074971762 0.06346246811 0.01006494478 0.00050132511 0.06597216756 0.00948085498 0.00052552232 0.06568931024 0.00942781333 0.00054999458 0.06537784833 0.00938688645 0.00057461252 0.06505047001 0.00935909028 0.00059924681 0.06471986346 0.00934544073 0.00062376807 0.06439871686 0.00934695375 0.00064804696 0.06409971839 0.00936464528 0.00067195412 0.06383555623 0.00939953123 0.00069536019 0.06361891858 0.00945262756 0.00071813581 0.06346249360 0.00952495018 0.00046539906 0.06593962929 0.00899413968 0.00049010766 0.06565936142 0.00892928068 0.00051554500 0.06535132363 0.00887961206 0.00054141617 0.06502799254 0.00884590869 0.00056742623 0.06470184478 0.00882894544 0.00059328025 0.06438535697 0.00882949716 0.00061868332 0.06409100573 0.00884833872 0.00064334051 0.06383126769 0.00888624499 0.00066695689 0.06361861945 0.00894399083 0.00068923754 0.06346553765 0.00902235111 0.00042989511 0.06591908928 0.00851665563 0.00045533547 0.06563898961 0.00844323882 0.00048194885 0.06533249583 0.00838807687 0.00050927805 0.06501177324 0.00835157218 0.00053686588 0.06468898715 0.00833412717 0.00056425515 0.06437630287 0.00833614424 0.00059098868 0.06408588569 0.00835802580 0.00061660926 0.06382990095 0.00840017425 0.00064065972 0.06362051392 0.00846299202 0.00066268284 0.06346988994 0.00854688149 0.00039524842 0.06590868891 0.00805154873 0.00042142875 0.06562747711 0.00797193019 0.00044915806 0.06532158081 0.00791331644 0.00047785894 0.06500272265 0.00787567321 0.00050695397 0.06468262521 0.00785896622 0.00053586573 0.06437301110 0.00786316119 0.00056401681 0.06408560293 0.00788822386 0.00059082979 0.06383212331 0.00793411994 0.00061572725 0.06362429484 0.00800081517 0.00063813178 0.06347384012 0.00808827527 0.00036189416 0.06590656961 0.00760196490 0.00038861050 0.06562410619 0.00751759723 0.00041712461 0.06531879446 0.00745636635 0.00044681963 0.06500175131 0.00741780423 0.00047707869 0.06468409361 0.00740144286 0.00050728493 0.06437693825 0.00740681420 0.00053682148 0.06409140212 0.00743345025 0.00056507149 0.06383860208 0.00748088297 0.00059141809 0.06362965504 0.00754864435 0.00061524441 0.06347567787 0.00763626635 </DataArray>
</PointData>
<Points>
<DataArray type="Float32" NumberOfComponents="3">
-0.33274164591 0.66711163583 -0.24348843249 -0.30768521133 0.66717423565 -0.25615444197 -0.28892020211 0.66687474507 -0.27010233194 -0.27647248903 0.66600008537 -0.28493788340 -0.27036794288 0.66433717783 -0.30026687737 -0.27063243442 0.66167294372 -0.31569509484 -0.27729183446 0.65779430432 -0.33082831684 -0.29037201376 0.65248818091 -0.34527232437 -0.30989884310 0.64554149475 -0.35863289845 -0.33589819327 0.63674116713 -0.37051582007 -0.36369183661 0.67520150630 -0.24931722943 -0.33817910772 0.67519067395 -0.26037264034 -0.31906178459 0.67490763497 -0.27299395066 -0.30635811446 0.67420748624 -0.28671517142 -0.30008634455 0.67294532467 -0.30107031364 -0.30026472211 0.67097624714 -0.31559338835 -0.30691149436 0.66815535055 -0.32981840655 -0.32004490855 0.66433773178 -0.34327937928 -0.33968321190 0.65937848773 -0.35551031755 -0.36584465165 0.65313271530 -0.36604523239 -0.38988906048 0.68557390685 -0.25422839896 -0.36371405250 0.68550557776 -0.26406870390 -0.34409224441 0.68523696606 -0.27562327463 -0.33103591680 0.68467566353 -0.28839115940 -0.32455735031 0.68372926191 -0.30187140649 -0.32466882555 0.68230535296 -0.31556306417 -0.33138262315 0.68031152844 -0.32896518069 -0.34471102371 0.67765538011 -0.34157680432 -0.36466630787 0.67424449972 -0.35289698333 -0.39126075623 0.66998647903 -0.36242476599 -0.41151732598 0.69786462820 -0.25829625504 -0.38454497951 0.69775291030 -0.26726173162 -0.36431936519 0.69749685506 -0.27798154823 -0.35084826105 0.69704290348 -0.28994902192 -0.34413944512 0.69633749658 -0.30265746971 -0.34420069545 0.69532707535 -0.31560020862 -0.35103979006 0.69395808079 -0.32827055567 -0.36466450698 0.69217695391 -0.34016182790 -0.38508262426 0.68993013570 -0.35076734232 -0.41230191992 0.68716406718 -0.35958041596 -0.42876064156 0.71170946107 -0.26159511163 -0.40092682255 0.71156663480 -0.26997082244 -0.38005093056 0.71132141864 -0.28006001589 -0.36613751217 0.71094749236 -0.29137193358 -0.35919111396 0.71041853572 -0.30341581710 -0.35921628249 0.70970822847 -0.31570090802 -0.36621756435 0.70879025038 -0.32773644792 -0.38019950610 0.70763828120 -0.33903167840 -0.40116665432 0.70622600069 -0.34909584103 -0.42912355559 0.70452708862 -0.35743817741 -0.44180301568 0.72674419616 -0.26419928269 -0.41311451544 0.72658071448 -0.27221507532 -0.39159472415 0.72634477351 -0.28184992200 -0.37724603515 0.72602771642 -0.29264306897 -0.37007084178 0.72562088636 -0.30413376245 -0.37007153736 0.72511562650 -0.31586124867 -0.37725051526 0.72450327999 -0.32736477385 -0.39161016879 0.72377519000 -0.33818358422 -0.41315289129 0.72292269969 -0.34785692600 -0.44188107612 0.72193715222 -0.35592404543 -0.45082845679 0.74260462419 -0.26618308218 -0.42136299201 0.74242911257 -0.27401358922 -0.39925852960 0.74220103637 -0.28334251097 -0.38451619497 0.74192186191 -0.29374560268 -0.37713711355 0.74159305554 -0.30479861958 -0.37712241076 0.74121608360 -0.31607731689 -0.38447321203 0.74079241241 -0.32715744987 -0.39919064278 0.74032350834 -0.33761477375 -0.42127582842 0.73981083770 -0.34702504375 -0.45072989439 0.73925586684 -0.35496401513 -0.45602097335 0.75892653586 -0.26762082407 -0.42592718608 0.75874579229 -0.27538546310 -0.40335013053 0.75852432390 -0.28452902721 -0.38829035660 0.75826821509 -0.29466270930 -0.38074841424 0.75798355029 -0.30539770226 -0.38072485337 0.75767641393 -0.31634519900 -0.38822022392 0.75735289044 -0.32711639241 -0.40323507580 0.75701906422 -0.33732247538 -0.42576995895 0.75668101971 -0.34657464080 -0.45582542330 0.75634484134 -0.35448408159 -0.45756457381 0.77534572188 -0.26858682231 -0.42706203147 0.77516471687 -0.27634979590 -0.40417731057 0.77494875280 -0.28540071511 -0.38891088504 0.77470506221 -0.29537756341 -0.38126322883 0.77444087765 -0.30591832432 -0.38123481589 0.77416343168 -0.31666098131 -0.38882612016 0.77387995684 -0.32724351787 -0.40403761559 0.77359768568 -0.33730391750 -0.42686977613 0.77332385075 -0.34648016369 -0.45732307572 0.77306568460 -0.35441023992 -0.45564326663 0.79149797298 -0.26915539087 -0.42502246200 0.79131984953 -0.27692568659 -0.40204785335 0.79110843977 -0.28594881908 -0.38672014524 0.79087068952 -0.29587333962 -0.37904004227 0.79061354465 -0.30634779954 -0.37900824899 0.79034395100 -0.31702075012 -0.38662547001 0.79006885441 -0.32754074268 -0.40189240988 0.78979520072 -0.33755632851 -0.42480977319 0.78952993579 -0.34671605892 -0.45537826453 0.78928000547 -0.35466848521 -0.39825502809 0.66761877906 -0.23863947714 -0.38347496911 0.66434339551 -0.25323205223 -0.37239374362 0.66136543217 -0.26839981895 -0.36501813852 0.65847969943 -0.28390640803 -0.36135494071 0.65548100767 -0.29951545018 -0.36141093710 0.65216416729 -0.31499057610 -0.36519291460 0.64832398866 -0.33009541653 -0.37270766011 0.64375528218 -0.34459360217 -0.38396196053 0.63825285822 -0.35824876375 -0.39896260278 0.63161152718 -0.37082453196 -0.42062317302 0.67559236429 -0.24435497490 -0.40544485642 0.67342019517 -0.25738702870 -0.39405864724 0.67139507632 -0.27128964608 -0.38646639004 0.66937675514 -0.28576383809 -0.38266992933 0.66722497900 -0.30051061575 -0.38267110964 0.66479949528 -0.31523099008 -0.38647177551 0.66196005138 -0.32962597211 -0.39407377145 0.65856639466 -0.34339657288 -0.40547894200 0.65447827252 -0.35624380341 -0.42068913169 0.64955543233 -0.36786867473 -0.44024465801 0.68587579785 -0.24910310548 -0.42435459502 0.68451305345 -0.26094563144 -0.41243038858 0.68319376333 -0.27383805925 -0.40447077112 0.68182769269 -0.28744731510 -0.40047447504 0.68032460673 -0.30144032516 -0.40044023277 0.67859427065 -0.31548401561 -0.40436677670 0.67654644963 -0.32924531263 -0.41225283925 0.67409090888 -0.34239114240 -0.42409715284 0.67113741359 -0.35458843110 -0.43989844987 0.66759572896 -0.36550410491 -0.45703542295 0.69810118058 -0.25297530426 -0.44021741667 0.69729795281 -0.26394914331 -0.42759477761 0.69647359558 -0.27605792243 -0.41916462764 0.69557491097 -0.28895736656 -0.41492408866 0.69454870106 -0.30230320062 -0.41487028253 0.69334176792 -0.31575114953 -0.41900033115 0.69190091364 -0.32895693823 -0.42731135640 0.69017294030 -0.34157629164 -0.43980048017 0.68810464998 -0.35326493469 -0.45646482433 0.68564284475 -0.36367859229 -0.47091140773 0.71190061328 -0.25606300660 -0.45304655315 0.71145087571 -0.26643884713 -0.43963762432 0.71094667547 -0.27796209958 -0.43068130551 0.71036080886 -0.29029451998 -0.42617428098 0.70966607215 -0.30309786434 -0.42611323501 0.70883526165 -0.31603388870 -0.43049485186 0.70784117362 -0.32876434909 -0.43931581581 0.70665660437 -0.34095100153 -0.45257281112 0.70525435018 -0.35225560205 -0.47026252206 0.70360720734 -0.36233990667 -0.48178855223 0.72690619677 -0.25845764787 -0.46285523620 0.72664780459 -0.26845602577 -0.44864473869 0.72632510539 -0.27956345469 -0.43915415060 0.72592778524 -0.29145930286 -0.43438056282 0.72544553020 -0.30382293853 -0.43432106626 0.72486802637 -0.31633372995 -0.43897275181 0.72418495979 -0.32867104534 -0.44833271036 0.72338601656 -0.34051425296 -0.46239803281 0.72246088274 -0.35154272105 -0.48116581007 0.72139924440 -0.36143581785 -0.48958279636 0.74275003188 -0.26025066343 -0.46965669758 0.74256472193 -0.27004196206 -0.45470193070 0.74232098773 -0.28087485171 -0.44471650881 0.74201823900 -0.29245224272 -0.43969844499 0.74165588540 -0.30447704540 -0.43964575235 0.74123333662 -0.31665217011 -0.44455644397 0.74075000237 -0.32868052715 -0.45442853295 0.74020529232 -0.34026502686 -0.46926003238 0.73959861617 -0.35110857957 -0.48904895534 0.73892938360 -0.36091409562 -0.49421008000 0.75906421942 -0.26153348865 -0.47346416906 0.75887761016 -0.27123793884 -0.45789501034 0.75864642489 -0.28190915462 -0.44750172603 0.75837456901 -0.29327386705 -0.44228343831 0.75806594791 -0.30505880716 -0.44223926935 0.75772446696 -0.31699070602 -0.44736834135 0.75735403157 -0.32879629466 -0.45766977649 0.75695854711 -0.34020230414 -0.47314269694 0.75654191899 -0.35093546549 -0.49378622489 0.75610805258 -0.36072250978 -0.49558634305 0.77548086020 -0.26239755890 -0.47429088239 0.77526245175 -0.27208523896 -0.45830978759 0.77501351926 -0.28267922739 -0.44764314815 0.77473917418 -0.29392470336 -0.44229105357 0.77444452792 -0.30556684602 -0.44225359333 0.77413469192 -0.31735083453 -0.44753085693 0.77381477760 -0.32902184804 -0.45812293386 0.77348989639 -0.34032506570 -0.47402991363 0.77316515972 -0.35100566668 -0.49525188571 0.77284567901 -0.36080883012 -0.49362752539 0.79163205505 -0.26293430954 -0.47215006932 0.79139522914 -0.27262514526 -0.45603207243 0.79113437323 -0.28319793399 -0.44527412107 0.79085445337 -0.29440527917 -0.43987680159 0.79056043562 -0.30599978419 -0.43984070034 0.79025728604 -0.31773405247 -0.44516640369 0.78994997068 -0.32936068743 -0.45585449797 0.78964345561 -0.34063229247 -0.47190556956 0.78934270688 -0.35130147100 -0.49332020479 0.78905269055 -0.36112082645 -0.46989677132 0.66769805959 -0.23507011118 -0.46178159595 0.66174998973 -0.25109686201 -0.45565674387 0.65662347823 -0.26716551648 -0.45149149864 0.65211598956 -0.28315811196 -0.44925514380 0.64802498822 -0.29895668583 -0.44891696290 0.64414793869 -0.31444327544 -0.45044623950 0.64028230545 -0.32949991816 -0.45381225714 0.63622555300 -0.34400865137 -0.45898429936 0.63177514581 -0.35785151242 -0.46593164973 0.62672854838 -0.37091053868 -0.48523457288 0.67566525145 -0.24069769802 -0.47684049290 0.67175379011 -0.25520415349 -0.47050448921 0.66832671323 -0.27005645162 -0.46619447800 0.66524575497 -0.28508123614 -0.46387837550 0.66237264949 -0.30010515079 -0.46352409788 0.65956913095 -0.31495483930 -0.46509956136 0.65669693350 -0.32945694540 -0.46857268214 0.65361779130 -0.34343811283 -0.47391137642 0.65019343851 -0.35672498533 -0.48108356040 0.64628560928 -0.36914420663 -0.49909295915 0.68594549150 -0.24532057865 -0.49010592626 0.68353297377 -0.25865908073 -0.48332631652 0.68136394024 -0.27254620298 -0.47872361177 0.67934946053 -0.28677535910 -0.47626729388 0.67740060428 -0.30113996278 -0.47592684470 0.67542844111 -0.31543342774 -0.47767174609 0.67334404065 -0.32944916768 -0.48147147991 0.67105847252 -0.34298059629 -0.48729552801 0.66848280634 -0.35582112728 -0.49511337225 0.66552811175 -0.36776417435 -0.51126809682 0.69817021531 -0.24904314310 -0.50146734565 0.69679863608 -0.26151966368 -0.49408086116 0.69551079879 -0.27466389212 -0.48908188466 0.69425414128 -0.28825400051 -0.48644365746 0.69297610142 -0.30206816095 -0.48613942090 0.69162411707 -0.31588454552 -0.48814241627 0.69014562606 -0.32948132631 -0.49242588489 0.68848806627 -0.34263667542 -0.49896306809 0.68659887554 -0.35512876494 -0.50772720716 0.68442549173 -0.36673576696 -0.52155615261 0.71197085844 -0.25196978143 -0.51081420067 0.71126187241 -0.26384392231 -0.50272675846 0.71054292841 -0.27643864062 -0.49727228136 0.70978683226 -0.28953068009 -0.49442922474 0.70896638975 -0.30289678442 -0.49417604398 0.70805440670 -0.31631369736 -0.49649119445 0.70702368890 -0.32955816262 -0.50135313152 0.70584704218 -0.34240692393 -0.50874031058 0.70449727234 -0.35463672502 -0.51863118700 0.70294718517 -0.36602430960 -0.52975329319 0.72697885644 -0.25420488368 -0.51803594093 0.72663377812 -0.26568987659 -0.50922264378 0.72623596865 -0.27789957006 -0.50329778660 0.72577456850 -0.29061891750 -0.50024575421 0.72523871810 -0.30363287234 -0.50005093147 0.72461755789 -0.31672638801 -0.50269770320 0.72390022834 -0.32968441793 -0.50817045424 0.72307586987 -0.34229191551 -0.51645356944 0.72213362295 -0.35433383420 -0.52753143363 0.72106262801 -0.36559512740 -0.53565568529 0.74282564489 -0.25585283991 -0.52302201604 0.74262544857 -0.26711554649 -0.51352715247 0.74236555905 -0.27907580200 -0.50716138508 0.74204438504 -0.29153223245 -0.50391500439 0.74166033529 -0.30428346384 -0.50377830089 0.74121181854 -0.31712812220 -0.50674156508 0.74069724352 -0.32986483354 -0.51279508749 0.74011501896 -0.34229222386 -0.52192915860 0.73946355361 -0.35420891917 -0.53413406893 0.73874125619 -0.36541354550 -0.53905949559 0.75914265933 -0.25701804015 -0.52566187561 0.75894797914 -0.26817895197 -0.51559891986 0.75870733912 -0.27999645802 -0.50886606152 0.75842331692 -0.29228414461 -0.50545873376 0.75809849018 -0.30485559807 -0.50537236975 0.75773543653 -0.31752440469 -0.50860240267 0.75733673361 -0.33010415078 -0.51514426570 0.75690495907 -0.34240842266 -0.52499339200 0.75644269054 -0.35425080664 -0.53814521476 0.75595250566 -0.36544488902 -0.53976089081 0.77556133535 -0.25780487447 -0.52584496926 0.77531246518 -0.26893811299 -0.51539658131 0.77503694841 -0.28069065969 -0.50841480062 0.77473839917 -0.29288817369 -0.50489870083 0.77442043158 -0.30535631414 -0.50484735558 0.77408665974 -0.31792074019 -0.50825983853 0.77374069779 -0.33040711097 -0.51513522331 0.77338615983 -0.34264108562 -0.52547258359 0.77302665998 -0.35444832328 -0.53927099300 0.77266581237 -0.36565448310 -0.53755603762 0.79171310848 -0.25831773290 -0.52346074658 0.79143000206 -0.26945104954 -0.51287877217 0.79113002646 -0.28118752858 -0.50581058710 0.79081666684 -0.29335783937 -0.50225666410 0.79049340833 -0.30579265122 -0.50221747590 0.79016373607 -0.31832263346 -0.50569349521 0.78983113520 -0.33077845542 -0.51268519477 0.78949909085 -0.34299078643 -0.52319304730 0.78917108816 -0.35479029580 -0.53721752551 0.78885061227 -0.36600765288 -0.54527227870 0.66709285856 -0.23276578882 -0.54114649256 0.65916057724 -0.24973211255 -0.53795665841 0.65242965940 -0.26637584344 -0.53562054208 0.64670058168 -0.28265831091 -0.53405590938 0.64177382076 -0.29854084435 -0.53318052615 0.63744985331 -0.31398477317 -0.53291215820 0.63352915600 -0.32895142676 -0.53316857136 0.62981220548 -0.34340213453 -0.53386753145 0.62609947844 -0.35729822588 -0.53492680430 0.62219145154 -0.37060103021 -0.55487926333 0.67524128191 -0.23833209743 -0.55066526188 0.67002926360 -0.25380893299 -0.54741265278 0.66555147750 -0.26927330446 -0.54504283949 0.66167211111 -0.28463668613 -0.54347722549 0.65825535194 -0.29981055232 -0.54263721423 0.65516538750 -0.31470637733 -0.54244420918 0.65226640530 -0.32923563549 -0.54281961379 0.64942259283 -0.34330980109 -0.54368483152 0.64649813761 -0.35684034846 -0.54496126585 0.64335722713 -0.36973875189 -0.56370388774 0.68566446296 -0.24286872845 -0.55915762628 0.68245834949 -0.25719562579 -0.55566391040 0.67964893985 -0.27172929497 -0.55315217239 0.67714915375 -0.28634891029 -0.55155184455 0.67487191090 -0.30093364607 -0.55079235920 0.67273013102 -0.31536267662 -0.55080314864 0.67063673381 -0.32951517624 -0.55151364516 0.66850463899 -0.34327031924 -0.55285328108 0.66624676627 -0.35650727994 -0.55475148870 0.66377603537 -0.36910523263 -0.57153375585 0.69799838591 -0.24648884164 -0.56647945946 0.69618917112 -0.25996147233 -0.56261613727 0.69454879822 -0.27378373928 -0.55988435338 0.69302593942 -0.28781695426 -0.55822467186 0.69156926690 -0.30192242904 -0.55757765679 0.69012745284 -0.31596147540 -0.55788387225 0.68864916944 -0.32979540511 -0.55908388234 0.68708308887 -0.34328552994 -0.56111825112 0.68537788332 -0.35629316167 -0.56392754268 0.68348222498 -0.36867961206 -0.57815647161 0.71187903500 -0.24930559675 -0.57248663509 0.71096306469 -0.26217575400 -0.56817503941 0.71007780440 -0.27547656168 -0.56517519511 0.70919669796 -0.28906278887 -0.56344061271 0.70829318921 -0.30278920464 -0.56292480273 0.70734072197 -0.31651057807 -0.56358127571 0.70631274008 -0.33008167822 -0.56536354217 0.70518268735 -0.34335727418 -0.56822511263 0.70392400762 -0.35619213501 -0.57211949762 0.70251014472 -0.36844102980 -0.58335963896 0.72694239443 -0.25143215350 -0.57703502685 0.72652136640 -0.26390775218 -0.57224632281 0.72606271014 -0.27684768647 -0.56896051021 0.72555565919 -0.29010838498 -0.56714457240 0.72498944710 -0.30354627629 -0.56676549277 0.72435330740 -0.31701778899 -0.56779025468 0.72363647364 -0.33037935167 -0.57018584150 0.72282817934 -0.34348739292 -0.57391923660 0.72191765807 -0.35619834132 -0.57895742334 0.72089414334 -0.36836862547 -0.58693086185 0.74282444844 -0.25298167166 -0.57998050845 0.74260541246 -0.26522674825 -0.57473569348 0.74233026723 -0.27793703794 -0.57117611130 0.74199705294 -0.29097571343 -0.56928145624 0.74160380984 -0.30420594740 -0.56903142264 0.74114857812 -0.31749091255 -0.57040570485 0.74062939802 -0.33069378157 -0.57338399719 0.74004430975 -0.34367772714 -0.57794599402 0.73939135353 -0.35630592196 -0.58407138967 0.73866856957 -0.36844153872 -0.58865774422 0.75916118123 -0.25406731097 -0.58117895355 0.75895653908 -0.26620202361 -0.57554885743 0.75870722743 -0.27878454039 -0.57175781103 0.75841510904 -0.29168674507 -0.56979616952 0.75808204669 -0.30478052140 -0.56965428808 0.75770990313 -0.31793775313 -0.57132252189 0.75730054113 -0.33103032402 -0.57479122610 0.75685582346 -0.34393011781 -0.58005075590 0.75637761288 -0.35650901827 -0.58709146645 0.75586777217 -0.36863890915 -0.58832789001 0.77558857702 -0.25480223116 -0.58048623584 0.77531608244 -0.26690285964 -0.57459152064 0.77502034251 -0.27943011812 -0.57064142201 0.77470405731 -0.29226345075 -0.56863361754 0.77436992691 -0.30528230170 -0.56856578484 0.77402065141 -0.31836611511 -0.57043560148 0.77365893087 -0.33139433513 -0.57424074507 0.77328746538 -0.34424640592 -0.57997889321 0.77290895502 -0.35680177162 -0.58764772350 0.77252609987 -0.36893987640 -0.58572890316 0.79174262005 -0.25529959199 -0.57775822901 0.79142537877 -0.26739853772 -0.57176938914 0.79109636426 -0.27991369540 -0.56776275689 0.79075812758 -0.29272780132 -0.56573870561 0.79041321979 -0.30572359171 -0.56569760863 0.79006419196 -0.31878380286 -0.56763983931 0.78971359514 -0.33179117101 -0.57156577097 0.78936398040 -0.34462843242 -0.57747577697 0.78901789881 -0.35717832336 -0.58537023064 0.78867790142 -0.36932358009 -0.62198695333 0.66554655710 -0.23171196429 -0.62011105968 0.65634171698 -0.24912104511 -0.61854094279 0.64856475184 -0.26600721879 -0.61713324151 0.64202510170 -0.28237232060 -0.61574459468 0.63653220660 -0.29821818579 -0.61423164113 0.63189550655 -0.31354664962 -0.61245101972 0.62792444160 -0.32835954735 -0.61025936927 0.62442845175 -0.34265871425 -0.60751332864 0.62121697705 -0.35644598556 -0.60406953665 0.61809945752 -0.36972319655 -0.62691047155 0.67414156979 -0.23724487173 -0.62521840806 0.66808442047 -0.25318628546 -0.62379648026 0.66291830094 -0.26891914177 -0.62251193566 0.65851344893 -0.28439950860 -0.62123202178 0.65474010215 -0.29958345387 -0.61982398613 0.65146849832 -0.31442704551 -0.61815507622 0.64856887516 -0.32888635145 -0.61609253958 0.64591147038 -0.34291743961 -0.61350362371 0.64336652171 -0.35647637793 -0.61025557613 0.64080426686 -0.36951923433 -0.63134736764 0.68491418736 -0.24173546489 -0.62969927511 0.68118219137 -0.25654184065 -0.62832705239 0.67795020523 -0.27136892440 -0.62711418657 0.67513495904 -0.28614158759 -0.62594416478 0.67265318293 -0.30078470173 -0.62470047409 0.67042160702 -0.31522313827 -0.62326660163 0.66835696143 -0.32938176871 -0.62152603448 0.66637597628 -0.34318546450 -0.61936225976 0.66439538168 -0.35655909715 -0.61665876456 0.66233190777 -0.36942753811 -0.63515080828 0.69751234588 -0.24530146999 -0.63343845112 0.69540376892 -0.25926274886 -0.63203912742 0.69352792745 -0.27340174588 -0.63085635512 0.69183565040 -0.28762425826 -0.62979365214 0.69027776671 -0.30183608324 -0.62875453645 0.68880510531 -0.31594301803 -0.62764252596 0.68736849514 -0.32985085984 -0.62636113863 0.68591876513 -0.34346540591 -0.62481389238 0.68440674421 -0.35669245345 -0.62290430517 0.68278326133 -0.36943779969 -0.63817396015 0.71158398140 -0.24806061320 -0.63632072639 0.71051789231 -0.26142404822 -0.63483917360 0.70951893035 -0.27506278543 -0.63365480213 0.70856154137 -0.28887322130 -0.63269311234 0.70762017124 -0.30275175230 -0.63187960459 0.70666926583 -0.31659477490 -0.63113977924 0.70568327100 -0.33029868558 -0.63039913665 0.70463663261 -0.34375988082 -0.62958317717 0.70350379652 -0.35687475709 -0.62861740115 0.70225920861 -0.36953971086 -0.64026998994 0.72677703001 -0.25013062072 -0.63823089121 0.72629330078 -0.26310077691 -0.63663365916 0.72579067668 -0.27639722229 -0.63542588846 0.72525865032 -0.28991417739 -0.63455517383 0.72468671430 -0.30354586279 -0.63396910994 0.72406436123 -0.31718649902 -0.63361529150 0.72338108373 -0.33073030665 -0.63344131319 0.72262637440 -0.34407150623 -0.63339476970 0.72178972585 -0.35710431830 -0.63342325573 0.72086063070 -0.36972296344 -0.64129206432 0.74273942776 -0.25162921875 -0.63905373587 0.74249873355 -0.26436797309 -0.63732905233 0.74221062921 -0.27745023565 -0.63608597497 0.74187299561 -0.29077282723 -0.63529246507 0.74148371363 -0.30423256859 -0.63491648390 0.74104066416 -0.31772628051 -0.63492599275 0.74054172805 -0.33115078375 -0.63528895288 0.73998478618 -0.34440289911 -0.63597332557 0.73936771944 -0.35737944733 -0.63694707211 0.73868840869 -0.36997724921 -0.64109334997 0.75911911072 -0.25267413349 -0.63867405066 0.75890292982 -0.26530067490 -0.63683182136 0.75864625066 -0.27826700475 -0.63555142250 0.75835059561 -0.29147487150 -0.63481761452 0.75801748702 -0.30482602360 -0.63461515788 0.75764844725 -0.31822220949 -0.63492881301 0.75724499867 -0.33156517762 -0.63574334036 0.75680866364 -0.34475667645 -0.63704350038 0.75634096451 -0.35769845442 -0.63881405349 0.75584342365 -0.37029225998 -0.63952701358 0.77556401495 -0.25338309113 -0.63697662589 0.77527462882 -0.26597392051 -0.63504843448 0.77496500381 -0.27889270881 -0.63373859189 0.77463746868 -0.29204601090 -0.63304325065 0.77429435221 -0.30534038170 -0.63295856328 0.77393798317 -0.31868237609 -0.63348068231 0.77357069032 -0.33197854898 -0.63460576028 0.77319480244 -0.34513545525 -0.63632994970 0.77281264830 -0.35805964981 -0.63864940310 0.77242655667 -0.37065768754 -0.63644622183 0.79172207652 -0.25387381785 -0.63384625182 0.79138256977 -0.26646274808 -0.63188535993 0.79103435139 -0.27937252703 -0.63056384400 0.79067963320 -0.29251194612 -0.62988200191 0.79032062698 -0.30578979678 -0.62984013152 0.78995954455 -0.31911487044 -0.63043853068 0.78959859772 -0.33239595853 -0.63167749726 0.78923999828 -0.34554185249 -0.63355732913 0.78888595805 -0.35846134373 -0.63607832414 0.78853868882 -0.37106322370 -0.69764619835 0.66280253637 -0.23189409180 -0.69721669805 0.65305996788 -0.24924690093 -0.69665705257 0.64480953172 -0.26603606145 -0.69575756963 0.63788117555 -0.28226545673 -0.69430855693 0.63210484703 -0.29793897016 -0.69210032218 0.62731049381 -0.31306048512 -0.68892317310 0.62332806355 -0.32763388497 -0.68456741740 0.61998750392 -0.34166305310 -0.67882336277 0.61711876256 -0.35515187288 -0.67148131695 0.61455178713 -0.36810422769 -0.69868142468 0.67218722920 -0.23742271954 -0.69879917615 0.66575706555 -0.25332112915 -0.69866931394 0.66027611539 -0.26897290076 -0.69810222764 0.65562739381 -0.28433902412 -0.69690830679 0.65169391591 -0.29938048900 -0.69489794098 0.64835869676 -0.31405828515 -0.69188151975 0.64550475145 -0.32833340235 -0.68766943269 0.64301509507 -0.34216683034 -0.68207206935 0.64077274270 -0.35551955889 -0.67489981929 0.63866070944 -0.36835257775 -0.69929332270 0.68357613985 -0.24190869796 -0.69992045277 0.67959751019 -0.25668429934 -0.70019962466 0.67616917944 -0.27144668043 -0.69996738796 0.67321506311 -0.28612700990 -0.69906029228 0.67065907672 -0.30065645645 -0.69731488722 0.66842513578 -0.31496618874 -0.69456772237 0.66643715582 -0.32898737548 -0.69065534734 0.66461905235 -0.34265118533 -0.68541431174 0.66289474088 -0.35588878698 -0.67868116516 0.66118813694 -0.36863134911 -0.69943766235 0.69663874869 -0.24547009821 -0.70052901366 0.69437664048 -0.25941167285 -0.70118835305 0.69238852000 -0.27350219388 -0.70128221116 0.69062861921 -0.28765394300 -0.70067711864 0.68905117007 -0.30177920188 -0.69923960612 0.68761040452 -0.31579025222 -0.69683620424 0.68626055455 -0.32959937571 -0.69333344365 0.68495585210 -0.34311885403 -0.68859785498 0.68365052913 -0.35626096888 -0.68249596889 0.68229881761 -0.36893800193 -0.69907021363 0.71104453609 -0.24822499142 -0.70057334457 0.70988979507 -0.26157851102 -0.70157586745 0.70883393319 -0.27518423455 -0.70197585780 0.70785249787 -0.28894435233 -0.70167139111 0.70692103654 -0.30276105468 -0.70056054289 0.70601509662 -0.31653653194 -0.69854138865 0.70511022552 -0.33017297441 -0.69551200389 0.70418197068 -0.34357257243 -0.69137046411 0.70320587951 -0.35663751632 -0.68601484483 0.70215749944 -0.36926999640 -0.69814674651 0.72646298243 -0.25029144872 -0.70000193122 0.72593231262 -0.26326007520 -0.70130253619 0.72540521512 -0.27653759586 -0.70197748842 0.72487113486 -0.29002276683 -0.70195571494 0.72431951675 -0.30361434424 -0.70116614276 0.72373980570 -0.31721108422 -0.69953769890 0.72312144663 -0.33071174293 -0.69699931036 0.72245388445 -0.34401507648 -0.69347990417 0.72172656407 -0.35701984102 -0.68890840734 0.72092893041 -0.36962479267 -0.69662303095 0.74256356809 -0.25178754124 -0.69876325937 0.74229953178 -0.26453162674 -0.70030872759 0.74200216191 -0.27760707123 -0.70121626360 0.74166896594 -0.29091371540 -0.70144269539 0.74129745129 -0.30435139991 -0.70094485095 0.74088512542 -0.31781996543 -0.69967955827 0.74042949576 -0.33121925262 -0.69760364535 0.73992806976 -0.34444910216 -0.69467394018 0.73937835486 -0.35740935471 -0.69084727076 0.73877785850 -0.36999985093 -0.69445483694 0.75901577343 -0.25283134013 -0.69680581477 0.75878679121 -0.26546842697 -0.69853480999 0.75852456968 -0.27843745410 -0.69962134388 0.75823042686 -0.29164172699 -0.70004493768 0.75790568076 -0.30498455110 -0.69978511265 0.75755164940 -0.31836923190 -0.69882139006 0.75716965079 -0.33169907486 -0.69713329115 0.75676100296 -0.34487738544 -0.69470033719 0.75632702392 -0.35780746911 -0.69150204943 0.75586903168 -0.37039263134 -0.69159793445 0.77548907883 -0.25354091651 -0.69407808314 0.77518942958 -0.26614573725 -0.69592115172 0.77487223456 -0.27907353789 -0.69712188982 0.77453995340 -0.29223133050 -0.69767504707 0.77419504576 -0.30552612717 -0.69757537311 0.77383997129 -0.31886493997 -0.69681761756 0.77347718962 -0.33215478098 -0.69539653005 0.77310916041 -0.34530266228 -0.69330686023 0.77273834331 -0.35821559595 -0.69054335772 0.77236719795 -0.37080059407 -0.68800809345 0.79165296468 -0.25403434152 -0.69052855024 0.79130278555 -0.26663881892 -0.69240812110 0.79094495265 -0.27956011602 -0.69364706198 0.79058198132 -0.29270705487 -0.69424562881 0.79021638689 -0.30598845750 -0.69420407752 0.78985068472 -0.31931314598 -0.69352266405 0.78948739013 -0.33258994235 -0.69220164434 0.78912901847 -0.34572766866 -0.69024127433 0.78877808507 -0.35863514696 -0.68764180996 0.78843710528 -0.37122119929 -0.76985541684 0.65860417749 -0.23329762556 -0.77100480839 0.64908188886 -0.25009292126 -0.77155244330 0.64094477519 -0.26643879036 -0.77122149911 0.63406042913 -0.28230303504 -0.76973515336 0.62829644334 -0.29765345752 -0.76681658361 0.62352041047 -0.31245785999 -0.76218896738 0.61959992317 -0.32668404463 -0.75557548224 0.61640257409 -0.34029981366 -0.74669930572 0.61379595589 -0.35327296926 -0.73528361536 0.61164766123 -0.36557131363 -0.76754534990 0.66919937427 -0.23885233947 -0.76970681085 0.66288500366 -0.25419838233 -0.77104449614 0.65747385264 -0.26941351859 -0.77131417658 0.65287157113 -0.28442455324 -0.77027162300 0.64898380901 -0.29915829124 -0.76767260621 0.64571621619 -0.31354153759 -0.76327289704 0.64297444256 -0.32750109726 -0.75682826631 0.64066413803 -0.34096377522 -0.74809448483 0.63869095249 -0.35385637647 -0.73682732343 0.63696053584 -0.36610570597 -0.76481167677 0.68153179558 -0.24337633765 -0.76801073931 0.67759731672 -0.25760957588 -0.77016550940 0.67420730555 -0.27194415223 -0.77106951017 0.67129765266 -0.28627879611 -0.77051626479 0.66880424861 -0.30051223693 -0.76829929640 0.66666298396 -0.31454320407 -0.76421212816 0.66480974930 -0.32827042695 -0.75804828322 0.66318043517 -0.34159263496 -0.74960128472 0.66171093216 -0.35440855750 -0.73866465582 0.66033713083 -0.36661692398 -0.76171272634 0.69530424785 -0.24698379641 -0.76593584011 0.69304199682 -0.26039642391 -0.76890233563 0.69107090945 -0.27406936527 -0.77044624283 0.68935019087 -0.28788403892 -0.77040159165 0.68783904619 -0.30172186330 -0.76860241204 0.68649668054 -0.31546425682 -0.76488273393 0.68528229905 -0.32899263792 -0.75907658728 0.68415510682 -0.34218842501 -0.75101800203 0.68307430899 -0.35493303653 -0.74054100811 0.68199911068 -0.36710789090 -0.75830682748 0.71021953751 -0.24978889205 -0.76350135960 0.70904221274 -0.26262884842 -0.76724182740 0.70799043985 -0.27582783171 -0.76940311750 0.70704070287 -0.28925855692 -0.76986011648 0.70616948581 -0.30279373910 -0.76848771095 0.70535327269 -0.31630609325 -0.76516078753 0.70456854751 -0.32966833439 -0.75975423280 0.70379179430 -0.34275317755 -0.75214293339 0.70299949707 -0.35543333775 -0.74220177588 0.70216813983 -0.36758153000 -0.75465230908 0.72598047097 -0.25190580087 -0.76072654412 0.72542113324 -0.26437677143 -0.76517083729 0.72489167228 -0.27725822555 -0.76789887713 0.72438070581 -0.29042062537 -0.76882435219 0.72387685153 -0.30373443305 -0.76786095101 0.72336872715 -0.31707011074 -0.76492236213 0.72284495038 -0.33029812058 -0.75992227409 0.72229413891 -0.34328892473 -0.75277437543 0.72170491047 -0.35591298534 -0.74339235469 0.72106588276 -0.36804076455 -0.75080750003 0.74228985465 -0.25344869918 -0.75763064002 0.74200192710 -0.26571011494 -0.76267621785 0.74170038227 -0.27839922079 -0.76589226469 0.74138171682 -0.29138851951 -0.76722681170 0.74104242741 -0.30455051388 -0.76662789005 0.74067901069 -0.31775770668 -0.76404353091 0.74028796333 -0.33088260070 -0.75942176543 0.73986578197 -0.34379769870 -0.75271062479 0.73940896329 -0.35637550348 -0.74385814014 0.73891400394 -0.36848851781 -0.74683072922 0.75885049499 -0.25453176327 -0.75423289365 0.75860776310 -0.26669880095 -0.75974482166 0.75834234534 -0.27928949144 -0.76334202312 0.75805525303 -0.29218051460 -0.76500000792 0.75774749749 -0.30524855033 -0.76469428594 0.75742009006 -0.31837027849 -0.76240036705 0.75707404205 -0.33142237897 -0.75809376115 0.75671036479 -0.34428153163 -0.75174997810 0.75633006961 -0.35682441637 -0.74334452780 0.75593416782 -0.36892771305 -0.74278032553 0.77536519839 -0.25526916946 -0.75055255135 0.77506181001 -0.26741275148 -0.75636350127 0.77474333701 -0.27996771149 -0.76020689537 0.77441283157 -0.29281488590 -0.76207645375 0.77407334585 -0.30583511112 -0.76196589650 0.77372793202 -0.31890922355 -0.75986894373 0.77337964224 -0.33191805960 -0.75577931554 0.77303152868 -0.34474245567 -0.74969073201 0.77268664351 -0.35726324818 -0.74159691325 0.77234803889 -0.36936127352 -0.73871461784 0.79153677129 -0.25577509404 -0.74660885948 0.79118723659 -0.26792188852 -0.75251910925 0.79082913280 -0.28047255495 -0.75644562439 0.79046596957 -0.29330990866 -0.75838866210 0.79010125652 -0.30631676499 -0.75834847961 0.78973850331 -0.31937593926 -0.75632533414 0.78938121958 -0.33237024682 -0.75231948291 0.78903291495 -0.34518250298 -0.74633118314 0.78869709908 -0.35769552309 -0.73836069206 0.78837728160 -0.36979212249 -0.83622001192 0.65269486162 -0.23590801981 -0.84001679144 0.64417403887 -0.25164234735 -0.84247457052 0.63675125842 -0.26719182445 -0.84325300263 0.63035448838 -0.28245037124 -0.84201174121 0.62491169684 -0.29731190789 -0.83841043971 0.62035085193 -0.31167035455 -0.83210875159 0.61659992174 -0.32541963137 -0.82276633031 0.61358687439 -0.33845365851 -0.81004282931 0.61123967798 -0.35066635612 -0.79359790206 0.60948630063 -0.36195164435 -0.83085547436 0.66499911911 -0.24152043015 -0.83624055688 0.65930603963 -0.25580296327 -0.83993536915 0.65436044453 -0.27021993247 -0.84164824364 0.65010360626 -0.28462541651 -0.84108751284 0.64647679726 -0.29887349415 -0.83796150925 0.64342128998 -0.31281824414 -0.83197856534 0.64087835688 -0.32631374525 -0.82284701361 0.63878927039 -0.33921407622 -0.81027518654 0.63709530296 -0.35137331582 -0.79397141662 0.63573772705 -0.36264554280 -0.82517235372 0.67866262970 -0.24612629396 -0.83215971476 0.67507462171 -0.25930424429 -0.83710858876 0.67196602663 -0.27284292898 -0.83977828682 0.66929091439 -0.28657056514 -0.83992812003 0.66700335494 -0.30031536987 -0.83731739949 0.66505741822 -0.31390556030 -0.83170543631 0.66340717417 -0.32716935352 -0.82285154159 0.66200669273 -0.33993496664 -0.81051502641 0.66081004384 -0.35203061678 -0.79445520189 0.65977129744 -0.36328452105 -0.81929440847 0.69343549687 -0.24983163467 -0.82784362349 0.69133404893 -0.26220518162 -0.83401959660 0.68951542933 -0.27508754200 -0.83763277140 0.68794571037 -0.28829257652 -0.83849359148 0.68659096430 -0.30163414584 -0.83641250045 0.68541726343 -0.31492611067 -0.83119994190 0.68439068002 -0.32798233168 -0.82266635943 0.68347728635 -0.34061666956 -0.81062219663 0.68264315470 -0.35264298499 -0.79487789712 0.68185435736 -0.36387513867 -0.81334539709 0.70906782410 -0.25274247573 -0.82336164148 0.70793858509 -0.26456476645 -0.83069375988 0.70695607726 -0.27698049957 -0.83520133660 0.70609729176 -0.28979821005 -0.83674395591 0.70533921976 -0.30282643284 -0.83518120211 0.70465885239 -0.31587370291 -0.83037265948 0.70403318082 -0.32874855523 -0.82217791231 0.70343919620 -0.34125952475 -0.81045654489 0.70285388966 -0.35321514645 -0.79506814152 0.70225425238 -0.36442395527 -0.80744907805 0.72530971488 -0.25496484057 -0.81878312713 0.72474249400 -0.26644198999 -0.82715644584 0.72423539501 -0.27854852970 -0.83247362164 0.72377495617 -0.29109422511 -0.83463924203 0.72334771572 -0.30388884163 -0.83355789446 0.72294021191 -0.31674214468 -0.82913416643 0.72253898299 -0.32946389967 -0.82127264542 0.72213056721 -0.34186387202 -0.80987791889 0.72170150282 -0.35375182714 -0.79485457434 0.72123832806 -0.36493753045 -0.80172920983 0.74191127269 -0.25660475262 -0.81417743888 0.74160003948 -0.26789584344 -0.82343302170 0.74130080722 -0.27981836043 -0.82943926576 0.74100800117 -0.29218738111 -0.83213947854 0.74071604659 -0.30481798300 -0.83147696751 0.74041936876 -0.31752524363 -0.82739504014 0.74011239291 -0.33012424050 -0.81983700392 0.73978954433 -0.34243005114 -0.80874616631 0.73944524826 -0.35425775307 -0.79406583480 0.73907392996 -0.36542242381 -0.79630955090 0.75862260102 -0.25776823533 -0.80961393512 0.75836548533 -0.26898531798 -0.81954885469 0.75809973848 -0.28081671977 -0.82608790817 0.75782572434 -0.29308443743 -0.82920469416 0.75754380680 -0.30561046772 -0.82887281124 0.75725434973 -0.31821680740 -0.82506585800 0.75695771700 -0.33072545321 -0.81775743301 0.75665427249 -0.34295840190 -0.80692113486 0.75634438008 -0.35473765022 -0.79253056214 0.75602840365 -0.36588519493 -0.79131385974 0.77519380334 -0.25856131212 -0.80516197428 0.77489309536 -0.26976940482 -0.81552931203 0.77457961341 -0.28157033574 -0.82240918810 0.77425742328 -0.29379215347 -0.82579491761 0.77393059075 -0.30626290657 -0.82567981566 0.77360318161 -0.31881064366 -0.82205719737 0.77327926165 -0.33126341330 -0.81492037786 0.77296289664 -0.34344926408 -0.80426267223 0.77265815239 -0.35519624459 -0.79007739559 0.77236909467 -0.36633240342 -0.78686589482 0.79137498313 -0.25909000645 -0.80089091476 0.79103713338 -0.27030709517 -0.81139976095 0.79068785664 -0.28210593639 -0.81839274477 0.79033239557 -0.29431728861 -0.82187017758 0.78997599286 -0.30677191033 -0.82183237075 0.78962389120 -0.31930056005 -0.81827963565 0.78928133326 -0.33173399627 -0.81121228365 0.78895356172 -0.34390297748 -0.80063062610 0.78864581928 -0.35563826218 -0.78653497439 0.78836334860 -0.36677060887 -0.89434538671 0.64481796989 -0.23971072876 -0.90279404793 0.63810297684 -0.25387842046 -0.90867088980 0.63200975757 -0.26827158265 -0.91158005288 0.62655497919 -0.28267278104 -0.91112567770 0.62175530882 -0.29686458131 -0.90691190481 0.61762741358 -0.31062954914 -0.89854287477 0.61418796057 -0.32375025022 -0.88562272812 0.61145361693 -0.33600925024 -0.86775560541 0.60944104976 -0.34718911489 -0.84454564720 0.60816692618 -0.35707240985 -0.88596502522 0.65940757784 -0.24541369019 -0.89669965894 0.65485797829 -0.25811979022 -0.90435527527 0.65078482286 -0.27137107956 -0.90860488995 0.64718112457 -0.28491093448 -0.90912151877 0.64403989645 -0.29848273125 -0.90557817750 0.64135415150 -0.31182984613 -0.89764788191 0.63911690277 -0.32469565539 -0.88500364777 0.63732116327 -0.33682353528 -0.86731849085 0.63595994601 -0.34795686208 -0.84426542692 0.63502626403 -0.35783901205 -0.87764527738 0.67485011734 -0.25014647687 -0.89055695916 0.67192243594 -0.26175487860 -0.89991274494 0.66934678573 -0.27412459983 -0.90545145153 0.66710303500 -0.28697593587 -0.90691189572 0.66517105206 -0.30002918198 -0.90403289432 0.66353070522 -0.31300463346 -0.89655326412 0.66216186276 -0.32562258558 -0.88421182191 0.66104439298 -0.33760333363 -0.86674738451 0.66015816420 -0.34866717290 -0.84389876870 0.65948304471 -0.35853439866 -0.86950111700 0.69095914922 -0.25400268308 -0.88443705682 0.68918700780 -0.26482612558 -0.89537865743 0.68766241320 -0.27654100606 -0.90212611818 0.68636052271 -0.28885758624 -0.90447963845 0.68525649363 -0.30148612785 -0.90223941760 0.68432548323 -0.31413689259 -0.89520565498 0.68354264883 -0.32652014219 -0.88317854996 0.68288314772 -0.33834613837 -0.86595830190 0.68232213718 -0.34932514285 -0.84334511017 0.68183477451 -0.35916741735 -0.86164751787 0.70754823430 -0.25707590309 -0.87841106018 0.70654235190 -0.26737597115 -0.89078837132 0.70569847233 -0.27862916082 -0.89863527048 0.70499339994 -0.29054568666 -0.90180757687 0.70440393908 -0.30283576320 -0.90016110968 0.70390689409 -0.31520960501 -0.89355168809 0.70347906931 -0.32737742662 -0.88183513132 0.70309726909 -0.33904944260 -0.86486725855 0.70273829778 -0.34993586748 -0.84250388899 0.70237895972 -0.35974691581 -0.85419945381 0.72443093343 -0.25945973118 -0.87255007750 0.72387912624 -0.26944685529 -0.88617724522 0.72342173014 -0.28039792669 -0.89498528900 0.72304147892 -0.29203003815 -0.89887854088 0.72272110637 -0.30406028240 -0.89776133289 0.72244334630 -0.31620575219 -0.89153799706 0.72219093249 -0.32818354028 -0.88011286541 0.72194659875 -0.33971073940 -0.86339026998 0.72169307886 -0.35050444231 -0.84127454280 0.72141310663 -0.36028174175 -0.84727189861 0.74142080743 -0.26124776162 -0.86692521701 0.74108798885 -0.27108121797 -0.88158063771 0.74079895367 -0.28185616625 -0.89118255431 0.74054457188 -0.29330044176 -0.89567536040 0.74031571345 -0.30514187978 -0.89500344959 0.74010324839 -0.31710831562 -0.88911121547 0.73989804668 -0.32892758455 -0.87794305164 0.73969097831 -0.34032752187 -0.86144335170 0.73947291326 -0.35103596287 -0.83955650925 0.73923472153 -0.36078074285 -0.84097982607 0.75833141714 -0.26253358869 -0.86160758698 0.75805959774 -0.27232149919 -0.87703390741 0.75779690996 -0.28301274209 -0.88723344698 0.75754249104 -0.29434669854 -0.89218086533 0.75729547827 -0.30606274972 -0.89185082210 0.75705500890 -0.31790027676 -0.88621797692 0.75682022019 -0.32959866083 -0.87525698941 0.75659024941 -0.34089728309 -0.85894251922 0.75636423383 -0.35153552470 -0.83724922599 0.75614131071 -0.36125276681 -0.83543821000 0.77497632338 -0.26341080665 -0.85666829566 0.77468461093 -0.27321013892 -0.87257241290 0.77438236603 -0.28387651677 -0.88314434758 0.77407504865 -0.29515860954 -0.88837788559 0.77376811876 -0.30680508654 -0.88826681277 0.77346703633 -0.31856461710 -0.88280491500 0.77317726132 -0.33018587054 -0.87198597815 0.77290425369 -0.34141751617 -0.85580378808 0.77265347342 -0.35200822332 -0.83425213066 0.77243038047 -0.36170666131 -0.83076202421 0.79116908698 -0.26397300979 -0.85217845130 0.79085368642 -0.27378957714 -0.86823151278 0.79052208893 -0.28445635289 -0.87892163669 0.79018205694 -0.29572597579 -0.88424925107 0.78984135289 -0.30735108462 -0.88421478393 0.78950773922 -0.31908431812 -0.87881866332 0.78918897837 -0.33067831505 -0.86806131726 0.78889283277 -0.34188571418 -0.85194317378 0.78862706486 -0.35245915426 -0.83046466092 0.78839943709 -0.36215127406 -0.94183694430 0.63471688344 -0.24469120664 -0.95787797859 0.63063526171 -0.25678438181 -0.96938885669 0.62650104880 -0.26965448391 -0.97593062253 0.62245352750 -0.28293558016 -0.97706432006 0.61863198058 -0.29626173780 -0.97235099322 0.61517569081 -0.30926702407 -0.96135168595 0.61222394097 -0.32158550620 -0.94362744218 0.60991601382 -0.33285125142 -0.91873930587 0.60839119215 -0.34269832698 -0.88624832095 0.60778875871 -0.35076080011 -0.93022722964 0.65224586459 -0.25051881821 -0.94938336174 0.64937862447 -0.26113378144 -0.96331755679 0.64659591945 -0.27284589705 -0.97168457667 0.64396175145 -0.28525042771 -0.97413918325 0.64154012237 -0.29794263610 -0.97033613840 0.63939503412 -0.31051778489 -0.95993020402 0.63759048863 -0.32257113675 -0.94257614198 0.63619048779 -0.33369795436 -0.91792871416 0.63525903354 -0.34349350040 -0.88564268242 0.63486012777 -0.35155303754 -0.91950037163 0.66997573366 -0.25542479639 -0.94139205253 0.66803377017 -0.26494805283 -0.95746186010 0.66625102591 -0.27577075397 -0.96744673792 0.66464220119 -0.28746852721 -0.97108362960 0.66322199632 -0.29961699995 -0.96810947872 0.66200511161 -0.31179179959 -0.95826122888 0.66100624737 -0.32356855353 -0.94127582368 0.66024010392 -0.33452288917 -0.91689020671 0.65972138156 -0.34423043391 -0.88484132157 0.65946478062 -0.35226681515 -0.90965126018 0.68780185841 -0.25948601173 -0.93390083313 0.68653508446 -0.26824743539 -0.95181803956 0.68545219462 -0.27841403941 -0.96321060448 0.68453997292 -0.28955709857 -0.96788625287 0.68378520338 -0.30124788765 -0.96565270972 0.68317467002 -0.31305768142 -0.95631770003 0.68269515688 -0.32455775467 -0.93968894877 0.68233344797 -0.33531938216 -0.91557418095 0.68207632732 -0.34491383869 -0.88378112155 0.68191057895 -0.35291239902 -0.90067478525 0.70561960657 -0.26277933478 -0.92690648570 0.70481695296 -0.27105216854 -0.94638236814 0.70418525200 -0.28076073813 -0.95896967453 0.70370016281 -0.29148336172 -0.96453564683 0.70333734448 -0.30279835748 -0.96294752699 0.70307245612 -0.31428404361 -0.95407255698 0.70288115683 -0.32551873827 -0.93777797876 0.70273910572 -0.33608075964 -0.91393103428 0.70262196189 -0.34554842590 -0.88239896551 0.70250538444 -0.35350005522 -0.89256583676 0.72332434589 -0.26538163611 -0.92040579243 0.72281376132 -0.27338249170 -0.94115111880 0.72243602450 -0.28279583486 -0.95471744626 0.72216786706 -0.29321453656 -0.96102040522 0.72198602057 -0.30423146775 -0.95997562608 0.72186721666 -0.31543949940 -0.95149873925 0.72178818692 -0.32643150246 -0.93550537513 0.72172566295 -0.33680034791 -0.91191116411 0.72165637636 -0.34613890671 -0.88063173662 0.72155705875 -0.35404004982 -0.88531930464 0.74081144411 -0.26736978625 -0.91439553548 0.74045989518 -0.27525864428 -0.93612056448 0.74019033856 -0.28450431437 -0.95044741785 0.73998818184 -0.29471784302 -0.95732912181 0.73983883259 -0.30551027674 -0.95671870257 0.73972769839 -0.31649266202 -0.94856918636 0.73964018680 -0.32727604537 -0.93283359939 0.73956170542 -0.33747147329 -0.90946496787 0.73947766182 -0.34668999230 -0.87841631802 0.73937346358 -0.35454264889 -0.87893007883 0.75797626897 -0.26882065576 -0.90887249703 0.75768974018 -0.27670086570 -0.93128697816 0.75743402062 -0.28587116141 -0.94615308750 0.75720620336 -0.29596050103 -0.95345039036 0.75700338148 -0.30659784274 -0.95315845203 0.75682264806 -0.31741214471 -0.94525683782 0.75666109618 -0.32803236510 -0.92972511302 0.75651581892 -0.33808746208 -0.90654284294 0.75638390936 -0.34720639383 -0.87568959288 0.75626246058 -0.35501811851 -0.87339304925 0.77471418823 -0.26981111519 -0.90383345925 0.77443768197 -0.27772939538 -0.92664663278 0.77415289711 -0.28688136071 -0.94182795339 0.77386702778 -0.29690973049 -0.94937280462 0.77358726817 -0.30745722405 -0.94927657002 0.77332081243 -0.31816656070 -0.94153463315 0.77307485472 -0.32868045978 -0.92614237754 0.77285658922 -0.33864164060 -0.90309518676 0.77267321007 -0.34769282247 -0.87238844435 0.77253191146 -0.35547672473 -0.86870310584 0.79092056961 -0.27041803510 -0.89927520431 0.79063810619 -0.27836447273 -0.92219580131 0.79033279446 -0.28751989703 -0.93746551370 0.79001575131 -0.29753275133 -0.94508495835 0.78969809361 -0.30805147896 -0.94505475211 0.78939093825 -0.31872452325 -0.93737551185 0.78910540212 -0.32920032753 -0.92204785444 0.78885260208 -0.33912733514 -0.89907239673 0.78864365504 -0.34815398940 -0.86844975559 0.78848967787 -0.35592873365 </DataArray>
</Points>
</Piece>
</StructuredGrid>
</VTKFile>
