<?xml version="1.0"?>
<VTKFile type="StructuredGrid" version="0.1">
<StructuredGrid WholeExtent="0 9 0 9 0 9">
<Piece Extent="0 9 0 9 0 9">
<PointData>
<DataArray type="Float32" Name="Deformation" format="ascii" NumberOfComponents="3">
0.00012049319 0.00049134091 -0.00026224236 0.00011114228 0.00046579145 -0.00028229562 0.00010461159 0.00043377720 -0.00029693436 0.00010056410 0.00039699213 -0.00030679724 0.00009866281 0.00035713019 -0.00031252293 0.00009857071 0.00031588536 -0.00031475009 0.00009995079 0.00027495161 -0.00031411739 0.00010246604 0.00023602289 -0.00031126350 0.00010577945 0.00020079317 -0.00030682708 0.00010955402 0.00017095641 -0.00030144680 0.00013764983 0.00048517629 -0.00030077655 0.00012818328 0.00046185304 -0.00031556200 0.00012130444 0.00043237547 -0.00032646790 0.00011676344 0.00039836003 -0.00033397119 0.00011431044 0.00036142317 -0.00033854884 0.00011369558 0.00032318134 -0.00034067780 0.00011466903 0.00028525100 -0.00034083503 0.00011698092 0.00024924859 -0.00033949747 0.00012038140 0.00021679057 -0.00033714208 0.00012462062 0.00018949339 -0.00033424582 0.00014832121 0.00047996508 -0.00034148463 0.00013924263 0.00045876287 -0.00035247346 0.00013249759 0.00043156544 -0.00036059519 0.00012788449 0.00039992733 -0.00036621838 0.00012520170 0.00036540311 -0.00036971157 0.00012424759 0.00032954732 -0.00037144332 0.00012482055 0.00029391454 -0.00037178217 0.00012671895 0.00026005930 -0.00037109668 0.00012974116 0.00022953617 -0.00036975539 0.00013368558 0.00020389972 -0.00036812685 0.00015348281 0.00047573769 -0.00038399963 0.00014515011 0.00045655771 -0.00039246347 0.00013888216 0.00043141139 -0.00039863952 0.00013449742 0.00040180359 -0.00040283133 0.00013181438 0.00036923914 -0.00040534245 0.00013065152 0.00033522289 -0.00040647643 0.00013082731 0.00030125968 -0.00040653683 0.00013216023 0.00026885436 -0.00040582719 0.00013446875 0.00023951176 -0.00040465107 0.00013757136 0.00021473672 -0.00040331202 0.00015411009 0.00047252454 -0.00042795457 0.00014673553 0.00045527430 -0.00043496553 0.00014114921 0.00043197761 -0.00043992418 0.00013717238 0.00040409836 -0.00044310260 0.00013462628 0.00037310041 -0.00044477283 0.00013333216 0.00034044764 -0.00044520695 0.00013311128 0.00030760391 -0.00044467701 0.00013378487 0.00027603311 -0.00044345507 0.00013517418 0.00024719910 -0.00044181319 0.00013710046 0.00022256576 -0.00044002344 0.00015117855 0.00047035602 -0.00047298248 0.00014482868 0.00045494940 -0.00047941310 0.00013998984 0.00043332840 -0.00048377245 0.00013647951 0.00040692121 -0.00048632471 0.00013411518 0.00037715605 -0.00048733405 0.00013271431 0.00034546114 -0.00048706466 0.00013209442 0.00031326469 -0.00048578071 0.00013207297 0.00028199490 -0.00048374637 0.00013246745 0.00025307999 -0.00048122582 0.00013309535 0.00022794817 -0.00047848323 0.00014566364 0.00046926256 -0.00051871639 0.00014025936 0.00045561979 -0.00052523966 0.00013609515 0.00043552802 -0.00052950760 0.00013298898 0.00041038169 -0.00053179020 0.00013075886 0.00038157521 -0.00053235746 0.00012922276 0.00035050300 -0.00053147937 0.00012819869 0.00031855948 -0.00052942594 0.00012750463 0.00028713907 -0.00052646716 0.00012695858 0.00025763620 -0.00052287302 0.00012637852 0.00023144528 -0.00051891353 0.00013854086 0.00046927455 -0.00056478931 0.00013385737 0.00045732220 -0.00057187870 0.00013015621 0.00043864079 -0.00057645293 0.00012727094 0.00041458937 -0.00057879161 0.00012503511 0.00038652701 -0.00057917439 0.00012328230 0.00035581279 -0.00057788088 0.00012184606 0.00032380575 -0.00057519071 0.00012055997 0.00029186498 -0.00057138350 0.00011925757 0.00026134952 -0.00056673887 0.00011777244 0.00023361845 -0.00056153646 0.00013078567 0.00047042241 -0.00061083429 0.00012645250 0.00046009341 -0.00061876369 0.00012286412 0.00044273097 -0.00062393171 0.00011989553 0.00041965380 -0.00062662149 0.00011742172 0.00039218061 -0.00062711620 0.00011531771 0.00036163010 -0.00062569899 0.00011345850 0.00032932098 -0.00062265302 0.00011171907 0.00029657195 -0.00061826145 0.00010997444 0.00026470173 -0.00061280743 0.00010809961 0.00023502901 -0.00060657413 0.00012337355 0.00047273654 -0.00065648434 0.00011887454 0.00046397017 -0.00066532812 0.00011490996 0.00044786287 -0.00067126722 0.00011143290 0.00042568455 -0.00067457236 0.00010839648 0.00039870513 -0.00067551421 0.00010575380 0.00036819452 -0.00067436348 0.00010345795 0.00033542262 -0.00067139087 0.00010146205 0.00030165934 -0.00066686707 0.00009971920 0.00026817460 -0.00066106277 0.00009818250 0.00023623831 -0.00065424867 0.00015281257 0.00049477816 -0.00025512660 0.00014587151 0.00046741072 -0.00026992578 0.00014035640 0.00043521587 -0.00028131106 0.00013610223 0.00039926298 -0.00028979634 0.00013294399 0.00036062142 -0.00029589555 0.00013071669 0.00032036055 -0.00030012260 0.00012925533 0.00027954973 -0.00030299142 0.00012839489 0.00023925834 -0.00030501593 0.00012797039 0.00020055573 -0.00030671003 0.00012781680 0.00016451128 -0.00030858766 0.00016124093 0.00049043865 -0.00029359396 0.00015404678 0.00046465617 -0.00030531102 0.00014824631 0.00043423913 -0.00031433326 0.00014371235 0.00040024233 -0.00032107732 0.00014031775 0.00036372059 -0.00032595984 0.00013793533 0.00032572872 -0.00032939745 0.00013643793 0.00028732155 -0.00033180679 0.00013569839 0.00024955387 -0.00033360450 0.00013558953 0.00021348052 -0.00033520722 0.00013598420 0.00018015631 -0.00033703158 0.00016528280 0.00048615805 -0.00033418064 0.00015821822 0.00046181494 -0.00034349936 0.00015246496 0.00043295066 -0.00035065134 0.00014791498 0.00040060335 -0.00035596703 0.00014446027 0.00036581117 -0.00035977687 0.00014199278 0.00032961224 -0.00036241130 0.00014040450 0.00029304471 -0.00036420076 0.00013958740 0.00025714673 -0.00036547570 0.00013943344 0.00022295644 -0.00036656656 0.00013983461 0.00019151198 -0.00036780378 0.00016560378 0.00048211654 -0.00037648934 0.00015894764 0.00045908174 -0.00038403532 0.00015348156 0.00043156962 -0.00038977254 0.00014910333 0.00040059945 -0.00039395779 0.00014571073 0.00036719049 -0.00039684789 0.00014320155 0.00033236202 -0.00039869964 0.00014147359 0.00029713331 -0.00039976985 0.00014042463 0.00026252364 -0.00040031533 0.00013995246 0.00022955227 -0.00040059288 0.00013995488 0.00019923847 -0.00040085932 0.00016286950 0.00047849429 -0.00042012276 0.00015679683 0.00045665132 -0.00042646344 0.00015176531 0.00043031518 -0.00043120409 0.00014767058 0.00040048400 -0.00043454192 0.00014440830 0.00036815589 -0.00043667414 0.00014187415 0.00033432899 -0.00043779795 0.00013996376 0.00030000142 -0.00043811056 0.00013857281 0.00026617130 -0.00043780918 0.00013759694 0.00023383677 -0.00043709102 0.00013693182 0.00020399595 -0.00043615329 0.00015774555 0.00047547147 -0.00046468361 0.00015232758 0.00045471841 -0.00047032825 0.00014778539 0.00042940651 -0.00047445326 0.00014400994 0.00040051040 -0.00047721176 0.00014089218 0.00036900470 -0.00047875688 0.00013832307 0.00033586406 -0.00047924172 0.00013619357 0.00030206310 -0.00047881941 0.00013439464 0.00026857645 -0.00047764307 0.00013281722 0.00023637874 -0.00047586581 0.00013135228 0.00020644460 -0.00047364077 0.00015089754 0.00047322827 -0.00050977458 0.00014610168 0.00045347774 -0.00051517427 0.00014201102 0.00042906275 -0.00051902728 0.00013851462 0.00040093202 -0.00052145964 0.00013550154 0.00037003426 -0.00052259735 0.00013286084 0.00033731816 -0.00052256644 0.00013048159 0.00030373243 -0.00052149291 0.00012825283 0.00027022579 -0.00051950280 0.00012606365 0.00023774695 -0.00051672210 0.00012380308 0.00020724460 -0.00051327684 0.00014299108 0.00047194485 -0.00055499839 0.00013868092 0.00045312404 -0.00056054604 0.00013491138 0.00042950308 -0.00056443341 0.00013157781 0.00040200227 -0.00056677788 0.00012857555 0.00037154188 -0.00056769681 0.00012579995 0.00033904219 -0.00056730759 0.00012314636 0.00030542349 -0.00056572759 0.00012051012 0.00027160606 -0.00056307416 0.00011778656 0.00023851017 -0.00055946470 0.00011487105 0.00020705610 -0.00055501657 0.00013469178 0.00047180139 -0.00059995772 0.00013062709 0.00045385204 -0.00060598808 0.00012695567 0.00043094666 -0.00061017888 0.00012359271 0.00040397453 -0.00061265880 0.00012045340 0.00037382491 -0.00061355651 0.00011745292 0.00034138710 -0.00061300067 0.00011450646 0.00030755035 -0.00061111994 0.00011152919 0.00027320395 -0.00060804298 0.00010843632 0.00023923718 -0.00060389847 0.00010514302 0.00020653930 -0.00059881506 0.00012666525 0.00047297806 -0.00064425530 0.00012250199 0.00045585648 -0.00065104492 0.00011861310 0.00043361265 -0.00065577095 0.00011495254 0.00040710218 -0.00065859475 0.00011147427 0.00037718068 -0.00065967770 0.00010813225 0.00034470378 -0.00065918115 0.00010488043 0.00031052708 -0.00065726648 0.00010167278 0.00027550620 -0.00065409505 0.00009846326 0.00024049676 -0.00064982822 0.00009520583 0.00020635436 -0.00064462738 0.00018429789 0.00048715844 -0.00023708423 0.00017823758 0.00045916420 -0.00024844681 0.00017261338 0.00042711675 -0.00025791383 0.00016734921 0.00039172731 -0.00026587174 0.00016236899 0.00035370715 -0.00027270704 0.00015759663 0.00031376752 -0.00027880617 0.00015295606 0.00027261966 -0.00028455563 0.00014837118 0.00023097483 -0.00029034187 0.00014376592 0.00018954426 -0.00029655138 0.00013906419 0.00014903922 -0.00030357061 0.00018388962 0.00048396785 -0.00027779807 0.00017779765 0.00045652890 -0.00028729421 0.00017218913 0.00042543399 -0.00029504862 0.00016701774 0.00039135629 -0.00030140392 0.00016223719 0.00035496897 -0.00030670273 0.00015780116 0.00031694521 -0.00031128766 0.00015366337 0.00027795816 -0.00031550135 0.00014977750 0.00023868101 -0.00031968640 0.00014609724 0.00019978692 -0.00032418544 0.00014257631 0.00016194905 -0.00032934109 0.00018125989 0.00048027142 -0.00031989607 0.00017529595 0.00045342663 -0.00032779266 0.00016983124 0.00042318500 -0.00033412807 0.00016483300 0.00039019427 -0.00033918264 0.00016026850 0.00035510213 -0.00034323670 0.00015610500 0.00031855630 -0.00034657059 0.00015230973 0.00028120450 -0.00034946465 0.00014884997 0.00024369444 -0.00035219920 0.00014569296 0.00020667383 -0.00035505459 0.00014280596 0.00017079039 -0.00035831114 0.00017674373 0.00047635453 -0.00036308818 0.00017102433 0.00045011943 -0.00036966187 0.00016579259 0.00042063291 -0.00037485961 0.00016101741 0.00038852647 -0.00037889005 0.00015666769 0.00035443162 -0.00038196181 0.00015271235 0.00031897986 -0.00038428356 0.00014912029 0.00028280269 -0.00038606393 0.00014586043 0.00024653161 -0.00038751156 0.00014290166 0.00021079813 -0.00038883510 0.00014021289 0.00017623374 -0.00039024319 0.00017067613 0.00047250255 -0.00040708433 0.00016527464 0.00044686933 -0.00041262158 0.00016032605 0.00041804080 -0.00041695071 0.00015579335 0.00038663812 -0.00042020830 0.00015163949 0.00035328245 -0.00042253092 0.00014782745 0.00031859495 -0.00042405515 0.00014432020 0.00028319675 -0.00042491757 0.00014108070 0.00024770903 -0.00042525474 0.00013807193 0.00021275292 -0.00042520325 0.00013525685 0.00017894959 -0.00042489966 0.00016339211 0.00046900087 -0.00045159448 0.00015833872 0.00044393836 -0.00045639151 0.00015368451 0.00041567179 -0.00046010882 0.00014938324 0.00038481444 -0.00046281956 0.00014538866 0.00035197962 -0.00046459688 0.00014165453 0.00031778061 -0.00046551396 0.00013813460 0.00028283070 -0.00046564395 0.00013478263 0.00024774318 -0.00046506002 0.00013155238 0.00021313134 -0.00046383531 0.00012839759 0.00017960847 -0.00046204299 0.00015522668 0.00046613486 -0.00049632856 0.00015050843 0.00044158855 -0.00050069139 0.00014612083 0.00041378897 -0.00050404139 0.00014200947 0.00038334065 -0.00050640597 0.00013811993 0.00035084813 -0.00050781256 0.00013439779 0.00031691592 -0.00050828859 0.00013078863 0.00028214856 -0.00050786148 0.00012723803 0.00024715057 -0.00050655866 0.00012369159 0.00021252649 -0.00050440756 0.00012009486 0.00017888085 -0.00050143559 0.00014651483 0.00046418990 -0.00054099651 0.00014207561 0.00044008194 -0.00054524094 0.00013788789 0.00041265546 -0.00054845587 0.00013389445 0.00038250198 -0.00055064969 0.00013003806 0.00035021297 -0.00055183080 0.00012626147 0.00031637992 -0.00055200762 0.00012250744 0.00028159434 -0.00055118853 0.00011871875 0.00024644770 -0.00054938195 0.00011483815 0.00021153151 -0.00054659627 0.00011080841 0.00017743726 -0.00054283989 0.00013759159 0.00046345137 -0.00058530829 0.00013333210 0.00043968055 -0.00058975989 0.00012923857 0.00041253437 -0.00059305972 0.00012526059 0.00038258363 -0.00059523287 0.00012134779 0.00035039914 -0.00059630448 0.00011744978 0.00031655168 -0.00059629965 0.00011351618 0.00028161206 -0.00059524350 0.00010949661 0.00024615107 -0.00059316115 0.00010534067 0.00021073952 -0.00059007772 0.00010099799 0.00017594819 -0.00058601832 0.00012879194 0.00046420465 -0.00062897383 0.00012456977 0.00044064641 -0.00063396797 0.00012042574 0.00041368879 -0.00063756039 0.00011633028 0.00038387084 -0.00063983768 0.00011225387 0.00035173165 -0.00064088644 0.00010816696 0.00031781026 -0.00064079327 0.00010404000 0.00028264575 -0.00063964477 0.00009984344 0.00024677718 -0.00063752754 0.00009554774 0.00021074362 -0.00063452818 0.00009112335 0.00017508414 -0.00063073329 0.00021383086 0.00046917478 -0.00021076244 0.00020766783 0.00044082524 -0.00021959094 0.00020122305 0.00040871606 -0.00022774095 0.00019445789 0.00037339534 -0.00023546573 0.00018733371 0.00033541117 -0.00024301854 0.00017981188 0.00029531165 -0.00025065263 0.00017185379 0.00025364487 -0.00025862124 0.00016342078 0.00021095894 -0.00026717762 0.00015447425 0.00016780193 -0.00027657504 0.00014497555 0.00012472196 -0.00028706673 0.00020493594 0.00046658774 -0.00025514704 0.00019913100 0.00043770712 -0.00026271143 0.00019310884 0.00040581540 -0.00026935473 0.00018687781 0.00037135662 -0.00027533737 0.00018044627 0.00033477482 -0.00028091981 0.00017382259 0.00029651407 -0.00028636249 0.00016701512 0.00025701841 -0.00029192586 0.00016003223 0.00021673188 -0.00029787037 0.00015288226 0.00017609854 -0.00030445647 0.00014557359 0.00013556244 -0.00031194459 0.00019590001 0.00046324681 -0.00029982413 0.00019036260 0.00043414922 -0.00030620687 0.00018468002 0.00040253153 -0.00031159464 0.00017888316 0.00036877604 -0.00031621428 0.00017300291 0.00033326500 -0.00032029267 0.00016707016 0.00029638071 -0.00032405666 0.00016111580 0.00025850543 -0.00032773311 0.00015517070 0.00022002144 -0.00033154889 0.00014926576 0.00018131102 -0.00033573085 0.00014343187 0.00014275645 -0.00034050586 0.00018673742 0.00045949029 -0.00034467863 0.00018139672 0.00043041065 -0.00034999602 0.00017598278 0.00039909460 -0.00035436484 0.00017053046 0.00036589527 -0.00035795180 0.00016507463 0.00033116579 -0.00036092361 0.00015965017 0.00029525929 -0.00036344697 0.00015429194 0.00025852890 -0.00036568859 0.00014903481 0.00022132776 -0.00036781519 0.00014391365 0.00018400899 -0.00036999345 0.00013896333 0.00014692573 -0.00037239010 0.00017746251 0.00045565648 -0.00038959547 0.00017226748 0.00042675055 -0.00039399763 0.00016706331 0.00039573473 -0.00039756949 0.00016187623 0.00036295599 -0.00040040526 0.00015673244 0.00032876127 -0.00040259912 0.00015165819 0.00029349756 -0.00040424529 0.00014667969 0.00025751181 -0.00040543794 0.00014182316 0.00022115100 -0.00040627129 0.00013711482 0.00018476209 -0.00040683953 0.00013258091 0.00014869204 -0.00040723686 0.00016808961 0.00045208369 -0.00043445958 0.00016300897 0.00042342806 -0.00043813047 0.00015796781 0.00039268207 -0.00044111276 0.00015297698 0.00036019985 -0.00044342998 0.00014804735 0.00032633553 -0.00044510570 0.00014318979 0.00029144325 -0.00044616345 0.00013841516 0.00025587713 -0.00044662678 0.00013373433 0.00021999131 -0.00044651923 0.00012915816 0.00018413992 -0.00044586436 0.00012469753 0.00014867710 -0.00044468570 0.00015863306 0.00044911023 -0.00047915588 0.00015365530 0.00042070229 -0.00048231330 0.00014874246 0.00039016673 -0.00048489879 0.00014388924 0.00035786852 -0.00048688131 0.00013909037 0.00032417265 -0.00048822983 0.00013434055 0.00028944409 -0.00048891332 0.00012963450 0.00025404784 -0.00048890073 0.00012496694 0.00021834886 -0.00048816103 0.00012033257 0.00018271214 -0.00048666318 0.00011572612 0.00014750266 -0.00048437616 0.00014910721 0.00044707440 -0.00052356930 0.00014424057 0.00041883239 -0.00052646488 0.00013943344 0.00038841886 -0.00052883175 0.00013466952 0.00035620368 -0.00053061457 0.00012993250 0.00032255671 -0.00053175801 0.00012520604 0.00028784783 -0.00053220673 0.00012047384 0.00025244690 -0.00053190540 0.00011571958 0.00021672379 -0.00053079870 0.00011092695 0.00018104835 -0.00052883127 0.00010607962 0.00014579047 -0.00052594781 0.00013952639 0.00044631452 -0.00056758477 0.00013479887 0.00041807748 -0.00057050398 0.00013008696 0.00038766859 -0.00057281580 0.00012537435 0.00035544698 -0.00057448509 0.00012064475 0.00032177181 -0.00057547672 0.00011588183 0.00028700220 -0.00057575554 0.00011106930 0.00025149730 -0.00057528644 0.00010619086 0.00021561625 -0.00057403427 0.00010123018 0.00017971819 -0.00057196389 0.00009617097 0.00014416226 -0.00056904018 0.00012990494 0.00044716888 -0.00061108720 0.00012536431 0.00041869669 -0.00061434936 0.00012074919 0.00038814605 -0.00061675510 0.00011606024 0.00035584011 -0.00061834821 0.00011129813 0.00032210202 -0.00061917245 0.00010646350 0.00028725493 -0.00061927161 0.00010155703 0.00025162201 -0.00061868945 0.00009657936 0.00021552641 -0.00061746976 0.00009153116 0.00017929128 -0.00061565629 0.00008641308 0.00014323978 -0.00061329284 0.00024029315 0.00044152019 -0.00017880841 0.00023358963 0.00041216715 -0.00018509038 0.00022602595 0.00037925006 -0.00019179071 0.00021758111 0.00034327730 -0.00019902060 0.00020823407 0.00030475725 -0.00020689123 0.00019796383 0.00026419831 -0.00021551379 0.00018674935 0.00022210885 -0.00022499947 0.00017456961 0.00017899727 -0.00023545946 0.00016140360 0.00013537194 -0.00024700494 0.00014723029 0.00009174126 -0.00025974711 0.00022371992 0.00043912217 -0.00022739904 0.00021774191 0.00040842676 -0.00023276254 0.00021098138 0.00037523871 -0.00023799232 0.00020349078 0.00033989801 -0.00024326405 0.00019532255 0.00030274463 -0.00024875338 0.00018652914 0.00026411858 -0.00025463599 0.00017716300 0.00022435983 -0.00026108752 0.00016727658 0.00018380837 -0.00026828366 0.00015692232 0.00014280420 -0.00027640005 0.00014615267 0.00010168729 -0.00028561235 0.00020885066 0.00043602584 -0.00027515802 0.00020330493 0.00040453398 -0.00027959552 0.00019709489 0.00037125329 -0.00028362031 0.00019031007 0.00033642462 -0.00028741104 0.00018304000 0.00030028879 -0.00029114636 0.00017537422 0.00026308664 -0.00029500494 0.00016740226 0.00022505902 -0.00029916542 0.00015921365 0.00018644675 -0.00030380647 0.00015089791 0.00014749069 -0.00030910674 0.00014254459 0.00010843166 -0.00031524487 0.00019541964 0.00043256243 -0.00032214319 0.00019008136 0.00040069531 -0.00032569066 0.00018421967 0.00036744806 -0.00032875229 0.00017793328 0.00033301645 -0.00033146674 0.00017132091 0.00029759624 -0.00033397264 0.00016448126 0.00026138318 -0.00033640864 0.00015751305 0.00022457303 -0.00033891338 0.00015051498 0.00018736156 -0.00034162552 0.00014358577 0.00014994452 -0.00034468369 0.00013682413 0.00011251767 -0.00034822653 0.00018316113 0.00042906320 -0.00036841237 0.00017787389 0.00039711725 -0.00037114927 0.00017220894 0.00036397727 -0.00037346588 0.00016625474 0.00032983283 -0.00037543632 0.00016009976 0.00029487351 -0.00037713468 0.00015383246 0.00025928888 -0.00037863507 0.00014754130 0.00022326850 -0.00038001161 0.00014131475 0.00018700195 -0.00038133840 0.00013524128 0.00015067881 -0.00038268956 0.00012940935 0.00011448863 -0.00038413919 0.00017180939 0.00042585940 -0.00041402340 0.00016648521 0.00039400632 -0.00041607270 0.00016091590 0.00036099518 -0.00041783871 0.00015516875 0.00032703309 -0.00041932495 0.00014931102 0.00029232714 -0.00042053495 0.00014341000 0.00025708443 -0.00042147223 0.00013753294 0.00022151204 -0.00042214032 0.00013174712 0.00018581708 -0.00042254275 0.00012611982 0.00015020665 -0.00042268303 0.00012071832 0.00011488784 -0.00042256470 0.00016109870 0.00042328226 -0.00045903412 0.00015571799 0.00039156903 -0.00046056227 0.00015019376 0.00035865607 -0.00046194838 0.00014456962 0.00032477656 -0.00046313780 0.00013888919 0.00029016365 -0.00046407592 0.00013319607 0.00025505050 -0.00046470811 0.00012753389 0.00021967027 -0.00046497973 0.00012194626 0.00018425610 -0.00046483615 0.00011647679 0.00014904117 -0.00046422276 0.00011116910 0.00011425862 -0.00046308492 0.00015076331 0.00042166305 -0.00050350236 0.00014537493 0.00039001188 -0.00050471932 0.00013989572 0.00035711420 -0.00050587251 0.00013435167 0.00032322257 -0.00050688005 0.00012876873 0.00028858958 -0.00050766007 0.00012317288 0.00025346780 -0.00050813069 0.00011759008 0.00021810980 -0.00050821004 0.00011204632 0.00018276816 -0.00050781624 0.00010656756 0.00014769546 -0.00050686742 0.00010117977 0.00011314428 -0.00050528171 0.00014053751 0.00042133299 -0.00054748595 0.00013525871 0.00038954139 -0.00054864518 0.00012987500 0.00035652381 -0.00054968873 0.00012440920 0.00032253044 -0.00055055687 0.00011888412 0.00028781144 -0.00055118986 0.00011332260 0.00025261699 -0.00055152797 0.00010774745 0.00021719726 -0.00055151147 0.00010218148 0.00018180242 -0.00055108062 0.00009664752 0.00014668265 -0.00055017569 0.00009116839 0.00011208811 -0.00054873694 0.00013015555 0.00042262336 -0.00059104273 0.00012517201 0.00039036407 -0.00059244117 0.00011998478 0.00035703919 -0.00059347465 0.00011463652 0.00032285950 -0.00059417342 0.00010916986 0.00028803577 -0.00059456776 0.00010362744 0.00025277877 -0.00059468794 0.00009805191 0.00021729926 -0.00059456423 0.00009248590 0.00018180802 -0.00059422690 0.00008697206 0.00014651582 -0.00059370622 0.00008155303 0.00011163342 -0.00059303246 0.00026256648 0.00040488770 -0.00014386931 0.00025543031 0.00037296327 -0.00014667736 0.00024686259 0.00033795498 -0.00015106139 0.00023687170 0.00030038341 -0.00015697861 0.00022546599 0.00026076918 -0.00016438624 0.00021265382 0.00021963287 -0.00017324149 0.00019844356 0.00017749508 -0.00018350156 0.00018284355 0.00013487642 -0.00019512366 0.00016586217 0.00009229748 -0.00020806501 0.00014750778 0.00005027886 -0.00022228282 0.00023958162 0.00040239499 -0.00019631223 0.00023332548 0.00036892373 -0.00019864739 0.00022578270 0.00033355929 -0.00020170216 0.00021705486 0.00029663517 -0.00020557034 0.00020724354 0.00025848490 -0.00021034575 0.00019645032 0.00021944199 -0.00021612220 0.00018477680 0.00017983998 -0.00022299351 0.00017232454 0.00014001236 -0.00023105347 0.00015919514 0.00010029267 -0.00024039591 0.00014549017 0.00006101442 -0.00025111464 0.00021975936 0.00039955012 -0.00024709096 0.00021400973 0.00036513219 -0.00024881213 0.00020715944 0.00032961333 -0.00025077435 0.00019935833 0.00029321596 -0.00025312199 0.00019075627 0.00025616248 -0.00025599939 0.00018150310 0.00021867529 -0.00025955090 0.00017174868 0.00018097680 -0.00026392088 0.00016164284 0.00014328940 -0.00026925367 0.00015133546 0.00010583551 -0.00027569363 0.00014097637 0.00006883751 -0.00028338510 0.00020262517 0.00039660959 -0.00029636434 0.00019709479 0.00036171328 -0.00029739868 0.00019067080 0.00032618663 -0.00029848605 0.00018351668 0.00029020061 -0.00029975855 0.00017579588 0.00025392621 -0.00030134827 0.00016767188 0.00021753440 -0.00030338733 0.00015930814 0.00018119617 -0.00030600782 0.00015086814 0.00014508250 -0.00030934186 0.00014251534 0.00010936436 -0.00031352153 0.00013441320 0.00007421274 -0.00031867896 0.00018770450 0.00039382987 -0.00034429122 0.00018219240 0.00035879165 -0.00034463420 0.00017599479 0.00032334867 -0.00034504535 0.00016926443 0.00028766391 -0.00034560500 0.00016215404 0.00025190035 -0.00034639352 0.00015481636 0.00021622096 -0.00034749123 0.00014740413 0.00018078872 -0.00034897849 0.00014007009 0.00014576662 -0.00035093562 0.00013296698 0.00011131762 -0.00035344299 0.00012624753 0.00007760471 -0.00035658093 0.00017452282 0.00039146747 -0.00039103044 0.00016891428 0.00035649195 -0.00039074579 0.00016280940 0.00032116898 -0.00039066031 0.00015633612 0.00028568068 -0.00039078635 0.00014962242 0.00025020918 -0.00039113625 0.00014279626 0.00021493660 -0.00039172236 0.00013598560 0.00018004507 -0.00039255702 0.00012931839 0.00014571672 -0.00039365258 0.00012292260 0.00011213367 -0.00039502138 0.00011692619 0.00007947805 -0.00039667578 0.00016260557 0.00038977885 -0.00043674085 0.00015687218 0.00035493882 -0.00043596059 0.00015079261 0.00031971705 -0.00043553904 0.00014446631 0.00028432572 -0.00043542757 0.00013799272 0.00024897697 -0.00043557758 0.00013147130 0.00021388296 -0.00043594045 0.00012500147 0.00017925584 -0.00043646757 0.00011868269 0.00014530776 -0.00043711031 0.00011261440 0.00011225088 -0.00043782007 0.00010689605 0.00008029735 -0.00043854822 0.00015147823 0.00038902052 -0.00048158130 0.00014567782 0.00035425690 -0.00048050572 0.00013962243 0.00031906241 -0.00047988960 0.00013338953 0.00028367385 -0.00047965366 0.00012705662 0.00024832801 -0.00047971863 0.00012070118 0.00021326168 -0.00048000526 0.00011440070 0.00017871165 -0.00048043428 0.00010823268 0.00014491470 -0.00048092642 0.00010227459 0.00011210764 -0.00048140242 0.00009660393 0.00008052724 -0.00048178301 0.00014066625 0.00038944896 -0.00052571062 0.00013494295 0.00035457083 -0.00052460832 0.00012897684 0.00031927454 -0.00052392009 0.00012284032 0.00028379987 -0.00052358960 0.00011660578 0.00024838656 -0.00052356053 0.00011034562 0.00021327439 -0.00052377654 0.00010413223 0.00017870312 -0.00052418131 0.00009803802 0.00014491251 -0.00052471851 0.00009213538 0.00011214233 -0.00052533181 0.00008649670 0.00008063233 -0.00052596489 0.00012969510 0.00039132065 -0.00056928768 0.00012427930 0.00035600526 -0.00056849550 0.00011853385 0.00032042297 -0.00056783858 0.00011255322 0.00028477859 -0.00056736039 0.00010643189 0.00024927691 -0.00056710438 0.00010026433 0.00021412274 -0.00056711403 0.00009414501 0.00017952089 -0.00056743281 0.00008816840 0.00014567614 -0.00056810418 0.00008242897 0.00011279332 -0.00056917162 0.00007702120 0.00008107722 -0.00057067858 0.00027953253 0.00035997033 -0.00010859233 0.00027261722 0.00032298694 -0.00010608411 0.00026357350 0.00028406706 -0.00010655127 0.00025248251 0.00024372392 -0.00010978207 0.00023942538 0.00020247073 -0.00011556474 0.00022448324 0.00016082069 -0.00012368754 0.00020773724 0.00011928704 -0.00013393872 0.00018926851 0.00007838298 -0.00014610651 0.00016915818 0.00003862173 -0.00015997917 0.00014748740 0.00000051649 -0.00017534494 0.00025186106 0.00035723004 -0.00016364478 0.00024557679 0.00031943393 -0.00016156585 0.00023748873 0.00028063246 -0.00016122499 0.00022776826 0.00024122279 -0.00016264263 0.00021658677 0.00020160211 -0.00016583922 0.00020411566 0.00016216759 -0.00017083519 0.00019052631 0.00012331640 -0.00017765099 0.00017599011 0.00008544573 -0.00018630704 0.00016067846 0.00004895276 -0.00019682380 0.00014476273 0.00001423465 -0.00020922170 0.00022827362 0.00035476128 -0.00021681615 0.00022236378 0.00031649511 -0.00021471020 0.00021495726 0.00027787470 -0.00021362603 0.00020627257 0.00023922604 -0.00021369622 0.00019652823 0.00020087510 -0.00021505334 0.00018594274 0.00016314786 -0.00021783000 0.00017473461 0.00012637031 -0.00022215875 0.00016312234 0.00009086841 -0.00022817220 0.00015132445 0.00005696816 -0.00023600291 0.00013955944 0.00002499552 -0.00024578347 0.00020818879 0.00035267037 -0.00026822458 0.00020245356 0.00031420446 -0.00026577300 0.00019550372 0.00027580366 -0.00026403021 0.00018757144 0.00023775836 -0.00026315092 0.00017888889 0.00020035895 -0.00026328988 0.00016968827 0.00016389584 -0.00026460181 0.00016020173 0.00012865941 -0.00026724144 0.00015066147 0.00009494006 -0.00027136351 0.00014129966 0.00006302818 -0.00027712273 0.00013234847 0.00003321416 -0.00028467384 0.00019102514 0.00035106363 -0.00031798821 0.00018532153 0.00031259601 -0.00031501009 0.00017865272 0.00027442922 -0.00031271333 0.00017124081 0.00023684447 -0.00031121485 0.00016330788 0.00020012295 -0.00031063159 0.00015507600 0.00016454585 -0.00031108049 0.00014676727 0.00013039438 -0.00031267848 0.00013860377 0.00009794972 -0.00031554251 0.00013080759 0.00006749308 -0.00031978950 0.00012360081 0.00003930565 -0.00032553640 0.00017620125 0.00035004737 -0.00036622518 0.00017044306 0.00031170376 -0.00036267732 0.00016392890 0.00027376128 -0.00035995120 0.00015685668 0.00023650909 -0.00035809609 0.00014942431 0.00020023635 -0.00035716123 0.00014182971 0.00016523222 -0.00035719588 0.00013427081 0.00013178587 -0.00035824930 0.00012694551 0.00010018645 -0.00036037075 0.00012005173 0.00007072312 -0.00036360948 0.00011378740 0.00004368506 -0.00036801474 0.00016313570 0.00034972789 -0.00041305363 0.00015729355 0.00031156173 -0.00040903052 0.00015085687 0.00027380972 -0.00040601964 0.00014399500 0.00023677693 -0.00040400274 0.00013687732 0.00020076843 -0.00040296156 0.00012967317 0.00016608928 -0.00040287784 0.00012255193 0.00013304454 -0.00040373332 0.00011568295 0.00010193928 -0.00040550976 0.00010923559 0.00007307857 -0.00040818888 0.00010337921 0.00004676746 -0.00041175244 0.00015124707 0.00035021153 -0.00045859172 0.00014534838 0.00031220392 -0.00045432555 0.00013896124 0.00027458442 -0.00045119446 0.00013223176 0.00023767271 -0.00044914291 0.00012530603 0.00020178845 -0.00044811535 0.00011833015 0.00016725134 -0.00044805622 0.00011145023 0.00013438106 -0.00044890998 0.00010481237 0.00010349727 -0.00045062108 0.00009856266 0.00007491967 -0.00045313397 0.00009284721 0.00004896792 -0.00045639310 0.00013995394 0.00035160458 -0.00050295758 0.00013408293 0.00031366435 -0.00049881824 0.00012776665 0.00027609527 -0.00049575147 0.00012114292 0.00023922113 -0.00049372469 0.00011434957 0.00020336569 -0.00049270535 0.00010752442 0.00016885275 -0.00049266087 0.00010080530 0.00013600608 -0.00049355869 0.00009433003 0.00010514946 -0.00049536625 0.00008823644 0.00007660668 -0.00049805097 0.00008266236 0.00005070152 -0.00050158030 0.00012867488 0.00035401336 -0.00054626936 0.00012297259 0.00031597702 -0.00054276444 0.00011679771 0.00027835216 -0.00053996647 0.00011030446 0.00024144690 -0.00053795618 0.00010364706 0.00020556941 -0.00053681432 0.00009697974 0.00017102782 -0.00053662164 0.00009045671 0.00013813027 -0.00053745889 0.00008423220 0.00010718490 -0.00053940681 0.00007846043 0.00007849987 -0.00054254614 0.00007329561 0.00005238332 -0.00054695763 0.00029007301 0.00030746111 -0.00007562463 0.00028457773 0.00026201148 -0.00006504284 0.00027599921 0.00021682255 -0.00005925863 0.00026456637 0.00017230904 -0.00005787324 0.00025050814 0.00012888568 -0.00006048788 0.00023405345 0.00008696716 -0.00006670378 0.00021543122 0.00004696821 -0.00007612218 0.00019487037 0.00000930355 -0.00008834429 0.00017259984 -0.00002561213 -0.00010297134 0.00014884855 -0.00005736409 -0.00011960457 0.00025989829 0.00030445117 -0.00013115485 0.00025419094 0.00026019328 -0.00012271777 0.00024607541 0.00021631359 -0.00011730156 0.00023582919 0.00017331558 -0.00011486730 0.00022372978 0.00013170276 -0.00011537608 0.00021005466 0.00009197862 -0.00011878900 0.00019508133 0.00005464666 -0.00012506714 0.00017908728 0.00002021037 -0.00013417160 0.00016235000 -0.00001082674 -0.00014606346 0.00014514698 -0.00003796119 -0.00016070381 0.00023404095 0.00030260093 -0.00018552681 0.00022825385 0.00025917401 -0.00017814327 0.00022057194 0.00021630044 -0.00017274461 0.00021129740 0.00017453079 -0.00016948280 0.00020073239 0.00013441563 -0.00016850983 0.00018917907 0.00009650553 -0.00016997768 0.00017693961 0.00006135106 -0.00017403833 0.00016431618 0.00002950280 -0.00018084376 0.00015161094 0.00000151132 -0.00019054596 0.00013912605 -0.00002207282 -0.00020329691 0.00021194527 0.00030178341 -0.00023860640 0.00020617421 0.00025890874 -0.00023146650 0.00019888595 0.00021679251 -0.00022584883 0.00019038836 0.00017600030 -0.00022196755 0.00018098931 0.00013709772 -0.00022003684 0.00017099668 0.00010065036 -0.00022027086 0.00016071835 0.00006722383 -0.00022288378 0.00015046218 0.00003738372 -0.00022808977 0.00014053606 0.00001169562 -0.00023610301 0.00013124787 -0.00000927486 -0.00024713767 0.00019305553 0.00030187161 -0.00029025953 0.00018735981 0.00025935256 -0.00028283464 0.00018041459 0.00021779920 -0.00027687528 0.00017251943 0.00017776976 -0.00027256937 0.00016397388 0.00013982249 -0.00027010482 0.00015507748 0.00010451561 -0.00026966957 0.00014612980 0.00007240736 -0.00027145153 0.00013743038 0.00004405599 -0.00027563862 0.00012927877 0.00002001972 -0.00028241877 0.00012197454 0.00000085679 -0.00029197989 0.00017681604 0.00030273856 -0.00034035211 0.00017121842 0.00026046056 -0.00033239487 0.00016455503 0.00021932994 -0.00032608502 0.00015710799 0.00017988483 -0.00032153606 0.00014915943 0.00014266339 -0.00031886151 0.00014099147 0.00010820375 -0.00031817486 0.00013288624 0.00007704407 -0.00031958962 0.00012512586 0.00004972249 -0.00032321929 0.00011799246 0.00002677716 -0.00032917737 0.00011176816 0.00000874622 -0.00033757739 0.00016267107 0.00030425727 -0.00038875005 0.00015715780 0.00026218783 -0.00038029435 0.00015070440 0.00022139412 -0.00037373909 0.00014357139 0.00018239114 -0.00036911545 0.00013601930 0.00014569386 -0.00036645461 0.00012830864 0.00011181727 -0.00036578776 0.00012069995 0.00008127636 -0.00036714609 0.00011345374 0.00005458612 -0.00037056077 0.00010683053 0.00003226151 -0.00037606299 0.00010109085 0.00001481755 -0.00038368394 0.00015006492 0.00030630075 -0.00043531924 0.00014458572 0.00026448945 -0.00042668026 0.00013825986 0.00022400117 -0.00042009855 0.00013132700 0.00018533434 -0.00041555534 0.00012402682 0.00014898736 -0.00041303185 0.00011659900 0.00011545866 -0.00041250932 0.00010928320 0.00008524664 -0.00041396898 0.00010231910 0.00005884973 -0.00041739205 0.00009594637 0.00003676633 -0.00042275977 0.00009040469 0.00001949486 -0.00043005337 0.00013844187 0.00030874201 -0.00047992561 0.00013290997 0.00026732050 -0.00047169978 0.00012661857 0.00022716049 -0.00046542445 0.00011979219 0.00018876008 -0.00046110354 0.00011265534 0.00015261735 -0.00045874094 0.00010543253 0.00011923040 -0.00045834057 0.00009834826 0.00008909732 -0.00045990633 0.00009162704 0.00006271621 -0.00046344213 0.00008549338 0.00004058516 -0.00046895187 0.00008017180 0.00002320226 -0.00047643947 0.00012724622 0.00031145407 -0.00052243505 0.00012153830 0.00027063608 -0.00051550007 0.00011517768 0.00023088150 -0.00050997786 0.00010838433 0.00019271400 -0.00050600787 0.00010137819 0.00015665726 -0.00050372961 0.00009437923 0.00012323496 -0.00050328255 0.00008760740 0.00009297079 -0.00050480618 0.00008128266 0.00006638843 -0.00050843998 0.00007562496 0.00004401156 -0.00051432344 0.00007085427 0.00002636385 -0.00052259604 0.00029306960 0.00024805306 -0.00004761339 0.00029073917 0.00018981022 -0.00002528578 0.00028398023 0.00013545768 -0.00001018176 0.00027327613 0.00008514902 -0.00000169441 0.00025911021 0.00003903782 0.00000078319 0.00024196582 -0.00000272236 -0.00000214203 0.00022232631 -0.00003997791 -0.00000986316 0.00020067505 -0.00007257528 -0.00002177328 0.00017749536 -0.00010036088 -0.00003726546 0.00015327061 -0.00012318114 -0.00005573278 0.00026303335 0.00024488223 -0.00010060061 0.00025886302 0.00019143769 -0.00008330302 0.00025151869 0.00014045802 -0.00007067262 0.00024143588 0.00009256824 -0.00006263073 0.00022905009 0.00004839335 -0.00005909865 0.00021479685 0.00000855837 -0.00005999769 0.00019911166 -0.00002631170 -0.00006524915 0.00018243004 -0.00005559184 -0.00007477436 0.00016518749 -0.00007865705 -0.00008849461 0.00014781954 -0.00009488231 -0.00010633122 0.00023670886 0.00024401069 -0.00015441613 0.00023156671 0.00019372017 -0.00013996485 0.00022408707 0.00014515360 -0.00012869935 0.00021467742 0.00009920618 -0.00012083082 0.00020374524 0.00005677308 -0.00011657044 0.00019169803 0.00001874949 -0.00011612941 0.00017894325 -0.00001396940 -0.00011971889 0.00016588841 -0.00004048840 -0.00012755009 0.00015294098 -0.00005991233 -0.00013983417 0.00014050845 -0.00007134600 -0.00015678233 0.00021372939 0.00024498731 -0.00020839228 0.00020827329 0.00019656601 -0.00019513208 0.00020098504 0.00014964652 -0.00018440601 0.00019225824 0.00010523704 -0.00017653213 0.00018248648 0.00006434575 -0.00017182851 0.00017206337 0.00002798085 -0.00017061323 0.00016138250 -0.00000284948 -0.00017320436 0.00015083747 -0.00002713705 -0.00017991996 0.00014082187 -0.00004387365 -0.00019107812 0.00013172931 -0.00005205111 -0.00020699691 0.00019372821 0.00024736097 -0.00026186138 0.00018840578 0.00019988356 -0.00024866554 0.00018151226 0.00015403888 -0.00023793667 0.00017343582 0.00011083504 -0.00022997210 0.00016456464 0.00007128014 -0.00022506916 0.00015528691 0.00003638228 -0.00022352519 0.00014599080 0.00000714958 -0.00022563753 0.00013706451 -0.00001540985 -0.00023170350 0.00012889621 -0.00003028793 -0.00024202045 0.00012187408 -0.00003647652 -0.00025688571 0.00017633855 0.00025068053 -0.00031415573 0.00017138721 0.00020358117 -0.00030042602 0.00016496838 0.00015843278 -0.00028943539 0.00015746764 0.00011617438 -0.00028138818 0.00014927054 0.00007774500 -0.00027648871 0.00014076266 0.00004408364 -0.00027494134 0.00013232957 0.00001612933 -0.00027695039 0.00012435684 -0.00000517891 -0.00028272021 0.00011723003 -0.00001890206 -0.00029245514 0.00011133472 -0.00002410112 -0.00030635951 0.00016119369 0.00025449488 -0.00036460765 0.00015664060 0.00020756718 -0.00035027435 0.00015065307 0.00016293031 -0.00033904625 0.00014361117 0.00012142928 -0.00033101781 0.00013589501 0.00008390909 -0.00032628348 0.00012788466 0.00005121476 -0.00032493770 0.00011996021 0.00002419130 -0.00032707493 0.00011250176 0.00000368372 -0.00033278960 0.00010588939 -0.00000946298 -0.00034217617 0.00010050319 -0.00001440378 -0.00035532909 0.00014792688 0.00025835289 -0.00041254947 0.00014358899 0.00021174996 -0.00039807133 0.00013786598 0.00016763359 -0.00038691331 0.00013112391 0.00012677394 -0.00037909846 0.00012372887 0.00008994119 -0.00037464979 0.00011604692 0.00005790549 -0.00037359033 0.00010844414 0.00003143702 -0.00037594312 0.00010128658 0.00001130594 -0.00038173118 0.00009494033 -0.00000171759 -0.00039097754 0.00008977146 -0.00000686340 -0.00040370522 0.00013617137 0.00026180342 -0.00045731349 0.00013165539 0.00021603784 -0.00044367777 0.00012590677 0.00017264470 -0.00043318064 0.00011926334 0.00013238258 -0.00042586755 0.00011206296 0.00009601005 -0.00042178394 0.00010464348 0.00006428568 -0.00042097526 0.00009734274 0.00003796803 -0.00042348694 0.00009049860 0.00001781568 -0.00042936445 0.00008444889 0.00000458719 -0.00043865321 0.00007953147 -0.00000095885 -0.00045139868 0.00012556042 0.00026439537 -0.00049823204 0.00012026284 0.00022033918 -0.00048695449 0.00011407510 0.00017806576 -0.00047799231 0.00010728694 0.00013842941 -0.00047156254 0.00010018811 0.00010228444 -0.00046788226 0.00009306836 0.00007048515 -0.00046716852 0.00008621745 0.00004388585 -0.00046963839 0.00007992511 0.00002334085 -0.00047550892 0.00007448111 0.00000970446 -0.00048499718 0.00007017519 0.00000383096 -0.00049832023 0.00028740400 0.00018243921 -0.00002720581 0.00029052890 0.00010615651 0.00001145484 0.00028735710 0.00003920870 0.00003968107 0.00027876462 -0.00001874592 0.00005831214 0.00026562748 -0.00006804908 0.00006818732 0.00024882171 -0.00010904249 0.00007014589 0.00022922335 -0.00014206787 0.00006502710 0.00020770842 -0.00016746692 0.00005367024 0.00018515295 -0.00018558136 0.00003691456 0.00016243297 -0.00019675292 0.00001559934 0.00026060626 0.00017934708 -0.00007374022 0.00025928811 0.00011340307 -0.00004452144 0.00025379450 0.00005292111 -0.00002207893 0.00024478653 -0.00000136454 -0.00000631930 0.00023292525 -0.00004871963 0.00000285079 0.00021887175 -0.00008840991 0.00000552470 0.00020328710 -0.00011970112 0.00000179580 0.00018683238 -0.00014185902 -0.00000824255 0.00017016867 -0.00015414935 -0.00002449700 0.00015395704 -0.00015583787 -0.00004687419 0.00023592486 0.00017993218 -0.00012467734 0.00023218916 0.00012068486 -0.00010102846 0.00022558625 0.00006469724 -0.00008205952 0.00021665725 0.00001332816 -0.00006808935 0.00020594331 -0.00003206355 -0.00005943678 0.00019398554 -0.00007011906 -0.00005642063 0.00018132509 -0.00009947955 -0.00005935972 0.00016850307 -0.00011878618 -0.00006857287 0.00015606063 -0.00012668012 -0.00008437892 0.00014453889 -0.00012180254 -0.00010709668 0.00021337594 0.00018332071 -0.00017846473 0.00020876735 0.00012791616 -0.00015742265 0.00020196854 0.00007485906 -0.00014016582 0.00019347188 0.00002577918 -0.00012716833 0.00018376977 -0.00001769370 -0.00011890426 0.00017335459 -0.00005392983 -0.00011584770 0.00016271871 -0.00008129944 -0.00011847271 0.00015235452 -0.00009817275 -0.00012725338 0.00014275440 -0.00010291999 -0.00014266379 0.00013441073 -0.00009391140 -0.00016517803 0.00019297566 0.00018863883 -0.00023354994 0.00018855797 0.00013501124 -0.00021306046 0.00018217758 0.00008372854 -0.00019630293 0.00017432550 0.00003643554 -0.00018372655 0.00016549276 -0.00000522294 -0.00017578053 0.00015617038 -0.00003960208 -0.00017291408 0.00014684937 -0.00006505706 -0.00017557641 0.00013802076 -0.00007994308 -0.00018421672 0.00013017556 -0.00008261531 -0.00019928423 0.00012380480 -0.00007142894 -0.00022122814 0.00017474015 0.00019501274 -0.00028838052 0.00017109631 0.00014188438 -0.00026729836 0.00016544958 0.00009162764 -0.00025037596 0.00015831320 0.00004574424 -0.00023793433 0.00015020039 0.00000573590 -0.00023029446 0.00014162440 -0.00002689566 -0.00022777737 0.00013309847 -0.00005064871 -0.00023070407 0.00012513582 -0.00006402153 -0.00023939555 0.00011824969 -0.00006551241 -0.00025417283 0.00011295332 -0.00005361962 -0.00027535691 0.00015868556 0.00020156861 -0.00034140403 0.00015591766 0.00014844985 -0.00031949279 0.00015102075 0.00009887833 -0.00030229002 0.00014453005 0.00005415229 -0.00028996197 0.00013698078 0.00001556996 -0.00028267493 0.00012890816 -0.00001557044 -0.00028059516 0.00012084740 -0.00003797066 -0.00028388893 0.00011333373 -0.00005033246 -0.00029272253 0.00010690236 -0.00005135762 -0.00030726221 0.00010208851 -0.00003974791 -0.00032767425 0.00014482804 0.00020743263 -0.00039106801 0.00014255730 0.00015462194 -0.00036900021 0.00013812728 0.00010580260 -0.00035195020 0.00013207114 0.00006210671 -0.00033997980 0.00012492204 0.00002466638 -0.00033315080 0.00011721313 -0.00000538629 -0.00033152502 0.00010947757 -0.00002691919 -0.00033516425 0.00010224853 -0.00003880023 -0.00034413030 0.00009605915 -0.00003989730 -0.00035848496 0.00009144260 -0.00002907829 -0.00037829005 0.00013318375 0.00021173098 -0.00043582003 0.00013055053 0.00016031491 -0.00041517705 0.00012600539 0.00011272239 -0.00039926162 0.00012003156 0.00007005451 -0.00038815812 0.00011311229 0.00003341233 -0.00038195097 0.00010573081 0.00000389693 -0.00038072455 0.00009837038 -0.00001739060 -0.00038456326 0.00009151425 -0.00002934919 -0.00039355151 0.00008564564 -0.00003087776 -0.00040777370 0.00008124782 -0.00002087522 -0.00042731421 0.00012376881 0.00021358984 -0.00047410762 0.00011943265 0.00016544305 -0.00045737979 0.00011389128 0.00011995970 -0.00044412938 0.00010750639 0.00007844269 -0.00043466726 0.00010063964 0.00004219494 -0.00042930429 0.00009365270 0.00001251935 -0.00042835132 0.00008690723 -0.00000928116 -0.00043211922 0.00008076491 -0.00002190370 -0.00044091883 0.00007558741 -0.00002404534 -0.00045506102 0.00007173639 -0.00001440319 -0.00047485664 </DataArray>
</PointData>
<Points>
<DataArray type="Float32" NumberOfComponents="3">
-0.33626750681 0.57343934091 -2.31127524236 -0.31023296334 0.58187955688 -2.32337211455 -0.29067852970 0.58842827103 -2.33690026358 -0.27757762108 0.59330932546 -2.35147190835 -0.27090365269 0.59674656229 -2.36669926779 -0.27063003971 0.59896382363 -2.38219456079 -0.27673019736 0.60018495161 -2.39757000628 -0.28917754082 0.60063378832 -2.41243782317 -0.30794548530 0.60053417588 -2.42641023037 -0.33300744598 0.60010995641 -2.43909944680 -0.36626098391 0.58971001854 -2.31626609205 -0.34006445159 0.59563247293 -2.32693736769 -0.32039713540 0.60022485125 -2.33927556912 -0.30724037714 0.60364479167 -2.35281929625 -0.30057551863 0.60604993241 -2.36710714895 -0.30038390166 0.60759791165 -2.38167772714 -0.30664686804 0.60844636760 -2.39606963069 -0.31934575956 0.60875293844 -2.40982145950 -0.33846191804 0.60867526238 -2.42247181346 -0.36397668527 0.60837097762 -2.43355929246 -0.39171000800 0.60646485122 -2.32041723086 -0.36508153125 0.61042685553 -2.33001958256 -0.34509691507 0.61349594045 -2.34139917071 -0.33174369418 0.61577818294 -2.35405814390 -0.32500940328 0.61737965991 -2.36749865069 -0.32488157709 0.61840644832 -2.38122283966 -0.33134775030 0.61896462510 -2.39473285939 -0.34439545763 0.61916026718 -2.40753085845 -0.36401223378 0.61909945150 -2.41911898541 -0.39018561346 0.61888825500 -2.42899938886 -0.41277229497 0.62356314510 -2.32379751815 -0.38552068640 0.62605234006 -2.33263719227 -0.36507368920 0.62797703919 -2.34326513797 -0.35142350807 0.62940456902 -2.35517660774 -0.34456234769 0.63040225606 -2.36786685406 -0.34448241275 0.63103742683 -2.38083112943 -0.35117590795 0.63137740783 -2.39356468635 -0.36463503796 0.63148952560 -2.40556277730 -0.38485200750 0.63144110664 -2.41632065478 -0.41181902123 0.63129947747 -2.42533357128 -0.42960556069 0.64086420629 -2.32647581328 -0.40161840111 0.64229856192 -2.33480862996 -0.38062327826 0.64340364802 -2.34486754054 -0.36661575467 0.64421901971 -2.35616284420 -0.35959139286 0.64478423212 -2.36820484013 -0.35954575538 0.64513884035 -2.38050382750 -0.36647440475 0.64532239952 -2.39257010550 -0.38037290350 0.64537446477 -2.40391397329 -0.40123681416 0.64533459120 -2.41404573007 -0.42906169926 0.64524233394 -2.42247567501 -0.44236752104 0.65822734093 -2.32852097562 -0.41361115945 0.65895515652 -2.33655232871 -0.39204150272 0.65951126750 -2.34620044802 -0.37765636985 0.65991660479 -2.35700500971 -0.37045357985 0.66019209934 -2.36850568996 -0.37043095173 0.66035868206 -2.38024216493 -0.37758630451 0.66043728389 -2.39175411079 -0.39191745718 0.66044883576 -2.40258120370 -0.41342222876 0.66041426860 -2.41226311984 -0.44209843826 0.66035451333 -2.42033953536 -0.45121589192 0.67551185515 -2.33000186453 -0.42173544551 0.67581175925 -2.33788672165 -0.39962418306 0.67603539816 -2.34725793005 -0.38488128948 0.67619239404 -2.35769126071 -0.37750594967 0.67629236899 -2.36876248463 -0.37749734854 0.67634494516 -2.38004737279 -0.38485467099 0.67635974466 -2.39112169618 -0.39957710193 0.67634638965 -2.40156122578 -0.42166382626 0.67631450223 -2.41094173260 -0.45111402889 0.67627370454 -2.41883898761 -0.45630838919 0.69257705507 -2.33098733938 -0.42622774334 0.69265800550 -2.33883024189 -0.40366713976 0.69271154058 -2.34803405624 -0.38862644943 0.69274145722 -2.35820975361 -0.38110554337 0.69275155233 -2.36896830518 -0.38110429256 0.69274562281 -2.37992068212 -0.38862256800 0.69272746556 -2.39067785560 -0.40366024070 0.69270087749 -2.40085079680 -0.42621718165 0.69266965550 -2.41005047689 -0.45629326185 0.69263759650 -2.41788786705 -0.45780272874 0.70928224683 -2.33154625953 -0.42732453703 0.70928353067 -2.33940132253 -0.40446619328 0.70927519530 -2.34852289623 -0.38922778557 0.70925886414 -2.35854864486 -0.38160940196 0.70923616063 -2.36911623269 -0.38161113051 0.70920870820 -2.37986332399 -0.38923305931 0.70917813030 -2.39042758301 -0.40447527642 0.70914605037 -2.40044667400 -0.42733786990 0.70911409183 -2.40955826124 -0.45782092782 0.70908387812 -2.41740000897 -0.45585662645 0.72548673654 -2.33174748434 -0.42526231064 0.72547797017 -2.33961839670 -0.40231716412 0.72546186287 -2.34871851963 -0.38702123376 0.72543968455 -2.35869609088 -0.37937456648 0.72541270513 -2.36919934823 -0.37937720916 0.72538219452 -2.37987652947 -0.38702920871 0.72534942262 -2.39037587235 -0.40233061202 0.72531565934 -2.40034561467 -0.42528146598 0.72528217460 -2.40943399418 -0.45588181750 0.72525023831 -2.41728924867 -0.39941901459 0.56836066294 -2.31090811288 -0.38438732658 0.57462304839 -2.32364753117 -0.37310627489 0.57971867798 -2.33743769976 -0.36556866224 0.58385913084 -2.35204849969 -0.36176729132 0.58725598612 -2.36724981194 -0.36169496483 0.59012082296 -2.38281151754 -0.36534448546 0.59266522051 -2.39850349749 -0.37270865593 0.59510075792 -2.41409563281 -0.38378027892 0.59763901434 -2.42935780449 -0.39855215713 0.60049156890 -2.44405989356 -0.42117064842 0.58622430195 -2.31442474970 -0.40592910986 0.59079409992 -2.32616140462 -0.39449611888 0.59449783002 -2.33910117508 -0.38686956301 0.59748382731 -2.35294950089 -0.38304732978 0.59990042686 -2.36741182185 -0.38302730672 0.60189596373 -2.38219357777 -0.38680738136 0.60361877299 -2.39700020845 -0.39438544123 0.60521718972 -2.41153715369 -0.40575937386 0.60683954896 -2.42550985331 -0.42092706676 0.60863418580 -2.43862374711 -0.44039702553 0.60419984868 -2.31735222326 -0.42456453835 0.60740757588 -2.32833671767 -0.41269178936 0.60999460717 -2.34059162934 -0.40477991089 0.61206015814 -2.35378686971 -0.40083003527 0.61370344440 -2.36759235025 -0.40084329481 0.61502368156 -2.38167798240 -0.40482082184 0.61612008523 -2.39571367763 -0.41276374868 0.61709187100 -2.40936934740 -0.42467320766 0.61803825449 -2.42231490315 -0.44055033108 0.61905845130 -2.43422025634 -0.45697367392 0.62219593272 -2.31973875612 -0.44027861009 0.62433704847 -2.33018630599 -0.42776075408 0.62605284349 -2.34190443074 -0.41942297296 0.62740575268 -2.35455073185 -0.41526813385 0.62845821093 -2.36778281080 -0.41529910382 0.62927265312 -2.38125826909 -0.41951874997 0.62991151416 -2.39463470820 -0.42792993940 0.63043722893 -2.40756972960 -0.44053553920 0.63091223233 -2.41972093480 -0.45733841646 0.63139895924 -2.43074592526 -0.47077612157 0.64012118368 -2.32163257086 -0.45305632315 0.64145608989 -2.33172300526 -0.43977048077 0.64251637308 -2.34303494750 -0.43092201630 0.64333824030 -2.35523121301 -0.42651435158 0.64395789861 -2.36797461720 -0.42655090847 0.64441155507 -2.38092797548 -0.43103510883 0.64473541673 -2.39375410327 -0.43997037451 0.64496569065 -2.40611581599 -0.45336012738 0.64513858389 -2.41767592905 -0.47120778928 0.64529030350 -2.42809725787 -0.48167989647 0.65788423115 -2.32308189004 -0.46288267556 0.65863827234 -2.33295965115 -0.44878843719 0.65922903000 -2.34397854785 -0.43940030796 0.65967525036 -2.35581843891 -0.43472141452 0.65999567964 -2.36815918310 -0.43475488348 0.66020906407 -2.38068063920 -0.43950384148 0.66033414988 -2.39306266599 -0.44897141513 0.66038968331 -2.40498512222 -0.46316073106 0.66039441058 -2.41612786669 -0.48207491590 0.66036707792 -2.42617075816 -0.48956052664 0.67539370472 -2.32413493624 -0.46974266540 0.67575716803 -2.33390907935 -0.45488209106 0.67603464834 -2.34473059999 -0.44498111503 0.67623441221 -2.35630253525 -0.44004204874 0.67636472618 -2.36832792219 -0.44006720359 0.67643385677 -2.38050979791 -0.44505889100 0.67645007055 -2.39255119949 -0.45501942238 0.67642163404 -2.40415516400 -0.46995110915 0.67635681380 -2.41502472852 -0.48985626271 0.67626387636 -2.42486293014 -0.49429354004 0.69255823400 -2.32483993204 -0.47362129069 0.69268634914 -2.33458412554 -0.45811891013 0.69277706218 -2.34528647215 -0.44778770458 0.69283335523 -2.35667362773 -0.44262898030 0.69285821041 -2.36847224814 -0.44264404351 0.69285460985 -2.38040898925 -0.44783420046 0.69282553568 -2.39221050691 -0.45820075738 0.69277397001 -2.40360345698 -0.47374502051 0.69270289497 -2.41431449533 -0.49446829608 0.69261529268 -2.42407027782 -0.49575446469 0.70928644858 -2.32524510001 -0.47450354951 0.70929938790 -2.33499762539 -0.45856636213 0.70930010559 -2.34564153252 -0.44794334368 0.70928970876 -2.35692184206 -0.44263493526 0.70926930452 -2.36858357462 -0.44264157798 0.70923999997 -2.38037175085 -0.44796371294 0.70920290221 -2.39203139138 -0.45860178126 0.70915911834 -2.40330751686 -0.47455622404 0.70910975548 -2.41394514792 -0.49582748239 0.70905592073 -2.42368930519 -0.49381882857 0.72548697806 -2.32539866271 -0.47237443989 0.72546985648 -2.33516241458 -0.45629191482 0.72544761265 -2.34579114934 -0.44557129940 0.72542110218 -2.35703730394 -0.44021263969 0.72539118068 -2.36865331530 -0.44021598171 0.72535870378 -2.38039162036 -0.44558137151 0.72532452708 -2.39200465605 -0.45630885513 0.72528950620 -2.40324485931 -0.47239847861 0.72525449676 -2.41386466707 -0.49385028800 0.72522035436 -2.42361651626 -0.46645639346 0.56353934774 -2.31079219671 -0.45948126843 0.56819442263 -2.32398034042 -0.45428332178 0.57223226745 -2.33793690526 -0.45089308614 0.57585861391 -2.35255015971 -0.44934109416 0.57927919375 -2.36770837224 -0.44965787845 0.58269973868 -2.38329981134 -0.45187397165 0.58632598043 -2.39921274549 -0.45601990639 0.59036365072 -2.41533544316 -0.46212621530 0.59501848128 -2.43155617283 -0.47022343101 0.60049620383 -2.44776320299 -0.48161785589 0.58304700502 -2.31316301236 -0.47441712381 0.58658043092 -2.32567713294 -0.46905154714 0.58960768165 -2.33904712673 -0.46555304851 0.59227166874 -2.35310401874 -0.46395355055 0.59471530372 -2.36767883402 -0.46428497588 0.59708149812 -2.38260259760 -0.46657924712 0.59951316345 -2.39770633453 -0.47086828691 0.60215321124 -2.41282106983 -0.47718401785 0.60514455303 -2.42777782854 -0.48555836259 0.60863010033 -2.44240763570 -0.49565307538 0.60225062316 -2.31513909903 -0.48780613129 0.60484338493 -2.32714725986 -0.48195432416 0.60703420147 -2.34004480351 -0.47812807302 0.60891749826 -2.35362807758 -0.47635779689 0.61058770076 -2.36769342968 -0.47667391481 0.61213923443 -2.38203720739 -0.47910684582 0.61366652475 -2.39645575832 -0.48368700893 0.61526399717 -2.41074543006 -0.49044482318 0.61702607717 -2.42470257021 -0.49941070760 0.61904719020 -2.43812352637 -0.50826880299 0.62111824205 -2.31675273818 -0.49947516582 0.62293823827 -2.32839932297 -0.49290941455 0.62445202799 -2.34092650398 -0.48859829910 0.62571802954 -2.35411429286 -0.48656856935 0.62679466121 -2.36774270123 -0.48684697520 0.62774034131 -2.38159174074 -0.48946026655 0.62861348814 -2.39544142302 -0.49443519330 0.62947252002 -2.40907175972 -0.50179850534 0.63037585525 -2.42226276247 -0.51157695258 0.63138191214 -2.43479444290 -0.51917178980 0.63961790156 -2.31803621127 -0.50925110233 0.64081994454 -2.32944192410 -0.50183458004 0.64180136231 -2.34168879652 -0.49694386620 0.64259518967 -2.35455462117 -0.49460060409 0.64323446143 -2.36781719068 -0.49482643698 0.64375221242 -2.38125429768 -0.49764300815 0.64418147744 -2.39464373480 -0.50307196087 0.64455529131 -2.40776329468 -0.51113493842 0.64490668884 -2.42039076994 -0.52185358408 0.64526870484 -2.43230395323 -0.52806878688 0.65771764159 -2.31902179976 -0.51696081578 0.65844345738 -2.33028366506 -0.50864758234 0.65902240550 -2.34232824950 -0.50314491377 0.65947090572 -2.35494101914 -0.50046863729 0.65980537779 -2.36790744004 -0.50063458011 0.66004224145 -2.38101297824 -0.50365856943 0.66019791645 -2.39404309981 -0.50955643248 0.66028882254 -2.40678327080 -0.51834399647 0.66033137948 -2.41901895726 -0.53003708862 0.66034200700 -2.43053562526 -0.53466654531 0.67538550203 -2.31974178509 -0.52243118111 0.67576373037 -2.33093314766 -0.51326618317 0.67605535866 -2.34284143129 -0.50718158126 0.67626710479 -2.35526544338 -0.50418740512 0.67640568663 -2.36800399131 -0.50429368452 0.67647782207 -2.38085588247 -0.50751044923 0.67649022898 -2.39361992422 -0.51384772899 0.67644962523 -2.40609492396 -0.52331555358 0.67636272872 -2.41807968906 -0.53592395274 0.67623625732 -2.42937302691 -0.53867181616 0.69258952276 -2.32022844874 -0.52548907326 0.69273571713 -2.33139897371 -0.51560814425 0.69284042287 -2.34322491027 -0.50903400809 0.69290571394 -2.35551985051 -0.50577164375 0.69293366432 -2.36809738652 -0.50582603018 0.69292634796 -2.38077111038 -0.50920214635 0.69288583883 -2.39335461418 -0.51590497124 0.69281421090 -2.40566149001 -0.52593948379 0.69271353813 -2.41750532996 -0.53931066299 0.69258589448 -2.42869972612 -0.53979135050 0.70929774367 -2.32051407215 -0.52596136719 0.70931437127 -2.33168974503 -0.51559122730 0.70931779922 -2.34347525481 -0.50868233373 0.70930866027 -2.35569619713 -0.50523608934 0.70928758720 -2.36817816765 -0.50525389702 0.70925521279 -2.38074676201 -0.50873715964 0.70921216982 -2.39322757586 -0.51568728007 0.70915909104 -2.40544620484 -0.52610566120 0.70909660924 -2.41722824460 -0.53999370590 0.70902535719 -2.42839929079 -0.53773189941 0.72547820465 -2.32063093679 -0.52367493782 0.72545464641 -2.33181406343 -0.51313319404 0.72542768879 -2.34358903328 -0.50610669761 0.72539787084 -2.35578643987 -0.50259547808 0.72536573165 -2.36823687673 -0.50259956499 0.72533181026 -2.38077093740 -0.50611898790 0.72529664575 -2.39321921541 -0.51315377634 0.72526077718 -2.40541230430 -0.52370395986 0.72522474362 -2.41718079760 -0.53776956800 0.72518908414 -2.42835528884 -0.53550283581 0.55906406366 -2.31109539207 -0.53441832023 0.56257532867 -2.32450518500 -0.53369434673 0.56587381620 -2.33850237414 -0.53341312099 0.56916022250 -2.35305450552 -0.53365684868 0.57263524382 -2.36812912518 -0.53450773549 0.57649957640 -2.38369377918 -0.53604798709 0.58095391648 -2.39971601355 -0.53835980916 0.58619896031 -2.41616337434 -0.54152540737 0.59243540413 -2.43300340758 -0.54562698741 0.59986394418 -2.45020365933 -0.54553649357 0.58020313004 -2.31260712941 -0.54423357806 0.58295751095 -2.32558946054 -0.54334230343 0.58547780784 -2.33919761840 -0.54294117528 0.58790224932 -2.35334742884 -0.54310869922 0.59036906399 -2.36795471771 -0.54392338085 0.59301648045 -2.38293531084 -0.54546372577 0.59598272731 -2.39820503407 -0.54780823960 0.59940603317 -2.41367971325 -0.55103542793 0.60342462665 -2.42927517422 -0.55522379638 0.60817673635 -2.44490724282 -0.55532398324 0.60060191988 -2.31386971190 -0.55339822618 0.60269344321 -2.32653046292 -0.55203144888 0.60455505893 -2.33982444226 -0.55129413896 0.60627705465 -2.35363372563 -0.55125678405 0.60794971797 -2.36784038875 -0.55198987178 0.60966333650 -2.38232650734 -0.55356388977 0.61150819784 -2.39697415712 -0.55604932566 0.61357458960 -2.41166541381 -0.55951666707 0.61595279937 -2.42628235313 -0.56403640164 0.61873311478 -2.44070705080 -0.56449568645 0.62029371251 -2.31490353597 -0.56165790252 0.62181506267 -2.32733376078 -0.55959527559 0.62313003451 -2.34038065349 -0.55836722573 0.62429358312 -2.35390733975 -0.55803317300 0.62536066362 -2.36777694521 -0.55865253749 0.62638623110 -2.38185259552 -0.56028473925 0.62742524068 -2.39599741633 -0.56298919836 0.62853264747 -2.41007453329 -0.56682533489 0.62976340655 -2.42394707206 -0.57185256890 0.63117247306 -2.43747815828 -0.57268198483 0.63931178725 -2.31572899805 -0.56875824498 0.64035430660 -2.32800492272 -0.56586727604 0.64122719966 -2.34086405986 -0.56405564927 0.64196077939 -2.35416221508 -0.56336993590 0.64258535878 -2.36775519399 -0.56385670720 0.64313125081 -2.38149880220 -0.56556253439 0.64362876844 -2.39524884533 -0.56853398874 0.64410822466 -2.40886112897 -0.57281764148 0.64459993244 -2.42219145874 -0.57846006386 0.64513420476 -2.43509564026 -0.57951326003 0.65768942342 -2.31636649458 -0.57444489148 0.65834311223 -2.32854951737 -0.57068094273 0.65887101943 -2.34127246916 -0.56825462327 0.65928758809 -2.35439229551 -0.56719914257 0.65960726131 -2.36776594201 -0.56754771011 0.65984448216 -2.38125035423 -0.56933353537 0.66001369371 -2.39470247774 -0.57258982782 0.66012933906 -2.40797925811 -0.57734979694 0.66020586129 -2.42093764092 -0.58364665222 0.66025770346 -2.43343457174 -0.58461989368 0.67545990035 -2.31683642200 -0.57846347994 0.67581341681 -2.32897311334 -0.57386976817 0.67608595889 -2.34160368914 -0.57085936143 0.67628295387 -2.35459152491 -0.56945286283 0.67640982905 -2.36779999617 -0.56967087544 0.67647201170 -2.38109247843 -0.57153400234 0.67647492910 -2.39433234720 -0.57506284663 0.67642400856 -2.40738297800 -0.58027801137 0.67632467734 -2.42010774634 -0.58720009967 0.67618236274 -2.43237002774 -0.58763226743 0.69265649736 -2.31715917673 -0.58055964829 0.69279715759 -2.32928127925 -0.57526724484 0.69289648311 -2.34185552759 -0.57176507744 0.69295582137 -2.35475384717 -0.57006316650 0.69297651985 -2.36784816338 -0.57017153239 0.69295992597 -2.38101040163 -0.57210019549 0.69290738722 -2.39411248734 -0.57585917619 0.69282025103 -2.40702634590 -0.58145849487 0.69269986486 -2.41962390274 -0.58890817191 0.69254757617 -2.43177708325 -0.58818076289 0.70931249376 -2.31735515521 -0.58047903444 0.70932627180 -2.32947958372 -0.57470686524 0.70932705714 -2.34202579229 -0.57086698500 0.70931513524 -2.35487320615 -0.56896212341 0.70929079155 -2.36790125053 -0.56899501017 0.70925431154 -2.38098935066 -0.57096837498 0.70920598065 -2.39401693177 -0.57488494754 0.70914608435 -2.40686341910 -0.58074745753 0.70907490809 -2.41940823786 -0.58855863465 0.70899273732 -2.43153081328 -0.58589576173 0.72546116888 -2.31744475387 -0.57796727630 0.72543269669 -2.32957359536 -0.57202212187 0.72540214605 -2.34211229099 -0.56806029778 0.72536984011 -2.35494354574 -0.56608180338 0.72533610202 -2.36795006454 -0.56608663800 0.72530125493 -2.38101455236 -0.56807480100 0.72526562201 -2.39401971414 -0.57204629170 0.72522952641 -2.40684825485 -0.57800110944 0.72519329128 -2.41938287943 -0.58593925359 0.72515723978 -2.43150629284 -0.60468153401 0.55502347903 -2.31198559716 -0.60810201331 0.55774741555 -2.32535670758 -0.61082402613 0.56054810098 -2.33923860046 -0.61299099498 0.56361640441 -2.35363915422 -0.61474634238 0.56714319496 -2.36856624728 -0.61623349087 0.57131934172 -2.38402775806 -0.61759586296 0.57633571379 -2.40003156498 -0.61897688118 0.58238318029 -2.41658554647 -0.62051996806 0.58965261031 -2.43369758095 -0.62236854612 0.59833487295 -2.45137554683 -0.61086044870 0.57771767927 -2.31288335026 -0.61408355724 0.57989138505 -2.32600329528 -0.61664727099 0.58203161031 -2.33963684446 -0.61868428493 0.58426950239 -2.35374431026 -0.62032729406 0.58673620862 -2.36828600516 -0.62170899334 0.58956287636 -2.38322224165 -0.62296207778 0.59288065292 -2.39851333221 -0.62421924233 0.59682068566 -2.41411958930 -0.62561318200 0.60151412190 -2.43000132542 -0.62727659175 0.60709210900 -2.44611885304 -0.61725557482 0.59923848403 -2.31363591561 -0.61993273914 0.60091691127 -2.32656558069 -0.62207009293 0.60249751510 -2.33999629462 -0.62378406713 0.60406567865 -2.35385577194 -0.62519109265 0.60570678502 -2.36807172720 -0.62640760038 0.60750621733 -2.38257187494 -0.62755002126 0.60954935868 -2.39728392970 -0.62873478618 0.61192159219 -2.41213560601 -0.63007832607 0.61470830096 -2.42705461844 -0.63169707183 0.61799486810 -2.44196868151 -0.62349232857 0.61968598356 -2.31425522112 -0.62537436914 0.62092667493 -2.32704713699 -0.62689394213 0.62204230486 -2.34031617504 -0.62814749210 0.62308459695 -2.35396992150 -0.62923146363 0.62410527487 -2.36791596260 -0.63024230130 0.62515606223 -2.38206188456 -0.63127644966 0.62628868268 -2.39631527360 -0.63243035331 0.62755485985 -2.41058371595 -0.63380045680 0.62900631738 -2.42477479783 -0.63548320473 0.63069477891 -2.43879610546 -0.62919612613 0.63916026807 -2.31475319473 -0.63013325740 0.64002335678 -2.32745153737 -0.63092026874 0.64076246906 -2.34059570980 -0.63163171037 0.64140592105 -2.35408314115 -0.63234213251 0.64198202886 -2.36781126056 -0.63312608540 0.64251910864 -2.38167749715 -0.63405811925 0.64304547652 -2.39557928007 -0.63521278429 0.64358944862 -2.40941403845 -0.63666463074 0.64417934109 -2.42307920142 -0.63848820884 0.64484347005 -2.43647219812 -0.63399238371 0.65776142779 -2.31514176434 -0.63393421404 0.65830963753 -2.32778235504 -0.63395052291 0.65875449722 -2.34083412301 -0.63409387244 0.65910931467 -2.35419181312 -0.63441682477 0.65938739771 -2.36775017027 -0.63497194200 0.65960205414 -2.38140393935 -0.63581178628 0.65976659179 -2.39504786524 -0.63698891971 0.65989431847 -2.40857669284 -0.63855590442 0.65999854199 -2.42188516703 -0.64056530253 0.66009257019 -2.43486803271 -0.63750651752 0.67558955295 -2.31543285788 -0.63650204920 0.67588819791 -2.32804316319 -0.63578615480 0.67611487881 -2.34103063874 -0.63539112885 0.67627444158 -2.35429231963 -0.63534926589 0.67637173212 -2.36772524095 -0.63569286043 0.67641159632 -2.38122643780 -0.63645420700 0.67639888010 -2.39469294527 -0.63766560013 0.67633842936 -2.40802179847 -0.63935933436 0.67623509001 -2.42111003250 -0.64156770419 0.67609370795 -2.43385468244 -0.63936394375 0.69274473378 -2.31563840326 -0.63756157301 0.69286171864 -2.32823753501 -0.63622861457 0.69294010335 -2.34118448110 -0.63538063012 0.69298096553 -2.35438104290 -0.63503318136 0.69298538279 -2.36772902178 -0.63520182998 0.69295443276 -2.38113021913 -0.63590213768 0.69288919305 -2.39448643630 -0.63714966615 0.69279074127 -2.40769947468 -0.63895997710 0.69266015504 -2.42067113563 -0.64134863221 0.69249851198 -2.43330322053 -0.63919007860 0.70932706051 -2.31577032841 -0.63683759562 0.70933288045 -2.32836904370 -0.63507935239 0.70932666031 -2.34129487417 -0.63391952678 0.70930855025 -2.35445436515 -0.63336229668 0.70927870044 -2.36775406198 -0.63341183998 0.70923726105 -2.38110050998 -0.63407233458 0.70918438223 -2.39440025448 -0.63534795834 0.70912021417 -2.40755984079 -0.63724288917 0.70904490701 -2.42048581426 -0.63976130495 0.70895861092 -2.43308472021 -0.63661033827 0.72543662336 -2.31584056124 -0.63405492716 0.72540436407 -2.32844126244 -0.63213981840 0.72537103919 -2.34136104204 -0.63086496933 0.72533685950 -2.35450866862 -0.63023033733 0.72530203577 -2.36779291075 -0.63023587975 0.72526677877 -2.38112253700 -0.63088155395 0.72523129926 -2.39440631594 -0.63216731728 0.72519580802 -2.40755301616 -0.63409312711 0.72516051582 -2.42047140622 -0.63665894080 0.72512563342 -2.43307025468 -0.67211568043 0.55150626218 -2.31363071019 -0.67943587902 0.55369233235 -2.32666955083 -0.68515703635 0.55615989855 -2.34025007829 -0.68948893631 0.55907960746 -2.35438172291 -0.69264136273 0.56262210580 -2.36907391502 -0.69482409948 0.56695804024 -2.38433608496 -0.69624693042 0.57225805750 -2.40017766307 -0.69711963940 0.57869280426 -2.41660807968 -0.69765201029 0.58643292723 -2.43363676513 -0.69805382693 0.59564907309 -2.45127314976 -0.67552360854 0.57561565499 -2.31411792429 -0.68267214596 0.57734809823 -2.32702354507 -0.68824533306 0.57919249074 -2.34044899925 -0.69243271910 0.58126736129 -2.35435924203 -0.69542385335 0.58369123862 -2.36871922862 -0.69740828509 0.58658265148 -2.38349391423 -0.69857556359 0.59006012864 -2.39864825406 -0.69911523812 0.59424219885 -2.41414720332 -0.69921685794 0.59924739086 -2.42995571722 -0.69906997234 0.60519423342 -2.44603875095 -0.67929367584 0.59814506083 -2.31452956388 -0.68600158625 0.59947294965 -2.32733186696 -0.69121718572 0.60080190555 -2.34062610962 -0.69510381594 0.60221022162 -2.35434617464 -0.69782481858 0.60377619091 -2.36842594480 -0.69954353532 0.60557810651 -2.38279930290 -0.70042330783 0.60769426147 -2.39740013171 -0.70062747779 0.61020294886 -2.41216231404 -0.70031938689 0.61318246176 -2.42701973267 -0.69966237678 0.61671109324 -2.44190627037 -0.68309673362 0.61925869464 -2.31487186528 -0.68917211465 0.62023222828 -2.32759696916 -0.69388101915 0.62114428084 -2.34078236441 -0.69735683749 0.62204325456 -2.35434208710 -0.69973296006 0.62297755167 -2.36819017328 -0.70114277722 0.62399557442 -2.38224065900 -0.70171967936 0.62514572505 -2.39640758034 -0.70159705684 0.62647640579 -2.41060497333 -0.70090830005 0.62803601889 -2.42474687405 -0.69978679937 0.62987296659 -2.43874731854 -0.68660363314 0.63912077133 -2.31515106482 -0.69193164592 0.63979127580 -2.32782130429 -0.69604525811 0.64037575447 -2.34091871862 -0.69904639439 0.64090152620 -2.35434654579 -0.70103697941 0.64139590987 -2.36800802379 -0.70211893786 0.64188622433 -2.38180639061 -0.70239419439 0.64239978846 -2.39564488425 -0.70196467368 0.64296392112 -2.40942674270 -0.70093230039 0.64360594118 -2.42305520395 -0.69939899920 0.64435316751 -2.43643350599 -0.68948522570 0.65789550584 -2.31537339883 -0.69402809484 0.65831543388 -2.32800732502 -0.69751832741 0.65865246431 -2.34103612725 -0.70002709728 0.65892010266 -2.35435911707 -0.70162557829 0.65913185449 -2.36787560606 -0.70238494429 0.65930122535 -2.38148490578 -0.70237636916 0.65944172079 -2.39508632779 -0.70167102672 0.65956684635 -2.40857918366 -0.70034009084 0.65969010759 -2.42186278496 -0.69845473538 0.65982501005 -2.43483644324 -0.69141236257 0.67574711310 -2.31554510365 -0.69520937617 0.67597004420 -2.32815748399 -0.69810865183 0.67613054821 -2.34113554530 -0.70015355680 0.67623405002 -2.35437936732 -0.70138745831 0.67628597452 -2.36778902982 -0.70185372359 0.67629174659 -2.38126461255 -0.70159571987 0.67625679112 -2.39470619526 -0.70065681437 0.67618653298 -2.40801385770 -0.69908037435 0.67608639706 -2.42108767964 -0.69690976701 0.67596180825 -2.43382774083 -0.69205589503 0.69283980804 -2.31567241560 -0.69522340467 0.69292044842 -2.32827423384 -0.69762465616 0.69296614405 -2.34121792777 -0.69928038361 0.69297843440 -2.35440686291 -0.70021132113 0.69295885895 -2.36774440481 -0.70043820280 0.69290895716 -2.38113391899 -0.69998176274 0.69283026852 -2.39447877099 -0.69886273506 0.69272433249 -2.40768232635 -0.69710185385 0.69259268854 -2.42064795059 -0.69471985321 0.69243687615 -2.43327900926 -0.69108667435 0.70933780558 -2.31576157100 -0.69381809512 0.70933198822 -2.32836002722 -0.69587476519 0.70931538968 -2.34128422966 -0.69726218835 0.70928832189 -2.35444117021 -0.69798586836 0.70925109675 -2.36773784075 -0.69805130899 0.70920402618 -2.38108123315 -0.69746401401 0.70914742208 -2.39437833930 -0.69622948718 0.70908159638 -2.40753615109 -0.69435323228 0.70900686098 -2.42046166039 -0.69184075308 0.70892352780 -2.43306185908 -0.68817555182 0.72540532065 -2.31581880620 -0.69074136227 0.72537000526 -2.32841731677 -0.69266740371 0.72533442297 -2.34133540598 -0.69395358166 0.72529877859 -2.35448185558 -0.69459980166 0.72526327691 -2.36776544736 -0.69460596922 0.72522812274 -2.38109496309 -0.69397198988 0.72519352089 -2.39437918452 -0.69269776916 0.72515967614 -2.40752689344 -0.69078321260 0.72512679332 -2.42044687161 -0.68822822572 0.72509507722 -2.43304790080 -0.73592846747 0.54860108144 -2.31619862936 -0.74732344867 0.55039172813 -2.32857835744 -0.75617805379 0.55261398567 -2.34164130171 -0.76276917318 0.55540227947 -2.35535982871 -0.76737369722 0.55889103497 -2.36970630492 -0.77026851625 0.56321467758 -2.38465309688 -0.77173052065 0.56850763272 -2.40017257109 -0.77203660077 0.57490432582 -2.41623709406 -0.77146364698 0.58253918231 -2.43281903231 -0.77028854963 0.59154662760 -2.44989075235 -0.73745986032 0.57392205948 -2.31643710091 -0.74870442885 0.57529369553 -2.32875511778 -0.75741537288 0.57688385086 -2.34171827713 -0.76383681939 0.57878975938 -2.35525680322 -0.76821289538 0.58110865495 -2.36930092034 -0.77078772781 0.58393777147 -2.38378085277 -0.77180544368 0.58737434283 -2.39862682478 -0.77151016997 0.59151560290 -2.41376906066 -0.77014603368 0.59645878559 -2.42913778469 -0.76795716177 0.60230112476 -2.44466322114 -0.73928411199 0.59730639548 -2.31664251046 -0.75019668363 0.59832071890 -2.32890857557 -0.75861965665 0.59940856585 -2.34177963629 -0.76475934379 0.60063753490 -2.35515689181 -0.76882205775 0.60207522463 -2.36894154129 -0.77101411126 0.60378923360 -2.38303478391 -0.77154181704 0.60584716037 -2.39733781884 -0.77061148780 0.60831660353 -2.41175184526 -0.76842943626 0.61126516164 -2.42617806234 -0.76520197514 0.61476043326 -2.44051766926 -0.74114690586 0.61897548519 -2.31681754008 -0.75159868797 0.61969087595 -2.32904077486 -0.75963211158 0.62039140428 -2.34182851738 -0.76541300114 0.62112173946 -2.35506388552 -0.76910718109 0.62192655074 -2.36862999710 -0.77088047586 0.62285050739 -2.38240996999 -0.77089870992 0.62393827868 -2.39628692203 -0.76932770768 0.62523453386 -2.41014397108 -0.76633329361 0.62678394222 -2.42386423498 -0.76208129213 0.62863117301 -2.43733083159 -0.74279392533 0.63915072435 -2.31696487186 -0.75270891685 0.63962224438 -2.32915375973 -0.76029394414 0.64003563982 -2.34186805858 -0.76567404621 0.64041850644 -2.35498157539 -0.76897426210 0.64079844001 -2.36836811710 -0.77031963086 0.64120303629 -2.38190149069 -0.76983519151 0.64165989105 -2.39545550311 -0.76764598308 0.64219660007 -2.40890396133 -0.76387704462 0.64284075911 -2.42212067232 -0.75865341515 0.64361996394 -2.43497944302 -0.74397085378 0.65805350873 -2.31708718789 -0.75332584525 0.65833290191 -2.32924957426 -0.76044636079 0.65854454613 -2.34190139807 -0.76541873376 0.65870396926 -2.35491375247 -0.76832929754 0.65882669917 -2.36815773062 -0.76926438549 0.65892826374 -2.38150442569 -0.76831033100 0.65902419083 -2.39482493085 -0.76555346744 0.65913000832 -2.40799033925 -0.76108012817 0.65926124407 -2.42087174406 -0.75497664658 0.65943342595 -2.43334023844 -0.74442337459 0.67590523407 -2.31718717023 -0.75324794814 0.67604092623 -2.32933026252 -0.75993056802 0.67612139686 -2.34193167401 -0.76452331857 0.67615426131 -2.35486420779 -0.76707828412 0.67614713496 -2.36800066698 -0.76764754902 0.67610763318 -2.38121385468 -0.76628319760 0.67604337132 -2.39437657400 -0.76303731420 0.67596196476 -2.40736162804 -0.75796198316 0.67587102886 -2.42004181991 -0.75110928883 0.67577817898 -2.43228995272 -0.74389717116 0.69292729612 -2.31726750098 -0.75227370049 0.69296439505 -2.32939786859 -0.75858777230 0.69296946566 -2.34196202459 -0.76286405540 0.69294551600 -2.35483673241 -0.76512721859 0.69289555411 -2.36789875552 -0.76540193068 0.69282258804 -2.38102485734 -0.76371286049 0.69272962584 -2.39409180133 -0.76008467682 0.69261967556 -2.40697635093 -0.75454204848 0.69249574524 -2.41955526959 -0.74710964428 0.69236084294 -2.43170532075 -0.74213792687 0.70934109063 -2.31733086222 -0.75020157728 0.70932138608 -2.32945443654 -0.75625918011 0.70929202621 -2.34199558798 -0.76031719901 0.70925386673 -2.35483511737 -0.76238209767 0.70920776335 -2.36785382555 -0.76246033973 0.70915457177 -2.38093251335 -0.76055838887 0.70909514772 -2.39395198160 -0.75668270874 0.70903034689 -2.40679303115 -0.75083976301 0.70896102499 -2.41933646281 -0.74303601534 0.70888803774 -2.43146307743 -0.73889132512 0.72536801336 -2.31737993602 -0.74683005348 0.72532997702 -2.32950201044 -0.75278599791 0.72529235216 -2.34203550236 -0.75675900419 0.72525544690 -2.35486315371 -0.75874891810 0.72521956941 -2.36786770641 -0.75875558542 0.72518502782 -2.38093190239 -0.75677885193 0.72515213027 -2.39393848358 -0.75281856341 0.72512118490 -2.40677019190 -0.74687456564 0.72509249987 -2.41930976927 -0.73894670439 0.72506638332 -2.43143995763 -0.79424308749 0.54639660514 -2.31985725288 -0.81066825361 0.54782725195 -2.33121777007 -0.82337175481 0.54981513910 -2.34351676478 -0.83269393381 0.55243686826 -2.35665108870 -0.83897513332 0.55576904111 -2.37051759349 -0.84255569608 0.55988825933 -2.38501313081 -0.84377596481 0.56487112459 -2.40003455235 -0.84297628223 0.57079423858 -2.41547870975 -0.84049699106 0.57773420298 -2.43124245470 -0.83667843403 0.58576761945 -2.44722263886 -0.79460309130 0.57266189502 -2.31996712951 -0.81088549053 0.57369422197 -2.33130292131 -0.82343627371 0.57502909237 -2.34352887244 -0.83254692745 0.57673063000 -2.35650157287 -0.83850893841 0.57886295860 -2.37007761255 -0.84161379322 0.58149020195 -2.38411358144 -0.84215297851 0.58467648382 -2.39846606949 -0.84041798092 0.58848592797 -2.41299166666 -0.83670028709 0.59298265816 -2.42754696291 -0.83129138367 0.59823079816 -2.44198854820 -0.79507270898 0.59670723318 -2.32006660907 -0.81110994738 0.59741937956 -2.33137496031 -0.82342443514 0.59825783155 -2.34352262366 -0.83225660909 0.59927446985 -2.35633988156 -0.83784690607 0.60052117516 -2.36965701643 -0.84043576291 0.60204982817 -2.38330431068 -0.84026361644 0.60391230958 -2.39711204674 -0.83757090349 0.60616050010 -2.41091050704 -0.83259806091 0.60884628042 -2.42452997401 -0.82558552551 0.61202153123 -2.43780073005 -0.79548084958 0.61879999465 -2.32015631716 -0.81120163807 0.61926177117 -2.33143607165 -0.82322282440 0.61973911699 -2.34350392974 -0.83173372231 0.62027223518 -2.35617536574 -0.83692364554 0.62090132878 -2.36926585394 -0.83898190783 0.62166660086 -2.38259086865 -0.83809782292 0.62260825448 -2.39596588418 -0.83446070454 0.62376649268 -2.40920637482 -0.82825986643 0.62518151853 -2.42212781489 -0.81968462232 0.62689353508 -2.43454567869 -0.79565642214 0.63920755445 -2.32023687938 -0.81102057652 0.63948044324 -2.33148843992 -0.82271802678 0.63971070906 -2.34347870198 -0.83088901071 0.63992777333 -2.35601737636 -0.83567376608 0.64016105748 -2.36891417392 -0.83721253068 0.64043998293 -2.38197880548 -0.83564554227 0.64079397109 -2.39502098187 -0.83111303865 0.64125244340 -2.40785041393 -0.82375525760 0.64184482127 -2.42027681249 -0.81371243688 0.64260052612 -2.43210988838 -0.79542833571 0.65819728760 -2.32030892131 -0.81042677667 0.65833444222 -2.33153424970 -0.82179662760 0.65841036812 -2.34345285165 -0.82963321789 0.65844493167 -2.35587526440 -0.83403187693 0.65845799926 -2.36861202520 -0.83508793411 0.65846943725 -2.38147367128 -0.83289671881 0.65849911202 -2.39427073989 -0.82755356043 0.65856688995 -2.40681376828 -0.81915378835 0.65869263741 -2.41891329370 -0.80779273196 0.65889622077 -2.43037985337 -0.79462549933 0.67603656911 -2.32037306854 -0.80928025243 0.67608281455 -2.33157568557 -0.82034521213 0.67607585453 -2.34343229008 -0.82787708744 0.67602755755 -2.35575838083 -0.83193258734 0.67594979212 -2.36836945661 -0.83256842081 0.67585442673 -2.38108101618 -0.82984129686 0.67575332987 -2.39370855833 -0.82380792447 0.67565837004 -2.40606758182 -0.81452501263 0.67558141573 -2.41797358543 -0.80204927033 0.67553433545 -2.42924206793 -0.79307682205 0.69299277402 -2.32042994668 -0.80744101773 0.69298460667 -2.33161493211 -0.81825036569 0.69294492865 -2.34342292854 -0.82553136296 0.69287949833 -2.35567607660 -0.82931050655 0.69279407407 -2.36819651697 -0.82961429347 0.69269441425 -2.38080639030 -0.82646922073 0.69258627721 -2.39332783724 -0.81990178536 0.69247542135 -2.40558299845 -0.80993848436 0.69236760502 -2.41739401459 -0.79660581476 0.69226858658 -2.42858302631 -0.79061121290 0.70933327733 -2.32048018130 -0.80476908648 0.70929886504 -2.33165417391 -0.81539867357 0.70925535086 -2.34343067833 -0.82250678805 0.70920460136 -2.35563770270 -0.82610024381 0.70914848312 -2.36810325513 -0.82618585475 0.70908886269 -2.38065534376 -0.82277043475 0.70902760666 -2.39312197672 -0.81586079770 0.70896658158 -2.40533116212 -0.80546375750 0.70890765403 -2.41711090810 -0.79158612802 0.70885269057 -2.42828922278 -0.78705758094 0.72532545407 -2.32052439801 -0.80112447263 0.72528463608 -2.33169559554 -0.81167672106 0.72524488150 -2.34346145075 -0.81871410630 0.72520671400 -2.35565261007 -0.82223640838 0.72517065726 -2.36809971991 -0.82224340734 0.72513723496 -2.38063342669 -0.81873488323 0.72510697079 -2.39308437683 -0.81171061609 0.72508038843 -2.40528321675 -0.80117038596 0.72505801156 -2.41706059286 -0.78711397289 0.72504036385 -2.42824715159 -0.84518273287 0.54498150162 -2.32477447896 -0.86837382517 0.54598055288 -2.33472243140 -0.88622281580 0.54766813559 -2.34598096157 -0.89912544637 0.55003582163 -2.35833312000 -0.90747745853 0.55307518285 -2.37156195722 -0.91167459389 0.55677779110 -2.38545052375 -0.91211259407 0.56113521824 -2.39978187012 -0.90918720072 0.56613903614 -2.41433904686 -0.90329415545 0.57178081665 -2.42890510450 -0.89482919989 0.57805213162 -2.44326309355 -0.84488718872 0.57186016388 -2.32483425948 -0.86792041563 0.57251572258 -2.33477186353 -0.88558691877 0.57355161698 -2.34596497955 -0.89821338490 0.57498390649 -2.35815813005 -0.90612650073 0.57682865055 -2.37109583751 -0.90965295303 0.57910190857 -2.38452262444 -0.90911942853 0.58181973997 -2.39818301332 -0.90485261397 0.58499820419 -2.41182152666 -0.89717919610 0.58865336065 -2.42518268696 -0.88642586166 0.59280126876 -2.43801101669 -0.84450529252 0.59633231915 -2.32489371345 -0.86733329360 0.59672809218 -2.33481027501 -0.88477845057 0.59729003822 -2.34592082077 -0.89710157024 0.59804787781 -2.35794710201 -0.90456345942 0.59903133149 -2.37061086996 -0.90742492493 0.60027011980 -2.38363387590 -0.90594677358 0.60179396328 -2.39673787108 -0.90038981218 0.60363258249 -2.40964460676 -0.89101484756 0.60581569796 -2.42207583418 -0.87808268652 0.60837303023 -2.43375330462 -0.84393656904 0.61869586248 -2.32495226817 -0.86652851388 0.61890406718 -2.33484037711 -0.88372876254 0.61914286079 -2.34585789727 -0.89573674025 0.61944692524 -2.35771657674 -0.90275187224 0.61985094252 -2.37012816365 -0.90497358373 0.62038959457 -2.38280440612 -0.90260129995 0.62109756335 -2.39545705227 -0.89583444612 0.62200953083 -2.40779785021 -0.88487244748 0.62316017896 -2.41953854805 -0.86991472925 0.62458418970 -2.43039089392 -0.84308054304 0.63924868895 -2.32500935089 -0.86542213124 0.63933005310 -2.33486488112 -0.88236920603 0.63936954613 -2.34578562107 -0.89406563277 0.63940023845 -2.35748309512 -0.90065527684 0.63945520049 -2.36966882766 -0.90228200359 0.63956750265 -2.38205434307 -0.89908967837 0.63977021536 -2.39435116575 -0.89122216657 0.64009640902 -2.40627082008 -0.87882333352 0.64057915405 -2.41752483044 -0.86203704461 0.64125152086 -2.42782472123 -0.84183673929 0.65828869360 -2.32506438891 -0.86393020045 0.65829245543 -2.33488649830 -0.88063113237 0.65822955571 -2.34571340420 -0.89203498564 0.65812700711 -2.35726319799 -0.89823721087 0.65801182227 -2.36925397104 -0.89933325865 0.65791101384 -2.38140381472 -0.89541857959 0.65785159449 -2.39343082040 -0.88658862428 0.65786057686 -2.40505307945 -0.87293884333 0.65796497361 -2.41598868324 -0.85456468734 0.65819179740 -2.42595572314 -0.84010468255 0.67611377151 -2.32511680950 -0.86196877631 0.67607767970 -2.33490793992 -0.87844589292 0.67598235101 -2.34565065870 -0.88959153670 0.67584642087 -2.35707342623 -0.89546121197 0.67568852469 -2.36890470288 -0.89611042307 0.67552729791 -2.38087294904 -0.89159467431 0.67538137592 -2.39270662507 -0.88196947004 0.67526939416 -2.40413419137 -0.86729031456 0.67520998805 -2.41488410832 -0.84761271222 0.67522179299 -2.42468483628 -0.83778389758 0.69302181774 -2.32516603994 -0.85945391360 0.69297213140 -2.33493191725 -0.87574483903 0.69288739347 -2.34560679660 -0.88668202379 0.69277766940 -2.35693032069 -0.89229081780 0.69265302463 -2.36864213225 -0.89259657100 0.69252352463 -2.38048187400 -0.88762463329 0.69239923484 -2.39218918865 -0.87740035460 0.69229022073 -2.40350371893 -0.86194908487 0.69220654774 -2.41416510755 -0.84129617399 0.69215828132 -2.42391299725 -0.83477390916 0.70931072734 -2.32521150749 -0.85630166709 0.70926221606 -2.33496114157 -0.87245932203 0.70920414457 -2.34559122992 -0.88325318475 0.70913994235 -2.35685042224 -0.88868956601 0.70907303893 -2.36848736822 -0.88877477658 0.70900686378 -2.38025071757 -0.88351512724 0.70894484642 -2.39188911999 -0.87291692876 0.70889041636 -2.40315122518 -0.85698649190 0.70884700308 -2.41378568283 -0.83573012743 0.70881803609 -2.42354114266 -0.83097424205 0.72527839537 -2.32525263945 -0.85242809157 0.72523433918 -2.33499832415 -0.86852069328 0.72519206576 -2.34561337071 -0.87925175742 0.72515242941 -2.35685027173 -0.88462099423 0.72511628444 -2.36846151987 -0.88462811398 0.72508448515 -2.38019960773 -0.87927282691 0.72505788585 -2.39181702796 -0.86855484326 0.72503734085 -2.40306627319 -0.85247387330 0.72502370446 -2.41369983603 -0.83102962727 0.72501783096 -2.42347020912 -0.88687059600 0.54444443921 -2.33111820581 -0.91934369469 0.54483327996 -2.33922698411 -0.94421591313 0.54607775191 -2.34913838615 -0.96192593909 0.54805158741 -2.36048353971 -0.97291246032 0.55062851882 -2.37289357262 -0.97761416457 0.55368227850 -2.38599961269 -0.97646973961 0.55708659880 -2.39943278771 -0.96991787320 0.56071521209 -2.41282422551 -0.95839725309 0.56444185073 -2.42580505389 -0.94234656703 0.56814024708 -2.43800640066 -0.88624603983 0.57154186834 -2.33116474022 -0.91851428876 0.57172424240 -2.33926685233 -0.94314619133 0.57237482639 -2.34911079280 -0.96048653334 0.57344352222 -2.36029105379 -0.97088010062 0.57488023178 -2.37240212746 -0.97467167897 0.57663485695 -2.38503850595 -0.97220605421 0.57865729964 -2.39779468141 -0.96382801215 0.58089746173 -2.41026514601 -0.94988233859 0.58330524513 -2.42204439190 -0.93071381936 0.58583055171 -2.43272691122 -0.88542768831 0.59616639858 -2.33121567734 -0.91745863841 0.59620601731 -2.33929377348 -0.94182863238 0.59644552143 -2.34903997664 -0.95880018566 0.59688461013 -2.36003051124 -0.96863581372 0.59752298261 -2.37184160166 -0.97159803201 0.59836033805 -2.38404947229 -0.96794935601 0.59939637565 -2.39623034753 -0.95795230117 0.60063079460 -2.40796045177 -0.94186938295 0.60206329410 -2.41881600940 -0.91996311681 0.60369357332 -2.42837324483 -0.88435206850 0.61862672811 -2.33126946473 -0.91612686436 0.61857691723 -2.33931120881 -0.94022553098 0.61855807747 -2.34893971574 -0.95683979423 0.61859799318 -2.35972756751 -0.96616138000 0.61872444865 -2.37124734612 -0.96838201416 0.61896522822 -2.38307163355 -0.96369342258 0.61934811620 -2.39477301180 -0.95228733115 0.61990089691 -2.40592406286 -0.93435546574 0.62065135466 -2.41609736872 -0.91008955223 0.62162727378 -2.42486551136 -0.88295570747 0.63923155515 -2.33132454994 -0.91446908732 0.63913525467 -2.33932261956 -0.93829918184 0.63898073497 -2.34882378813 -0.95457825728 0.63880681338 -2.35940787805 -0.96343857988 0.63865230724 -2.37065471173 -0.96501241587 0.63855603388 -2.38214411157 -0.95943203149 0.63855681064 -2.39345589999 -0.94682969298 0.63869345485 -2.40416989938 -0.92733766658 0.63900478385 -2.41386593216 -0.90108821852 0.63952961496 -2.42212382073 -0.88117513228 0.65828957789 -2.33137938052 -0.91243542799 0.65817934216 -2.33933146700 -0.93601187966 0.65798173435 -2.34870597190 -0.95198847301 0.65773421276 -2.35909709833 -0.96044919376 0.65747423570 -2.37009904939 -0.96147802762 0.65723926146 -2.38130602819 -0.95515896032 0.65706674834 -2.39231223783 -0.94157597756 0.65699415464 -2.40271188142 -0.92081306506 0.65705893866 -2.41209916205 -0.89295420855 0.65729855871 -2.42006828284 -0.87894687000 0.67610949453 -2.33143240403 -0.90997600710 0.67600749222 -2.33934121235 -0.93332591915 0.67582931607 -2.34860004508 -0.94904333964 0.67560333336 -2.35882088378 -0.95717500205 0.67535791137 -2.36961570998 -0.95776763988 0.67512141737 -2.38059650523 -0.95086798662 0.67492221864 -2.39137525107 -0.93652277576 0.67478868247 -2.40156392905 -0.91477874078 0.67474917614 -2.41077452071 -0.88568261520 0.67483206691 -2.41861900758 -0.87620744768 0.69300000327 -2.33148206801 -0.90704094536 0.69291801738 -2.33935531686 -0.93020359501 0.69279172057 -2.34851978575 -0.94571575536 0.69263731720 -2.35860488987 -0.95359778515 0.69247101157 -2.36924004441 -0.95387004311 0.69230900804 -2.38005466454 -0.94655288797 0.69216751092 -2.39067816547 -0.93166667847 0.69206272456 -2.40073996237 -0.90923177335 0.69201085328 -2.40986947044 -0.87926853134 0.69202810141 -2.41769610486 -0.87289339239 0.70926980231 -2.33152682003 -0.90358036348 0.70920923015 -2.33937724179 -0.92660720194 0.70913718830 -2.34847897197 -0.94197861839 0.70905930630 -2.35847477205 -0.94969932346 0.70898121365 -2.36900740355 -0.94977402777 0.70890853989 -2.37971962795 -0.94220744194 0.70884691454 -2.39025420676 -0.92700427659 0.70880196710 -2.40025390147 -0.90416924236 0.70877932711 -2.40936147358 -0.87370704985 0.70878462409 -2.41721968458 -0.86894123119 0.72522758984 -2.33156510762 -0.89954438217 0.72517944305 -2.33941044837 -0.92249903464 0.72513395970 -2.34849138178 -0.93780482694 0.72509244269 -2.35845618578 -0.94546139740 0.72505619494 -2.36895313831 -0.94546838434 0.72502651935 -2.37963051730 -0.93782542610 0.72500471884 -2.39013660070 -0.92253216101 0.72499209630 -2.40011966643 -0.89958822740 0.72498995466 -2.40922799243 -0.86899326361 0.72499959681 -2.41710985664 </DataArray>
</Points>
</Piece>
</StructuredGrid>
</VTKFile>
