<?xml version="1.0"?>
<VTKFile type="StructuredGrid" version="0.1">
<StructuredGrid WholeExtent="0 9 0 9 0 9">
<Piece Extent="0 9 0 9 0 9">
<PointData>
<DataArray type="Float32" Name="Deformation" format="ascii" NumberOfComponents="3">
0.00106685508 -0.26221663143 0.17600432189 0.00110326995 -0.26224821370 0.18187498606 0.00114647365 -0.26293558278 0.18885695831 0.00119941209 -0.26422332388 0.19689728010 0.00126503120 -0.26605602219 0.20594299290 0.00134627689 -0.26837826293 0.21594113818 0.00144609507 -0.27113463129 0.22683875742 0.00156743167 -0.27426971248 0.23858289207 0.00171323260 -0.27772809171 0.25112058362 0.00188644378 -0.28145435418 0.26439887352 0.00083550690 -0.26317457031 0.17855867311 0.00086361610 -0.26316147068 0.18426184488 0.00089871851 -0.26376429242 0.19101926291 0.00094208611 -0.26490532635 0.19877599328 0.00099499085 -0.26650686331 0.20747710210 0.00105870468 -0.26849119410 0.21706765544 0.00113449956 -0.27078060955 0.22749271942 0.00122364745 -0.27329740048 0.23869736012 0.00132742031 -0.27596385770 0.25062664364 0.00144709009 -0.27870227204 0.26322563607 0.00059985809 -0.26389300771 0.18047447547 0.00061981937 -0.26384639665 0.18605202817 0.00064569277 -0.26438580791 0.19264103083 0.00067784087 -0.26541681146 0.20018506810 0.00071662626 -0.26684497730 0.20862772464 0.00076241152 -0.26857587541 0.21791258512 0.00081555925 -0.27051507579 0.22798323418 0.00087643203 -0.27256814841 0.23878325648 0.00094539246 -0.27464066327 0.25025623668 0.00102280311 -0.27663819036 0.26234575943 0.00036113799 -0.26437194344 0.18175172872 0.00037306401 -0.26430299148 0.18724553568 0.00038890280 -0.26480012915 0.19372226181 0.00040865371 -0.26575777916 0.20112450424 0.00043231609 -0.26707036425 0.20939486007 0.00045988928 -0.26863230714 0.21847592644 0.00049137261 -0.27033803056 0.22831030044 0.00052676544 -0.27208195723 0.23884057921 0.00056606711 -0.27375850988 0.25000935984 0.00060927695 -0.27526211124 0.26175923948 0.00012057597 -0.26461137733 0.18239043259 0.00012453424 -0.26453125501 0.18784236716 0.00012985499 -0.26500725602 0.19426295561 0.00013650200 -0.26592822941 0.20159430138 0.00014443902 -0.26718302424 0.20977850790 0.00015362979 -0.26866048956 0.21875767862 0.00016403810 -0.27024947442 0.22847391696 0.00017562769 -0.27183882788 0.23886932636 0.00018836232 -0.27331739900 0.24988601026 0.00020220575 -0.27457403682 0.26146607208 -0.00012059862 -0.26461130924 0.18239058681 -0.00012458571 -0.26453118710 0.18784252236 -0.00012994426 -0.26500718841 0.19426311197 -0.00013663691 -0.26592816216 0.20159445922 -0.00014462631 -0.26718295734 0.20977866766 -0.00015387506 -0.26866042293 0.21875784089 -0.00016434582 -0.27024940793 0.22847408248 -0.00017600121 -0.27183876131 0.23886949600 -0.00018880386 -0.27331733208 0.24988618503 -0.00020271640 -0.27457396920 0.26146625313 -0.00036115643 -0.26437173897 0.18175219113 -0.00037311159 -0.26430278759 0.18724600105 -0.00038898857 -0.26479992621 0.19372273065 -0.00040878568 -0.26575757738 0.20112497743 -0.00043250121 -0.26707016365 0.20939533888 -0.00046013345 -0.26863210755 0.21847641249 -0.00049168069 -0.27033783164 0.22831079577 -0.00052714123 -0.27208175847 0.23884108620 -0.00056651336 -0.27375831058 0.25000988128 -0.00060979538 -0.27526191051 0.26175977851 -0.00059986808 -0.26389266637 0.18047524529 -0.00061985917 -0.26384605634 0.18605280298 -0.00064577156 -0.26438546931 0.19264181140 -0.00067796695 -0.26541647502 0.20018585571 -0.00071680703 -0.26684464323 0.20862852107 -0.00076265350 -0.26857554368 0.21791339264 -0.00081586804 -0.27051474612 0.22798405556 -0.00087681235 -0.27256782030 0.23878409501 -0.00094584813 -0.27464033596 0.25025709613 -0.00102333706 -0.27663786286 0.26234664407 -0.00083550423 -0.26317409126 0.17855974902 -0.00086364422 -0.26316099320 0.18426292789 -0.00089878683 -0.26376381760 0.19102035395 -0.00094220336 -0.26490485505 0.19877709374 -0.00099516510 -0.26650639618 0.20747821377 -0.00105894336 -0.26849073160 0.21706878056 -0.00113480941 -0.27078015191 0.22749386063 -0.00122403456 -0.27329694774 0.23869852050 -0.00132789010 -0.27596340969 0.25062782669 -0.00144764733 -0.27870182838 0.26322684572 -0.00106683552 -0.26221601349 0.17600570206 -0.00110328250 -0.26224759803 0.18187637554 -0.00114652799 -0.26293497095 0.18885835807 -0.00119951756 -0.26422271742 0.19689869121 -0.00126519676 -0.26605542257 0.20594441650 -0.00134651117 -0.26837767158 0.21594257548 -0.00144640634 -0.27113404959 0.22684020971 -0.00156782784 -0.27426914175 0.23858436072 -0.00171372123 -0.27772753323 0.25112207008 -0.00188703208 -0.28145380918 0.26440037932 0.00106702382 -0.26697972093 0.17365390014 0.00110883862 -0.26795424354 0.18027790290 0.00115833359 -0.26933929416 0.18774956019 0.00121850916 -0.27109627217 0.19603723373 0.00129236575 -0.27318657697 0.20510928524 0.00138290381 -0.27557160791 0.21493407647 0.00149312377 -0.27821276439 0.22547996914 0.00162602607 -0.28107144577 0.23671532498 0.00178461113 -0.28410905144 0.24860850573 0.00197187939 -0.28728698078 0.26112787312 0.00083625749 -0.26795294333 0.17626848332 0.00086952090 -0.26887792845 0.18270718435 0.00090917994 -0.27018253074 0.18993333307 0.00095667231 -0.27181335205 0.19790628546 0.00101343568 -0.27371699419 0.20658539750 0.00108090776 -0.27584005898 0.21593002517 0.00116052622 -0.27812914826 0.22589952445 0.00125372877 -0.28053086385 0.23645325133 0.00136195309 -0.28299180758 0.24755056179 0.00148663687 -0.28545858127 0.25915081182 0.00060072448 -0.26868284359 0.17822945950 0.00062487777 -0.26957067567 0.18452918446 0.00065382503 -0.27081494180 0.19157120204 0.00068811328 -0.27235114560 0.19930811398 0.00072828955 -0.27411479072 0.20769252201 0.00077490084 -0.27604138078 0.21667702787 0.00082849419 -0.27806641941 0.22621423331 0.00088961662 -0.28012541024 0.23625674005 0.00095881514 -0.28215385690 0.24675714984 0.00103663678 -0.28408726302 0.25766806441 0.00036178732 -0.26916942153 0.17953682840 0.00037643135 -0.27003248503 0.18574390297 0.00039404115 -0.27123652717 0.19266316686 0.00041475313 -0.27270965275 0.20024271904 0.00043870367 -0.27437996656 0.20843065849 0.00046602918 -0.27617557340 0.21717508421 0.00049686605 -0.27802457808 0.22642409516 0.00053135068 -0.27985508539 0.23612579032 0.00056961945 -0.28159520014 0.24622826869 0.00061180877 -0.28317302711 0.25667962925 0.00012080853 -0.26941267698 0.18019058976 0.00012570374 -0.27026335639 0.18635133965 0.00013160059 -0.27144728674 0.19320922730 0.00013851288 -0.27288887339 0.20071010041 0.00014645439 -0.27451252167 0.20879980667 0.00015543889 -0.27624263693 0.21742419378 0.00016548017 -0.27800362452 0.22652910944 0.00017659201 -0.27971988978 0.23606040135 0.00018878818 -0.28131583804 0.24596391719 0.00020208248 -0.28271587466 0.25618550467 -0.00012084936 -0.26941260975 0.18019074330 -0.00012578296 -0.27026328956 0.18635149424 -0.00013172436 -0.27144722036 0.19320938313 -0.00013868642 -0.27288880743 0.20071025785 -0.00014668199 -0.27451245604 0.20879996625 -0.00015572393 -0.27624257147 0.21742435622 -0.00016582509 -0.27800355898 0.22652927561 -0.00017699833 -0.27971982385 0.23606057230 -0.00018925650 -0.28131577135 0.24596409415 -0.00020261246 -0.28271580676 0.25618568904 -0.00036182384 -0.26916921967 0.17953728875 -0.00037650662 -0.27003228440 0.18574436650 -0.00039416140 -0.27123632791 0.19266363413 -0.00041492372 -0.27270945479 0.20024319112 -0.00043892913 -0.27437976965 0.20843113696 -0.00046631316 -0.27617537709 0.21717557113 -0.00049721136 -0.27802438169 0.22642459310 -0.00053175927 -0.27985488807 0.23612630236 -0.00057009243 -0.28159500082 0.24622879840 -0.00061234639 -0.28317282453 0.25668018069 -0.00060075239 -0.26868250654 0.17823022583 -0.00062494515 -0.26957034073 0.18452995618 -0.00065393825 -0.27081460923 0.19157198006 -0.00068827800 -0.27235081537 0.19930890000 -0.00072851071 -0.27411446248 0.20769331851 -0.00077518269 -0.27604105389 0.21667783813 -0.00082884027 -0.27806609292 0.22621506136 -0.00089002975 -0.28012508291 0.23625759073 -0.00095929745 -0.28215352718 0.24675802877 -0.00103718968 -0.28408692907 0.25766897798 -0.00083627247 -0.26795247020 0.17626955428 -0.00086957643 -0.26887745841 0.18270826303 -0.00090928261 -0.27018206421 0.18993442070 -0.00095682820 -0.27181288909 0.19790738424 -0.00101365040 -0.27371653451 0.20658651063 -0.00108118642 -0.27583960196 0.21593115684 -0.00116087345 -0.27812869291 0.22590067984 -0.00125414871 -0.28053040882 0.23645443659 -0.00136244938 -0.28299135119 0.24755178408 -0.00148721268 -0.28545812148 0.25915207926 -0.00106702156 -0.26697911045 0.17365527383 -0.00110887836 -0.26795363725 0.18027928682 -0.00115842219 -0.26933869270 0.18775095581 -0.00121865328 -0.27109567584 0.19603864361 -0.00129257188 -0.27318598573 0.20511071302 -0.00138317822 -0.27557102140 0.21493552687 -0.00149347254 -0.27821218190 0.22548144797 -0.00162645508 -0.28107086628 0.23671683913 -0.00178512608 -0.28410847358 0.24861006315 -0.00197248577 -0.28728640286 0.26112948287 0.00106830350 -0.27271792056 0.17130366052 0.00111409665 -0.27429889138 0.17851825462 0.00116811603 -0.27613225965 0.18637620724 0.00123339741 -0.27819260314 0.19486153751 0.00131297654 -0.28045449966 0.20395826455 0.00140988922 -0.28289252700 0.21365040746 0.00152717120 -0.28548126295 0.22392198538 0.00166785826 -0.28819528530 0.23475701741 0.00183498617 -0.29100917185 0.24613952267 0.00203159070 -0.29389750038 0.25805352028 0.00083784439 -0.27370194088 0.17396351737 0.00087491976 -0.27522985610 0.18097979033 0.00091786939 -0.27698506464 0.18857680055 0.00096827177 -0.27893225846 0.19672461740 0.00102770540 -0.28103612950 0.20539331026 0.00109774878 -0.28326136971 0.21455294849 0.00117998040 -0.28557267104 0.22417360148 0.00127597877 -0.28793472544 0.23422533860 0.00138732237 -0.29031222487 0.24467822923 0.00151558971 -0.29266986126 0.25550234273 0.00060217291 -0.27443993986 0.17595844863 0.00062943294 -0.27592806348 0.18282598097 0.00066060787 -0.27762465234 0.19022728466 0.00069640600 -0.27948698398 0.19812196682 0.00073753560 -0.28147233593 0.20646963456 0.00078470498 -0.28353798574 0.21522989500 0.00083862242 -0.28564121095 0.22436235524 0.00089999620 -0.28773928910 0.23382662241 0.00096953462 -0.28978949773 0.24358230361 0.00104794597 -0.29174911440 0.25358900596 0.00036277892 -0.27493191732 0.17728845400 0.00037943959 -0.27639351338 0.18405682627 0.00039833624 -0.27805102260 0.19132765936 0.00041972626 -0.27985677957 0.19905358559 0.00044386707 -0.28176311886 0.20718723732 0.00047101607 -0.28372237504 0.21568124688 0.00050143067 -0.28568688269 0.22448824660 0.00053536826 -0.28760897638 0.23356086883 0.00057308626 -0.28944099069 0.24285174590 0.00061484207 -0.29113526019 0.25231351015 0.00012115231 -0.27517787306 0.17795353322 0.00012674313 -0.27662620560 0.18467232600 0.00013305924 -0.27826417527 0.19187792442 0.00014015873 -0.28004164512 0.19951947354 0.00014809972 -0.28190847821 0.20754611839 0.00015694030 -0.28381453758 0.21590700404 0.00016673858 -0.28570968630 0.22455127553 0.00017755265 -0.28754378741 0.23342807789 0.00018944062 -0.28926670397 0.24248655619 0.00020246058 -0.29082829903 0.25167585547 -0.00012121706 -0.27517780689 0.17795368601 -0.00012685305 -0.27662613997 0.18467247990 -0.00013321838 -0.27826411018 0.19187807964 -0.00014037042 -0.28004158049 0.19951963047 -0.00014836653 -0.28190841387 0.20754627764 -0.00015726409 -0.28381447332 0.21590716639 -0.00016712044 -0.28570962181 0.22455144197 -0.00017799295 -0.28754372232 0.23342824962 -0.00018993898 -0.28926663783 0.24248673458 -0.00020301591 -0.29082823132 0.25167604209 -0.00036283932 -0.27493171861 0.17728891208 -0.00037954553 -0.27639331633 0.18405728773 -0.00039849185 -0.27805082719 0.19132812480 -0.00041993503 -0.27985658554 0.19905405622 -0.00044413178 -0.28176292576 0.20718771492 -0.00047133884 -0.28372218220 0.21568173383 -0.00050181295 -0.28568668923 0.22448874589 -0.00053581083 -0.28760878120 0.23356138401 -0.00057358921 -0.28944079249 0.24285228113 -0.00061540483 -0.29113505744 0.25231407019 -0.00060222458 -0.27443960805 0.17595921116 -0.00062953090 -0.27592773450 0.18282674924 -0.00066075643 -0.27762432614 0.19022805969 -0.00069660892 -0.27948666017 0.19812275060 -0.00073779610 -0.28147201378 0.20647043010 -0.00078502573 -0.28353766420 0.21523070627 -0.00083900555 -0.28564088860 0.22436318724 -0.00090044330 -0.28773896420 0.23382748110 -0.00097004673 -0.28978916819 0.24358319596 -0.00104852359 -0.29174877778 0.25358993992 -0.00083788297 -0.27370147500 0.17396458296 -0.00087500576 -0.27522939430 0.18098086419 -0.00091800737 -0.27698460687 0.18857788409 -0.00096846592 -0.27893180422 0.19672571345 -0.00102795958 -0.28103567785 0.20539442303 -0.00109806649 -0.28326091925 0.21455408362 -0.00118036480 -0.28557221994 0.22417476598 -0.00127643266 -0.28793427142 0.23422654089 -0.00138784822 -0.29031176519 0.24467947913 -0.00151618962 -0.29266939275 0.25550365147 -0.00106832462 -0.27271731928 0.17130502722 -0.00111416671 -0.27429829557 0.17851963233 -0.00116823990 -0.27613166924 0.18637759780 -0.00123357988 -0.27819201758 0.19486294457 -0.00131322231 -0.28045391785 0.20395969358 -0.00141020289 -0.28289194733 0.21365186576 -0.00152755730 -0.28548068328 0.22392348206 -0.00166832122 -0.28819470299 0.23475856341 -0.00183553034 -0.29100858371 0.24614113074 -0.00203222034 -0.29389690273 0.25805520501 0.00107058216 -0.27917043453 0.16902396604 0.00111897497 -0.28109896440 0.17664563579 0.00117584494 -0.28319008924 0.18477071479 0.00124423032 -0.28542855819 0.19339308549 0.00132716933 -0.28779912040 0.20250663034 0.00142770024 -0.29028652502 0.21210523179 0.00154886129 -0.29287552119 0.22218277232 0.00169369071 -0.29555085806 0.23273313436 0.00186522675 -0.29829728477 0.24375020037 0.00206650765 -0.30109955048 0.25522785281 0.00084018338 -0.28016089726 0.17171430612 0.00087976196 -0.28203421438 0.17912933166 0.00092479345 -0.28404856547 0.18698329764 0.00097696118 -0.28618194000 0.19525302381 0.00103794848 -0.28841232742 0.20391532995 0.00110943865 -0.29071771720 0.21294703581 0.00119311502 -0.29307609878 0.22232496116 0.00129066092 -0.29546546164 0.23202592577 0.00140375967 -0.29786379522 0.24202674939 0.00153409459 -0.30024908900 0.25230425179 0.00060414482 -0.28090372836 0.17373209961 0.00063345032 -0.28273563605 0.18099214222 0.00066603960 -0.28469240696 0.18864277371 0.00070275095 -0.28674696077 0.19664801685 0.00074442263 -0.28887221715 0.20497189441 0.00079189293 -0.29104109577 0.21357842919 0.00084600011 -0.29322651632 0.22243164395 0.00090758245 -0.29540139845 0.23149556147 0.00097747822 -0.29753866185 0.24073420454 0.00105652570 -0.29961122619 0.25011159592 0.00036407848 -0.28139892764 0.17507734621 0.00038206880 -0.28320322923 0.18223406723 0.00040178457 -0.28512161353 0.18974914281 0.00042358319 -0.28712362033 0.19757806445 0.00044782209 -0.28917878943 0.20567632368 0.00047485868 -0.29125666061 0.21399941201 0.00050505037 -0.29332677367 0.22250282096 0.00053875458 -0.29535866840 0.23114204202 0.00057632872 -0.29732188458 0.23987256673 0.00061813021 -0.29918596201 0.24864988659 0.00012159635 -0.28164649490 0.17575004565 0.00012764616 -0.28343699374 0.18285510644 0.00013422952 -0.28533618502 0.19030240472 0.00014144150 -0.28731191854 0.19804316649 0.00014937715 -0.28933204413 0.20602861772 0.00015813152 -0.29136441159 0.21420998439 0.00016779966 -0.29337687074 0.22253849249 0.00017847664 -0.29533727138 0.23096536800 0.00019025752 -0.29721346334 0.23944183689 0.00020323733 -0.29897329641 0.24791912515 -0.00012168958 -0.28164642992 0.17575019765 -0.00012778886 -0.28343692939 0.18285525960 -0.00013442434 -0.28533612126 0.19030255926 -0.00014169053 -0.28731185525 0.19804332281 -0.00014968191 -0.28933198111 0.20602877647 -0.00015849297 -0.29136434858 0.21421014642 -0.00016821819 -0.29337680740 0.22253865884 -0.00017895206 -0.29533720731 0.23096553995 -0.00019078907 -0.29721339804 0.23944201592 -0.00020382370 -0.29897322933 0.24791931296 -0.00036416732 -0.28139873252 0.17507780191 -0.00038220749 -0.28320303601 0.18223452646 -0.00040197586 -0.28512142208 0.18974960620 -0.00042382933 -0.28712343029 0.19757853329 -0.00044812480 -0.28917860022 0.20567679990 -0.00047521918 -0.29125647145 0.21399989818 -0.00050546935 -0.29332658354 0.22250332031 -0.00053923223 -0.29535847607 0.23114255844 -0.00057686470 -0.29732168861 0.23987310475 -0.00061872368 -0.29918576073 0.24865045140 -0.00060422488 -0.28090340249 0.17373285816 -0.00063358100 -0.28273531341 0.18099290679 -0.00066622385 -0.28469208731 0.18864354536 -0.00070299130 -0.28674664351 0.19664879778 -0.00074472123 -0.28887190133 0.20497268795 -0.00079225150 -0.29104078007 0.21357923978 -0.00084641998 -0.29322619905 0.22243247718 -0.00090806454 -0.29540107758 0.23149642405 -0.00097802305 -0.29753833498 0.24073510430 -0.00105713337 -0.29961089056 0.25011254183 -0.00084025027 -0.28016043964 0.17171536611 -0.00087988062 -0.28203376141 0.17913040033 -0.00092496713 -0.28404811679 0.18698437652 -0.00097719286 -0.28618149477 0.19525411613 -0.00103824091 -0.28841188428 0.20391644059 -0.00110979434 -0.29071727431 0.21294817132 -0.00119353625 -0.29307565381 0.22232612975 -0.00129114970 -0.29546501174 0.23202713733 -0.00140431777 -0.29786333707 0.24202801547 -0.00153472355 -0.30024861876 0.25230558561 -0.00107063150 -0.27916984375 0.16902532549 -0.00111907762 -0.28109837982 0.17664700683 -0.00117600452 -0.28318951036 0.18477209949 -0.00124445043 -0.28542798389 0.19339448822 -0.00132745355 -0.28779854895 0.20250805776 -0.00142805210 -0.29028595404 0.21210669288 -0.00154928431 -0.29287494770 0.22218427832 -0.00169418838 -0.29555027845 0.23273469884 -0.00186580254 -0.29829669480 0.24375183918 -0.00206716500 -0.30109894528 0.25522958411 0.00107374785 -0.28607646708 0.16688517970 0.00112340451 -0.28817126975 0.17470964103 0.00118154429 -0.29038839292 0.18296689816 0.00125116136 -0.29272037873 0.19165477167 0.00133524987 -0.29515976930 0.20077108213 0.00143680402 -0.29769910679 0.21031365009 0.00155881795 -0.30033093332 0.22028029614 0.00170428585 -0.30304779103 0.23066884085 0.00187620188 -0.30584222206 0.24147710478 0.00207756021 -0.30870676854 0.25270290850 0.00084319019 -0.28706914678 0.16959138042 0.00088399677 -0.28910796405 0.17720547717 0.00092995875 -0.29124970461 0.18518645661 0.00098281725 -0.29348229110 0.19351353938 0.00104431338 -0.29579364615 0.20216594613 0.00111618827 -0.29817169237 0.21112289749 0.00120018300 -0.30060435239 0.22036361412 0.00129803871 -0.30307954883 0.22986731665 0.00141149651 -0.30558520433 0.23961322572 0.00154229749 -0.30810924149 0.24958056199 0.00060658165 -0.28781364095 0.17162106919 0.00063689535 -0.28981046930 0.17907739275 0.00067011854 -0.29189567304 0.18685116419 0.00070718008 -0.29405371016 0.19490765425 0.00074900884 -0.29626903861 0.20321213365 0.00079653367 -0.29852611639 0.21172987312 0.00085068344 -0.30080940145 0.22042614338 0.00091238700 -0.30310335178 0.22926621516 0.00098257323 -0.30539242533 0.23821535918 0.00106217097 -0.30766108010 0.24723884617 0.00036565168 -0.28830994937 0.17297424571 0.00038429903 -0.29027878531 0.18032538750 0.00040438265 -0.29232629803 0.18796102071 0.00042633400 -0.29443463571 0.19583711616 0.00045058454 -0.29658594653 0.20390964470 0.00047756575 -0.29876237867 0.21213457717 0.00050770908 -0.30094608032 0.22046788439 0.00054144601 -0.30311919965 0.22886553721 0.00057920800 -0.30526388486 0.23728350646 0.00062142651 -0.30736228411 0.24567776298 0.00012212972 -0.28855807184 0.17365090972 0.00012840658 -0.29051291190 0.18094946120 0.00013511005 -0.29254157940 0.18851602596 0.00014236314 -0.29462506760 0.19630192499 0.00015028880 -0.29674436973 0.20425847928 0.00015901001 -0.29888047905 0.21233700982 0.00016864976 -0.30101438881 0.22048883761 0.00017933102 -0.30312709226 0.22866528364 0.00019117677 -0.30519958266 0.23681766890 0.00020430997 -0.30721285325 0.24489731438 -0.00012225477 -0.28855800815 0.17365106091 -0.00012858326 -0.29051284888 0.18094961359 -0.00013534028 -0.29254151699 0.18851617975 -0.00014264837 -0.29462500564 0.19630208061 -0.00015063010 -0.29674430803 0.20425863739 -0.00015940802 -0.29888041734 0.21233717128 -0.00016910469 -0.30101432673 0.22048900351 -0.00017984267 -0.30312702940 0.22866545528 -0.00019174452 -0.30519951853 0.23681784782 -0.00020493280 -0.30721278728 0.24489750232 -0.00036577234 -0.28830975809 0.17297469901 -0.00038447172 -0.29027859605 0.18032584442 -0.00040460937 -0.29232611059 0.18796148188 -0.00042661638 -0.29443444968 0.19583758291 -0.00045092384 -0.29658576128 0.20391011902 -0.00047796283 -0.29876219337 0.21213506173 -0.00050816445 -0.30094589391 0.22046838254 -0.00054195978 -0.30311901087 0.22886605298 -0.00057977991 -0.30526369223 0.23728404454 -0.00062205593 -0.30736208593 0.24567832876 -0.00060669354 -0.28781332147 0.17162182373 -0.00063706002 -0.28981015323 0.17907815345 -0.00067033824 -0.29189536005 0.18685193216 -0.00070745675 -0.29405339954 0.19490843177 -0.00074934411 -0.29626872931 0.20321292420 -0.00079692890 -0.29852580698 0.21173068136 -0.00085113968 -0.30080909016 0.22042697517 -0.00091290501 -0.30310303647 0.22926707755 -0.00098315345 -0.30539210353 0.23821626040 -0.00106281357 -0.30766074895 0.24723979564 -0.00084328892 -0.28706869806 0.16959243479 -0.00088414942 -0.28910752023 0.17720654043 -0.00093016792 -0.29124926518 0.18518753038 -0.00098308534 -0.29348185505 0.19351462706 -0.00104464263 -0.29579321194 0.20216705292 -0.00111658073 -0.29817125798 0.21112403037 -0.00120064056 -0.30060391529 0.22036478187 -0.00129856307 -0.30307910600 0.22986852984 -0.00141208919 -0.30558475221 0.23961449671 -0.00154295987 -0.30810877607 0.24958190492 -0.00107382903 -0.28607588767 0.16688653189 -0.00112354115 -0.28817069685 0.17471100512 -0.00118173942 -0.29038782581 0.18296827634 -0.00125141802 -0.29271981603 0.19165616867 -0.00133557109 -0.29515920900 0.20077250517 -0.00143719278 -0.29769854620 0.21031510895 -0.00155927726 -0.30033036912 0.22028180309 -0.00170481868 -0.30304721924 0.23067041068 -0.00187681119 -0.30584163805 0.24147875481 -0.00207824896 -0.30870616704 0.25270465856 0.00107768862 -0.29317522246 0.16495766449 0.00112731621 -0.29533261460 0.17275986492 0.00118523805 -0.29760278068 0.18099857269 0.00125434400 -0.29998430615 0.18966949010 0.00133752392 -0.30247577648 0.19876831944 0.00143766767 -0.30507577712 0.20829076299 0.00155766513 -0.30778289354 0.21823252304 0.00170040616 -0.31059571120 0.22858930190 0.00186878061 -0.31351281555 0.23935680183 0.00206567836 -0.31653279205 0.25053072514 0.00084678061 -0.29416602376 0.16766527111 0.00088757347 -0.29626806585 0.17525789570 0.00093337188 -0.29846515343 0.18321990977 0.00098591665 -0.30075320619 0.19152819883 0.00104694860 -0.30312814386 0.20015964837 0.00111820854 -0.30558588614 0.20909114392 0.00120143727 -0.30812235276 0.21829957098 0.00129837562 -0.31073346342 0.22776181506 0.00141076439 -0.31341513784 0.23745476168 0.00154034440 -0.31616329574 0.24735529633 0.00060942487 -0.29490910946 0.16969601411 0.00063973349 -0.29696963917 0.17713145707 0.00067284301 -0.29911191800 0.18488595113 0.00070972535 -0.30132986633 0.19292226926 0.00075135243 -0.30361740456 0.20120318439 0.00079869620 -0.30596845308 0.20969146949 0.00085272859 -0.30837693228 0.21834989750 0.00091442153 -0.31083676254 0.22714124138 0.00098474696 -0.31334186425 0.23602827407 0.00106467680 -0.31588615781 0.24497376854 0.00036746422 -0.29540447935 0.17104989319 0.00038611036 -0.29743733434 0.17838054875 0.00040612701 -0.29954307420 0.18599669657 0.00042798876 -0.30171428640 0.19385170128 0.00045217023 -0.30394355843 0.20189892751 0.00047914601 -0.30622347777 0.21009173990 0.00050939070 -0.30854663192 0.21838350308 0.00054337892 -0.31090560835 0.22672758169 0.00058158526 -0.31329299455 0.23507734036 0.00062448433 -0.31570137800 0.24338614372 0.00012274149 -0.29565213322 0.17172690808 0.00012901812 -0.29767115118 0.17900517052 0.00013569942 -0.29975862185 0.18655214589 0.00014292557 -0.30190646621 0.19431649476 0.00015083679 -0.30410660527 0.20224687772 0.00015957327 -0.30635096003 0.21029195533 0.00016927521 -0.30863145148 0.21840038817 0.00018008280 -0.31094000064 0.22652083682 0.00019213626 -0.31326852848 0.23460196185 0.00020557576 -0.31560895603 0.24259242384 -0.00012290046 -0.29565207085 0.17172705849 -0.00012922915 -0.29767108950 0.17900532212 -0.00013596420 -0.29975856077 0.18655229889 -0.00014324554 -0.30190640560 0.19431664960 -0.00015121306 -0.30410654492 0.20224703503 -0.00016000667 -0.30635089967 0.21029211598 -0.00016976627 -0.30863139078 0.21840055324 -0.00018063178 -0.31093993919 0.22652100761 -0.00019274309 -0.31326846583 0.23460213988 -0.00020624013 -0.31560889163 0.24259261084 -0.00036761883 -0.29540429204 0.17105034414 -0.00038631740 -0.29743714908 0.17838100331 -0.00040638831 -0.29954289076 0.18599715538 -0.00042830590 -0.30171410437 0.19385216566 -0.00045254451 -0.30394337719 0.20189939945 -0.00047957848 -0.30622329652 0.21009222205 -0.00050988213 -0.30854644963 0.21838399877 -0.00054392980 -0.31090542381 0.22672809491 -0.00058219584 -0.31329280636 0.23507787578 -0.00062515456 -0.31570118455 0.24338670667 -0.00060957076 -0.29490879657 0.16969676475 -0.00063993255 -0.29696932974 0.17713221384 -0.00067309734 -0.29911161165 0.18488671516 -0.00071003684 -0.30132956236 0.19292304283 -0.00075172277 -0.30361710192 0.20120397098 -0.00079912683 -0.30596815039 0.20969227373 -0.00085322075 -0.30837662782 0.21835072521 -0.00091497624 -0.31083645428 0.22714209955 -0.00098536501 -0.31334154983 0.23602917087 -0.00106535878 -0.31588583451 0.24497471330 -0.00084691343 -0.29416558423 0.16766632003 -0.00088776056 -0.29626763129 0.17525895347 -0.00093361576 -0.29846472326 0.18322097804 -0.00098621968 -0.30075277938 0.19152928099 -0.00104731301 -0.30312771892 0.20016074963 -0.00111863640 -0.30558546110 0.20909227121 -0.00120193053 -0.30812192518 0.21830073303 -0.00129893606 -0.31073303040 0.22776302236 -0.00141139366 -0.31341469601 0.23745602648 -0.00154104399 -0.31616284125 0.24735663267 -0.00107780401 -0.29317465481 0.16495900970 -0.00112748736 -0.29533205352 0.17276122196 -0.00118546799 -0.29760222539 0.18099994381 -0.00125463574 -0.29998375527 0.18967088003 -0.00133788042 -0.30247522801 0.19876973540 -0.00143809185 -0.30507522847 0.20829221470 -0.00155815984 -0.30778234150 0.21823402270 -0.00170097423 -0.31059515194 0.22859086419 -0.00186942482 -0.31351224466 0.23935844395 -0.00206640144 -0.31653220449 0.25053246675 0.00108229251 -0.30020590490 0.16331178341 0.00113064101 -0.30239980611 0.17084590205 0.00118695019 -0.30470886249 0.17889955370 0.00125393172 -0.30713658187 0.18746013479 0.00133429722 -0.30968647205 0.19651504178 0.00143075835 -0.31236204085 0.20605167111 0.00154602675 -0.31516679608 0.21605741920 0.00168281407 -0.31810424555 0.22651968251 0.00184383195 -0.32117789708 0.23742585748 0.00203179204 -0.32439125849 0.24876334053 0.00085087039 -0.30119086248 0.16600650904 0.00089044134 -0.30333148056 0.17333625610 0.00093503945 -0.30557158329 0.18111728941 0.00098633608 -0.30791457968 0.18931903684 0.00104600259 -0.31036387873 0.19791092624 0.00111571036 -0.31292288943 0.20686238547 0.00119713075 -0.31559502078 0.21614284238 0.00129193513 -0.31838368179 0.22572172484 0.00140179485 -0.32129228144 0.23556846069 0.00152838129 -0.32432422875 0.24565247779 0.00061261590 -0.30192956573 0.16802759111 0.00064193019 -0.30403022160 0.17520405970 0.00067421132 -0.30621860923 0.18278062954 0.00071041867 -0.30849806348 0.19071325207 0.00075151161 -0.31087191923 0.19895787873 0.00079844952 -0.31334351136 0.20747046098 0.00085219175 -0.31591617473 0.21620695028 0.00091369770 -0.31859324421 0.22512329806 0.00098392672 -0.32137805469 0.23417545578 0.00106383819 -0.32427394103 0.24331937489 0.00036948178 -0.30242201443 0.16937502932 0.00038748284 -0.30449602904 0.17644931263 0.00040701414 -0.30664994012 0.18388957389 0.00042855756 -0.30888703309 0.19164278034 0.00045259495 -0.31121059340 0.19965589922 0.00047960819 -0.31362390648 0.20787589776 0.00051007915 -0.31613025776 0.21624974319 0.00054448969 -0.31873293269 0.22472440276 0.00058332168 -0.32143521669 0.23324684369 0.00062705700 -0.32424039521 0.24176403323 0.00012342073 -0.30266820837 0.17004882341 0.00012947455 -0.30472890267 0.17707201462 0.00013599621 -0.30686557577 0.18444412226 0.00014313077 -0.30908148833 0.19210762153 0.00015102327 -0.31137990106 0.20000498767 0.00015981878 -0.31376407463 0.20807869590 0.00016966234 -0.31623726974 0.21627122144 0.00018069903 -0.31880274708 0.22452503952 0.00019307388 -0.32146376734 0.23278262537 0.00020693196 -0.32422359119 0.24098645420 -0.00012361453 -0.30266814732 0.17004897309 -0.00012971940 -0.30472884230 0.17707216545 -0.00013629415 -0.30686551599 0.18444427444 -0.00014348365 -0.30908142903 0.19210777550 -0.00015143276 -0.31137984205 0.20000514404 -0.00016028635 -0.31376401567 0.20807885551 -0.00017018927 -0.31623721053 0.21627138533 -0.00018128638 -0.31880268726 0.22452520893 -0.00019372255 -0.32146370649 0.23278280174 -0.00020764264 -0.32422352886 0.24098663918 -0.00036967127 -0.30242183107 0.16937547808 -0.00038772373 -0.30449584771 0.17644976485 -0.00040730863 -0.30664976060 0.18389003024 -0.00042890765 -0.30888685501 0.19164324210 -0.00045300248 -0.31121041620 0.19965636830 -0.00048007480 -0.31362372943 0.20787637671 -0.00051060628 -0.31613007997 0.21625023517 -0.00054507862 -0.31873275309 0.22472491156 -0.00058397349 -0.32143503404 0.23324737374 -0.00062777257 -0.32424020810 0.24176458957 -0.00061279679 -0.30192925941 0.16802833811 -0.00064216317 -0.30402991871 0.17520481260 -0.00067449890 -0.30621830941 0.18278138946 -0.00071076318 -0.30849776609 0.19071402122 -0.00075191521 -0.31087162335 0.19895866042 -0.00079891418 -0.31334321577 0.20747125959 -0.00085271930 -0.31591587793 0.21620777127 -0.00091428977 -0.31859294443 0.22512414801 -0.00098458478 -0.32137774986 0.23417634232 -0.00106456355 -0.32427362880 0.24332030675 -0.00085103836 -0.30119043211 0.16600755289 -0.00089066246 -0.30333105509 0.17333730844 -0.00093531667 -0.30557116222 0.18111835189 -0.00098667221 -0.30791416210 0.18932011270 -0.00104640028 -0.31036346333 0.19791202034 -0.00111617212 -0.31292247451 0.20686350427 -0.00119765892 -0.31559460425 0.21614399395 -0.00129253192 -0.31838326116 0.22572291884 -0.00140246231 -0.32129185382 0.23556970841 -0.00152912132 -0.32432379085 0.24565379211 -0.00108244327 -0.30020534896 0.16331312216 -0.00113084631 -0.30239925666 0.17084725213 -0.00118721361 -0.30470831886 0.17890091733 -0.00125425668 -0.30713604286 0.18746151642 -0.00133468704 -0.30968593598 0.19651644804 -0.00143121622 -0.31236150552 0.20605311085 -0.00154655575 -0.31516625880 0.21605890350 -0.00168341715 -0.31810370313 0.22652122465 -0.00184451193 -0.32117734580 0.23742747294 -0.00203255164 -0.32439069415 0.24876504704 0.00108744759 -0.30690771863 0.16201789947 0.00113330983 -0.30918965144 0.16901734702 0.00118670469 -0.31158224836 0.17670365651 0.00125007798 -0.31409344729 0.18504959978 0.00132587553 -0.31673118613 0.19402794869 0.00141654318 -0.31950340278 0.20361147508 0.00152452674 -0.32241803513 0.21377295081 0.00165227205 -0.32548302107 0.22448514772 0.00180222494 -0.32870629851 0.23572083765 0.00197683122 -0.33209580533 0.24745279247 0.00085537528 -0.30788299726 0.16468562507 0.00089254966 -0.31011516891 0.17149022719 0.00093496806 -0.31244566557 0.17891222781 0.00098415222 -0.31488630600 0.18690808812 0.00104162384 -0.31744890895 0.19543426930 0.00110890465 -0.32014529315 0.20444723252 0.00118751637 -0.32298727736 0.21390343896 0.00127898071 -0.32598668033 0.22375934979 0.00138481940 -0.32915532080 0.23397142620 0.00150655415 -0.33250501752 0.24449612936 0.00061609621 -0.30861444162 0.16668645693 0.00064345089 -0.31080929254 0.17334492519 0.00067422180 -0.31309321414 0.18056869443 0.00070929201 -0.31548093578 0.18830199289 0.00074954459 -0.31798718685 0.19648904877 0.00079586260 -0.32062669670 0.20507409028 0.00084912910 -0.32341419472 0.21400134566 0.00091022715 -0.32636441027 0.22321504310 0.00098003981 -0.32949207272 0.23265941084 0.00105945015 -0.33281191144 0.24227867708 0.00037167005 -0.30910205148 0.16802039479 0.00038839653 -0.31127202213 0.17458144079 0.00040704056 -0.31352489387 0.18167305617 0.00042805046 -0.31587733647 0.18923131391 0.00045187452 -0.31834601970 0.19719228697 0.00047896104 -0.32094761333 0.20549204831 0.00050975834 -0.32369878714 0.21406667091 0.00054471470 -0.32661621088 0.22285222773 0.00058427844 -0.32971655434 0.23178479174 0.00062889785 -0.33301648728 0.24080043591 0.00012415648 -0.30934582662 0.16868743837 0.00012976960 -0.31150335747 0.17519977375 0.00013599903 -0.31374070457 0.18222531282 0.00014298065 -0.31607550789 0.18969605102 0.00015085035 -0.31852540736 0.19754398377 0.00015974400 -0.32110804294 0.20570110652 0.00016979750 -0.32384105456 0.21409941470 0.00018114671 -0.32674208219 0.22267090374 0.00019392753 -0.32982876576 0.23134756907 0.00020827583 -0.33311874522 0.24006140614 -0.00012438481 -0.30934576684 0.16868758739 -0.00013004688 -0.31150329835 0.17519992382 -0.00013632813 -0.31374064606 0.18222546416 -0.00014336432 -0.31607544987 0.18969620404 -0.00015129119 -0.31852534969 0.19754413907 -0.00016024450 -0.32110798541 0.20570126487 -0.00017036002 -0.32384099695 0.21409957704 -0.00018177348 -0.32674202419 0.22267107122 -0.00019462066 -0.32982870705 0.23134774301 -0.00020903730 -0.33311868543 0.24006158803 -0.00037189415 -0.30910187189 0.16802084159 -0.00038866991 -0.31127184456 0.17458189076 -0.00040736625 -0.31352471814 0.18167351000 -0.00042843135 -0.31587716225 0.18923177282 -0.00045231337 -0.31834584655 0.19719275273 -0.00047946046 -0.32094744066 0.20549252327 -0.00051032080 -0.32369861424 0.21406715793 -0.00054534255 -0.32661603690 0.22285273024 -0.00058497387 -0.32971637831 0.23178531371 -0.00062966292 -0.33301630808 0.24080098187 -0.00061631185 -0.30861414157 0.16668720070 -0.00064371646 -0.31080899590 0.17334567434 -0.00067454066 -0.31309292061 0.18056945012 -0.00070966736 -0.31548064486 0.18830275717 -0.00074997945 -0.31798689779 0.19648982464 -0.00079635985 -0.32062640858 0.20507488165 -0.00084969144 -0.32341390637 0.21400215735 -0.00091085714 -0.32636412033 0.22321588087 -0.00098073984 -0.32949177961 0.23266028135 -0.00106022244 -0.33281161337 0.24227958793 -0.00085557823 -0.30788257565 0.16468666443 -0.00089280352 -0.31011475216 0.17149127430 -0.00093527669 -0.31244525330 0.17891328431 -0.00098451924 -0.31488589752 0.18690915694 -0.00104205272 -0.31744850329 0.19543535467 -0.00110939865 -0.32014488907 0.20444833996 -0.00118807854 -0.32298687331 0.21390457532 -0.00127961392 -0.32598627448 0.22376052321 -0.00138552632 -0.32915491104 0.23397264610 -0.00150733726 -0.33250460145 0.24449740649 -0.00108763361 -0.30690717392 0.16201923253 -0.00113354808 -0.30918911313 0.16901869041 -0.00118699966 -0.31158171600 0.17670501237 -0.00125043391 -0.31409292007 0.18505097195 -0.00132629645 -0.31673066289 0.19402934269 -0.00141703284 -0.31950288202 0.20361289813 -0.00152508868 -0.32241751499 0.21377441182 -0.00165290956 -0.32548249936 0.22448665731 -0.00180294106 -0.32870577269 0.23572240813 -0.00197762877 -0.33209527251 0.24745443784 0.00109304188 -0.31301986789 0.16114637566 0.00113525362 -0.31551895774 0.16732379443 0.00118452551 -0.31809854825 0.17444469646 0.00124293626 -0.32077114382 0.18246077909 0.00131256461 -0.32354924884 0.19132373967 0.00139548929 -0.32644536774 0.20098527555 0.00149378903 -0.32947200490 0.21139708405 0.00160954255 -0.33264166474 0.22251086252 0.00174482859 -0.33596685166 0.23427830830 0.00190172588 -0.33946007007 0.24665111874 0.00086021106 -0.31398176240 0.16377315004 0.00089384771 -0.31643609165 0.16976947781 0.00093316434 -0.31896407164 0.17663835727 0.00097944176 -0.32158827957 0.18431738738 0.00103396081 -0.32433129270 0.19274416712 0.00109800230 -0.32721568823 0.20185629545 0.00117284703 -0.33026404340 0.21159137134 0.00125977584 -0.33349893544 0.22188699375 0.00136006954 -0.33694294158 0.23268076166 0.00147500895 -0.34061863904 0.24391027403 0.00061980724 -0.31470316896 0.16574326833 0.00064426103 -0.31712392792 0.17160377804 0.00067287275 -0.31961320013 0.17828364083 0.00070637731 -0.32220111743 0.18570988194 0.00074550957 -0.32491781165 0.19380952660 0.00079100444 -0.32779341462 0.20250960008 0.00084359680 -0.33085805819 0.21173712761 0.00090402154 -0.33414187417 0.22141913444 0.00097301354 -0.33767499441 0.23148264580 0.00105130770 -0.34148755074 0.24185468696 0.00037399473 -0.31518408734 0.16705673029 0.00038883150 -0.31758246633 0.17282669490 0.00040620279 -0.32004593355 0.17938054692 0.00042647755 -0.32260965723 0.18663826253 0.00045002474 -0.32530880561 0.19451981787 0.00047721330 -0.32817854690 0.20294518911 0.00050841218 -0.33125404933 0.21183435240 0.00054399033 -0.33457048113 0.22110728390 0.00058431669 -0.33816301052 0.23068395977 0.00062976022 -0.34206680573 0.24048435617 0.00012493783 -0.31542451733 0.16771353563 0.00012989702 -0.31781170666 0.17343822812 0.00013570647 -0.32026227169 0.17992907533 0.00014247718 -0.32281389883 0.18710252895 0.00015032017 -0.32550427447 0.19487504067 0.00015934644 -0.32837108503 0.20316306220 0.00016966701 -0.33145201692 0.21188304524 0.00018139289 -0.33478475653 0.22095144147 0.00019463509 -0.33840699028 0.23028470260 0.00020950462 -0.34235640457 0.23979928032 -0.00012519916 -0.31542445869 0.16771368411 -0.00013020449 -0.31781164871 0.17343837749 -0.00013606418 -0.32026221437 0.17992922583 -0.00014288915 -0.32281384205 0.18710268097 -0.00015079030 -0.32550421813 0.19487519476 -0.00015987856 -0.32837102899 0.20316321904 -0.00017026485 -0.33145196102 0.21188320566 -0.00018206008 -0.33478470057 0.22095160647 -0.00019537517 -0.33840693405 0.23028487332 -0.00021032103 -0.34235634781 0.23979945804 -0.00037425193 -0.31518391121 0.16705717545 -0.00038913513 -0.31758229226 0.17282714276 -0.00040655713 -0.32004576139 0.17938099820 -0.00042688675 -0.32260948675 0.18663871838 -0.00045049281 -0.32530863649 0.19452027988 -0.00047774414 -0.32817837876 0.20294565929 -0.00050900956 -0.33125388170 0.21183483322 -0.00054465790 -0.33457031346 0.22110777825 -0.00058505798 -0.33816284219 0.23068447097 -0.00063057861 -0.34206663602 0.24048488798 -0.00062005617 -0.31470287466 0.16574400940 -0.00064455699 -0.31712363709 0.17160452369 -0.00067322036 -0.31961291256 0.17828439223 -0.00070678097 -0.32220083277 0.18571064096 -0.00074597352 -0.32491752945 0.19381029578 -0.00079153273 -0.32779313430 0.20251038263 -0.00084419328 -0.33085777905 0.21173792744 -0.00090468988 -0.33414159540 0.22141995611 -0.00097375723 -0.33767471506 0.23148349458 -0.00105213004 -0.34148726977 0.24185556877 -0.00086044758 -0.31398134882 0.16377418570 -0.00089413216 -0.31643568300 0.16977052005 -0.00093350182 -0.31896366769 0.17663940770 -0.00097983712 -0.32158787996 0.18431844848 -0.00103441858 -0.32433089690 0.19274524222 -0.00109852674 -0.32721529560 0.20185738873 -0.00117344214 -0.33026365313 0.21159248785 -0.00126044533 -0.33349854659 0.22188813940 -0.00136081684 -0.33694255305 0.23268194320 -0.00147583721 -0.34061824960 0.24391149907 -0.00109326185 -0.31301933347 0.16114770407 -0.00113552273 -0.31551842978 0.16732513159 -0.00118484951 -0.31809802658 0.17444604439 -0.00124332054 -0.32077062815 0.18246214074 -0.00131301413 -0.32354873875 0.19132511894 -0.00139600861 -0.32644486262 0.20098667727 -0.00149438232 -0.32947150403 0.21139851400 -0.00161021357 -0.33264116723 0.22251232744 -0.00174558070 -0.33596635650 0.23427981584 -0.00190256204 -0.33945957608 0.24665267751 0.00109896346 -0.31828155691 0.16076757499 0.00113640332 -0.32120453219 0.16581483886 0.00118043662 -0.32413337216 0.17215648886 0.00123266003 -0.32708591285 0.17971656675 0.00129467021 -0.33007999030 0.18841911425 0.00136806382 -0.33313344055 0.19818817312 0.00145443754 -0.33626409962 0.20894778510 0.00155538802 -0.33948980356 0.22062199194 0.00167251194 -0.34282838839 0.23313483537 0.00180740596 -0.34629769017 0.24641035715 0.00086529348 -0.31922649221 0.16333961480 0.00089428476 -0.32211120956 0.16822367680 0.00092963487 -0.32500347286 0.17432931007 0.00097228141 -0.32794039482 0.18156896932 0.00102316198 -0.33095908816 0.18985510927 0.00108321421 -0.33409666558 0.19910018464 0.00115337568 -0.33739023979 0.20921665016 0.00123458401 -0.34087692352 0.22011696054 0.00132777681 -0.34459382946 0.23171357051 0.00143389168 -0.34857807033 0.24391893479 0.00062369044 -0.31993517960 0.16526868205 0.00064432607 -0.32279120368 0.17003034280 0.00067016251 -0.32565603461 0.17595896374 0.00070170649 -0.32858124261 0.18295830942 0.00073946476 -0.33161839787 0.19093214434 0.00078394403 -0.33481907062 0.19978423306 0.00083565105 -0.33823483106 0.20941834009 0.00089509254 -0.34191724940 0.21973822997 0.00096277522 -0.34591789585 0.23064766722 0.00103920584 -0.35028834063 0.24205041638 0.00037642150 -0.32040761888 0.16655477649 0.00038876781 -0.32324451435 0.17123483660 0.00040449733 -0.32609105724 0.17704544964 0.00042384892 -0.32900845607 0.18388458675 0.00044706142 -0.33205791939 0.19165021906 0.00047437369 -0.33530065574 0.20024031771 0.00050602458 -0.33879787364 0.20955285383 0.00054225294 -0.34261078165 0.21948579857 0.00058329762 -0.34680058828 0.22993712305 0.00062939747 -0.35142850209 0.24080479842 0.00012575382 -0.32064380981 0.16719789787 0.00012985056 -0.32347114134 0.17183715798 0.00013511712 -0.32630854053 0.17758876754 0.00014162229 -0.32922203508 0.18434780104 0.00014943485 -0.33227765267 0.19200933300 0.00015862356 -0.33554142101 0.20046843792 0.00016925722 -0.33907936778 0.20962019032 0.00018140459 -0.34295752070 0.21935966469 0.00019513445 -0.34724190744 0.22958193556 0.00021051558 -0.35199855570 0.24018207743 -0.00012604543 -0.32064375217 0.16719804593 -0.00013018510 -0.32347108444 0.17183730671 -0.00013550032 -0.32630848431 0.17758891720 -0.00014205975 -0.32922197948 0.18434795200 -0.00014993207 -0.33227759765 0.19200948574 -0.00015918597 -0.33554136649 0.20046859303 -0.00016989011 -0.33907931371 0.20962034847 -0.00018211318 -0.34295746699 0.21935982669 -0.00019592384 -0.34724185401 0.22958210229 -0.00021139079 -0.35199850248 0.24018224989 -0.00037670908 -0.32040744574 0.16655522043 -0.00038909860 -0.32324434341 0.17123528256 -0.00040487720 -0.32609088838 0.17704589839 -0.00042428359 -0.32900828916 0.18388503936 -0.00044755646 -0.33205775428 0.19165067687 -0.00047493452 -0.33530049227 0.20024078235 -0.00050665647 -0.33879771165 0.20955332722 -0.00054296100 -0.34261062095 0.21948628289 -0.00058408682 -0.34680042871 0.22993762079 -0.00063027263 -0.35142834343 0.24080531233 -0.00062396997 -0.31993489028 0.16526942112 -0.00064464935 -0.32279091805 0.17003108528 -0.00067053573 -0.32565575254 0.17595971088 -0.00070213560 -0.32858096395 0.18295906281 -0.00073995543 -0.33161812250 0.19093290597 -0.00078450171 -0.33481879839 0.19978500524 -0.00083628092 -0.33823456184 0.20941912551 -0.00089579953 -0.34191698304 0.21973903167 -0.00096356403 -0.34591763221 0.23064848861 -0.00104008090 -0.35028807955 0.24205126123 -0.00086556094 -0.31922608558 0.16334064774 -0.00089459678 -0.32211080813 0.16822471465 -0.00092999811 -0.32500307661 0.17433035443 -0.00097270215 -0.32794000374 0.18157002209 -0.00102364610 -0.33095870227 0.18985617262 -0.00108376716 -0.33409628495 0.19910126101 -0.00115400253 -0.33738986450 0.20921774225 -0.00123528942 -0.34087655368 0.22011807135 -0.00132856504 -0.34459346522 0.23171470330 -0.00143476659 -0.34857771186 0.24392009310 -0.00109921481 -0.31828103140 0.16076890004 -0.00113670031 -0.32120401344 0.16581617043 -0.00118078656 -0.32413286039 0.17215782882 -0.00123306963 -0.32708540838 0.17971791691 -0.00129514558 -0.33007949354 0.18842047640 -0.00136861047 -0.33313295199 0.19818954899 -0.00145506036 -0.33626361988 0.20894917639 -0.00155609131 -0.33948933331 0.22062340030 -0.00167329939 -0.34282792843 0.23313626242 -0.00180828066 -0.34629724136 0.24641180445 </DataArray>
</PointData>
<Points>
<DataArray type="Float32" NumberOfComponents="3">
-0.33226614492 0.16854436857 1.46867832189 -0.33222943376 0.17911641044 1.47172071720 -0.33218415598 0.19137366962 1.47650665927 -0.33212558791 0.20524619464 1.48291135417 -0.33204900584 0.22066403405 1.49081000799 -0.33194968607 0.23755723639 1.50007782680 -0.33182290493 0.25585585019 1.51059001668 -0.33166393870 0.27548992400 1.52222178370 -0.33146806370 0.29638950637 1.53484833396 -0.33123055622 0.31848464582 1.54834487352 -0.25842349310 0.17289872598 1.47123267311 -0.25840717334 0.18320403382 1.47410085875 -0.25845459701 0.19510894108 1.47861522572 -0.25863522878 0.20855270245 1.48460870110 -0.25901853334 0.22347457260 1.49191421199 -0.25967397537 0.23981380620 1.50036468547 -0.26067101957 0.25750965794 1.50979304864 -0.26207913061 0.27650138248 1.52003222859 -0.26396777318 0.29672823451 1.53091515241 -0.26640641197 0.31812946870 1.54227474718 -0.18458514191 0.17616451081 1.47314847547 -0.18458004089 0.18626976811 1.47588600409 -0.18465818929 0.19791041142 1.48019669002 -0.18490838608 0.21103260006 1.48588175123 -0.18541943021 0.22558249336 1.49274240564 -0.18628012064 0.24150625063 1.50057987120 -0.18757925633 0.25875003121 1.50919536587 -0.18940563622 0.27725999440 1.51839010757 -0.19184805928 0.29698229954 1.52796531426 -0.19499532447 0.31786310594 1.53772220388 -0.11074986201 0.17834172323 1.47442572872 -0.11074942784 0.18831361346 1.47707615296 -0.11081403197 0.19977808073 1.48125105193 -0.11101262612 0.21268588751 1.48673050424 -0.11141416204 0.22698779624 1.49329458847 -0.11208759144 0.24263456940 1.50072338323 -0.11310186607 0.25957696944 1.50879696711 -0.11452593765 0.27776575882 1.51729541871 -0.11642875792 0.29715169999 1.52599881663 -0.11887927860 0.31768555542 1.53468723948 -0.03691642403 0.17943036341 1.47506443259 -0.03691672566 0.18933557002 1.47767130512 -0.03694122418 0.20071194914 1.48177831120 -0.03701551522 0.21351256483 1.48715495982 -0.03716519440 0.22769048117 1.49357076000 -0.03741585735 0.24319876223 1.50079522076 -0.03779309969 0.25999047208 1.50859785111 -0.03832251704 0.27801867478 1.51674816007 -0.03902970502 0.29723643441 1.52501565665 -0.03994025928 0.31759681503 1.53316984986 0.03691640138 0.17943043151 1.47506458681 0.03691667419 0.18933563793 1.47767146033 0.03694113492 0.20071201674 1.48177846756 0.03701538031 0.21351263208 1.48715511765 0.03716500711 0.22769054807 1.49357091976 0.03741561208 0.24319882886 1.50079538304 0.03779279196 0.25999053857 1.50859801664 0.03832214351 0.27801874135 1.51674832972 0.03902926348 0.29723650133 1.52501583142 0.03993974862 0.31759688265 1.53317003091 0.11074984357 0.17834192770 1.47442619113 0.11074938026 0.18831381735 1.47707661834 0.11081394619 0.19977828367 1.48125152078 0.11101249415 0.21268608929 1.48673097743 0.11141397692 0.22698799685 1.49329506727 0.11208734727 0.24263476899 1.50072386928 0.11310155800 0.25957716836 1.50879746243 0.11452556187 0.27776595758 1.51729592570 0.11642831167 0.29715189930 1.52599933807 0.11887876018 0.31768575616 1.53468777851 0.18458513192 0.17616485215 1.47314924529 0.18458000109 0.18627010842 1.47588677889 0.18465811050 0.19791075002 1.48019747059 0.18490826000 0.21103293650 1.48588253884 0.18541924944 0.22558282743 1.49274320207 0.18627987867 0.24150658237 1.50058067872 0.18757894754 0.25875036088 1.50919618725 0.18940525590 0.27726032252 1.51839094610 0.19184760361 0.29698262685 1.52796617371 0.19499479051 0.31786343343 1.53772308852 0.25842349577 0.17289920503 1.47123374902 0.25840714522 0.18320451129 1.47410194176 0.25845452870 0.19510941591 1.47861631676 0.25863511153 0.20855317376 1.48460980156 0.25901835908 0.22347503973 1.49191532366 0.25967373670 0.23981426871 1.50036581058 0.26067070972 0.25751011558 1.50979418984 0.26207874350 0.27650183522 1.52003338896 0.26396730338 0.29672868252 1.53091633545 0.26640585472 0.31812991236 1.54227595683 0.33226616448 0.16854498651 1.46867970206 0.33222942120 0.17911702611 1.47172210668 0.33218410164 0.19137428145 1.47650805903 0.33212548244 0.20524680110 1.48291276528 0.33204884027 0.22066463367 1.49081143159 0.33194945179 0.23755782774 1.50007926409 0.33182259366 0.25585643190 1.51059146896 0.33166354253 0.27549049474 1.52222325236 0.33146757506 0.29639006485 1.53484982042 0.33122996792 0.31848519082 1.54834637932 -0.33226597618 0.16188409388 1.47610026090 -0.33225791152 0.17334781169 1.48122852313 -0.33244466753 0.18614182391 1.48752579252 -0.33302574462 0.20022561397 1.49490995160 -0.33420064319 0.21555866527 1.50329888291 -0.33616886365 0.23210046124 1.51261046899 -0.33912990640 0.24981048527 1.52276259237 -0.34328327185 0.26864822079 1.53367313558 -0.34882846040 0.28857315122 1.54525998117 -0.35596497246 0.30954475996 1.55744101166 -0.25842274251 0.16633554090 1.47871484409 -0.25842129822 0.17750264311 1.48365383657 -0.25860437303 0.18990499328 1.48967782127 -0.25916144399 0.20349499917 1.49667186687 -0.26028198813 0.21822506858 1.50452104206 -0.26215548251 0.23404760929 1.51311041552 -0.26497140415 0.25091502910 1.52232505593 -0.26891923011 0.26877973579 1.53205003197 -0.27418843743 0.28759413714 1.54217041234 -0.28096850315 0.30731064095 1.55257126571 -0.18458427552 0.16967414269 1.48067582026 -0.18458583357 0.18061878315 1.48547286066 -0.18473686572 0.19272738669 1.49129188213 -0.18519109302 0.20594705442 1.49799334304 -0.18610223650 0.22022488743 1.50543770174 -0.18762401721 0.23550798684 1.51348541660 -0.18991015620 0.25174345373 1.52199694597 -0.19311437452 0.26887838920 1.53083274823 -0.19739039321 0.28685989437 1.53985328172 -0.20289193331 0.30563507032 1.54891900482 -0.11074921268 0.17189989945 1.48198318917 -0.11075118882 0.18269623195 1.48668559516 -0.11084992018 0.19460900428 1.49236797488 -0.11114499137 0.20758177981 1.49887437986 -0.11173598699 0.22155812186 1.50604886167 -0.11272249165 0.23648159378 1.51373547185 -0.11420408995 0.25229575891 1.52177826195 -0.11628036650 0.26894418059 1.53002128353 -0.11905090589 0.28637042216 1.53830858814 -0.12261529274 0.30451804696 1.54648422733 -0.03691619147 0.17301281136 1.48263695053 -0.03691703521 0.18373498968 1.48729203984 -0.03695131100 0.19554984620 1.49290609928 -0.03705343874 0.20839917544 1.49931497711 -0.03725783834 0.22222477188 1.50635452156 -0.03759892972 0.23696843003 1.51386058088 -0.03811113279 0.25257194440 1.52166900330 -0.03882886747 0.26897710948 1.52961563706 -0.03978655365 0.28612571977 1.53753633041 -0.04101861127 0.30395956979 1.54526693159 0.03691615064 0.17301287859 1.48263710407 0.03691695599 0.18373505650 1.48729219443 0.03695118723 0.19554991258 1.49290625512 0.03705326520 0.20839924139 1.49931513455 0.03725761074 0.22222483751 1.50635468115 0.03759864468 0.23696849550 1.51386074331 0.03811078787 0.25257200994 1.52166916947 0.03882846114 0.26897717540 1.52961580801 0.03978608533 0.28612578646 1.53753650737 0.04101808129 0.30395963768 1.54526711596 0.11074917616 0.17190010132 1.48198364951 0.11075111354 0.18269643258 1.48668605869 0.11084979993 0.19460920355 1.49236844215 0.11114482078 0.20758197776 1.49887485195 0.11173576154 0.22155831877 1.50604934014 0.11272220768 0.23648179010 1.51373595877 0.11420374464 0.25229595530 1.52177875989 0.11627995790 0.26894437791 1.53002179557 0.11905043291 0.28637062148 1.53830911784 0.12261475512 0.30451824954 1.54648477877 0.18458424761 0.16967447974 1.48067658660 0.18458576619 0.18061911808 1.48547363238 0.18473675251 0.19272771925 1.49129266015 0.18519092830 0.20594738465 1.49799412906 0.18610201534 0.22022521567 1.50543849824 0.18762373536 0.23550831373 1.51348622685 0.18990981013 0.25174378022 1.52199777403 0.19311396139 0.26887871654 1.53083359892 0.19738991090 0.28686022409 1.53985416065 0.20289138041 0.30563540426 1.54891991839 0.25842272753 0.16633601403 1.47871591505 0.25842124269 0.17750311316 1.48365491525 0.25860427037 0.18990545981 1.48967890889 0.25916128810 0.20349546213 1.49667296565 0.26028177342 0.21822552825 1.50452215519 0.26215520385 0.23404806631 1.51311154719 0.26497105692 0.25091548445 1.52232621132 0.26891881018 0.26878019082 1.53205121724 0.27418794114 0.28759459353 1.54217163463 0.28096792734 0.30731110075 1.55257253315 0.33226597844 0.16188470436 1.47610163459 0.33225787178 0.17334841797 1.48122990705 0.33244457893 0.18614242537 1.48752718814 0.33302560049 0.20022621030 1.49491136148 0.33420043706 0.21555925651 1.50330031070 0.33616858924 0.23210104775 1.51261191939 0.33912955764 0.24981106776 1.52276407120 0.34328284284 0.26864880029 1.53367464972 0.34882794546 0.28857372908 1.54526153859 0.35596436609 0.30954533788 1.55744262142 -0.33226469650 0.15472300537 1.48530210222 -0.33227818831 0.16695623715 1.49182546592 -0.33263916370 0.18022775768 1.49913044562 -0.33370029670 0.19451855872 1.50716789234 -0.33581426133 0.20980963207 1.51588865707 -0.33933373162 0.22608196952 1.52524359082 -0.34461138161 0.24331656284 1.53518354459 -0.35199988532 0.26149440382 1.54565936939 -0.36185191679 0.28059648425 1.55662191621 -0.37452015004 0.30060379591 1.56802203606 -0.25842115561 0.15924793430 1.48796195907 -0.25843092162 0.17116201576 1.49428484047 -0.25871586168 0.18401317727 1.50131374965 -0.25955544558 0.19776383457 1.50897262091 -0.26122914314 0.21237640341 1.51718538856 -0.26401642415 0.22781329954 1.52587598688 -0.26819675841 0.24403693872 1.53496835020 -0.27404961574 0.26100973671 1.54438641279 -0.28185446592 0.27869410924 1.55405410898 -0.29189077878 0.29705247207 1.56389537306 -0.18458282709 0.16264164725 1.48995689033 -0.18458941672 0.17431636587 1.49612941024 -0.18479518941 0.18685225801 1.50295126681 -0.18540253482 0.20019780742 1.51032620685 -0.18661384262 0.21430149785 1.51815797720 -0.18863150249 0.22911181306 1.52635032466 -0.19165790409 0.24457723680 1.53480699608 -0.19589543710 0.26064625282 1.54343173826 -0.20154649118 0.27726734487 1.55212829802 -0.20881345600 0.29438899671 1.56080042220 -0.11074822108 0.16490414441 1.49128689570 -0.11075202682 0.17641928764 1.49735917496 -0.11087639502 0.18874500004 1.50404299686 -0.11124386674 0.20182047740 1.51122864996 -0.11197698300 0.21558491550 1.51880642284 -0.11319828485 0.22997751012 1.52666660406 -0.11503031332 0.24493745704 1.53469948219 -0.11759560946 0.26040395205 1.54279534579 -0.12101671431 0.27631619092 1.55084448343 -0.12541616890 0.29261336944 1.55873718367 -0.03691584769 0.16603542598 1.49195197493 -0.03691710511 0.17747078125 1.49797413440 -0.03695872667 0.18969140352 1.50458893960 -0.03708174369 0.20263184464 1.51167995008 -0.03732718749 0.21622665644 1.51913072536 -0.03773608941 0.23041039076 1.52682482498 -0.03834948077 0.24511759943 1.53464580849 -0.03920839289 0.26028283427 1.54247723540 -0.04035385709 0.27584064714 1.55020266527 -0.04182690470 0.29172558986 1.55770565763 0.03691578294 0.16603549215 1.49195212771 0.03691699519 0.17747084687 1.49797428830 0.03695856752 0.18969146861 1.50458909482 0.03708153200 0.20263190928 1.51168010701 0.03732692068 0.21622672078 1.51913088460 0.03773576563 0.23041045503 1.52682498733 0.03834909891 0.24511766392 1.53464597493 0.03920795259 0.26028289937 1.54247740712 0.04035335872 0.27584071329 1.55020284366 0.04182634938 0.29172565757 1.55770584426 0.11074816068 0.16490434311 1.49128735378 0.11075192088 0.17641948468 1.49735963642 0.11087623941 0.18874519545 1.50404346230 0.11124365797 0.20182067143 1.51122912059 0.11197671829 0.21558510860 1.51880690044 0.11319796208 0.22997770296 1.52666709102 0.11502993104 0.24493765050 1.53469998147 0.11759516690 0.26040414723 1.54279586097 0.12101621136 0.27631638913 1.55084501866 0.12541560615 0.29261357219 1.55873774371 0.18458277542 0.16264197906 1.48995765286 0.18458931876 0.17431669485 1.49613017851 0.18479504085 0.18685258421 1.50295204183 0.18540233190 0.20019813123 1.51032699063 0.18661358212 0.21430181999 1.51815877273 0.18863118174 0.22911213460 1.52635113594 0.19165752096 0.24457755915 1.53480782807 0.19589499000 0.26064657772 1.54343259695 0.20154597907 0.27726767442 1.55212919037 0.20881287838 0.29438933333 1.56080135617 0.25842111703 0.15924840017 1.48796302466 0.25843083562 0.17116247756 1.49428591433 0.25871572370 0.18401363504 1.50131483319 0.25955525143 0.19776428880 1.50897371696 0.26122888895 0.21237685506 1.51718650133 0.26401610643 0.22781375000 1.52587712201 0.26819637401 0.24403738982 1.53496951469 0.27404916184 0.26101019073 1.54438761508 0.28185394008 0.27869456892 1.55405535889 0.29189017887 0.29705294059 1.56389668180 0.33226467538 0.15472360665 1.48530346892 0.33227811825 0.16695683297 1.49182684363 0.33263903983 0.18022834808 1.49913183618 0.33370011423 0.19451914428 1.50716929939 0.33581401556 0.20981021388 1.51589008610 0.33933341795 0.22608254919 1.52524504912 0.34461099551 0.24331714251 1.53518504128 0.35199942236 0.26149498614 1.54566091539 0.36185137262 0.28059707239 1.55662352428 0.37451952041 0.30060439357 1.56802372078 -0.33226241784 0.14732189881 1.49584570678 -0.33229033321 0.16012487968 1.50320350045 -0.33276762054 0.17375586092 1.51111114506 -0.33414909067 0.18820878749 1.51954377684 -0.33688955449 0.20347760433 1.52847653203 -0.34144382285 0.21955625642 1.53788454684 -0.34826670661 0.23643868869 1.54774295750 -0.35781301666 0.25411884610 1.55802690025 -0.37053756384 0.27259067362 1.56871151130 -0.38689515902 0.29184811619 1.57977192689 -0.25841881662 0.15189657188 1.49853604687 -0.25843609427 0.16436519101 1.50568616888 -0.25878905634 0.17755682170 1.51331550838 -0.25981715687 0.19143931423 1.52137597428 -0.26185984988 0.20598051891 1.52981947545 -0.26525658938 0.22114828604 1.53859792079 -0.27034682941 0.23691046592 1.54766321920 -0.27747002399 0.25323490885 1.55696727957 -0.28696562714 0.27008946514 1.56646201079 -0.29917309288 0.28744198508 1.57609932175 -0.18458085518 0.15532759262 1.50055384035 -0.18459082489 0.16754544033 1.50754820886 -0.18483316203 0.18040755797 1.51496881981 -0.18554267954 0.19386222488 1.52275016164 -0.18695419038 0.20785772038 1.53082672277 -0.18930250749 0.22234232381 1.53913299162 -0.19282244381 0.23726431450 1.54760345663 -0.19774881230 0.25257197178 1.55617260621 -0.20431642589 0.26821357498 1.56477492879 -0.21276009753 0.28413740344 1.57334491280 -0.11074692152 0.15761496124 1.50189908695 -0.11075196177 0.16966562781 1.50878962014 -0.11089345998 0.18230806990 1.51607107915 -0.11130924214 0.19547751959 1.52366633880 -0.11213713425 0.20910920889 1.53149827395 -0.11351496230 0.22313836987 1.53948975942 -0.11558055228 0.23750023456 1.54756367006 -0.11847173018 0.25213003500 1.55564288072 -0.12232632201 0.26696300324 1.56365026622 -0.12728215374 0.28193437132 1.57150870140 -0.03691540365 0.15875867794 1.50257178640 -0.03691694160 0.17072575362 1.50941040249 -0.03696347258 0.18325835767 1.51662228618 -0.03710042811 0.19628519851 1.52412450561 -0.03737323972 0.20973498459 1.53183412893 -0.03782733893 0.22353642434 1.53966822428 -0.03850815727 0.23761822620 1.54754385981 -0.03946112626 0.25190909860 1.55537810367 -0.04073167744 0.26633774998 1.56308802399 -0.04236524232 0.28083288877 1.57059068893 0.03691531042 0.15875874292 1.50257193839 0.03691679891 0.17072581797 1.50941055565 0.03696327777 0.18325842143 1.51662244072 0.03710017908 0.19628526181 1.52412466194 0.03737293496 0.20973504761 1.53183428768 0.03782697748 0.22353648735 1.53966838631 0.03850773874 0.23761828954 1.54754402617 0.03946065085 0.25190916267 1.55537827562 0.04073114588 0.26633781528 1.56308820303 0.04236465595 0.28083295585 1.57059087675 0.11074683268 0.15761515637 1.50189954265 0.11075182308 0.16966582102 1.50879007938 0.11089326868 0.18230826136 1.51607154254 0.11130899600 0.19547770963 1.52366680764 0.11213683154 0.20910939810 1.53149875016 0.11351460180 0.22313855903 1.53949024559 0.11558013330 0.23750042469 1.54756416942 0.11847125254 0.25213022733 1.55564339714 0.12232578603 0.26696319921 1.56365080424 0.12728156027 0.28193457260 1.57150926622 0.18458077512 0.15532791849 1.50055459890 0.18459069420 0.16754576297 1.50754897342 0.18483297778 0.18040787762 1.51496959146 0.18554243919 0.19386254213 1.52275094257 0.18695389178 0.20785803620 1.53082751631 0.18930214891 0.22234263951 1.53913380222 0.19282202394 0.23726463177 1.54760428986 0.19774833020 0.25257229265 1.55617346879 0.20431588106 0.26821390186 1.56477582855 0.21275948986 0.28413773907 1.57334585870 0.25841874973 0.15189702950 1.49853710686 0.25843597560 0.16436564399 1.50568723754 0.25878888267 0.17755727038 1.51331658727 0.25981692519 0.19143975946 1.52137706660 0.26185955744 0.20598096205 1.52982058609 0.26525623369 0.22114872892 1.53859905630 0.27034640819 0.23691091089 1.54766438779 0.27746953522 0.25323535875 1.55696849113 0.28696506904 0.27008992329 1.56646327687 0.29917246392 0.28744245532 1.57610065557 0.33226236850 0.14732248958 1.49584706623 0.33229023057 0.16012546426 1.50320487149 0.33276746096 0.17375643980 1.51111252976 0.33414887056 0.18820936179 1.51954517958 0.33688927027 0.20347817579 1.52847795946 0.34144347099 0.21955682739 1.53788600793 0.34826628359 0.23643926217 1.54774446351 0.35781251898 0.25411942571 1.55802846473 0.37053698804 0.27259126359 1.56871315011 0.38689450167 0.29184872138 1.57977365818 -0.33225925215 0.13994156995 1.50729293553 -0.33229441528 0.15303693210 1.51505458164 -0.33283001406 0.16685052366 1.52325841734 -0.33437197308 0.18138005886 1.53189620560 -0.33742621692 0.19662325193 1.54095970937 -0.34249867020 0.21257781711 1.55044069160 -0.35009525749 0.22924146860 1.56033091526 -0.36072190340 0.24661192065 1.57062214329 -0.37488453251 0.26468688748 1.58130613866 -0.39308906942 0.28346408331 1.59237466433 -0.25841580981 0.14454211933 1.50999913625 -0.25843686688 0.15729520811 1.51755012018 -0.25882395041 0.17065925519 1.52547559496 -0.25994650116 0.18460154373 1.53374693800 -0.26217395987 0.19908935690 1.54233552670 -0.26587576732 0.21408997786 1.55121273847 -0.27142136424 0.22957068978 1.56034995071 -0.27918019141 0.24549877582 1.56971854083 -0.28952168956 0.26184151916 1.57928988622 -0.30281529947 0.27856620295 1.58903536431 -0.18457841835 0.14799254698 1.51202882502 -0.18459009262 0.16048893059 1.51942181255 -0.18485078526 0.17351581918 1.52713851691 -0.18561149524 0.18701767261 1.53513502638 -0.18712322157 0.20093895079 1.54336742922 -0.18963696322 0.21522411359 1.55179181369 -0.19340371919 0.22981762090 1.56036426808 -0.19867448846 0.24466393262 1.56904088064 -0.20570027003 0.25970750862 1.57777773964 -0.21473206288 0.27489280879 1.58653093335 -0.11074534832 0.15029285310 1.51338200154 -0.11075101361 0.16261809973 1.52066965850 -0.11090111853 0.17542021580 1.52824718301 -0.11134110750 0.18862844568 1.53606047063 -0.11221642493 0.20217203378 1.54405541693 -0.11367251526 0.21598022447 1.55217791747 -0.11585482290 0.22998226216 1.56037386783 -0.11890879228 0.24410739123 1.56858916356 -0.12297986781 0.25828485607 1.57676970023 -0.12821349392 0.27244390108 1.58486137340 -0.03691487028 0.15144303790 1.51405866555 -0.03691655095 0.16368271572 1.52129365780 -0.03696555016 0.17637244523 1.52880159305 -0.03710949008 0.18943386311 1.53652327063 -0.03739599290 0.20278860603 1.54439948984 -0.03787268080 0.21635831068 1.55237105000 -0.03858717597 0.23006461373 1.56037875042 -0.03958710058 0.24382915186 1.56836339042 -0.04092007681 0.25757356175 1.57626576932 -0.04263372686 0.27121948008 1.58402668643 0.03691474523 0.15144310159 1.51405881674 0.03691637426 0.16368277874 1.52129381019 0.03696531993 0.17637250765 1.52880174684 0.03710920485 0.18943392506 1.53652342625 0.03739565160 0.20278866772 1.54439964794 0.03787228280 0.21635837239 1.55237121145 0.03858672104 0.23006467581 1.56037891632 0.03958658893 0.24382921472 1.56836356207 0.04091950906 0.25757362589 1.57626594824 0.04263310404 0.27121954605 1.58402687437 0.11074522766 0.15029304437 1.51338245484 0.11075084093 0.16261828899 1.52067011542 0.11090089182 0.17542040323 1.52824764418 0.11134082512 0.18862863171 1.53606093738 0.11221608564 0.20217221902 1.54405589125 0.11367211818 0.21598040977 1.55217840204 0.11585436754 0.22998244857 1.56037436598 0.11890827851 0.24410758001 1.56858967932 0.12297929590 0.25828504870 1.57677023831 0.12821286451 0.27244409925 1.58486193918 0.18457830646 0.14799286646 1.51202957956 0.18458992795 0.16048924666 1.51942257325 0.18485056556 0.17351613216 1.52713928488 0.18561121858 0.18701798323 1.53513580390 0.18712288629 0.20093926009 1.54336821976 0.18963656799 0.21522442300 1.55179262194 0.19340326294 0.22981793220 1.56036509987 0.19867397046 0.24466424792 1.56904174303 0.20569968981 0.25970783042 1.57777864086 0.21473142028 0.27489313994 1.58653188282 0.25841571108 0.14454256806 1.51000019062 0.25843671422 0.15729565193 1.51755118343 0.25882374124 0.17065969462 1.52547666872 0.25994623306 0.18460197979 1.53374802567 0.26217363063 0.19908979111 1.54233663348 0.26587537486 0.21409041225 1.55121387135 0.27142090669 0.22957112688 1.56035111846 0.27917966705 0.24549921866 1.56971975402 0.28952109687 0.26184197127 1.57929115721 0.30281463709 0.27856666837 1.58903670724 0.33225917097 0.13994214937 1.50729428772 0.33229427865 0.15303750500 1.51505594572 0.33282981893 0.16685109077 1.52325979552 0.33437171641 0.18138062155 1.53189760259 0.33742589571 0.19662381224 1.54096113241 0.34249828144 0.21257837769 1.55044215046 0.35009479819 0.22924203280 1.56033242220 0.36072137057 0.24661249244 1.57062371312 0.37488392320 0.26468747148 1.58130778869 0.39308838067 0.28346468481 1.59237641439 -0.33225531138 0.13284281457 1.51920564940 -0.33229050358 0.14587558725 1.52707066439 -0.33282632030 0.15963613590 1.53536278897 -0.33436879043 0.17411613143 1.54408377908 -0.33742394288 0.18930724476 1.55323539066 -0.34249780654 0.20520114677 1.56281937966 -0.35009641031 0.22178950838 1.57283750201 -0.36072578309 0.23906400048 1.58329151365 -0.37489195378 0.25701629399 1.59418317052 -0.39310095127 0.27563805980 1.60551422857 -0.25841221939 0.13744524236 1.52191325602 -0.25843329018 0.15013510630 1.52956899278 -0.25882053728 0.16344380637 1.53758650689 -0.25994340176 0.17733062864 1.54595052312 -0.26217132466 0.19175485919 1.55464576627 -0.26587374705 0.20667578409 1.56365696113 -0.27142010997 0.22205268941 1.57296883247 -0.27917985450 0.23784486124 1.58256610508 -0.28952242167 0.25401158564 1.59243350376 -0.30281725256 0.27051214870 1.60255575327 -0.18457557513 0.14089707847 1.52394399902 -0.18458725448 0.15332976072 1.53144277734 -0.18484806079 0.16629957422 1.53925433387 -0.18560894998 0.17974151644 1.54735062004 -0.18712087798 0.19359058484 1.55570358730 -0.18963480069 0.20778177689 1.56428518710 -0.19340167403 0.22225009008 1.57306737088 -0.19867245393 0.23693052185 1.58202209010 -0.20569809630 0.25175806970 1.59112129619 -0.21472955706 0.26666773108 1.60033694062 -0.11074353578 0.14319832312 1.52529787810 -0.11074920229 0.15545955070 1.53269201783 -0.11089937418 0.16820343963 1.54036626972 -0.11133945274 0.18134879499 1.54828406972 -0.11221483925 0.19481442188 1.55640885375 -0.11367093500 0.20851912537 1.56470405777 -0.11585314128 0.22238171056 1.57313311772 -0.11890685937 0.23632098253 1.58165946954 -0.12297749055 0.25025574638 1.59024654917 -0.12821043611 0.26410480719 1.59885779256 -0.03691425851 0.14434897652 1.52597489299 -0.03691593940 0.15652447644 1.53331671400 -0.03696496079 0.16915540278 1.54092231425 -0.03710892764 0.18215246449 1.54875087203 -0.03739544490 0.19542637048 1.55676156563 -0.03787211754 0.20888782970 1.56491357334 -0.03858655052 0.22244755106 1.57316607344 -0.03958634879 0.23601624349 1.58147824424 -0.04091911732 0.24950461593 1.58980926401 -0.04263246107 0.26282337731 1.59811831105 0.03691409954 0.14434903889 1.52597504340 0.03691572838 0.15652453813 1.53331686560 0.03696469601 0.16915546387 1.54092246725 0.03710860768 0.18215252511 1.54875102687 0.03739506864 0.19542643084 1.55676172294 0.03787168415 0.20888789006 1.56491373399 0.03858605946 0.22244761176 1.57316623852 0.03958579982 0.23601630493 1.58147841503 0.04091851048 0.24950467858 1.58980944204 0.04263179671 0.26282344170 1.59811849805 0.11074338117 0.14319851043 1.52529832905 0.11074899525 0.15545973596 1.53269247239 0.11089911287 0.16820362307 1.54036672854 0.11133913559 0.18134897702 1.54828453410 0.11221446496 0.19481460311 1.55640932569 0.11367050253 0.20851930663 1.56470453993 0.11585264985 0.22238189285 1.57313361341 0.11890630848 0.23632116707 1.58165998276 0.12297687997 0.25025593457 1.59024708459 0.12820976587 0.26410500063 1.59885835551 0.18457542924 0.14089739136 1.52394474966 0.18458705542 0.15333007015 1.53144353412 0.18484780646 0.16629988056 1.53925509790 0.18560863848 0.17974182041 1.54735139361 0.18712050764 0.19359088748 1.55570437389 0.18963437006 0.20778207959 1.56428599134 0.19340118187 0.22225039453 1.57306819859 0.19867189923 0.23693083011 1.58202294827 0.20569747825 0.25175838412 1.59112219299 0.21472887508 0.26666805438 1.60033788538 0.25841208657 0.13744568189 1.52191430494 0.25843310308 0.15013554087 1.52957005055 0.25882029340 0.16344423654 1.53758757515 0.25994309873 0.17733105545 1.54595160529 0.26217096025 0.19175528413 1.55464686753 0.26587331919 0.20667620913 1.56365808842 0.27141961672 0.22205311699 1.57296999452 0.27917929407 0.23784529426 1.58256731238 0.28952179241 0.25401202748 1.59243476856 0.30281655297 0.27051260320 1.60255708962 0.33225519599 0.13284338223 1.51920699461 0.33229033244 0.14587614833 1.52707202143 0.33282609036 0.15963669119 1.53536416008 0.33436849869 0.17411668232 1.54408516901 0.33742358638 0.18930779322 1.55323680663 0.34249738237 0.20520169542 1.56282083137 0.35009591560 0.22179006042 1.57283900167 0.36072521502 0.23906455974 1.58329307595 0.37489130957 0.25701686488 1.59418481264 0.39310022819 0.27563864736 1.60551597017 -0.33225070749 0.12628642843 1.53114570934 -0.33227866718 0.13882403797 1.53894370360 -0.33275651528 0.15223708767 1.54721478643 -0.33413938927 0.16650076381 1.55596509776 -0.33688242660 0.18159025269 1.56520077750 -0.34144076474 0.19748074059 1.57492796558 -0.34826954115 0.21414741380 1.58515280192 -0.35782389329 0.23156545861 1.59588142645 -0.37055895863 0.24971006131 1.60711997910 -0.38692987463 0.26855640818 1.61887459979 -0.25840812961 0.13086660666 1.53384043497 -0.25842541489 0.14306792484 1.54143508509 -0.25877881035 0.15603380388 1.54944074167 -0.25980778198 0.16970667455 1.55785174069 -0.26185179576 0.18402896760 1.56666241814 -0.26525031767 0.19894311381 1.57586711000 -0.27034281368 0.21439154392 1.58546015224 -0.27746874979 0.23031668870 1.59543588087 -0.28696759196 0.24666097892 1.60578863184 -0.29917880618 0.26336684532 1.61651274116 -0.18457238410 0.13430175526 1.53586151703 -0.18458234501 0.14625085478 1.54330365928 -0.18482499030 0.15888135570 1.55111024645 -0.18553501182 0.17211112216 1.55926676159 -0.18694710140 0.18585801829 1.56775868778 -0.18929595090 0.20003990823 1.57657150806 -0.19281625217 0.21457465609 1.58569070550 -0.19774269705 0.22938012602 1.59510176315 -0.20430997739 0.24437418215 1.60479016408 -0.21275278504 0.25947468860 1.61474139135 -0.11074151822 0.13659187446 1.53720895525 -0.11074654773 0.14837282799 1.54454942592 -0.11088823040 0.16077974332 1.55222330056 -0.11130426778 0.17371410683 1.56021016031 -0.11213236139 0.18707740493 1.56848958636 -0.11351021279 0.20077112401 1.57704115986 -0.11557552350 0.21469675047 1.58584446198 -0.11846599508 0.22875577071 1.59487907390 -0.12231932905 0.24284967113 1.60412457676 -0.12727322696 0.25687993812 1.61356055175 -0.03691357927 0.13773696447 1.53788274933 -0.03691511321 0.14943384469 1.54517238478 -0.03696170590 0.16172896692 1.55277990381 -0.03709873885 0.17451562872 1.56068193673 -0.03737159360 0.18768712767 1.56885511386 -0.03782565167 0.20113676130 1.57727606552 -0.03850629459 0.21475782719 1.58592142202 -0.03945890388 0.22844362290 1.59476781368 -0.04072886107 0.24208744598 1.60379187082 -0.04236154769 0.25558259399 1.61297022375 0.03691338547 0.13773702552 1.53788289901 0.03691486837 0.14943390506 1.54517253560 0.03696140796 0.16172902669 1.55278005599 0.03709838597 0.17451568802 1.56068209069 0.03737118411 0.18768718668 1.56885527023 0.03782518410 0.20113682026 1.57727622513 0.03850576767 0.21475788641 1.58592158591 0.03945831653 0.22844368272 1.59476798309 0.04072821240 0.24208750682 1.60379204719 0.04236083701 0.25558265633 1.61297040873 0.11074132873 0.13659205782 1.53720940400 0.11074630684 0.14837300932 1.54454987815 0.11088793592 0.16077992283 1.55222375691 0.11130391768 0.17371428491 1.56021062208 0.11213195386 0.18707758213 1.56849005545 0.11350974618 0.20077130105 1.57704163881 0.11557499637 0.21469692826 1.58584495396 0.11846540615 0.22875595031 1.59487958270 0.12231867724 0.24284985378 1.60412510681 0.12727251138 0.25688012524 1.61356110809 0.18457220321 0.13430206158 1.53586226403 0.18458211203 0.14625115767 1.54330441217 0.18482470272 0.15888165552 1.55111100636 0.18553466731 0.17211141955 1.55926753074 0.18694669781 0.18585831418 1.56775946946 0.18929548624 0.20004020382 1.57657230666 0.19281572462 0.21457495289 1.58569152649 0.19774210497 0.22938042580 1.59510261310 0.20430931932 0.24437448698 1.60479105062 0.21275205968 0.25947500083 1.61474232321 0.25840796164 0.13086703702 1.53384147882 0.25842519376 0.14306835030 1.54143613743 0.25877853312 0.15603422495 1.54944180415 0.25980744585 0.16970709213 1.55785281656 0.26185139807 0.18402938300 1.56666351224 0.26524985591 0.19894352872 1.57586822880 0.27034228551 0.21439196045 1.58546130381 0.27746815300 0.23031710933 1.59543707487 0.28696692450 0.24666140654 1.60578987956 0.29917806615 0.26336728322 1.61651405549 0.33225055673 0.12628698437 1.53114704808 0.33227846187 0.13882458742 1.53894505368 0.33275625187 0.15223763130 1.54721615007 0.33413906431 0.16650130282 1.55596647938 0.33688203678 0.18159078876 1.56520218375 0.34144030687 0.19748127591 1.57492940532 0.34826901215 0.21414795107 1.58515428622 0.35782329022 0.23156600104 1.59588296859 0.37055827865 0.24971061259 1.60712159457 0.38692911503 0.26855697252 1.61887630630 -0.33224555241 0.12053320730 1.54267497629 -0.33225897513 0.13206547710 1.55036565419 -0.33262057505 0.14477776897 1.55860493624 -0.33368361612 0.15861771457 1.56739876210 -0.33580136234 0.17353294561 1.57675307144 -0.33932707766 0.18947109374 1.58667380390 -0.34461402607 0.20637979066 1.59716689914 -0.35201547154 0.22420666805 1.60823829683 -0.36188467803 0.24289935759 1.61989393662 -0.37457490952 0.26240549096 1.63213975817 -0.25840362472 0.12506687791 1.54534270189 -0.25841329172 0.13627670295 1.55284069551 -0.25869876300 0.14855257634 1.56083079682 -0.25953956513 0.16180978702 1.56931560176 -0.26121522470 0.17596362396 1.57829770627 -0.26400526827 0.19092937610 1.58777970630 -0.26818922245 0.20662233240 1.59776419779 -0.27404661379 0.22295778182 1.60825377669 -0.28185696890 0.23985101331 1.61925103895 -0.29189981434 0.25721731582 1.63075858051 -0.18456890379 0.12846714549 1.54734353375 -0.18457539877 0.13943513681 1.55469701439 -0.18478157548 0.15138369621 1.56250023040 -0.18538964880 0.16420385561 1.57075327001 -0.18660183363 0.17778664693 1.57945622140 -0.18862034487 0.19202310209 1.58860917279 -0.19164739741 0.20680425303 1.59821221237 -0.19588520616 0.22202113165 1.60826542835 -0.20153598599 0.23756476989 1.61876890893 -0.20880195182 0.25332619967 1.62972274231 -0.11073932995 0.13073401025 1.54867747161 -0.11074306988 0.14154077888 1.55593461057 -0.11086769069 0.15327112877 1.56361323678 -0.11123554254 0.16579992050 1.57171176669 -0.11196897555 0.17900201466 1.58022861671 -0.11319033988 0.19275227183 1.58916220329 -0.11502198566 0.20692555260 1.59851094287 -0.11758626303 0.22139671755 1.60827325186 -0.12100552214 0.23604062727 1.61844754672 -0.12540211313 0.25073214235 1.62903224387 -0.03691284352 0.13186747242 1.54934451519 -0.03691407864 0.14259362938 1.55655348382 -0.03695578687 0.15421487421 1.56416981575 -0.03707892177 0.16659798187 1.57219109162 -0.03732443686 0.17960972729 1.58061489208 -0.03773328571 0.19311688541 1.58943879775 -0.03834642185 0.20698623116 1.59866038929 -0.03920479882 0.22108453950 1.60827724732 -0.04034937018 0.23527858536 1.61828695250 -0.04182108946 0.24943514367 1.62868708545 0.03691261519 0.13186753220 1.54934466421 0.03691380136 0.14259368849 1.55655363389 0.03695545777 0.15421493273 1.56416996709 0.03707853810 0.16659803989 1.57219124465 0.03732399603 0.17960978496 1.58061504737 0.03773278521 0.19311694293 1.58943895609 0.03834585933 0.20698628878 1.59866055163 0.03920417205 0.22108459750 1.60827741480 0.04034867705 0.23527864406 1.61828712643 0.04182032799 0.24943520346 1.62868726735 0.11073910585 0.13073418984 1.54867791841 0.11074279650 0.14154095645 1.55593506054 0.11086736501 0.15327130451 1.56361369061 0.11123516165 0.16580009472 1.57171222559 0.11196853671 0.17900218781 1.58022908248 0.11318984046 0.19275244450 1.58916267825 0.11502142319 0.20692572550 1.59851142989 0.11758563518 0.22139689153 1.60827375437 0.12100482671 0.23604080330 1.61844806869 0.12540134805 0.25073232154 1.62903278982 0.18456868815 0.12846744553 1.54734427752 0.18457513320 0.13943543345 1.55469776354 0.18478125662 0.15138398974 1.56250098609 0.18538927345 0.16420414654 1.57075403429 0.18660139877 0.17778693598 1.57945699728 0.18861984762 0.19202339022 1.58860996416 0.19164683507 0.20680454137 1.59821302406 0.19588457616 0.22202142159 1.60826626612 0.20153528596 0.23756506300 1.61876977944 0.20880117953 0.25332649775 1.62972365316 0.25840342177 0.12506729952 1.54534374125 0.25841303786 0.13627711970 1.55284174263 0.25869845438 0.14855298861 1.56083185332 0.25953919811 0.16181019551 1.56931667058 0.26121479581 0.17596402962 1.57829879163 0.26400477428 0.19092978018 1.58778081374 0.26818866028 0.20662273645 1.59776533415 0.27404598058 0.22295818767 1.60825495011 0.28185626198 0.23985142306 1.61925225886 0.29189903123 0.25721773189 1.63075985764 0.33224536639 0.12053375200 1.54267630934 0.33225873688 0.13206601540 1.55036699758 0.33262028008 0.14477830133 1.55860629211 0.33368326019 0.15861824180 1.56740013427 0.33580094142 0.17353346885 1.57675446543 0.33932658800 0.18947161450 1.58667522694 0.34461346413 0.20638031080 1.59716836015 0.35201483403 0.22420718976 1.60823980642 0.36188396191 0.24289988341 1.61989550710 0.37457411197 0.26240602379 1.63214140355 -0.33223995812 0.11584394693 1.55335531119 -0.33223149651 0.12578309748 1.56102847105 -0.33241847561 0.13738256982 1.56932376489 -0.33300131751 0.15055074233 1.57824337260 -0.33418044433 0.16519599339 1.58778947406 -0.33615627818 0.18122670141 1.59796424918 -0.33912924115 0.19855124475 1.60876987783 -0.34329975537 0.21707800182 1.62020853991 -0.34886824294 0.23671535100 1.63228241530 -0.35603512598 0.25737167067 1.64499368390 -0.25839878894 0.12030672182 1.55598208557 -0.25839697141 0.12994447991 1.56347812245 -0.25858038864 0.14112345238 1.57154916984 -0.25913867453 0.15372007164 1.58020711736 -0.26026146300 0.16761077007 1.58946385462 -0.26213838797 0.18267198004 1.59933127125 -0.26495908334 0.19878013396 1.60982125687 -0.26891318304 0.21581166420 1.62094570109 -0.27419032098 0.23364300314 1.63271649354 -0.28098013107 0.25215058318 1.64514552384 -0.18456519276 0.12365381732 1.55795220386 -0.18456645032 0.13306553089 1.56531539870 -0.18471781800 0.14392912835 1.57321826151 -0.18517282899 0.15609708259 1.58167996426 -0.18608501647 0.16942186650 1.59071967894 -0.18760791361 0.18375595299 1.60035657751 -0.18989505359 0.19895181495 1.61060983195 -0.19309996960 0.21486192527 1.62149861424 -0.19737619480 0.23133875685 1.63304209635 -0.20287726238 0.24823478259 1.64525945026 -0.11073700527 0.12588523364 1.55926566581 -0.11073878867 0.13514625065 1.56654029956 -0.11083775854 0.14579959791 1.57433103967 -0.11113326695 0.15768177532 1.58266191309 -0.11172466593 0.17062928281 1.59155694676 -0.11271130754 0.18447862028 1.60104016762 -0.11419254382 0.19906628766 1.61113560261 -0.11626772685 0.21422878485 1.62186727868 -0.11903620865 0.22980261177 1.63325922276 -0.12259734128 0.24562426834 1.64533546180 -0.03691206217 0.12700097101 1.55992247116 -0.03691284193 0.13618663940 1.56715282479 -0.03694720512 0.14673486125 1.57488750411 -0.03704947444 0.15847415000 1.58315296363 -0.03725397256 0.17123301908 1.59197565784 -0.03759502217 0.18483998193 1.60138204126 -0.03810694595 0.19912355200 1.61139856839 -0.03882406658 0.21391224272 1.62205169374 -0.03978070675 0.22903456753 1.63336787181 -0.04101118913 0.24431903988 1.64537355711 0.03691180084 0.12700102965 1.55992261964 0.03691253446 0.13618669736 1.56715297416 0.03694684741 0.14673491858 1.57488765461 0.03704906247 0.15847420677 1.58315311565 0.03725350243 0.17123307542 1.59197581192 0.03759449005 0.18484003797 1.60138219810 0.03810634811 0.19912360790 1.61139872882 0.03882339939 0.21391229868 1.62205185874 0.03977996667 0.22903462377 1.63336804253 0.04101037272 0.24431909663 1.64537373483 0.11073674807 0.12588540978 1.55926611098 0.11073848504 0.13514642472 1.56654074742 0.11083740420 0.14579977007 1.57433149095 0.11113285775 0.15768194581 1.58266236894 0.11172419785 0.17062945193 1.59155740877 0.11271077669 0.18447878842 1.60104063781 0.11419194644 0.19906645529 1.61113608343 0.11626705927 0.21422895252 1.62186777303 0.11903546736 0.22980278011 1.63325973396 0.12259652290 0.24562443805 1.64533599360 0.18456494383 0.12365411162 1.55795294493 0.18456615436 0.13306582172 1.56531614435 0.18471747040 0.14392941592 1.57321901291 0.18517242533 0.15609736725 1.58168072328 0.18608455252 0.16942214871 1.59072044812 0.18760738533 0.18375623332 1.60035736006 0.18989445712 0.19895209409 1.61061063178 0.19309930126 0.21486220405 1.62149943591 0.19737545111 0.23133903620 1.63304294513 0.20287644005 0.24823506357 1.64526033207 0.25839855242 0.12030713540 1.55598312122 0.25839668696 0.12994488856 1.56347916469 0.25858005115 0.14112385633 1.57155022027 0.25913827918 0.15372047126 1.58020817846 0.26026100524 0.16761116586 1.58946492972 0.26213786353 0.18267237268 1.59933236454 0.26495848823 0.19878052423 1.60982237338 0.26891251355 0.21581205305 1.62094684674 0.27418957368 0.23364339167 1.63271767508 0.28097930281 0.25215097263 1.64514674888 0.33223973815 0.11584448134 1.55335663959 0.33223122741 0.12578362545 1.56102980821 0.33241815160 0.13738309149 1.56932511282 0.33300093324 0.15055125799 1.57824473425 0.33417999481 0.16519650349 1.58779085333 0.33615575885 0.18122720653 1.59796565090 0.33912864786 0.19855174563 1.60877130779 0.34329908435 0.21707849933 1.62021000482 0.34886749083 0.23671584616 1.63228392284 0.35603428981 0.25737216466 1.64499524267 -0.33223403654 0.11247944309 1.56274857499 -0.33219630039 0.12016009195 1.57062410909 -0.33215019301 0.13017588024 1.57916179888 -0.33209233997 0.14238360566 1.58835752971 -0.33201936683 0.15664006594 1.59820718695 -0.33192789914 0.17280205877 1.60870665598 -0.33181456246 0.19072638186 1.61985182214 -0.33167598235 0.21026983293 1.63163857081 -0.33150878435 0.23128920969 1.64406278736 -0.33130959404 0.25364130983 1.65712035715 -0.25839370652 0.11684680409 1.56532061480 -0.25837650468 0.12425429494 1.57303966431 -0.25842368065 0.13386976064 1.58138835824 -0.25860503348 0.14551763398 1.59039129854 -0.25899036220 0.15902234775 1.60007308717 -0.25964946585 0.17420833473 1.61045832608 -0.26065214345 0.19090002770 1.62157161724 -0.26206819405 0.20892185944 1.63343756258 -0.26396741668 0.22809826275 1.64608076408 -0.26641961038 0.24825367041 1.65952582368 -0.18456130956 0.12012233891 1.56724968205 -0.18455553419 0.12732496108 1.57485136825 -0.18463371955 0.13664018471 1.58305831552 -0.18488452045 0.14786816892 1.59191666332 -0.18539659171 0.16080907279 1.60147255114 -0.18625858813 0.17526305543 1.61177211844 -0.18755916453 0.19103027594 1.62286150470 -0.18938697572 0.20791089341 1.63478684939 -0.19183067652 0.22570506696 1.64759429197 -0.19497892173 0.24421295566 1.66132997194 -0.11073457850 0.12230604779 1.56853577649 -0.11073372404 0.12937209059 1.57605922069 -0.11079843744 0.13848715264 1.58417167049 -0.11099743092 0.14943521060 1.59293362379 -0.11139941671 0.16200024110 1.60240557846 -0.11207310703 0.17596622081 1.61264803239 -0.11308721410 0.19111712636 1.62372148346 -0.11451045015 0.20723693440 1.63568642957 -0.11641152741 0.22410962159 1.64860336860 -0.11885915809 0.24151916458 1.66253279842 -0.03691124618 0.12339793093 1.56917889787 -0.03691140934 0.13039568368 1.57666322139 -0.03693596206 0.13941066462 1.58472842293 -0.03701039493 0.15021875916 1.59344217964 -0.03716019857 0.16259585274 1.60287216869 -0.03741086358 0.17631783078 1.61308606725 -0.03778788057 0.19116057872 1.62415155246 -0.03831674013 0.20689998197 1.63613630149 -0.03902293289 0.22331192597 1.64910799150 -0.03993194944 0.24017229615 1.66313429965 0.03691095457 0.12339798857 1.56917904593 0.03691107480 0.13039574059 1.57666337012 0.03693557886 0.13941072084 1.58472857259 0.03700995747 0.15021881476 1.59344233061 0.03715970134 0.16259590776 1.60287232144 0.03741030117 0.17631788530 1.61308622235 0.03778724767 0.19116063279 1.62415171061 0.03831603154 0.20690003568 1.63613646348 0.03902214349 0.22331197940 1.64910815823 0.03993107423 0.24017234937 1.66313447212 0.11073429092 0.12230622093 1.56853622043 0.11073339325 0.12937226153 1.57605966664 0.11079805757 0.13848732150 1.58417211924 0.11099699625 0.14943537751 1.59293407639 0.11139892167 0.16200040622 1.60240603627 0.11207254620 0.17596638428 1.61264849703 0.11308658221 0.19111728835 1.62372195685 0.11450974209 0.20723709510 1.63568691390 0.11641073821 0.22410978117 1.64860386633 0.11885828293 0.24151932324 1.66253331233 0.18456103003 0.12012262824 1.56725042112 0.18455521091 0.12732524671 1.57485211073 0.18463334633 0.13664046679 1.58305906266 0.18488409135 0.14786844757 1.59191741672 0.18539610104 0.16080934816 1.60147331277 0.18625803045 0.17526332765 1.61177289062 0.18755853466 0.19103054516 1.62286229012 0.18938626872 0.20791115977 1.63478765109 0.19182988770 0.22570533060 1.64759511336 0.19497804667 0.24421321674 1.66133081678 0.25839343906 0.11684721072 1.56532164774 0.25837619266 0.12425469636 1.57304070215 0.25842331741 0.13387015689 1.58138940260 0.25860461274 0.14551802507 1.59039235131 0.25898987809 0.15902273364 1.60007415052 0.25964891290 0.17420871536 1.61045940245 0.26065151660 0.19090040299 1.62157270933 0.26206748864 0.20892222928 1.63343867340 0.26396662845 0.22809862699 1.64608189687 0.26641873547 0.24825402888 1.65952698199 0.33223378519 0.11247996860 1.56274990004 0.33219600339 0.12016061070 1.57062544066 0.33214984307 0.13017639201 1.57916313883 0.33209193037 0.14238411014 1.58835887987 0.33201889146 0.15664056270 1.59820854910 0.33192735250 0.17280254732 1.60870803184 0.33181393964 0.19072686161 1.61985321343 0.33167527906 0.21027030318 1.63163997917 0.33150799690 0.23128966965 1.64406421441 0.33130871934 0.25364175864 1.65712180445 </DataArray>
</Points>
</Piece>
</StructuredGrid>
</VTKFile>
