<?xml version="1.0"?>
<VTKFile type="StructuredGrid" version="0.1">
<StructuredGrid WholeExtent="0 9 0 9 0 9">
<Piece Extent="0 9 0 9 0 9">
<PointData>
<DataArray type="Float32" Name="Deformation" format="ascii" NumberOfComponents="3">
0.00015536143 0.00146288992 -0.00635656303 0.00015438052 0.00139207273 -0.00634741148 0.00015530312 0.00131595323 -0.00634063269 0.00015761852 0.00123757476 -0.00633619323 0.00016081605 0.00115998064 -0.00633405966 0.00016438500 0.00108621423 -0.00633419855 0.00016781469 0.00101931885 -0.00633657647 0.00017059443 0.00096233783 -0.00634115998 0.00017221352 0.00091831452 -0.00634791566 0.00017216128 0.00089029224 -0.00635681006 0.00016965585 0.00146461507 -0.00646635970 0.00016924344 0.00139305152 -0.00645957642 0.00017008524 0.00131566097 -0.00645449513 0.00017184419 0.00123566098 -0.00645110667 0.00017418323 0.00115626909 -0.00644940190 0.00017676532 0.00108070286 -0.00644937167 0.00017925339 0.00101217983 -0.00645100683 0.00018131039 0.00095391756 -0.00645429823 0.00018259927 0.00090913360 -0.00645923672 0.00018278297 0.00088104551 -0.00646581316 0.00018381338 0.00146403577 -0.00657750062 0.00018380299 0.00139160292 -0.00657291324 0.00018449187 0.00131312970 -0.00656942208 0.00018569273 0.00123191592 -0.00656703551 0.00018721828 0.00115126140 -0.00656576188 0.00018888122 0.00107446597 -0.00656560957 0.00019049427 0.00100482945 -0.00656658693 0.00019187012 0.00094565167 -0.00656870232 0.00019282150 0.00090023244 -0.00657196410 0.00019316110 0.00087187159 -0.00657638062 0.00019781357 0.00146135353 -0.00668982029 0.00019805685 0.00138797262 -0.00668724131 0.00019853654 0.00130858958 -0.00668521838 0.00019919144 0.00122651194 -0.00668377153 0.00019996034 0.00114504725 -0.00668292076 0.00020078205 0.00106750306 -0.00668268609 0.00020159536 0.00099718692 -0.00668308753 0.00020233907 0.00093740637 -0.00668414510 0.00020295198 0.00089146896 -0.00668587880 0.00020337289 0.00086268224 -0.00668830866 0.00021163595 0.00145676987 -0.00680315320 0.00021200270 0.00138240632 -0.00680238003 0.00021223277 0.00130227080 -0.00680168891 0.00021236759 0.00121962143 -0.00680110655 0.00021244857 0.00113771633 -0.00680065970 0.00021251714 0.00105981362 -0.00680037507 0.00021261471 0.00098917143 -0.00680027941 0.00021278270 0.00092904788 -0.00680039943 0.00021306252 0.00088270110 -0.00680076187 0.00021349560 0.00085338920 -0.00680139346 0.00022526007 0.00145048630 -0.00691733383 0.00022563821 0.00137514972 -0.00691814880 0.00022559409 0.00129440356 -0.00691863851 0.00022524847 0.00121141677 -0.00691883238 0.00022472214 0.00112935832 -0.00691875985 0.00022413584 0.00105139714 -0.00691845035 0.00022361036 0.00098070219 -0.00691793331 0.00022326645 0.00092044242 -0.00691723816 0.00022322489 0.00087378678 -0.00691639433 0.00022360644 0.00084390423 -0.00691543126 0.00023866545 0.00144270434 -0.00703219668 0.00023896105 0.00136644850 -0.00703436700 0.00023863401 0.00128521802 -0.00703587204 0.00023786137 0.00120207034 -0.00703674082 0.00023682018 0.00112006289 -0.00703700238 0.00023568749 0.00104225310 -0.00703668577 0.00023464034 0.00097169839 -0.00703582001 0.00023385579 0.00091145619 -0.00703443414 0.00023351088 0.00086458394 -0.00703255721 0.00023378267 0.00083413906 -0.00703021824 0.00025183165 0.00143362551 -0.00714757625 0.00025196892 0.00135654837 -0.00715085404 0.00025136607 0.00127494438 -0.00715319436 0.00025023357 0.00119175452 -0.00715462367 0.00024878186 0.00110991974 -0.00715516845 0.00024722142 0.00103238099 -0.00715485516 0.00024576270 0.00096207923 -0.00715371027 0.00024461617 0.00090195542 -0.00715176024 0.00024399229 0.00085495051 -0.00714903153 0.00024410151 0.00082400546 -0.00714555062 0.00026473820 0.00142345133 -0.00726330701 0.00026465948 0.00134569502 -0.00726742929 0.00026380379 0.00126381283 -0.00727041032 0.00026239234 0.00118064169 -0.00727227275 0.00026064634 0.00109901854 -0.00727303923 0.00025878698 0.00102178030 -0.00727273238 0.00025703548 0.00095176392 -0.00727137485 0.00025561305 0.00089180631 -0.00726898929 0.00025474089 0.00084474442 -0.00726559833 0.00025464022 0.00081341517 -0.00726122460 0.00027736464 0.00141238330 -0.00737922346 0.00027703042 0.00133413415 -0.00738391215 0.00027596070 0.00125205354 -0.00738732479 0.00027436499 0.00116890423 -0.00738947987 0.00027245276 0.00108744897 -0.00739039586 0.00027043351 0.00101045053 -0.00739009125 0.00026851672 0.00094067165 -0.00738858453 0.00026691188 0.00088087508 -0.00738589415 0.00026582848 0.00083382360 -0.00738203862 0.00026547601 0.00080227994 -0.00737703640 0.00015789636 0.00152587244 -0.00636637493 0.00015755504 0.00144816844 -0.00636015772 0.00015831359 0.00136751287 -0.00635551654 0.00015990126 0.00128580798 -0.00635243998 0.00016204729 0.00120495603 -0.00635091659 0.00016448090 0.00112685930 -0.00635093494 0.00016693133 0.00105342004 -0.00635248362 0.00016912783 0.00098654054 -0.00635555118 0.00017079961 0.00092812304 -0.00636012621 0.00017167593 0.00088006982 -0.00636619726 0.00017134935 0.00152826182 -0.00647403542 0.00017117102 0.00144960806 -0.00646919209 0.00017182369 0.00136763911 -0.00646555109 0.00017310336 0.00128437656 -0.00646310696 0.00017480605 0.00120184200 -0.00646185425 0.00017672776 0.00112205699 -0.00646178749 0.00017866451 0.00104704313 -0.00646290124 0.00018041228 0.00097882198 -0.00646519004 0.00018176711 0.00091941514 -0.00646864842 0.00018252499 0.00087084418 -0.00647327094 0.00018482634 0.00152857025 -0.00658308293 0.00018473549 0.00144897936 -0.00657955931 0.00018522785 0.00136586811 -0.00657688256 0.00018616190 0.00128133090 -0.00657505303 0.00018739612 0.00119746211 -0.00657407102 0.00018878900 0.00111635615 -0.00657393687 0.00019019900 0.00104010741 -0.00657465090 0.00019148463 0.00097081029 -0.00657621344 0.00019250435 0.00091055917 -0.00657862479 0.00019311665 0.00086144846 -0.00658188530 0.00019829755 0.00152693946 -0.00669338442 0.00019822689 0.00144643960 -0.00669110934 0.00019851569 0.00136234569 -0.00668934815 0.00019907958 0.00127678618 -0.00668810645 0.00019983419 0.00119188955 -0.00668738984 0.00020069516 0.00110978426 -0.00668720390 0.00020157812 0.00103259878 -0.00668755424 0.00020239870 0.00096246157 -0.00668844644 0.00020307255 0.00090150110 -0.00668988610 0.00020351528 0.00085184584 -0.00669187882 0.00021173323 0.00152351117 -0.00680480683 0.00021162366 0.00144214601 -0.00680369215 0.00021167680 0.00135721765 -0.00680278503 0.00021185908 0.00127085763 -0.00680209550 0.00021213694 0.00118519750 -0.00680163360 0.00021247682 0.00110236881 -0.00680140938 0.00021284515 0.00102450311 -0.00680143286 0.00021320837 0.00095373196 -0.00680171411 0.00021353292 0.00089218690 -0.00680226314 0.00021378523 0.00084199949 -0.00680309000 0.00022510362 0.00151842710 -0.00691721712 0.00022490426 0.00143625584 -0.00691715772 0.00022470080 0.00135062982 -0.00691703038 0.00022450311 0.00126366044 -0.00691684843 0.00022432107 0.00117745912 -0.00691662523 0.00022416454 0.00109413727 -0.00691637411 0.00022404338 0.00101580628 -0.00691610842 0.00022396747 0.00094457757 -0.00691584150 0.00022394667 0.00088256254 -0.00691558669 0.00022399085 0.00083187261 -0.00691535733 0.00023837896 0.00151182898 -0.00703048223 0.00023804711 0.00142892632 -0.00703135601 0.00023757728 0.00134272801 -0.00703192138 0.00023701437 0.00125530984 -0.00703219353 0.00023640327 0.00116874761 -0.00703218764 0.00023578888 0.00108511712 -0.00703191891 0.00023521611 0.00100649416 -0.00703140253 0.00023472986 0.00093495451 -0.00703065367 0.00023437502 0.00087257398 -0.00702968753 0.00023419650 0.00082142836 -0.00702851930 0.00025152948 0.00150385854 -0.00714446912 0.00025103068 0.00142031469 -0.00714613699 0.00025029587 0.00133365803 -0.00714729521 0.00024939554 0.00124592103 -0.00714795905 0.00024840023 0.00115913615 -0.00714814376 0.00024738042 0.00107533586 -0.00714786459 0.00024640664 0.00099655263 -0.00714713682 0.00024554939 0.00092481892 -0.00714597569 0.00024487919 0.00086216719 -0.00714439646 0.00024446653 0.00081062992 -0.00714241440 0.00026452543 0.00149465750 -0.00725904473 0.00026383341 0.00141057819 -0.00726135062 0.00026284615 0.00132356570 -0.00726298905 0.00026164934 0.00123560921 -0.00726397326 0.00026032864 0.00114869790 -0.00726431648 0.00025896972 0.00106482096 -0.00726403196 0.00025765826 0.00098596756 -0.00726313292 0.00025647992 0.00091412690 -0.00726163261 0.00025552038 0.00085128815 -0.00725954427 0.00025486531 0.00079944049 -0.00725688112 0.00027733704 0.00148436758 -0.00737407601 0.00027643373 0.00139987406 -0.00737684688 0.00027521775 0.00131259683 -0.00737884008 0.00027377845 0.00122448960 -0.00738006443 0.00027220519 0.00113750606 -0.00738052874 0.00027058734 0.00105359990 -0.00738024182 0.00026901425 0.00097472485 -0.00737921247 0.00026757529 0.00090283458 -0.00737744950 0.00026635981 0.00083988281 -0.00737496172 0.00026545718 0.00078782324 -0.00737175795 0.00016188088 0.00158303485 -0.00637344675 0.00016178627 0.00150079322 -0.00636961216 0.00016223696 0.00141713548 -0.00636671117 0.00016311754 0.00133314989 -0.00636474836 0.00016431261 0.00124992468 -0.00636372832 0.00016570674 0.00116854809 -0.00636365562 0.00016718452 0.00109010836 -0.00636453486 0.00016863055 0.00101569373 -0.00636637060 0.00016992939 0.00094639244 -0.00636916744 0.00017096565 0.00088329273 -0.00637292996 0.00017452890 0.00158567267 -0.00647952961 0.00017437264 0.00150237605 -0.00647639063 0.00017471565 0.00141742216 -0.00647401368 0.00017544805 0.00133197671 -0.00647239685 0.00017646001 0.00124720544 -0.00647153822 0.00017764167 0.00116427408 -0.00647143588 0.00017888318 0.00108434836 -0.00647208793 0.00018007469 0.00100859400 -0.00647349245 0.00018110634 0.00093817673 -0.00647564752 0.00018186828 0.00087426228 -0.00647855124 0.00018730318 0.00158645758 -0.00658697826 0.00018705942 0.00150219414 -0.00658454676 0.00018725298 0.00141609427 -0.00658269607 0.00018778500 0.00132938341 -0.00658142200 0.00018855662 0.00124328703 -0.00658072035 0.00018946898 0.00115903058 -0.00658058694 0.00019042322 0.00107783953 -0.00658101756 0.00019132048 0.00100093932 -0.00658200803 0.00019206190 0.00092955543 -0.00658355415 0.00019254863 0.00086491330 -0.00658565171 0.00020017224 0.00158548225 -0.00669568846 0.00019981814 0.00150033972 -0.00669396006 0.00019982824 0.00141323603 -0.00669262770 0.00020011870 0.00132544064 -0.00669168797 0.00020060571 0.00123822302 -0.00669113748 0.00020120542 0.00115285264 -0.00669097283 0.00020183400 0.00107059897 -0.00669119061 0.00020240764 0.00099273147 -0.00669178744 0.00020284249 0.00092051962 -0.00669275990 0.00020305474 0.00085523288 -0.00669410460 0.00021310461 0.00158283935 -0.00680555592 0.00021262037 0.00149690501 -0.00680451006 0.00021242072 0.00140893164 -0.00680367795 0.00021243950 0.00132021903 -0.00680305895 0.00021261056 0.00123206699 -0.00680265238 0.00021286774 0.00114577531 -0.00680245759 0.00021314490 0.00106264379 -0.00680247393 0.00021337587 0.00098397222 -0.00680270074 0.00021349451 0.00091106040 -0.00680313735 0.00021343465 0.00084520813 -0.00680378312 0.00022606880 0.00157862156 -0.00691647638 0.00022543766 0.00149198224 -0.00691607626 0.00022500970 0.00140326531 -0.00691571619 0.00022473771 0.00131378924 -0.00691539907 0.00022457446 0.00122487253 -0.00691512780 0.00022447273 0.00113783365 -0.00691490526 0.00022438528 0.00105399109 -0.00691473437 0.00022426490 0.00097466333 -0.00691461801 0.00022406435 0.00090116885 -0.00691455909 0.00022373642 0.00083482613 -0.00691456050 0.00023903336 0.00157292157 -0.00702834558 0.00023824156 0.00148566365 -0.00702853819 0.00023757448 0.00139632124 -0.00702861179 0.00023700367 0.00130622190 -0.00702857252 0.00023650069 0.00121669321 -0.00702842651 0.00023603712 0.00112906271 -0.00702817988 0.00023558451 0.00104465798 -0.00702783878 0.00023511442 0.00096480657 -0.00702740934 0.00023459843 0.00089083604 -0.00702689769 0.00023400808 0.00082407397 -0.00702630997 0.00025196679 0.00156583204 -0.00714105924 0.00025100364 0.00147804145 -0.00714177536 0.00025009433 0.00138818364 -0.00714223412 0.00024922770 0.00129758767 -0.00714244345 0.00024839254 0.00120758261 -0.00714241126 0.00024757769 0.00111949755 -0.00714214548 0.00024677196 0.00103466156 -0.00714165402 0.00024596417 0.00095440371 -0.00714094480 0.00024514313 0.00088005308 -0.00714002574 0.00024429767 0.00081293876 -0.00713890476 0.00026483762 0.00155744565 -0.00725451311 0.00026369544 0.00146920789 -0.00725566728 0.00026254856 0.00137893672 -0.00725645254 0.00026140013 0.00128795717 -0.00725687602 0.00026025329 0.00119759432 -0.00725694483 0.00025911119 0.00110917322 -0.00725666610 0.00025797699 0.00102401893 -0.00725604694 0.00025685384 0.00094345652 -0.00725509447 0.00025574487 0.00086881105 -0.00725381581 0.00025465325 0.00080140757 -0.00725221809 0.00027761437 0.00154785507 -0.00736860292 0.00027628852 0.00145925520 -0.00737009347 0.00027491644 0.00136866467 -0.00737113643 0.00027351128 0.00127740106 -0.00737173440 0.00027208621 0.00118678190 -0.00737188998 0.00027065439 0.00109812477 -0.00737160577 0.00026922898 0.00101274721 -0.00737088439 0.00026782315 0.00093196677 -0.00736972842 0.00026645005 0.00085710103 -0.00736814049 0.00026512285 0.00078946752 -0.00736612318 0.00016686999 0.00163321636 -0.00637774071 0.00016673800 0.00154899322 -0.00637562096 0.00016677720 0.00146408532 -0.00637397216 0.00016696663 0.00137906629 -0.00637281022 0.00016728531 0.00129450976 -0.00637215109 0.00016771227 0.00121098935 -0.00637201070 0.00016822655 0.00112907870 -0.00637240497 0.00016880717 0.00104935144 -0.00637334983 0.00016943317 0.00097238120 -0.00637486122 0.00017008357 0.00089874161 -0.00637695507 0.00017877030 0.00163577342 -0.00648273155 0.00017849032 0.00155047158 -0.00648088960 0.00017843697 0.00146433107 -0.00647947124 0.00017856862 0.00137797309 -0.00647847819 0.00017884365 0.00129201882 -0.00647791218 0.00017922042 0.00120708944 -0.00647777494 0.00017965731 0.00112380615 -0.00647806817 0.00018011269 0.00104279014 -0.00647879362 0.00018054493 0.00096466258 -0.00647995300 0.00018091241 0.00089004468 -0.00648154803 0.00019084928 0.00163670037 -0.00658902176 0.00019041424 0.00155043730 -0.00658749655 0.00019023567 0.00146319248 -0.00658632447 0.00019025907 0.00137563221 -0.00658549989 0.00019042989 0.00128842278 -0.00658501717 0.00019069364 0.00120223048 -0.00658487066 0.00019099579 0.00111772163 -0.00658505471 0.00019128181 0.00103556249 -0.00658556369 0.00019149719 0.00095641938 -0.00658639195 0.00019158741 0.00088095858 -0.00658753386 0.00020307972 0.00163605080 -0.00669653142 0.00020248382 0.00154893713 -0.00669534800 0.00020215261 0.00146071081 -0.00669443084 0.00020202530 0.00137208019 -0.00669377218 0.00020204109 0.00128375360 -0.00669336423 0.00020213919 0.00119643936 -0.00669319921 0.00020225881 0.00111084583 -0.00669326936 0.00020233916 0.00102768132 -0.00669356690 0.00020231943 0.00094765418 -0.00669408405 0.00020213885 0.00087147274 -0.00669481303 0.00021543440 0.00163387828 -0.00680518061 0.00021467313 0.00154601781 -0.00680435014 0.00021416708 0.00145692735 -0.00680368932 0.00021385466 0.00136735359 -0.00680319188 0.00021367427 0.00127804323 -0.00680285152 0.00021356432 0.00118974296 -0.00680266197 0.00021346321 0.00110319946 -0.00680261693 0.00021330936 0.00101915944 -0.00680271011 0.00021304116 0.00093836957 -0.00680293525 0.00021259703 0.00086157655 -0.00680328605 0.00022788611 0.00163023638 -0.00691488940 0.00022695625 0.00154172608 -0.00691440916 0.00022625840 0.00145188336 -0.00691399891 0.00022573450 0.00136148897 -0.00691365586 0.00022532648 0.00127132366 -0.00691337724 0.00022497628 0.00118216817 -0.00691316027 0.00022462582 0.00109480326 -0.00691300218 0.00022421704 0.00101000966 -0.00691290019 0.00022369186 0.00092856814 -0.00691285152 0.00022299222 0.00085125944 -0.00691285340 0.00024040764 0.00162517868 -0.00702557788 0.00023930722 0.00153610868 -0.00702543126 0.00023840585 0.00144562011 -0.00702525857 0.00023765215 0.00135452286 -0.00702506095 0.00023699477 0.00126362682 -0.00702483954 0.00023638233 0.00117374187 -0.00702459548 0.00023576347 0.00108567791 -0.00702432991 0.00023508682 0.00100024482 -0.00702404398 0.00023430103 0.00091825249 -0.00702373882 0.00023335472 0.00084051080 -0.00702341557 0.00025297177 0.00161875876 -0.00713716612 0.00025170014 0.00152921236 -0.00713732263 0.00025058875 0.00143817888 -0.00713736730 0.00024959497 0.00134649182 -0.00713730400 0.00024867616 0.00125498469 -0.00713713660 0.00024778971 0.00116449096 -0.00713686895 0.00024689298 0.00107584414 -0.00713650491 0.00024594334 0.00098987772 -0.00713604834 0.00024489816 0.00090742519 -0.00713550310 0.00024371482 0.00082932006 -0.00713487306 0.00026555128 0.00161103018 -0.00724957422 0.00026410905 0.00152108384 -0.00724998945 0.00026278639 0.00142960094 -0.00725022407 0.00026155028 0.00133743241 -0.00725028187 0.00026036772 0.00124542922 -0.00725016660 0.00025920569 0.00115444231 -0.00724988204 0.00025803119 0.00106532265 -0.00724943196 0.00025681122 0.00097892118 -0.00724882014 0.00025551275 0.00089608885 -0.00724805035 0.00025410280 0.00081767662 -0.00724712635 0.00027811895 0.00160204653 -0.00736272224 0.00027650804 0.00151176988 -0.00736333792 0.00027497808 0.00141992755 -0.00736372788 0.00027350544 0.00132738116 -0.00736389138 0.00027206647 0.00123499237 -0.00736382770 0.00027063751 0.00114362282 -0.00736353610 0.00026919493 0.00105413416 -0.00736301586 0.00026771507 0.00096738802 -0.00736226624 0.00026617429 0.00088424605 -0.00736128651 0.00026454894 0.00080556990 -0.00736007594 0.00017241867 0.00167525616 -0.00637921905 0.00017207403 0.00159181465 -0.00637803028 0.00017163832 0.00150762664 -0.00637705508 0.00017114780 0.00142302297 -0.00637631739 0.00017063869 0.00133833442 -0.00637584114 0.00017014724 0.00125389183 -0.00637565027 0.00016970968 0.00117002598 -0.00637576874 0.00016936227 0.00108706771 -0.00637622047 0.00016914124 0.00100534782 -0.00637702941 0.00016908283 0.00092519711 -0.00637821951 0.00018364935 0.00167748983 -0.00648353056 0.00018316606 0.00159301069 -0.00648240656 0.00018266353 0.00150768682 -0.00648151210 0.00018215544 0.00142187737 -0.00648085285 0.00018165550 0.00133594151 -0.00648043450 0.00018117738 0.00125023838 -0.00648026274 0.00018073477 0.00116512714 -0.00648034326 0.00018034137 0.00108096694 -0.00648068173 0.00018001087 0.00099811693 -0.00648128384 0.00017975694 0.00091693628 -0.00648215529 0.00019507001 0.00167830125 -0.00658904858 0.00019443941 0.00159289885 -0.00658802964 0.00019384436 0.00150654705 -0.00658722967 0.00019328115 0.00141963603 -0.00658664421 0.00019274608 0.00133255598 -0.00658626878 0.00019223546 0.00124569709 -0.00658609891 0.00019174558 0.00115944954 -0.00658613014 0.00019127274 0.00107420352 -0.00658635800 0.00019081324 0.00099034921 -0.00658677802 0.00019036338 0.00090827681 -0.00658738573 0.00020666207 0.00167771404 -0.00669571233 0.00020587714 0.00159149598 -0.00669482766 0.00020516721 0.00150422025 -0.00669413137 0.00020451582 0.00141630972 -0.00669361513 0.00020390653 0.00132818722 -0.00669327058 0.00020332285 0.00124027560 -0.00669308938 0.00020274834 0.00115299770 -0.00669306318 0.00020216654 0.00106677636 -0.00669318365 0.00020156098 0.00098203444 -0.00669344244 0.00020091521 0.00089919477 -0.00669383120 0.00021840695 0.00167575184 -0.00680346106 0.00021746227 0.00158881892 -0.00680272878 0.00021661845 0.00150071937 -0.00680214078 0.00021585037 0.00141190925 -0.00680168928 0.00021513290 0.00132284464 -0.00680136652 0.00021444093 0.00123398158 -0.00680116473 0.00021374932 0.00114577615 -0.00680107616 0.00021303297 0.00105868440 -0.00680109303 0.00021226673 0.00097316240 -0.00680120758 0.00021142551 0.00088966621 -0.00680141205 0.00023028606 0.00167243826 -0.00691223397 0.00022917786 0.00158488452 -0.00691166116 0.00022818448 0.00149605732 -0.00691118147 0.00022727570 0.00140644543 -0.00691079034 0.00022642130 0.00131653763 -0.00691048323 0.00022559106 0.00122682270 -0.00691025558 0.00022475476 0.00113778941 -0.00691010285 0.00022388219 0.00104992655 -0.00691002049 0.00022294312 0.00096372288 -0.00691000395 0.00022190733 0.00087966718 -0.00691004867 0.00024228082 0.00166779692 -0.00702197029 0.00024100693 0.00157970962 -0.00702155294 0.00023985166 0.00149024702 -0.00702117700 0.00023878270 0.00139992904 -0.00702084197 0.00023776778 0.00130927560 -0.00702054731 0.00023677462 0.00121880661 -0.00702029251 0.00023577091 0.00112904202 -0.00702007705 0.00023472439 0.00104050172 -0.00701990039 0.00023360277 0.00095370566 -0.00701976202 0.00023237376 0.00086917374 -0.00701966141 0.00025437264 0.00166185147 -0.00713260926 0.00025293254 0.00157331108 -0.00713233227 0.00025160638 0.00148330141 -0.00713205096 0.00025036230 0.00139237088 -0.00713176784 0.00024916844 0.00130106793 -0.00713148540 0.00024799297 0.00120994099 -0.00713120613 0.00024680402 0.00111953849 -0.00713093252 0.00024556976 0.00103040886 -0.00713066708 0.00024425832 0.00094310053 -0.00713041229 0.00024283786 0.00085816194 -0.00713017066 0.00026654294 0.00165462551 -0.00724409009 0.00026493773 0.00156570574 -0.00724392730 0.00026343503 0.00147523341 -0.00724372692 0.00026200539 0.00138378177 -0.00724349163 0.00026061936 0.00129192404 -0.00724322410 0.00025924749 0.00120023349 -0.00724292702 0.00025786034 0.00110928335 -0.00724260306 0.00025642845 0.00101964686 -0.00724225491 0.00025492239 0.00093189728 -0.00724188525 0.00025331271 0.00084660784 -0.00724149676 0.00027877313 0.00164614267 -0.00735635202 0.00027700553 0.00155691044 -0.00735626620 0.00027532398 0.00146605595 -0.00735612846 0.00027370288 0.00137417248 -0.00735593700 0.00027211660 0.00128185333 -0.00735569003 0.00027053955 0.00118969178 -0.00735538578 0.00026894611 0.00109828113 -0.00735502245 0.00026731067 0.00100821467 -0.00735459825 0.00026560763 0.00092008569 -0.00735411139 0.00026381137 0.00083448749 -0.00735356010 0.00017808193 0.00170799346 -0.00637784398 0.00017745814 0.00162830367 -0.00637668627 0.00017652430 0.00154702370 -0.00637571553 0.00017536031 0.00146448570 -0.00637496168 0.00017404604 0.00138102184 -0.00637445468 0.00017266137 0.00129696426 -0.00637422446 0.00017128621 0.00121264512 -0.00637430096 0.00017000043 0.00112839658 -0.00637471412 0.00016888391 0.00104455078 -0.00637549389 0.00016801655 0.00096143988 -0.00637667020 0.00018874186 0.00170974770 -0.00648181590 0.00018804186 0.00162910944 -0.00648065906 0.00018707117 0.00154681035 -0.00647972458 0.00018589887 0.00146320124 -0.00647902267 0.00018459409 0.00137863292 -0.00647856353 0.00018322591 0.00129345622 -0.00647835739 0.00018186346 0.00120802195 -0.00647841446 0.00018057583 0.00112268094 -0.00647874494 0.00017943212 0.00103778400 -0.00647935905 0.00017850144 0.00095368196 -0.00648026700 0.00019957074 0.00171026283 -0.00658689385 0.00019877441 0.00162876882 -0.00658576698 0.00019774746 0.00154554228 -0.00658487354 0.00019654830 0.00146095362 -0.00658421241 0.00019523531 0.00137537326 -0.00658378247 0.00019386690 0.00128917161 -0.00658358259 0.00019250146 0.00120271910 -0.00658361167 0.00019119739 0.00111638612 -0.00658386856 0.00019001308 0.00103054311 -0.00658435216 0.00018900693 0.00094556047 -0.00658506133 0.00021056138 0.00170954088 -0.00669303022 0.00020965131 0.00162728041 -0.00669195357 0.00020855045 0.00154321456 -0.00669110310 0.00020730676 0.00145773411 -0.00669047290 0.00020596821 0.00137122984 -0.00669005705 0.00020458277 0.00128409252 -0.00668984965 0.00020319840 0.00119671294 -0.00668984477 0.00020186307 0.00110948186 -0.00669003650 0.00020062475 0.00102279007 -0.00669041893 0.00019953140 0.00093702835 -0.00669098615 0.00022170657 0.00170758389 -0.00680017743 0.00022066810 0.00162464283 -0.00679916239 0.00021947739 0.00153982228 -0.00679835396 0.00021817244 0.00145353396 -0.00679774612 0.00021679130 0.00136618962 -0.00679733286 0.00021537197 0.00127820100 -0.00679710814 0.00021395247 0.00118997984 -0.00679706595 0.00021257084 0.00110193789 -0.00679720028 0.00021126509 0.00101448687 -0.00679750509 0.00021007324 0.00092803855 -0.00679797438 0.00023299914 0.00170439388 -0.00690828788 0.00023182033 0.00162085472 -0.00690733699 0.00023052554 0.00153536052 -0.00690656682 0.00022914353 0.00144834442 -0.00690597407 0.00022770307 0.00136023958 -0.00690555545 0.00022623293 0.00127147912 -0.00690530766 0.00022476187 0.00118249619 -0.00690522741 0.00022331865 0.00109372394 -0.00690531140 0.00022193205 0.00100559549 -0.00690555635 0.00022063081 0.00091854401 -0.00690595896 0.00024443188 0.00169997288 -0.00701731398 0.00024310352 0.00161591467 -0.00701642093 0.00024169216 0.00152982436 -0.00701568238 0.00024021820 0.00144215676 -0.00701509873 0.00023870205 0.00135336668 -0.00701467040 0.00023716411 0.00126390895 -0.00701439779 0.00023562478 0.00117423836 -0.00701428132 0.00023410447 0.00108480975 -0.00701432140 0.00023262358 0.00099607791 -0.00701451843 0.00023120250 0.00090849768 -0.00701487282 0.00025599761 0.00169432292 -0.00712720815 0.00025451321 0.00160982133 -0.00712635776 0.00025297451 0.00152320890 -0.00712564133 0.00025139464 0.00143496223 -0.00712506209 0.00024978673 0.00134555791 -0.00712462328 0.00024816394 0.00125547255 -0.00712432813 0.00024653940 0.00116518273 -0.00712417989 0.00024492625 0.00107516505 -0.00712418178 0.00024333763 0.00098589611 -0.00712433704 0.00024178668 0.00089785251 -0.00712464891 0.00026768912 0.00168744603 -0.00723792278 0.00026604495 0.00160257330 -0.00723709103 0.00026436985 0.00151550921 -0.00723638437 0.00026267102 0.00142675208 -0.00723580614 0.00026095563 0.00133680023 -0.00723535966 0.00025923087 0.00124615199 -0.00723504827 0.00025750392 0.00115530567 -0.00723487529 0.00025578196 0.00106475959 -0.00723484406 0.00025407217 0.00097501207 -0.00723495791 0.00025238174 0.00088656143 -0.00723522016 0.00027949923 0.00167934424 -0.00734941030 0.00027769425 0.00159416920 -0.00734856430 0.00027587544 0.00150672037 -0.00734785220 0.00027404553 0.00141751757 -0.00734727286 0.00027220725 0.00132708061 -0.00734682511 0.00027036334 0.00123592933 -0.00734650778 0.00026851652 0.00114458355 -0.00734631972 0.00026666955 0.00105356308 -0.00734625976 0.00026482514 0.00096338776 -0.00734632674 0.00026298604 0.00087457740 -0.00734651950 0.00018341476 0.00173026745 -0.00637357773 0.00018255413 0.00165750646 -0.00637143509 0.00018113914 0.00158154073 -0.00636970907 0.00017930344 0.00150292029 -0.00636843494 0.00017718065 0.00142219517 -0.00636764795 0.00017490443 0.00133991541 -0.00636738335 0.00017260841 0.00125663103 -0.00636767641 0.00017042622 0.00117289208 -0.00636856238 0.00016849150 0.00108924858 -0.00637007651 0.00016693789 0.00100625056 -0.00637225407 0.00019362364 0.00173147280 -0.00647747689 0.00019275975 0.00165788391 -0.00647536467 0.00019133575 0.00158102264 -0.00647369702 0.00018948928 0.00150145635 -0.00647248950 0.00018735796 0.00141975243 -0.00647175764 0.00018507941 0.00133647826 -0.00647151698 0.00018279126 0.00125220121 -0.00647178306 0.00018063113 0.00116748867 -0.00647257142 0.00017873666 0.00108290801 -0.00647389759 0.00017724545 0.00099902662 -0.00647577712 0.00020395684 0.00173158773 -0.00658239273 0.00020305868 0.00165723724 -0.00658032953 0.00020161340 0.00157956248 -0.00657871797 0.00019975755 0.00149914373 -0.00657756199 0.00019762771 0.00141656125 -0.00657686555 0.00019536044 0.00133239529 -0.00657663260 0.00019309231 0.00124722613 -0.00657686708 0.00019095988 0.00116163402 -0.00657757295 0.00018909974 0.00107619924 -0.00657875416 0.00018764843 0.00099150204 -0.00658041466 0.00021441972 0.00173060024 -0.00668828410 0.00021345955 0.00165555458 -0.00668628024 0.00021198074 0.00157714394 -0.00668471983 0.00021011457 0.00149595824 -0.00668360157 0.00020799233 0.00141258738 -0.00668292418 0.00020574531 0.00132762129 -0.00668268635 0.00020350478 0.00124164988 -0.00668288681 0.00020140203 0.00115526306 -0.00668352426 0.00019956835 0.00106905073 -0.00668459740 0.00019813501 0.00098360283 -0.00668610495 0.00022501761 0.00172849831 -0.00679510987 0.00022397094 0.00165282407 -0.00679316734 0.00022244644 0.00157375066 -0.00679165051 0.00022056668 0.00149187565 -0.00679055739 0.00021845428 0.00140779659 -0.00678988602 0.00021623182 0.00132211104 -0.00678963442 0.00021402191 0.00123541655 -0.00678980062 0.00021194713 0.00114831068 -0.00679038264 0.00021013009 0.00106139098 -0.00679137852 0.00020869338 0.00097525500 -0.00679278627 0.00023575587 0.00172526995 -0.00690282892 0.00023460150 0.00164903384 -0.00690094140 0.00023301917 0.00156936630 -0.00689945792 0.00023112023 0.00148687176 -0.00689837861 0.00022901598 0.00140215462 -0.00689770358 0.00022681777 0.00131581931 -0.00689743296 0.00022463691 0.00122847023 -0.00689756686 0.00022258473 0.00114071180 -0.00689810540 0.00022077257 0.00105314844 -0.00689904871 0.00021931174 0.00096638456 -0.00690039690 0.00024663985 0.00172090314 -0.00701140010 0.00024535981 0.00164417203 -0.00700955296 0.00024370760 0.00156397453 -0.00700808998 0.00024178153 0.00148092236 -0.00700701439 0.00023967987 0.00139562724 -0.00700632937 0.00023750094 0.00130870088 -0.00700603813 0.00023534301 0.00122075501 -0.00700614388 0.00023330440 0.00113240135 -0.00700664983 0.00023148338 0.00104425160 -0.00700755917 0.00022997827 0.00095691750 -0.00700887511 0.00025767489 0.00171538588 -0.00712078229 0.00025625450 0.00163822678 -0.00711895257 0.00025452040 0.00155755900 -0.00711749460 0.00025255693 0.00147400323 -0.00711641387 0.00025044839 0.00138818018 -0.00711571587 0.00024827912 0.00130071053 -0.00711540610 0.00024613344 0.00121221498 -0.00711549005 0.00024409568 0.00112331422 -0.00711597322 0.00024225015 0.00103462895 -0.00711686110 0.00024068118 0.00094677985 -0.00711815918 0.00026886635 0.00170870615 -0.00723093434 0.00026729418 0.00163118622 -0.00722909080 0.00026546624 0.00155010337 -0.00722761969 0.00026345276 0.00146609018 -0.00722652622 0.00026132398 0.00137977922 -0.00722581560 0.00025915012 0.00129180305 -0.00722549303 0.00025700143 0.00120279423 -0.00722556372 0.00025494813 0.00111338534 -0.00722603287 0.00025306046 0.00102420894 -0.00722690569 0.00025140865 0.00093589760 -0.00722818739 0.00028021958 0.00170085196 -0.00734181514 0.00027848746 0.00162303848 -0.00733991819 0.00027655377 0.00154159130 -0.00733841316 0.00027447536 0.00145715899 -0.00733730059 0.00027230906 0.00137039010 -0.00733658105 0.00027011173 0.00128193320 -0.00733625509 0.00026794020 0.00119243685 -0.00733632325 0.00026585131 0.00110254962 -0.00733678608 0.00026390192 0.00101292007 -0.00733764415 0.00026214887 0.00092419676 -0.00733889800 0.00018797216 0.00174091733 -0.00636638252 0.00018702577 0.00167846921 -0.00636212289 0.00018518682 0.00161044200 -0.00635879131 0.00018267645 0.00153779252 -0.00635642900 0.00017971584 0.00146147758 -0.00635507718 0.00017652615 0.00138245401 -0.00635477707 0.00017332856 0.00130167863 -0.00635556988 0.00017034422 0.00122010825 -0.00635749684 0.00016779430 0.00113869971 -0.00636059915 0.00016589997 0.00105840981 -0.00636491803 0.00019787049 0.00174159092 -0.00647040281 0.00019696172 0.00167845015 -0.00646624092 0.00019513315 0.00160964463 -0.00646301775 0.00019261704 0.00153615438 -0.00646075521 0.00018964564 0.00145895943 -0.00645947519 0.00018645123 0.00137903981 -0.00645919960 0.00018326606 0.00129737555 -0.00645995035 0.00018032238 0.00121494666 -0.00646174934 0.00017785246 0.00113273318 -0.00646461847 0.00017608856 0.00105171514 -0.00646857965 0.00020783369 0.00174127858 -0.00657538035 0.00020693171 0.00167749413 -0.00657133825 0.00020511059 0.00160799197 -0.00656822485 0.00020260595 0.00153376511 -0.00656605044 0.00019965340 0.00145580657 -0.00656482532 0.00019648854 0.00137510935 -0.00656455980 0.00019334699 0.00129266647 -0.00656526418 0.00019046436 0.00120947094 -0.00656694876 0.00018807625 0.00112651579 -0.00656962383 0.00018641827 0.00104479401 -0.00657329971 0.00021787917 0.00173996103 -0.00668127299 0.00021695506 0.00167558263 -0.00667736219 0.00021513649 0.00160545861 -0.00667435536 0.00021265573 0.00153058699 -0.00667225721 0.00020974509 0.00145196580 -0.00667107246 0.00020663685 0.00137059309 -0.00667080582 0.00020356329 0.00128746688 -0.00667146201 0.00020075670 0.00120358520 -0.00667304573 0.00019844938 0.00111994609 -0.00667556172 0.00019687361 0.00103754758 -0.00667901467 0.00022802438 0.00173761898 -0.00678803855 0.00022705111 0.00167269711 -0.00678426004 0.00022522817 0.00160201910 -0.00678135206 0.00022277891 0.00152658227 -0.00677931806 0.00021992669 0.00144738397 -0.00677816150 0.00021689489 0.00136542153 -0.00677788582 0.00021390686 0.00128169228 -0.00677849447 0.00021118597 0.00119719355 -0.00677999092 0.00020895559 0.00111292269 -0.00678237861 0.00020743908 0.00102987702 -0.00678566099 0.00023828674 0.00173423317 -0.00689563488 0.00023723920 0.00166881904 -0.00689197912 0.00023540298 0.00159764801 -0.00688915772 0.00023298801 0.00152171324 -0.00688717551 0.00023020419 0.00144200789 -0.00688603731 0.00022726142 0.00135952515 -0.00688574793 0.00022436963 0.00127525816 -0.00688631221 0.00022173872 0.00119020011 -0.00688773495 0.00021957860 0.00110534416 -0.00689002099 0.00021809917 0.00102168347 -0.00689317515 0.00024868371 0.00172978430 -0.00700401981 0.00024753864 0.00166392989 -0.00700046673 0.00024567826 0.00159231991 -0.00699771511 0.00024329556 0.00151594215 -0.00699577209 0.00024058355 0.00143578440 -0.00699464478 0.00023773521 0.00135283442 -0.00699434033 0.00023494353 0.00126808003 -0.00699486585 0.00023240150 0.00118250898 -0.00699622849 0.00023030213 0.00109710908 -0.00699843536 0.00022883839 0.00101286811 -0.00700149361 0.00025923270 0.00172425310 -0.00711315117 0.00025796876 0.00165801112 -0.00710967018 0.00025607134 0.00158600937 -0.00710696700 0.00025371411 0.00150923129 -0.00710505031 0.00025107077 0.00142866030 -0.00710392880 0.00024831499 0.00134527985 -0.00710361115 0.00024562046 0.00126007337 -0.00710410604 0.00024316087 0.00117402429 -0.00710542216 0.00024110990 0.00108811605 -0.00710756820 0.00023964123 0.00100333208 -0.00711055283 0.00026995116 0.00171762029 -0.00722298682 0.00026854891 0.00165104420 -0.00721953679 0.00026659957 0.00157869096 -0.00721685616 0.00026425618 0.00150154291 -0.00721495271 0.00026167182 0.00142058244 -0.00721383424 0.00025899953 0.00133679190 -0.00721350854 0.00025639236 0.00125115368 -0.00721398341 0.00025400338 0.00116465013 -0.00721526663 0.00025198564 0.00107826363 -0.00721736599 0.00025049219 0.00099297654 -0.00722028929 0.00028085651 0.00170986658 -0.00733348458 0.00027929840 0.00164301061 -0.00733001387 0.00027728027 0.00157033923 -0.00732732536 0.00027493431 0.00149283930 -0.00732542181 0.00027239268 0.00141149763 -0.00732430600 0.00026978757 0.00132730107 -0.00732398067 0.00026725114 0.00124123646 -0.00732444860 0.00026491558 0.00115429063 -0.00732571253 0.00026291307 0.00106745042 -0.00732777523 0.00026137577 0.00098170266 -0.00733063945 0.00019130912 0.00173878231 -0.00635622059 0.00019053688 0.00169023810 -0.00634859582 0.00018837133 0.00163299176 -0.00634271781 0.00018517862 0.00156856817 -0.00633863569 0.00018132489 0.00149849223 -0.00633639861 0.00017717628 0.00142428881 -0.00633605572 0.00017309894 0.00134748282 -0.00633765616 0.00016945900 0.00126959913 -0.00634124910 0.00016662262 0.00119216265 -0.00634688366 0.00016495593 0.00111669826 -0.00635460901 0.00020105822 0.00173902785 -0.00646048296 0.00020028979 0.00168992422 -0.00645300539 0.00019813921 0.00163199729 -0.00644727510 0.00019497250 0.00156680700 -0.00644332163 0.00019115568 0.00149591332 -0.00644117453 0.00018705475 0.00142087620 -0.00644086334 0.00018303574 0.00134325559 -0.00644241760 0.00017946465 0.00126461146 -0.00644586686 0.00017670750 0.00118650374 -0.00645124067 0.00017513030 0.00111049241 -0.00645856856 0.00021080664 0.00173833800 -0.00656569188 0.00021003294 0.00168872953 -0.00655841410 0.00020790747 0.00163021505 -0.00655285605 0.00020479056 0.00156437650 -0.00654903522 0.00020104253 0.00149279584 -0.00654696907 0.00019702369 0.00141705500 -0.00654667510 0.00019309439 0.00133873594 -0.00654817077 0.00018961493 0.00125942060 -0.00655147358 0.00018694563 0.00118069093 -0.00655660099 0.00018544683 0.00110412887 -0.00656357048 0.00022058181 0.00173669217 -0.00667179591 0.00021979107 0.00168662872 -0.00666475393 0.00021769611 0.00162760877 -0.00665938350 0.00021464672 0.00156122524 -0.00665569590 0.00021099267 0.00148907104 -0.00665370243 0.00020708375 0.00141273908 -0.00665341438 0.00020326972 0.00133382228 -0.00665484306 0.00019990037 0.00125391355 -0.00665799975 0.00019732547 0.00117460581 -0.00666289575 0.00019589480 0.00109749197 -0.00666954236 0.00023041121 0.00173406977 -0.00677874362 0.00022958893 0.00168359648 -0.00677195687 0.00022752514 0.00162414217 -0.00676678026 0.00022455492 0.00155730177 -0.00676322312 0.00022101336 0.00148467017 -0.00676129477 0.00021723556 0.00140784229 -0.00676100457 0.00021355658 0.00132841303 -0.00676236183 0.00021031152 0.00124797730 -0.00676537590 0.00020783546 0.00116813000 -0.00677005610 0.00020646349 0.00109046605 -0.00677641178 0.00024032227 0.00173045022 -0.00688648355 0.00023945126 0.00167960749 -0.00687995489 0.00023741455 0.00161977898 -0.00687496917 0.00023452910 0.00155255466 -0.00687153633 0.00023111185 0.00147952451 -0.00686966631 0.00022747977 0.00140227851 -0.00686936904 0.00022394981 0.00132240662 -0.00687065448 0.00022083893 0.00124149882 -0.00687353254 0.00021846407 0.00116114510 -0.00687801318 0.00021714219 0.00108293541 -0.00688410634 0.00025034247 0.00172581294 -0.00699496426 0.00024940283 0.00167463645 -0.00698867996 0.00024738437 0.00161448291 -0.00698387305 0.00024458319 0.00154693247 -0.00698055499 0.00024129539 0.00147356531 -0.00697873722 0.00023781705 0.00139596159 -0.00697843119 0.00023444427 0.00131570147 -0.00697964837 0.00023147313 0.00123436512 -0.00698240020 0.00022919974 0.00115353270 -0.00698669813 0.00022792018 0.00107478438 -0.00699255362 0.00026049924 0.00172013734 -0.00710413431 0.00025946836 0.00166865805 -0.00709806407 0.00025745459 0.00160821769 -0.00709341474 0.00025473114 0.00154038377 -0.00709019854 0.00025157122 0.00146672383 -0.00708842769 0.00024824803 0.00138880540 -0.00708811440 0.00024503478 0.00130819600 -0.00708927089 0.00024220468 0.00122646317 -0.00709190938 0.00024003092 0.00114517442 -0.00709604208 0.00023878673 0.00106589730 -0.00710168122 0.00027082005 0.00171340283 -0.00721394227 0.00026967261 0.00166164697 -0.00720803919 0.00026764522 0.00160094703 -0.00720351706 0.00026498687 0.00153285711 -0.00720038644 0.00026194659 0.00145893133 -0.00719865791 0.00025877336 0.00138072380 -0.00719834205 0.00025571620 0.00129978864 -0.00719944942 0.00025302411 0.00121767996 -0.00720199061 0.00025094608 0.00113595186 -0.00720597618 0.00024973113 0.00105615847 -0.00721141672 0.00028133236 0.00170558883 -0.00732433667 0.00028004033 0.00165357791 -0.00731853731 0.00027797626 0.00159263466 -0.00731410284 0.00027536433 0.00152430106 -0.00731103814 0.00027242875 0.00145011907 -0.00730934808 0.00026939370 0.00137163067 -0.00730903752 0.00026648337 0.00129037781 -0.00731011134 0.00026392196 0.00120790247 -0.00731257440 0.00026193366 0.00112574662 -0.00731643157 0.00026074266 0.00104545223 -0.00732168772 0.00019298063 0.00172270157 -0.00634305415 0.00019275122 0.00169185931 -0.00633070005 0.00019039666 0.00164845426 -0.00632124416 0.00018650921 0.00159471305 -0.00631474683 0.00018168109 0.00153286227 -0.00631126845 0.00017650455 0.00146512856 -0.00631086939 0.00017157183 0.00139373851 -0.00631361004 0.00016747515 0.00132091876 -0.00631955075 0.00016480677 0.00124889591 -0.00632875192 0.00016415891 0.00117989657 -0.00634127392 0.00020276264 0.00172270936 -0.00644760662 0.00020238596 0.00169142218 -0.00643537562 0.00020002980 0.00164740157 -0.00642605739 0.00019624605 0.00159292589 -0.00641969063 0.00019158660 0.00153027349 -0.00641631403 0.00018660335 0.00146172273 -0.00641596629 0.00018184820 0.00138955198 -0.00641868610 0.00017787304 0.00131603958 -0.00642451216 0.00017522976 0.00124346391 -0.00643348317 0.00017447025 0.00117410332 -0.00644563782 0.00021248107 0.00172176860 -0.00655316244 0.00021200184 0.00169013345 -0.00654117803 0.00020967245 0.00164561602 -0.00653207348 0.00020600840 0.00159053665 -0.00652587383 0.00020152521 0.00152721569 -0.00652260411 0.00019673836 0.00145797349 -0.00652228938 0.00019216336 0.00138513038 -0.00652495466 0.00018831572 0.00131100672 -0.00653062499 0.00018571093 0.00123792285 -0.00653932542 0.00018486450 0.00116819911 -0.00655108097 0.00022216974 0.00171986257 -0.00665965189 0.00022162078 0.00168795699 -0.00664800999 0.00021933801 0.00164304464 -0.00663917805 0.00021580400 0.00158747787 -0.00663317370 0.00021150127 0.00152360902 -0.00663001459 0.00020691238 0.00145379043 -0.00662971836 0.00020251987 0.00138037443 -0.00663230265 0.00019880630 0.00130571336 -0.00663778511 0.00019625422 0.00123215956 -0.00664618337 0.00019534616 0.00116206537 -0.00665751508 0.00023186243 0.00171697455 -0.00676700523 0.00023126470 0.00168485666 -0.00675577423 0.00022903990 0.00163963447 -0.00674725674 0.00022564053 0.00158368209 -0.00674146753 0.00022151913 0.00151937362 -0.00673842134 0.00021712822 0.00144908316 -0.00673813292 0.00021292030 0.00137518481 -0.00674061701 0.00020934791 0.00130005269 -0.00674588837 0.00020686356 0.00122606089 -0.00675396175 0.00020591978 0.00115558353 -0.00676485189 0.00024159296 0.00171308782 -0.00687515271 0.00024095554 0.00168079635 -0.00686437345 0.00023879149 0.00163533255 -0.00685619521 0.00023552573 0.00157908184 -0.00685063262 0.00023158316 0.00151442961 -0.00684770026 0.00022738868 0.00144376127 -0.00684741275 0.00022336721 0.00136946224 -0.00684978467 0.00021994364 0.00129391791 -0.00685483064 0.00021754290 0.00121951370 -0.00686256525 0.00021658987 0.00114863500 -0.00687300311 0.00025139513 0.00170818567 -0.00698402462 0.00025071521 0.00167573992 -0.00697371037 0.00024860620 0.00163008591 -0.00696587910 0.00024546730 0.00157360965 -0.00696054624 0.00024169769 0.00150869713 -0.00695772724 0.00023769658 0.00143773438 -0.00695743754 0.00023386316 0.00136310740 -0.00695969257 0.00023059662 0.00128720221 -0.00696450778 0.00022829615 0.00121240481 -0.00697189860 0.00022736095 0.00114110122 -0.00698188048 0.00026130273 0.00170225136 -0.00709355120 0.00026056564 0.00166965126 -0.00708368771 0.00025849743 0.00162384160 -0.00707619404 0.00025547295 0.00156719806 -0.00707108569 0.00025186710 0.00150209633 -0.00706837817 0.00024805473 0.00143091208 -0.00706808698 0.00024441072 0.00135602101 -0.00707022764 0.00024130994 0.00127979878 -0.00707481564 0.00023912726 0.00120462109 -0.00708186649 0.00023823756 0.00113286361 -0.00709139570 0.00027134957 0.00169526819 -0.00720366273 0.00027052877 0.00166249422 -0.00719420818 0.00026847857 0.00161654664 -0.00718702567 0.00026555041 0.00155977961 -0.00718212824 0.00026209572 0.00149454733 -0.00717952893 0.00025846592 0.00142320398 -0.00717924078 0.00025501244 0.00134810375 -0.00718127682 0.00025208672 0.00127160082 -0.00718565010 0.00025004017 0.00119604937 -0.00719237365 0.00024922422 0.00112380358 -0.00720146051 0.00028156945 0.00168721943 -0.00731428947 0.00028062650 0.00165423270 -0.00730517450 0.00027856303 0.00160814807 -0.00729825964 0.00027570738 0.00155128684 -0.00729355119 0.00027238791 0.00148597028 -0.00729105541 0.00026893297 0.00141451968 -0.00729077860 0.00026567090 0.00133925633 -0.00729272704 0.00026293006 0.00126250151 -0.00729690700 0.00026103880 0.00118657649 -0.00730332477 0.00026032545 0.00111380258 -0.00731198664 </DataArray>
</PointData>
<Points>
<DataArray type="Float32" NumberOfComponents="3">
-0.45582463857 0.72647688992 -0.79764456303 -0.42522680466 0.72640607273 -0.80549748007 -0.40227677096 0.72632995323 -0.81458488509 -0.38697504814 0.72625157476 -0.82455471175 -0.37932214691 0.72617398064 -0.83505489368 -0.37931857796 0.72610021423 -0.84573336453 -0.38696485198 0.72603331885 -0.85623805795 -0.40226147965 0.72597633783 -0.86621690758 -0.42520897167 0.72593231452 -0.87531784707 -0.45580783872 0.72590429224 -0.88318881006 -0.45138685307 0.74238291411 -0.79775435970 -0.42080641337 0.74231135056 -0.80560964501 -0.39786993249 0.74223396001 -0.81469874753 -0.38257774749 0.74215396002 -0.82466962519 -0.37493019542 0.74207456813 -0.83517023592 -0.37492761333 0.74199900190 -0.84584853765 -0.38257033829 0.74193047887 -0.85635248831 -0.39785870734 0.74187221660 -0.86633004583 -0.42079305754 0.74182743264 -0.87542916814 -0.45137372594 0.74179934455 -0.88329781316 -0.44539855424 0.75828657623 -0.79786550062 -0.41477972035 0.75821414339 -0.80572298182 -0.39181489826 0.75813567016 -0.81481367448 -0.37650427526 0.75805445638 -0.82478555402 -0.36884803864 0.75797380186 -0.83528659590 -0.36884637570 0.75789700644 -0.84596477555 -0.37649947373 0.75782736992 -0.85646806841 -0.39180752001 0.75776819214 -0.86644444992 -0.41477070185 0.75772277291 -0.87554189551 -0.44538920653 0.75769441206 -0.88340838062 -0.43794326050 0.77418809427 -0.79797782029 -0.40724351654 0.77411471336 -0.80583730990 -0.38421841133 0.77403533032 -0.81492947078 -0.36886800609 0.77395325268 -0.82490229005 -0.36119236202 0.77387178799 -0.83540375478 -0.36119154031 0.77379424380 -0.84608185207 -0.36886560217 0.77372392766 -0.85658456902 -0.38421460880 0.77366414711 -0.86655989270 -0.40723862140 0.77361820970 -0.87565581022 -0.43793770118 0.77358942298 -0.88352030866 -0.42910449025 0.79008768619 -0.79809115320 -0.39829459284 0.79001332265 -0.80595244862 -0.37518721477 0.78993318713 -0.81504594131 -0.35978231462 0.78985053775 -0.82501962507 -0.35207985097 0.78976863265 -0.83552149372 -0.35207978241 0.78969072995 -0.84619954105 -0.35978206750 0.78962008776 -0.85670176089 -0.37518666485 0.78955996421 -0.86667614703 -0.39829353302 0.78951361742 -0.87577069329 -0.42910263060 0.78948430553 -0.88363339346 -0.41896576188 0.80598556997 -0.79820533383 -0.38802974019 0.80591023339 -0.80606821739 -0.36482805165 0.80582948723 -0.81516289091 -0.34936057549 0.80574650045 -0.82513735090 -0.34162719094 0.80566444199 -0.83563959387 -0.34162777723 0.80558648081 -0.84631761633 -0.34936221360 0.80551578586 -0.85681941479 -0.36483037928 0.80545552609 -0.86679298576 -0.38803215351 0.80540887046 -0.87588632575 -0.41896741551 0.80537898790 -0.88374743126 -0.40761059381 0.82188196360 -0.79832019668 -0.37654574951 0.82180570776 -0.80618443559 -0.35324766503 0.82172447728 -0.81528012444 -0.33771616332 0.82164132960 -0.82525525934 -0.32995106734 0.82155932215 -0.83575783640 -0.32995220003 0.82148151235 -0.84643585175 -0.33771938435 0.82141095764 -0.85693730149 -0.35325244325 0.82135071545 -0.86691018174 -0.37655119968 0.82130384320 -0.87600248862 -0.40761547659 0.82127339832 -0.88386221824 -0.39512250443 0.83777708505 -0.79843557625 -0.36393941171 0.83770000790 -0.80630092262 -0.34055279798 0.83761840392 -0.81539744676 -0.32496245276 0.83753521406 -0.82537314219 -0.31716816561 0.83745337927 -0.83587600247 -0.31716972605 0.83737584052 -0.84655402115 -0.32496692363 0.83730553876 -0.85705519175 -0.34055954788 0.83724541495 -0.86702750784 -0.36394738834 0.83719841004 -0.87611896294 -0.39513023456 0.83716746499 -0.88397755062 -0.38158501214 0.85367115229 -0.79855130701 -0.35030751773 0.85359339598 -0.80641749787 -0.32685019356 0.85351151379 -0.81551466272 -0.31121281845 0.85342834265 -0.82549079127 -0.30339517117 0.85334671950 -0.83599387325 -0.30339703053 0.85326948126 -0.84667189836 -0.31121817531 0.85319946488 -0.85717285633 -0.32685838431 0.85313950727 -0.86714473689 -0.35031743632 0.85309244538 -0.87623552974 -0.38159511013 0.85306111613 -0.88409322460 -0.36708163536 0.86956438330 -0.79866722346 -0.33574685847 0.86948613415 -0.80653398073 -0.31224659485 0.86940405354 -0.81563157719 -0.29658063501 0.86932090423 -0.82560799838 -0.28874876946 0.86923944897 -0.83611122988 -0.28875078871 0.86916245053 -0.84678925724 -0.29658648328 0.86909267165 -0.85729006601 -0.31225564367 0.86903287508 -0.86726164175 -0.33575806041 0.86898582360 -0.87635197003 -0.36709352399 0.86895427994 -0.88420903640 -0.49378759747 0.72653987244 -0.79131778233 -0.47233938684 0.72646216844 -0.80106852697 -0.45625221433 0.72638151287 -0.81168789169 -0.44552635068 0.72629980798 -0.82292813819 -0.44016206667 0.72621895603 -0.83454152818 -0.44015963306 0.72614085930 -0.84628032335 -0.44551932061 0.72606742004 -0.85789678540 -0.45624140009 0.72600054054 -0.86914317604 -0.47232614227 0.72594212304 -0.87977175696 -0.49377381790 0.72589406982 -0.88953478985 -0.48932826792 0.74244656086 -0.79142544283 -0.46789248545 0.74236790710 -0.80117756134 -0.45181486218 0.74228593815 -0.81179792623 -0.44109560210 0.74220267560 -0.82303880517 -0.43573490921 0.74212014104 -0.83465246584 -0.43573298750 0.74204035603 -0.84639117590 -0.44109004096 0.74196534217 -0.85800720303 -0.45180627358 0.74189712102 -0.86925281489 -0.46788188936 0.74183771418 -0.87988027917 -0.48931709229 0.74178914322 -0.88964186353 -0.48338769480 0.75835111072 -0.79153449034 -0.46192519384 0.75827151983 -0.80128792856 -0.44582775762 0.75818840858 -0.81190925771 -0.43509552767 0.75810387136 -0.82315075124 -0.42972864549 0.75802000258 -0.83476468262 -0.42972725262 0.75793889662 -0.84650332528 -0.43509149056 0.75786264788 -0.85811895269 -0.44582150084 0.75779335075 -0.86936383829 -0.46191742498 0.75773309964 -0.87999025554 -0.48337940448 0.75768398893 -0.88975047789 -0.47603292076 0.77425368020 -0.79164479183 -0.45451386268 0.77417318034 -0.80139947859 -0.43837422733 0.77408908643 -0.81202172330 -0.42761409907 0.77400352692 -0.82326380467 -0.42223356228 0.77391863029 -0.83487800143 -0.42223270131 0.77383652500 -0.84661659231 -0.42761160053 0.77375933952 -0.85823185602 -0.43837034431 0.77368920231 -0.86947607129 -0.45450901703 0.77362824185 -0.88010151685 -0.47602770303 0.77357858658 -0.88986047142 -0.46733098846 0.79015442749 -0.79175621424 -0.44573484266 0.79007306234 -0.80151206141 -0.42953759799 0.78998813397 -0.81213516017 -0.41873928803 0.78990177395 -0.82337779371 -0.41333994632 0.78981611382 -0.83499224519 -0.41333960644 0.78973328513 -0.84673079778 -0.41873830196 0.78965541944 -0.85834573465 -0.42953606642 0.78958464828 -0.86958933896 -0.44573293341 0.78952310323 -0.88021389389 -0.46732893647 0.78947291582 -0.88997168260 -0.45734894057 0.80605351078 -0.79186862453 -0.43566448444 0.80597133952 -0.80162552697 -0.41940119628 0.80588571349 -0.81224940552 -0.40855906622 0.80579874412 -0.82349254665 -0.40313808439 0.80571254280 -0.83510723682 -0.40313824093 0.80562922094 -0.84684576252 -0.40855952595 0.80555088995 -0.85846041020 -0.41940192961 0.80547966124 -0.86970346635 -0.43566544203 0.80541764622 -0.88032721743 -0.45735005334 0.80536695628 -0.89008394993 -0.44615381974 0.82195108824 -0.79198188964 -0.42437913871 0.82186818558 -0.80173972526 -0.40804834889 0.82178198727 -0.81236429652 -0.39716140537 0.82169456910 -0.82360789174 -0.39171826325 0.82160800687 -0.83522279924 -0.39171887764 0.82152437638 -0.84696130732 -0.39716320362 0.82144575342 -0.85857570431 -0.40805119631 0.82137421377 -0.86981827853 -0.42438281081 0.82131183324 -0.88044131828 -0.44615800220 0.82126068761 -0.89019711190 -0.43381266863 0.83784731807 -0.79209587652 -0.41195515614 0.83776377422 -0.80185450624 -0.39556238249 0.83767711756 -0.81247967036 -0.38463427716 0.83758938056 -0.82372365726 -0.37917076966 0.83750259568 -0.83533875535 -0.37917178946 0.83741879539 -0.84707725300 -0.38463726607 0.83734001216 -0.85869143860 -0.39556712896 0.83726827845 -0.86993360054 -0.41196130764 0.83720562673 -0.88055602721 -0.43381973158 0.83715408946 -0.89031100699 -0.42039252990 0.85374235846 -0.79221045213 -0.39846888740 0.85365827915 -0.80196971987 -0.38202662376 0.85357126666 -0.81259536420 -0.37106565331 0.85348331017 -0.82383967148 -0.36558589038 0.85339639886 -0.83545492808 -0.36558724930 0.85331252192 -0.84719342037 -0.37106964439 0.85323366852 -0.85880743471 -0.38203298999 0.85316182786 -0.87004925747 -0.39847720043 0.85309898911 -0.88067117501 -0.42040219003 0.85304714145 -0.89042547371 -0.40596044622 0.86963636758 -0.79232548342 -0.38399668317 0.86955187406 -0.80208521613 -0.36752439938 0.86946459683 -0.81271121523 -0.35654350550 0.86937648960 -0.82395576265 -0.35105391217 0.86928950606 -0.83557114034 -0.35105553002 0.86920559990 -0.84730963022 -0.35654826970 0.86912672485 -0.85892351425 -0.36753204184 0.86905483458 -0.87016507435 -0.38400675709 0.86899188281 -0.88078659247 -0.40597232609 0.86893982324 -0.89054035054 -0.53769881047 0.72659703485 -0.78657240971 -0.52363772133 0.72651479322 -0.79774670691 -0.51309138282 0.72643113548 -0.80951517838 -0.50605991035 0.72634714989 -0.82170833135 -0.50254341934 0.72626392468 -0.83415667310 -0.50254202521 0.72618254809 -0.84669071085 -0.50605584337 0.72610410836 -0.85914095187 -0.51308498923 0.72602969373 -0.87133790340 -0.52362957820 0.72596039244 -0.88311207269 -0.53768972571 0.72589729273 -0.89429396699 -0.53321442926 0.74250397171 -0.78667849257 -0.51916165622 0.74242067509 -0.79785348538 -0.50862161625 0.74233572120 -0.80962248088 -0.50159441920 0.74225027575 -0.82181597984 -0.49808017491 0.74216550448 -0.83426448299 -0.49807899325 0.74208257312 -0.84679849111 -0.50159098407 0.74200264740 -0.85924850494 -0.50861625721 0.74192689304 -0.87144502524 -0.51915492253 0.74185647577 -0.88321855277 -0.53320708988 0.74179256132 -0.89439958828 -0.52732901192 0.75840899805 -0.78678594123 -0.51325886771 0.75832473461 -0.79796164151 -0.50270588317 0.75823863474 -0.80973116327 -0.49567015716 0.75815192388 -0.82192500499 -0.49215178854 0.75806582750 -0.83437366513 -0.49215087618 0.75798157105 -0.84690764216 -0.49566751894 0.75790037999 -0.85935743457 -0.50270181566 0.75782347979 -0.87155354083 -0.51325386522 0.75775209589 -0.88332645939 -0.52732376647 0.75768745376 -0.89450668875 -0.52009053309 0.77431222299 -0.78689465142 -0.50598343488 0.77422708046 -0.79807105481 -0.49540283556 0.77413997677 -0.80984109491 -0.48834881894 0.77405218138 -0.82203527097 -0.48482146886 0.77396496376 -0.83448408226 -0.48482086915 0.77387959338 -0.84701802806 -0.48834710364 0.77379733971 -0.85946760762 -0.49540025616 0.77371947221 -0.87166332023 -0.50598041053 0.77364726036 -0.88343566514 -0.52008765059 0.77358197363 -0.89461514163 -0.51154696739 0.79021375567 -0.78700451888 -0.49738943686 0.79012782133 -0.79818160481 -0.48677112543 0.79003984796 -0.80995214516 -0.47969209926 0.78995113536 -0.82214664194 -0.47615242450 0.78986298332 -0.83459559715 -0.47615216732 0.78977669163 -0.84712951282 -0.47969139386 0.78969356011 -0.85957889094 -0.48677017027 0.78961488854 -0.87177423353 -0.49738856272 0.78954197672 -0.88354604260 -0.51154663735 0.78947612445 -0.89472482015 -0.50174628946 0.80611370524 -0.78711543934 -0.48753095273 0.80602706592 -0.79829317101 -0.47686940477 0.80593834898 -0.81006418340 -0.46976169281 0.80584887292 -0.82225898206 -0.46620786409 0.80575995620 -0.83470807257 -0.46620796583 0.80567291733 -0.84724196049 -0.46976204524 0.80558907476 -0.85969115138 -0.47687014957 0.80550974700 -0.87188615081 -0.48753232603 0.80543625252 -0.88365746434 -0.50174862185 0.80536990980 -0.89483559754 -0.49073647393 0.82201218083 -0.78722730854 -0.47646206160 0.82192492291 -0.79840563294 -0.46575632558 0.82183558050 -0.81017707900 -0.45861929432 0.82174548116 -0.82237215551 -0.45505099626 0.82165595247 -0.83482137128 -0.45505145983 0.82156832197 -0.84735523511 -0.45862071348 0.82148391724 -0.85980425579 -0.46575878563 0.82140406583 -0.87199894214 -0.47646570473 0.82133009530 -0.88376980294 -0.49074149921 0.82126333323 -0.89494734701 -0.47856549543 0.83790929157 -0.78734002220 -0.46423684257 0.83782150099 -0.79851887011 -0.45349053986 0.83773164317 -0.81029070132 -0.44632659849 0.83764104720 -0.82248602644 -0.44274502964 0.83755104214 -0.83493535604 -0.44274584449 0.83746295708 -0.84746920071 -0.44632905423 0.83737812109 -0.85991807103 -0.45349467003 0.83729786324 -0.87211247760 -0.46424270307 0.83722351262 -0.88388293099 -0.47857316454 0.83715639829 -0.89505994180 -0.46528132859 0.85380514661 -0.78745347608 -0.45090937475 0.85371690885 -0.79863276203 -0.44013069961 0.85362663768 -0.81040491975 -0.43294530003 0.85353565813 -0.82260045901 -0.42935317287 0.85344529528 -0.83504988961 -0.42935431496 0.85335687418 -0.84758372132 -0.43294872316 0.85327171989 -0.86003246395 -0.44013639433 0.85319115748 -0.87222662726 -0.45091732531 0.85311651201 -0.88399672106 -0.46529151296 0.85304910853 -0.89517325512 -0.45093194805 0.86969985507 -0.78756756588 -0.43653373723 0.86961125520 -0.79874718823 -0.42573545682 0.86952066467 -0.81051960364 -0.41853709365 0.86942940106 -0.82271531739 -0.41493863456 0.86933878190 -0.83516483475 -0.41494006638 0.86925012477 -0.84769866100 -0.41854137595 0.86916474721 -0.86014730140 -0.42574255012 0.86908396677 -0.87234126122 -0.43654357571 0.86900910103 -0.88411104573 -0.45094443956 0.86894146752 -0.89528716021 -0.58585879668 0.72664721636 -0.78340840738 -0.57792590260 0.72656299322 -0.79553186605 -0.57197609385 0.72647808532 -0.80806650073 -0.56800939139 0.72639306629 -0.82089498306 -0.56602581620 0.72630850976 -0.83389998466 -0.56602538924 0.72622498935 -0.84696417714 -0.56800813148 0.72614307870 -0.85997023213 -0.57197406389 0.72606335144 -0.87280082125 -0.57792320744 0.72598638120 -0.88533861614 -0.58585558310 0.72591274161 -0.89746628840 -0.58134683027 0.74255407246 -0.78351339822 -0.57341874118 0.74246877062 -0.79563713469 -0.56747251773 0.74238263011 -0.80817199982 -0.56350820155 0.74229627213 -0.82100065103 -0.56152583426 0.74221031786 -0.83400574574 -0.56152545749 0.74212538848 -0.84706994137 -0.56350711287 0.74204210519 -0.86007589533 -0.56747084202 0.74196108918 -0.87290626504 -0.57341668657 0.74188296162 -0.88544370791 -0.58134468816 0.74180834372 -0.89757088136 -0.57552185514 0.75845924084 -0.78361968843 -0.56758407129 0.75837297776 -0.79574374163 -0.56163058569 0.75828573294 -0.80827885305 -0.55766145285 0.75819817267 -0.82110767273 -0.55567672730 0.75811096324 -0.83411285073 -0.55567646355 0.75802477095 -0.84717703709 -0.55766071613 0.75794026209 -0.86018288187 -0.56162953955 0.75785810296 -0.87301303511 -0.56758298834 0.75777895985 -0.88555014687 -0.57552111700 0.75770349905 -0.89767686719 -0.56841092577 0.77436279154 -0.78372719809 -0.56045239186 0.77427567787 -0.79585159308 -0.55448337571 0.77418745155 -0.80838695942 -0.55050393812 0.77409882093 -0.82121594502 -0.54851413988 0.77401049434 -0.83422119779 -0.54851404178 0.77392318010 -0.84728536565 -0.55050370461 0.77383758657 -0.86029109653 -0.55448318917 0.77375442206 -0.87312103832 -0.56045255624 0.77367439492 -0.88565783897 -0.56841186663 0.77359821348 -0.89778414637 -0.56004109667 0.79026479460 -0.78383584727 -0.55205420184 0.79017693413 -0.79596059522 -0.54606396581 0.79008784367 -0.80849621790 -0.54207045019 0.78999826992 -0.82132536472 -0.54007371655 0.78990895956 -0.83433068509 -0.54007382651 0.78982065928 -0.84739482840 -0.54207084164 0.78973411579 -0.86040044409 -0.54606482354 0.78965007576 -0.87323018154 -0.55205583381 0.78956928589 -0.88576669017 -0.56004393404 0.78949249288 -0.89789261938 -0.55043942232 0.80616532006 -0.78394555606 -0.54242000016 0.80607680976 -0.79607065425 -0.53640543399 0.80598696704 -0.80860652749 -0.53239578187 0.80589657264 -0.82143582870 -0.53039110188 0.80580640733 -0.83444121080 -0.53039145208 0.80571725184 -0.84750532671 -0.53239689055 0.80562988693 -0.86051082934 -0.53640747535 0.80554509334 -0.87334037161 -0.54242326455 0.80546365182 -0.88587660643 -0.55044431622 0.80538634312 -0.89800218673 -0.53963295724 0.82206443794 -0.78405624454 -0.53158028577 0.82197536794 -0.79618167635 -0.52554085824 0.82188487937 -0.80871778715 -0.52151472599 0.82179378212 -0.82154723379 -0.51950194041 0.82170288608 -0.83455267310 -0.51950255285 0.82161300113 -0.84761676192 -0.52151661468 0.82152493717 -0.86062215707 -0.52554417726 0.82143950408 -0.87345151540 -0.53158529197 0.82135751175 -0.88598749373 -0.53964001016 0.82127977006 -0.89811274890 -0.52764875592 0.83796221829 -0.78416783279 -0.51956555762 0.83787267189 -0.79629356771 -0.51350331656 0.83778163841 -0.80882989588 -0.50946207538 0.83768995136 -0.82165947684 -0.50744187670 0.83759844422 -0.83466497016 -0.50744276315 0.83750795049 -0.84772903539 -0.50946477736 0.83741930367 -0.86073433207 -0.51350796197 0.83733333725 -0.87356351976 -0.51957235959 0.83725088473 -0.88609925802 -0.52765801286 0.83717277960 -0.89822420639 -0.51451387285 0.85385873114 -0.78428024088 -0.50640631463 0.85376878480 -0.79640623453 -0.50032588696 0.85367730190 -0.80894275265 -0.49627262284 0.85358513337 -0.82177245471 -0.49424655530 0.85349313018 -0.83477800016 -0.49424771733 0.85340214327 -0.84784204848 -0.49627614194 0.85331302361 -0.86084725912 -0.50033186213 0.85322662214 -0.87367629156 -0.50641491093 0.85314378981 -0.88621180526 -0.51452532133 0.85306537758 -0.89833645969 -0.50025536253 0.86975404653 -0.78439338891 -0.49213305575 0.86966376988 -0.79651958300 -0.48604164743 0.86957192755 -0.80905625646 -0.48198116122 0.86947938116 -0.82188606422 -0.47995162077 0.86938699237 -0.83489166126 -0.47995304973 0.86929562282 -0.84795570254 -0.48198547174 0.86920613416 -0.86096084302 -0.48604891044 0.86911938802 -0.87378973766 -0.49214338949 0.86903624605 -0.88632504142 -0.50026893254 0.86895756990 -0.89844940928 -0.63656807516 0.72668925616 -0.78182573757 -0.63400802514 0.72660581465 -0.79442385053 -0.63208816486 0.72652162664 -0.80734161435 -0.63080845806 0.72643702297 -0.82048778515 -0.63016886850 0.72635233442 -0.83377111909 -0.63016935995 0.72626789183 -0.84710037232 -0.63080989617 0.72618402598 -0.86038430097 -0.63209044091 0.72610106771 -0.87353166121 -0.63401095793 0.72601934782 -0.88645120916 -0.63657141100 0.72593919711 -0.89905170099 -0.63202696413 0.74259578887 -0.78193004907 -0.62946855582 0.74251130973 -0.79452822681 -0.62754988965 0.74242598586 -0.80744607136 -0.62627095193 0.74234017641 -0.82059232061 -0.62563172898 0.74225424055 -0.83387571246 -0.62563220710 0.74216853742 -0.84720498479 -0.62627237260 0.74208342618 -0.86048887549 -0.62755221180 0.74199926598 -0.87363612246 -0.62947171101 0.74191641597 -0.88655546359 -0.63203085654 0.74183523532 -0.89915563677 -0.62626557396 0.75850084171 -0.78203556710 -0.62370413391 0.75841543931 -0.79463384989 -0.62178317598 0.75832908751 -0.80755178893 -0.62050270386 0.75824217649 -0.82069811197 -0.61986272127 0.75815509645 -0.83398154673 -0.61986323189 0.75806823755 -0.84731082096 -0.62050423944 0.75798199001 -0.86059466238 -0.62178574760 0.75789674399 -0.87374179874 -0.62370776008 0.75781288968 -0.88666095777 -0.62627028058 0.75773081728 -0.89926086721 -0.61928892707 0.77440445478 -0.78214223085 -0.61672089233 0.77431823672 -0.79474064791 -0.61479498750 0.77423096099 -0.80765869064 -0.61351122905 0.77414305046 -0.82080508289 -0.61286963343 0.77405492796 -0.83408854853 -0.61287021710 0.77396701634 -0.84741781142 -0.61351299653 0.77387973844 -0.86070159542 -0.61479798817 0.77379351711 -0.87384862439 -0.61672520848 0.77370877518 -0.88676762219 -0.61929467392 0.77362593551 -0.89936731268 -0.61110204590 0.79030666816 -0.78224997957 -0.60852496401 0.79021973524 -0.79484854904 -0.60659228790 0.79013163569 -0.80776670005 -0.60530404270 0.79004282558 -0.82091315705 -0.60466025352 0.78995376096 -0.83419664448 -0.60466094550 0.78986489791 -0.84752588678 -0.60530614374 0.78977669247 -0.86080960840 -0.60659587339 0.78968960072 -0.87395653377 -0.60853015955 0.78960407872 -0.88687538733 -0.61110902735 0.78952058254 -0.89947489353 -0.60170995290 0.80620752193 -0.78235875249 -0.59912248188 0.80611996819 -0.79495748141 -0.59718204084 0.80603114099 -0.80787574073 -0.59588866001 0.80594152910 -0.82102225810 -0.59524236960 0.80585162131 -0.83430576118 -0.59524319984 0.80576190638 -0.84763497763 -0.59589118094 0.80567287309 -0.86091863509 -0.59718634313 0.80558501022 -0.87406546123 -0.59912871662 0.80549880655 -0.88698418370 -0.60171833163 0.80541475086 -0.89958353015 -0.59111767051 0.82210705618 -0.78246848881 -0.58851957887 0.82201896888 -0.79506737319 -0.58657121000 0.82192950628 -0.80798573627 -0.58527259619 0.82183918830 -0.82113230973 -0.58462376972 0.82174853485 -0.83441582527 -0.58462476289 0.82165806587 -0.84774501456 -0.58527560797 0.82156830128 -0.86102860928 -0.58657633726 0.82147976098 -0.87417534112 -0.58852698303 0.82139296492 -0.88709394177 -0.59112757757 0.82130843300 -0.89969314290 -0.57933022117 0.83800531100 -0.78257912778 -0.57672238789 0.83791677062 -0.79517815252 -0.57476675903 0.83782676095 -0.80809661023 -0.57346336644 0.83773583042 -0.82124323561 -0.57281224195 0.83764452747 -0.83452676335 -0.57281341743 0.83755340052 -0.84785592817 -0.57346692471 0.83746299802 -0.86113946476 -0.57477279566 0.83737386839 -0.87428610781 -0.57673106212 0.83728656007 -0.88720459204 -0.57934175594 0.83720162148 -0.89980365214 -0.56635262730 0.85390232647 -0.78269060861 -0.56373704189 0.85381340670 -0.79528974756 -0.56177565163 0.85372293437 -0.80820828619 -0.56046848596 0.85363148273 -0.82135495939 -0.55981557434 0.85353962500 -0.83463850205 -0.55981694621 0.85344793445 -0.84796764906 -0.56047263101 0.85335698431 -0.86125113530 -0.56178265820 0.85326734782 -0.87439769565 -0.56374705723 0.85317959824 -0.88731606500 -0.56636585753 0.85309430880 -0.89991497824 -0.55218991137 0.86979814267 -0.78280287054 -0.54956967379 0.86970891044 -0.79540208645 -0.54760485145 0.86961805595 -0.80832068772 -0.54629546996 0.86952617248 -0.82146740476 -0.54564155494 0.86943385333 -0.83475096799 -0.54564313200 0.86934169178 -0.84808010782 -0.54630022673 0.86925028113 -0.86136355468 -0.54761286476 0.86916021467 -0.87451003898 -0.54958107169 0.86907208569 -0.88742829114 -0.55220487313 0.86898648749 -0.90002704158 -0.68812716498 0.72672199346 -0.78182436250 -0.69068818343 0.72664230367 -0.79442250652 -0.69260941326 0.72656102370 -0.80734027479 -0.69389077458 0.72647848570 -0.82048642945 -0.69453218752 0.72639502184 -0.83376973263 -0.69453357218 0.72631096426 -0.84709894650 -0.69389484868 0.72622664512 -0.86038283319 -0.69261593713 0.72614239658 -0.87353015486 -0.69069675765 0.72605855078 -0.88644967364 -0.68813723036 0.72597543988 -0.89905015168 -0.68355632403 0.74262804674 -0.78192833442 -0.68611591563 0.74254740848 -0.79452647932 -0.68803605503 0.74246510939 -0.80744428385 -0.68931667312 0.74238150028 -0.82059049043 -0.68995770081 0.74229693196 -0.83387384149 -0.68995906898 0.74221175526 -0.84720307944 -0.68932070853 0.74212632099 -0.86048694669 -0.68804255037 0.74204097998 -0.87363418567 -0.68612452537 0.74195608304 -0.88655353880 -0.68356656445 0.74187198100 -0.89915374848 -0.67785951790 0.75853280329 -0.78203341237 -0.68042238488 0.75845130929 -0.79463158723 -0.68234496482 0.75836808274 -0.80754943280 -0.68362719930 0.75828349409 -0.82069568018 -0.68426902995 0.75819791373 -0.83397906043 -0.68427039836 0.75811171208 -0.84730830464 -0.68363124614 0.75802525956 -0.86059214390 -0.68235151489 0.75793892659 -0.87373930929 -0.68043114621 0.75785308357 -0.88665853190 -0.67787008172 0.75776810093 -0.89925854281 -0.67101936526 0.77443628162 -0.78213954874 -0.67358909500 0.77435402115 -0.79473777382 -0.67551681062 0.77426995530 -0.80765566237 -0.67680246414 0.77418447485 -0.82080194066 -0.67744600761 0.77409797058 -0.83408533501 -0.67744739305 0.77401083326 -0.84741457169 -0.67680657250 0.77392345368 -0.86069837700 -0.67552349799 0.77383622260 -0.87384547724 -0.67359812156 0.77374953081 -0.88676459868 -0.67103039523 0.77366376909 -0.89936446763 -0.66301848473 0.79033850021 -0.78224669594 -0.66559754978 0.79025555916 -0.79484498264 -0.66753226042 0.79017073860 -0.80776291323 -0.66882257865 0.79008445028 -0.82090921389 -0.66946846644 0.78999710594 -0.83419261081 -0.66946988577 0.78990911732 -0.84752183018 -0.66882679862 0.78982089617 -0.86080559819 -0.66753916697 0.78973285421 -0.87395264101 -0.66560695279 0.78964540320 -0.88687168484 -0.66303011807 0.78955895487 -0.89947145586 -0.65383949496 0.80623947756 -0.78235480639 -0.65642925300 0.80615593839 -0.79495315724 -0.65837198222 0.80607044419 -0.80787112609 -0.65966765384 0.80598342810 -0.82101744184 -0.66031623910 0.80589532325 -0.83430083340 -0.66031770924 0.80580656280 -0.84763002970 -0.65967203549 0.80571757987 -0.86091375964 -0.65837918910 0.80562880761 -0.87406075214 -0.65643914129 0.80554067917 -0.88697973610 -0.65385186329 0.80545362768 -0.89957944044 -0.64346501459 0.82213923214 -0.78246383250 -0.64606570849 0.82205517393 -0.79506224118 -0.64801664399 0.82196908362 -0.80798024164 -0.64931780072 0.82188141602 -0.82112656649 -0.64996915825 0.82179262594 -0.83440994835 -0.64997069619 0.82170316821 -0.84773911984 -0.64932239413 0.82161349762 -0.86102281356 -0.64802423168 0.82152406901 -0.87416976213 -0.64607618843 0.82143533717 -0.88708869818 -0.64347824398 0.82134775694 -0.89968835430 -0.63187766226 0.83803778245 -0.78257372666 -0.63448842002 0.83795328086 -0.79517217801 -0.63644691375 0.83786666843 -0.80809020059 -0.63775313030 0.83777842176 -0.82123652985 -0.63840705654 0.83768901745 -0.83451990123 -0.63840867933 0.83759893208 -0.84784905018 -0.63775798553 0.83750864226 -0.86113271212 -0.63645496200 0.83741862459 -0.87427962252 -0.63449959560 0.83732935565 -0.88719851679 -0.63189187318 0.83724131204 -0.89979813039 -0.61906005661 0.85393514699 -0.78268444130 -0.62167889140 0.85385027426 -0.79528291128 -0.62364345946 0.85376321017 -0.80820094363 -0.62495375360 0.85367445304 -0.82134727390 -0.62560976664 0.85358450119 -0.83463063761 -0.62561149140 0.85349385295 -0.84795977031 -0.62495892070 0.85340300663 -0.86124340753 -0.62365204735 0.85331246055 -0.87439028480 -0.62169086418 0.85322271303 -0.88730913766 -0.61907536399 0.85313426239 -0.89990870164 -0.60499481627 0.86983134424 -0.78279592882 -0.60761862643 0.86974616920 -0.79539438455 -0.60958694913 0.86965872037 -0.80831241147 -0.61089978163 0.86956951757 -0.82145874062 -0.61155712121 0.86947908061 -0.83474210306 -0.61155896512 0.86938792933 -0.84807122982 -0.61090531064 0.86929658355 -0.86135485195 -0.60959615502 0.86920556308 -0.87450170049 -0.60763149554 0.86911538776 -0.88742050649 -0.60501132946 0.86902657740 -0.90002000098 -0.73883658524 0.72674426745 -0.78340424440 -0.74677047194 0.72667150646 -0.79552768017 -0.75272165647 0.72659554073 -0.80806223765 -0.75669000521 0.72651692029 -0.82089060778 -0.75867538450 0.72643619517 -0.83389548151 -0.75867766072 0.72635391541 -0.84695954979 -0.75669670023 0.72627063103 -0.85996550357 -0.75273236939 0.72618689208 -0.87279603380 -0.74678453456 0.72610324858 -0.88533383143 -0.73885306211 0.72602025056 -0.89746158740 -0.73423640313 0.74264977184 -0.78350814356 -0.74216563609 0.74257618295 -0.79563160975 -0.74811333688 0.74249932168 -0.80816622560 -0.75207936789 0.74241975539 -0.82099466234 -0.75406359148 0.74233805147 -0.83399959120 -0.75406587003 0.74225477730 -0.84706368342 -0.75208606591 0.74217050025 -0.86006961022 -0.74812404151 0.74208578771 -0.87290004284 -0.74217965918 0.74200120705 -0.88543765251 -0.73425278132 0.74191732566 -0.89756511046 -0.72860303650 0.75855412820 -0.78361305939 -0.73654215355 0.75847977771 -0.79573657462 -0.74249726300 0.75840210295 -0.80827124655 -0.74646822829 0.75832168420 -0.82109973483 -0.74845491286 0.75823910171 -0.83410469911 -0.74845718013 0.75815493576 -0.84716879903 -0.74647489354 0.75806976660 -0.86017469424 -0.74250791651 0.75798417449 -0.87300504437 -0.73655611250 0.75789873970 -0.88554250907 -0.72861934492 0.75781404250 -0.89766974799 -0.72189706862 0.77445734098 -0.78371895076 -0.72985715860 0.77438229532 -0.79584252533 -0.73582798477 0.77430388468 -0.80837724841 -0.73980941584 0.77422269898 -0.82120577441 -0.74180132052 0.77413932812 -0.83421075774 -0.74180356755 0.77405436203 -0.84727485279 -0.73981602563 0.77396839062 -0.86028071397 -0.73583856347 0.77388200380 -0.87311099568 -0.72987104980 0.77379579147 -0.88564835232 -0.72191335333 0.77371034357 -0.89777543828 -0.71407908278 0.79035941464 -0.78382577654 -0.72206778554 0.79028374039 -0.79594941243 -0.72806005212 0.79020466698 -0.80848417909 -0.73205575993 0.79012279197 -0.82131273023 -0.73405478635 0.79003871291 -0.83431771958 -0.73405700881 0.78995302736 -0.84738180086 -0.73206230470 0.78986633287 -0.86038762778 -0.72807055143 0.78977922700 -0.87321785406 -0.72208162640 0.78969230730 -0.88575513343 -0.71409540701 0.78960617132 -0.89788211961 -0.70510966226 0.80626035363 -0.78393349558 -0.71313116866 0.80618411751 -0.79605718648 -0.71914801501 0.80610444998 -0.80859198650 -0.72316008997 0.80602195544 -0.82142055145 -0.72516728223 0.80593723830 -0.83442553714 -0.72516948044 0.80585090299 -0.84748959939 -0.72316657329 0.80576355391 -0.86049539402 -0.71915844945 0.80567579548 -0.87332557682 -0.71314499759 0.80558823212 -0.88586280362 -0.70512610639 0.80550146823 -0.89798973024 -0.69494939033 0.82216016240 -0.78404206677 -0.70300444225 0.82208343129 -0.79616579804 -0.70904642337 0.82200323379 -0.80870061856 -0.71307523539 0.82192018162 -0.82152918722 -0.71509078002 0.82183488649 -0.83453416293 -0.71509295895 0.82174796014 -0.84759820457 -0.71308167391 0.82166001427 -0.86060397104 -0.70905682658 0.82157166061 -0.87343412125 -0.70301831868 0.82148351086 -0.88597131408 -0.69496605191 0.82139617676 -0.89809820845 -0.68355885028 0.83805884541 -0.78415144895 -0.69164474060 0.83798168631 -0.79627519766 -0.69770982715 0.83790101853 -0.80881002318 -0.70175402559 0.83781746277 -0.82163858671 -0.70377725161 0.83773163972 -0.83464354943 -0.70377942088 0.83764417007 -0.84770757254 -0.70176044907 0.83755567452 -0.86071331721 -0.69772025187 0.83746677376 -0.87354344464 -0.69165874496 0.83737808848 -0.88608061601 -0.68357584400 0.83729023938 -0.89820749252 -0.67089862539 0.85395640711 -0.78426160101 -0.67900919801 0.85387888718 -0.79638533588 -0.68509277628 0.85379780433 -0.80892014827 -0.68914928998 0.85371379114 -0.82174869906 -0.69117866887 0.85362748018 -0.83475364916 -0.69118084273 0.85353950401 -0.84781765947 -0.68915574131 0.85345049519 -0.86082339088 -0.68510329439 0.85336108630 -0.87365350429 -0.67902343173 0.85327190990 -0.88619066061 -0.67091608310 0.85318359856 -0.89831752072 -0.65692929894 0.86985285196 -0.78437248181 -0.66505494876 0.86977503848 -0.79649616327 -0.67114982071 0.86969359130 -0.80903094174 -0.67521385798 0.86960915899 -0.82185947343 -0.67724700369 0.86952239010 -0.83486441462 -0.67724920103 0.86943393320 -0.84792842152 -0.67522039314 0.86934443685 -0.86093415041 -0.67116052317 0.86925454962 -0.87376425750 -0.66506953429 0.86916492007 -0.88630139907 -0.65694736965 0.86907619676 -0.89842823133 -0.78699685500 0.72675491733 -0.78656534549 -0.80105898515 0.72669246921 -0.79773921764 -0.81160671193 0.72662444200 -0.80950725851 -0.81863981418 0.72655179252 -0.82170001199 -0.82215807073 0.72647547758 -0.83414802196 -0.82216126041 0.72639645401 -0.84668183230 -0.81864916207 0.72631567863 -0.85913198689 -0.81162155453 0.72623410825 -0.87132902963 -0.80107821662 0.72615269971 -0.88310350439 -0.78701892719 0.72607240981 -0.89428595507 -0.78236869464 0.74265988996 -0.78666936578 -0.79642253271 0.74259674919 -0.79784333567 -0.80696405825 0.74252794367 -0.80961148496 -0.81399303901 0.74245445342 -0.82180433820 -0.81750924272 0.74237725847 -0.83425241996 -0.81751243714 0.74229733885 -0.84678625483 -0.81400238999 0.74221567459 -0.85923636736 -0.80697886902 0.74213324570 -0.87143328213 -0.79644164197 0.74205103222 -0.88320752372 -0.78239047658 0.74197001418 -0.89438961669 -0.77679547927 0.75856381905 -0.78677434332 -0.79086676922 0.75850003460 -0.79794843301 -0.80142138132 0.75843053244 -0.80971669205 -0.80845907994 0.75835630558 -0.82190963343 -0.81197962949 0.75827834703 -0.83435777009 -0.81198279435 0.75819764981 -0.84689161503 -0.80846833891 0.75811520693 -0.85934168119 -0.80143602755 0.75803201141 -0.87153848155 -0.79088562468 0.75794905625 -0.88331252908 -0.77681689468 0.75786733447 -0.89449433675 -0.77021686543 0.77446670177 -0.78688023595 -0.78432524185 0.77440232337 -0.79805445694 -0.79490764965 0.77433219935 -0.80982282257 -0.80196385655 0.77425732773 -0.82201584020 -0.80549363027 0.77417870654 -0.83446401724 -0.80549673852 0.77409733383 -0.84699786105 -0.80197294900 0.77401420762 -0.85944787902 -0.79492202943 0.77393032594 -0.87164457853 -0.78434374752 0.77384668683 -0.88341846696 -0.77023787099 0.77376428832 -0.89460005170 -0.76257250968 0.79036853531 -0.78698700151 -0.77673149772 0.79030361344 -0.79816135479 -0.78735183174 0.79023293542 -0.80992981927 -0.79443328839 0.79015749860 -0.82212290105 -0.79797564430 0.79007830029 -0.83457110627 -0.79797867611 0.78999633785 -0.84710494104 -0.79444216044 0.78991260860 -0.85955491148 -0.78736587394 0.78982810988 -0.87175152371 -0.77674959324 0.78974383901 -0.88352528386 -0.76259309498 0.78966079334 -0.89470669803 -0.75380206855 0.80626931684 -0.78709459784 -0.76801908398 0.80620390272 -0.79826907387 -0.77868289611 0.80613273169 -0.81003762493 -0.78579329503 0.80605679691 -0.82223075850 -0.78935007082 0.80597709157 -0.83467898208 -0.78935301358 0.80589460882 -0.84721280316 -0.78580191340 0.80581034184 -0.85966272922 -0.77869656037 0.80572528379 -0.87185926775 -0.76803674458 0.80564042783 -0.88363292624 -0.75382225612 0.80555676715 -0.89481421219 -0.74384519858 0.82216904356 -0.78720298277 -0.75812154778 0.82210318915 -0.79837756148 -0.76882981126 0.82203157917 -0.81014618232 -0.77596979602 0.82195520141 -0.82233935508 -0.77954130907 0.82187504365 -0.83478758956 -0.77954415741 0.82179209368 -0.84732139555 -0.77597814806 0.82170733929 -0.85977128286 -0.76884308801 0.82162176824 -0.87196776128 -0.75813878429 0.82153636834 -0.88374134061 -0.74386504389 0.82145212737 -0.89492253064 -0.73264155631 0.83806771263 -0.78731211414 -0.74697243626 0.83800147065 -0.79848676494 -0.75772154570 0.83792946891 -0.81025543421 -0.76488871093 0.83785269082 -0.82244863330 -0.76847375828 0.83777211984 -0.83489687357 -0.76847651406 0.83768873938 -0.84743066637 -0.76489680458 0.83760353290 -0.85988052305 -0.75773445616 0.83751748382 -0.87207695496 -0.74698929513 0.83743157558 -0.88385047345 -0.73266114778 0.83734679161 -0.89503158987 -0.72013079830 0.85396532125 -0.78742194978 -0.73450529657 0.85389874516 -0.79859663155 -0.74528706793 0.85382639192 -0.81036532337 -0.75247595932 0.85374924387 -0.82255853570 -0.75607181769 0.85366828340 -0.83500677902 -0.75607448998 0.85358449287 -0.84754056377 -0.75248382314 0.85349885464 -0.85999040042 -0.74529966411 0.85341235109 -0.87218679942 -0.73452185984 0.85332596459 -0.88396027124 -0.72015025726 0.85324067750 -0.89514132633 -0.70625258108 0.86986186658 -0.78753244754 -0.72065367584 0.86979501061 -0.79870710862 -0.73145534646 0.86972233923 -0.81047579256 -0.73865746075 0.86964483930 -0.82266900481 -0.74225988654 0.86956349763 -0.83511725077 -0.74226249166 0.86947930107 -0.84765103590 -0.73866514392 0.86939323646 -0.86010086560 -0.73146771115 0.86930629063 -0.87229724532 -0.72067006117 0.86921945042 -0.88407068047 -0.70627206181 0.86913370266 -0.89525167649 -0.83090849335 0.72675278231 -0.79130762800 -0.85235781754 0.72670423810 -0.80105696508 -0.86844639705 0.72664699176 -0.81167509295 -0.87917386574 0.72658256817 -0.82291433390 -0.88453985745 0.72651249223 -0.83452701020 -0.88454400606 0.72643828881 -0.84626544412 -0.87918594542 0.72636148282 -0.85788195795 -0.86846530938 0.72628359913 -0.86912887395 -0.85238173180 0.72620616265 -0.87975851441 -0.83093484654 0.72613069826 -0.88952320160 -0.82625469172 0.74265732689 -0.79141189036 -0.84769142096 0.74260822326 -0.80116137464 -0.86377054214 0.74255029633 -0.81177965025 -0.87449168925 0.74248510604 -0.82301901985 -0.87985449628 0.74241421236 -0.83463178612 -0.87985859720 0.74233917524 -0.84637025175 -0.87450362601 0.74226155463 -0.85798671939 -0.86378921670 0.74218291050 -0.86923349172 -0.84771500325 0.74210480278 -0.87986287142 -0.82628061964 0.74202879145 -0.88962716115 -0.82073619572 0.75856087846 -0.79151709929 -0.84219956123 0.75851126999 -0.80126678335 -0.85829863056 0.75845275551 -0.81188523120 -0.86903304337 0.75838691697 -0.82312473344 -0.87440243936 0.75831533631 -0.83473758067 -0.87440645819 0.75823959547 -0.84647606351 -0.86904473954 0.75816127641 -0.85809247256 -0.85831692310 0.75808196107 -0.86933909843 -0.84222264854 0.75800323140 -0.87996823173 -0.82076155553 0.75792666934 -0.88973216307 -0.81427358396 0.77446343291 -0.79162320332 -0.83579350345 0.77441336946 -0.80137312319 -0.85193494496 0.77435434951 -0.81199175864 -0.86269755872 0.77428796598 -0.82323139411 -0.86808099495 0.77421581178 -0.83484431402 -0.86808490388 0.77413947982 -0.84658280279 -0.86270893572 0.77406056302 -0.85819914484 -0.85195274070 0.77398065429 -0.86944562460 -0.83581596905 0.77390134655 -0.88007452650 -0.81429827098 0.77382423272 -0.88983813495 -0.80678743505 0.79036498609 -0.79173015102 -0.82838451270 0.79031451280 -0.80148032612 -0.84458376803 0.79025505850 -0.81209915541 -0.85538486593 0.79018821809 -0.82333892133 -0.86078747133 0.79011558650 -0.83495190637 -0.86079124914 0.79003875862 -0.84669039297 -0.85539586427 0.78995932935 -0.85830666361 -0.84460098164 0.78987889362 -0.86955300075 -0.82840626617 0.78979904632 -0.88018168685 -0.80681138276 0.78972138237 -0.88994500437 -0.79819832758 0.80626553390 -0.79183789095 -0.81988385409 0.80621469117 -0.80158832414 -0.83614938242 0.80615486266 -0.81220734432 -0.84699459562 0.80608763834 -0.82344723455 -0.85241917673 0.80601460819 -0.83506027790 -0.85242280881 0.80593736218 -0.84679875745 -0.84700517490 0.80585749030 -0.85841495626 -0.83616595804 0.80577658250 -0.86966115740 -0.81990484128 0.80569622877 -0.88028964393 -0.79822150766 0.80561801908 -0.89005269893 -0.78842684018 0.82216507220 -0.79194637167 -0.81020279269 0.82211389571 -0.80169704921 -0.82653607080 0.82205374217 -0.81231624820 -0.83742637841 0.82198619173 -0.82355625321 -0.84287341944 0.82191282457 -0.83516934881 -0.84287689778 0.82183522085 -0.84690781960 -0.83743651734 0.82175496073 -0.85852395015 -0.82655198204 0.82167362438 -0.86977002505 -0.81022299578 0.82159279196 -0.88039832888 -0.78844926247 0.82151404364 -0.89016114621 -0.77739355144 0.83806359687 -0.79205554172 -0.79925259361 0.83801211758 -0.80180643332 -0.81564811585 0.83795167722 -0.81242578989 -0.82657984494 0.83788384330 -0.82366589676 -0.83204750769 0.83781018336 -0.83527903928 -0.83205083088 0.83773226493 -0.84701750281 -0.82658954130 0.83765165554 -0.85863357267 -0.81566336576 0.83756992270 -0.86987953423 -0.79927203105 0.83748863396 -0.88050767283 -0.77741526395 0.83740935683 -0.89027027381 -0.76501903997 0.85396110379 -0.79216534967 -0.78694452194 0.85390934793 -0.80191640845 -0.80338980023 0.85384864799 -0.81253589221 -0.81435462584 0.85378055807 -0.82377608466 -0.81983874975 0.85370663229 -0.83538926951 -0.81984192298 0.85362842476 -0.84712773045 -0.81436389651 0.85354748960 -0.85874375120 -0.80340442134 0.85346538092 -0.86998961546 -0.78696324847 0.85338365282 -0.88061760693 -0.76504012889 0.85330385943 -0.89038000931 -0.75122388438 0.86985758883 -0.79227574408 -0.77318984277 0.86980557791 -0.80202690656 -0.78966540661 0.86974463466 -0.81264647799 -0.80065035172 0.86967630106 -0.82388673636 -0.80614445389 0.86960211907 -0.83549995967 -0.80614748894 0.86952363067 -0.84723842593 -0.80065923268 0.86944237781 -0.85885441312 -0.78967946090 0.86935990247 -0.87010019925 -0.77320794943 0.86927774662 -0.88072806231 -0.75124447407 0.86919745223 -0.89049028031 -0.86887201937 0.72673670157 -0.79763105415 -0.89947106360 0.72670585931 -0.80548076864 -0.92242252926 0.72666245426 -0.81456549656 -0.93772582412 0.72660871305 -0.82453326535 -0.94538035594 0.72654686227 -0.83503210247 -0.94538553248 0.72647912856 -0.84571003537 -0.93774076151 0.72640773851 -0.85621509152 -0.92244545077 0.72633491876 -0.86619529835 -0.89949900805 0.72626289591 -0.87529868334 -0.86890084109 0.72619389657 -0.88317327392 -0.86419588757 0.74264100840 -0.79773560662 -0.89477711635 0.74260972122 -0.80558544421 -0.91771511159 0.74256570061 -0.81467030979 -0.93300932140 0.74251122493 -0.82463820915 -0.94065919387 0.74244857253 -0.83513714805 -0.94066417712 0.74238002177 -0.84581513227 -0.93302371924 0.74230785102 -0.85632016758 -0.91773726836 0.74223433862 -0.86630025976 -0.89480427256 0.74216176295 -0.87540341458 -0.86422417995 0.74209240236 -0.88327763782 -0.85872453539 0.75854430907 -0.79784116244 -0.88934385890 0.75851267392 -0.80569124662 -0.91231032150 0.75846815649 -0.81477632588 -0.92762340769 0.75841307712 -0.82474439234 -0.93528260196 0.75834975616 -0.83524343813 -0.93528738881 0.75828051395 -0.84592145536 -0.92763725273 0.75820767085 -0.85642643614 -0.91233167824 0.75813354718 -0.86640637259 -0.88937014982 0.75806046331 -0.87550925683 -0.85875215197 0.75799073957 -0.88338308097 -0.85236205249 0.77444660331 -0.79794765189 -0.88306210213 0.77441469773 -0.80579807858 -0.90608901041 0.77436978538 -0.81488343045 -0.92144229477 0.77431421861 -0.82485169222 -0.92912147267 0.77425034976 -0.83535084861 -0.92912606156 0.77418053117 -0.84602888434 -0.92145557889 0.77410711517 -0.85653378413 -0.90610954212 0.77403245410 -0.86651353271 -0.88308746869 0.77395890030 -0.87561611479 -0.85238887606 0.77388880611 -0.88348951508 -0.84501252851 0.79034789087 -0.79805500523 -0.87582265691 0.79031577298 -0.80590584281 -0.89893202971 0.79027055080 -0.81499150915 -0.91434019440 0.79021459841 -0.82495998605 -0.92204669847 0.79015028994 -0.83545925536 -0.92205108938 0.79007999948 -0.84613729890 -0.91435291463 0.79000610114 -0.85664209849 -0.89895172169 0.78993096901 -0.86662163597 -0.87584705804 0.78985697722 -0.87572389316 -0.84503847117 0.78978649985 -0.88359685189 -0.83658005313 0.80624817150 -0.79816315271 -0.86751633410 0.80621588003 -0.80601444203 -0.89072023081 0.80617041623 -0.81510044762 -0.90619131835 0.80611416551 -0.82506915114 -0.91392917181 0.80604951328 -0.83556853428 -0.91393336628 0.80597884495 -0.84624657873 -0.90620347687 0.80590454591 -0.85675126615 -0.89073907866 0.80582900159 -0.86673057824 -0.86753974675 0.80575459737 -0.87583249667 -0.83660505622 0.80568371868 -0.88370500311 -0.82696871598 0.82214744492 -0.79827202462 -0.85803394460 0.82211499918 -0.80612377896 -0.88133446513 0.82206934517 -0.81521013150 -0.89686987838 0.82201286891 -0.82517906476 -0.90463978516 0.82194795639 -0.83567856126 -0.90464378627 0.82187699364 -0.84635660352 -0.89688148252 0.82180236666 -0.85686117405 -0.88135247471 0.82172646147 -0.86684025538 -0.85805636366 0.82165166407 -0.87594183001 -0.82699275016 0.82158036048 -0.88381388048 -0.81608260673 0.83804571089 -0.79838155120 -0.84726629926 0.83801311079 -0.80623375629 -0.87065558406 0.83796730113 -0.81532044644 -0.88625008626 0.83791065759 -0.82528960421 -0.89404943098 0.83784555586 -0.83578921219 -0.89405324335 0.83777437162 -0.84646725297 -0.88626114850 0.83769948054 -0.85697170912 -0.87067277155 0.83762325832 -0.86695056324 -0.84728773765 0.83754808062 -0.87605179791 -0.81610567190 0.83747632314 -0.88392339570 -0.80382581504 0.85394296915 -0.79849166273 -0.83510420898 0.85391019518 -0.80634427677 -0.85856443902 0.85386424760 -0.81543127807 -0.87420615375 0.85380748057 -0.82540064676 -0.88202900173 0.85374224829 -0.83590036295 -0.88203263152 0.85367090494 -0.84657840676 -0.87421669172 0.85359580471 -0.85708275830 -0.85858083088 0.85351930178 -0.86706139770 -0.83512469758 0.85344375033 -0.87616230506 -0.80384794039 0.85337150454 -0.88403346051 -0.79010243055 0.86983921943 -0.79860228947 -0.82143848461 0.86980623270 -0.80645524308 -0.84494188142 0.86976014807 -0.81554251204 -0.86061229262 0.86970328684 -0.82551206971 -0.86844938987 0.86963797028 -0.83601188943 -0.86845284481 0.86956651968 -0.84668994458 -0.86062232910 0.86949125633 -0.85719420852 -0.84495751438 0.86941450151 -0.86717265460 -0.82145807231 0.86933857649 -0.87627325619 -0.79012367455 0.86926580258 -0.88414398664 </DataArray>
</Points>
</Piece>
</StructuredGrid>
</VTKFile>
