<?xml version="1.0"?>
<VTKFile type="StructuredGrid" version="0.1">
<StructuredGrid WholeExtent="0 9 0 9 0 9">
<Piece Extent="0 9 0 9 0 9">
<PointData>
<DataArray type="Float32" Name="Deformation" format="ascii" NumberOfComponents="3">
0.00009125984 -0.34009533034 -0.01783584275 0.00019132040 -0.34449814515 -0.01716806468 0.00031914741 -0.34964237914 -0.01626404543 0.00046703061 -0.35550046562 -0.01502911014 0.00062725972 -0.36204483790 -0.01336858395 0.00079212449 -0.36924792930 -0.01118779201 0.00095391466 -0.37708217313 -0.00839205945 0.00110491996 -0.38552000270 -0.00488671142 0.00123743012 -0.39453385133 -0.00057707306 0.00134373488 -0.40409615233 0.00463153050 0.00010997231 -0.33254327513 -0.01458258910 0.00023256379 -0.33631052182 -0.01290569155 0.00035839662 -0.34088019769 -0.01136517647 0.00048547509 -0.34614345491 -0.00982378978 0.00061180353 -0.35199144561 -0.00814427739 0.00073538622 -0.35831532194 -0.00618938522 0.00085422749 -0.36500623605 -0.00382185918 0.00096633164 -0.37195534010 -0.00090444518 0.00106970297 -0.37905378622 0.00270011087 0.00116234580 -0.38619272657 0.00712906304 0.00013486105 -0.32379335661 -0.01138460372 0.00027586066 -0.32685520577 -0.00891474674 0.00040245846 -0.33058593508 -0.00680492689 0.00051669215 -0.33486829250 -0.00490241847 0.00062059940 -0.33958502604 -0.00305449574 0.00071621789 -0.34461888365 -0.00110843301 0.00080558531 -0.34985261332 0.00108849545 0.00089073933 -0.35516896303 0.00368901535 0.00097371764 -0.36045068075 0.00684585241 0.00105655792 -0.36558051446 0.01071173235 0.00016463363 -0.31417189156 -0.00832322381 0.00031985704 -0.31646329587 -0.00526704847 0.00044941743 -0.31915988137 -0.00267012980 0.00055788863 -0.32218733200 -0.00038344253 0.00064984444 -0.32547133168 0.00174203856 0.00072985868 -0.32893756437 0.00385533871 0.00080250518 -0.33251171398 0.00610548316 0.00087235774 -0.33611946445 0.00864149716 0.00094399019 -0.33968649972 0.01161240594 0.00102197634 -0.34313850373 0.01516723474 0.00019799759 -0.30400519673 -0.00547978659 0.00036319898 -0.30546589097 -0.00203441500 0.00049735802 -0.30700232667 0.00095238170 0.00060627138 -0.30861292698 0.00361469167 0.00069573575 -0.31029611506 0.00608660306 0.00077154779 -0.31205031404 0.00850220402 0.00083950418 -0.31387394709 0.01099558270 0.00090540160 -0.31576543734 0.01370082724 0.00097503670 -0.31772320795 0.01675202580 0.00105420618 -0.31974568207 0.02028326654 0.00023366050 -0.29361958890 -0.00293562927 0.00040453252 -0.29419408992 0.00071133545 0.00054436471 -0.29451356106 0.00397577450 0.00065904728 -0.29465743105 0.00697353782 0.00075447045 -0.29470512865 0.00982047534 0.00083652442 -0.29473608262 0.01263243702 0.00091109940 -0.29482972171 0.01552527279 0.00098408561 -0.29506547467 0.01861483259 0.00106137325 -0.29552277025 0.02201696637 0.00114885254 -0.29628103721 0.02584752408 0.00027032989 -0.28334138484 -0.00077208906 0.00044250369 -0.28297899159 0.00289838465 0.00058852199 -0.28209387462 0.00631321549 0.00071342317 -0.28083319779 0.00957464955 0.00082224563 -0.27934412497 0.01278493294 0.00092002775 -0.27777382006 0.01604631178 0.00101180791 -0.27626944691 0.01946103216 0.00110262451 -0.27497816941 0.02313134020 0.00119751591 -0.27404715143 0.02715948201 0.00130152052 -0.27362355684 0.03164770369 0.00030671334 -0.27349690131 0.00092949681 0.00047575854 -0.27215169483 0.00445491436 0.00062791435 -0.27014355744 0.00787787156 0.00076660592 -0.26765258079 0.01129958053 0.00089525841 -0.26485885652 0.01482125343 0.00101729698 -0.26194247629 0.01854410240 0.00113614679 -0.25908353174 0.02256933956 0.00125523300 -0.25646211452 0.02699817707 0.00137798076 -0.25425831629 0.03193182707 0.00150781524 -0.25265222869 0.03747150169 0.00034151839 -0.26441245509 0.00208779115 0.00050294311 -0.26204329850 0.00530910635 0.00066062628 -0.25906289962 0.00858290960 0.00081580237 -0.25562793365 0.01202988443 0.00096970589 -0.25189507579 0.01577071437 0.00112357131 -0.24802100126 0.01992608296 0.00127863312 -0.24416238526 0.02461667372 0.00143612582 -0.24047590299 0.02996317019 0.00159728388 -0.23711822965 0.03608625591 0.00176334179 -0.23424604046 0.04310661441 0.00037345260 -0.25641436295 0.00262145673 0.00052270344 -0.25298490146 0.00538914238 0.00068474226 -0.24925219123 0.00834149651 0.00085821939 -0.24527160996 0.01164711489 0.00104178517 -0.24109853530 0.01547459331 0.00123408992 -0.23678834493 0.01999252754 0.00143378397 -0.23239641653 0.02536951337 0.00163951767 -0.22797812776 0.03177414656 0.00184994133 -0.22358885632 0.03937502291 0.00206370529 -0.21928397986 0.04834073818 -0.00003792423 -0.34217272046 -0.02198123486 0.00005173762 -0.34834687549 -0.02210560237 0.00018566698 -0.35459431378 -0.02181857050 0.00035149693 -0.36100934693 -0.02110996691 0.00053686055 -0.36768628653 -0.01996961929 0.00072939093 -0.37471944419 -0.01838735530 0.00091672114 -0.38220313149 -0.01635300261 0.00108648427 -0.39023166004 -0.01385638891 0.00122631340 -0.39889934143 -0.01088734185 0.00132384162 -0.40830048727 -0.00743568913 -0.00004707597 -0.33354057762 -0.01886830565 0.00005265817 -0.33852250945 -0.01808886443 0.00016924077 -0.34374941357 -0.01722783968 0.00029703013 -0.34922235675 -0.01623381508 0.00043038456 -0.35494240578 -0.01505537432 0.00056366236 -0.36091062742 -0.01364110106 0.00069122182 -0.36712808845 -0.01193957898 0.00080742125 -0.37359585565 -0.00989939175 0.00090661895 -0.38031499579 -0.00746912306 0.00098317321 -0.38728657566 -0.00459735657 -0.00004333107 -0.32396471536 -0.01577292073 0.00006502796 -0.32775928646 -0.01424565635 0.00017059290 -0.33181754128 -0.01286134930 0.00027238316 -0.33610648392 -0.01154414357 0.00036941816 -0.34059311848 -0.01021818316 0.00046071730 -0.34524444907 -0.00880761207 0.00054530001 -0.35002747977 -0.00723657429 0.00062218569 -0.35490921470 -0.00542921382 0.00069039376 -0.35985665794 -0.00330967467 0.00074894364 -0.36483681361 -0.00080210081 -0.00002776536 -0.31370820751 -0.01275819163 0.00008792724 -0.31630969177 -0.01063560181 0.00018847978 -0.31909056116 -0.00878703729 0.00027569614 -0.32202538144 -0.00712560836 0.00035138021 -0.32508871834 -0.00556442532 0.00041733589 -0.32825513760 -0.00401659845 0.00047536706 -0.33149920498 -0.00239523805 0.00052727761 -0.33479548621 -0.00061345442 0.00057487144 -0.33811854703 0.00141564215 0.00061995244 -0.34144295320 0.00377894138 -0.00000145465 -0.30303412788 -0.00988722986 0.00012043626 -0.30442621063 -0.00731832445 0.00022165781 -0.30586033748 -0.00507284158 0.00030510919 -0.30734270232 -0.00306286546 0.00037368960 -0.30887949903 -0.00120048031 0.00043029824 -0.31047692149 0.00060222966 0.00047783432 -0.31214116359 0.00243318021 0.00051919703 -0.31387841921 0.00438028714 0.00055728557 -0.31569488223 0.00653146623 0.00059499915 -0.31759674654 0.00897463325 0.00003452520 -0.29220555027 -0.00722314693 0.00016163525 -0.29236132828 -0.00435344794 0.00026888339 -0.29241873449 -0.00178670011 0.00035876243 -0.29242209958 0.00055942913 0.00043376520 -0.29241575425 0.00276727235 0.00049638450 -0.29244402920 0.00491916212 0.00054911314 -0.29255125512 0.00709743100 0.00059444395 -0.29278176272 0.00938441157 0.00063486974 -0.29317988269 0.01186243639 0.00067288332 -0.29378994572 0.01461383803 0.00007909839 -0.28148554849 -0.00482905436 0.00021060445 -0.28036752998 -0.00180059593 0.00032891292 -0.27905761644 0.00100344920 0.00043479600 -0.27762722622 0.00365661941 0.00052902588 -0.27614777768 0.00623245314 0.00061237478 -0.27469068919 0.00880448880 0.00068561488 -0.27332737910 0.01144626479 0.00074951840 -0.27212926577 0.01423131954 0.00080485753 -0.27116776757 0.01723319146 0.00085240447 -0.27051430285 0.02052541896 0.00013118908 -0.27113719637 -0.00276806368 0.00026642412 -0.26869730098 0.00028060794 0.00040050281 -0.26606884759 0.00322966841 0.00053135001 -0.26332173525 0.00614404939 0.00065689053 -0.26052586302 0.00908868256 0.00077504922 -0.25775112993 0.01212849956 0.00088375089 -0.25506743504 0.01532843208 0.00098092038 -0.25254467739 0.01875341176 0.00106448253 -0.25025275603 0.02246837028 0.00113236216 -0.24826157000 0.02653823929 0.00018972144 -0.26142356771 -0.00110328639 0.00032817447 -0.25760312651 0.00183053999 0.00048240947 -0.25374429220 0.00482401959 0.00064656459 -0.24986927970 0.00793706307 0.00081477802 -0.24600030395 0.01122958108 0.00098118794 -0.24215957989 0.01476148429 0.00113993251 -0.23836932247 0.01859268335 0.00128514992 -0.23465174660 0.02278308892 0.00141097833 -0.23102906723 0.02739261167 0.00151155592 -0.22752349929 0.03248116225 0.00025361965 -0.25260773633 0.00010216598 0.00039493577 -0.24733749184 0.00278957658 0.00057338928 -0.24237581451 0.00571856482 0.00077857986 -0.23763351255 0.00895100444 0.00100010723 -0.23302139416 0.01254876919 0.00122757108 -0.22845026754 0.01657373283 0.00145057110 -0.22383094089 0.02108776909 0.00165870701 -0.21907422242 0.02615275172 0.00184157851 -0.21409092033 0.03183055447 0.00198878528 -0.20879184281 0.03818305108 -0.00019619554 -0.34336611469 -0.02644654097 -0.00011592100 -0.35082696524 -0.02727045631 0.00001209774 -0.35784663460 -0.02759868004 0.00017439032 -0.36461741990 -0.02747773906 0.00035748640 -0.37133161826 -0.02695416027 0.00054791563 -0.37818152683 -0.02607447056 0.00073220767 -0.38535944272 -0.02488519684 0.00089689216 -0.39305766307 -0.02343286599 0.00102849877 -0.40146848501 -0.02176400492 0.00111355715 -0.41078420566 -0.01992514052 -0.00022516170 -0.33392107386 -0.02343984156 -0.00014670872 -0.33977468226 -0.02346256469 -0.00004604424 -0.34543903692 -0.02326871236 0.00007009258 -0.35100510241 -0.02286555990 0.00019496260 -0.35656384329 -0.02226038262 0.00032182667 -0.36220622413 -0.02146045585 0.00044394564 -0.36802320950 -0.02047305493 0.00055458035 -0.37410576396 -0.01930545517 0.00064699167 -0.38054485207 -0.01796493190 0.00071444043 -0.38743143841 -0.01645876046 -0.00023673540 -0.32372601904 -0.02041782612 -0.00015887433 -0.32803105701 -0.01974723317 -0.00007705927 -0.33228116648 -0.01906750126 0.00000661461 -0.33651332688 -0.01835692035 0.00009005211 -0.34076451761 -0.01759378038 0.00017115806 -0.34507171808 -0.01675637133 0.00024783727 -0.34947190769 -0.01582298313 0.00031799456 -0.35400206585 -0.01477190574 0.00037953474 -0.35869917198 -0.01358142913 0.00043036264 -0.36360020548 -0.01222984324 -0.00023177463 -0.31299600274 -0.01743093822 -0.00015298260 -0.31579021290 -0.01617400642 -0.00008163026 -0.31858373336 -0.01504793706 -0.00001709170 -0.32139287528 -0.01401145744 0.00004125901 -0.32423394982 -0.01302329488 0.00009404777 -0.32712326815 -0.01204217668 0.00014190052 -0.33007714142 -0.01102683015 0.00018544316 -0.33311188078 -0.00993598260 0.00022530162 -0.33624379741 -0.00872836135 0.00026210182 -0.33948920246 -0.00736269369 -0.00021113737 -0.30194607750 -0.01452962141 -0.00012959828 -0.30324627336 -0.01279242912 -0.00006044014 -0.30455744760 -0.01126291008 -0.00000207443 -0.30589452955 -0.00988880820 0.00004708737 -0.30727244853 -0.00861786740 0.00008863379 -0.30870613384 -0.00739783160 0.00012415334 -0.31021051482 -0.00617644470 0.00015523455 -0.31180052078 -0.00490145063 0.00018346593 -0.31349108104 -0.00352059331 0.00021043602 -0.31529712492 -0.00198161663 -0.00017568162 -0.29079129581 -0.01176431927 -0.00008928614 -0.29059336179 -0.00965204595 -0.00001417182 -0.29041301928 -0.00776531064 0.00005061833 -0.29026907166 -0.00604860965 0.00010604129 -0.29018032232 -0.00444643926 0.00015305408 -0.29016557465 -0.00290329578 0.00019261368 -0.29024363203 -0.00136367550 0.00022567708 -0.29043329787 0.00022792527 0.00025320130 -0.29075337554 0.00192701025 0.00027614331 -0.29122266843 0.00378908313 -0.00012626537 -0.27974671021 -0.00918547535 -0.00003261093 -0.27802560163 -0.00680240159 0.00005649178 -0.27636115846 -0.00460802908 0.00013993848 -0.27476728356 -0.00255049881 0.00021662486 -0.27325787980 -0.00057795176 0.00028544663 -0.27184685005 0.00136147109 0.00034529949 -0.27054809719 0.00331962875 0.00039507916 -0.26937552407 0.00534838024 0.00043368134 -0.26834303359 0.00749958457 0.00046000172 -0.26746452859 0.00982510077 -0.00006374662 -0.26902737321 -0.00684353322 0.00003986257 -0.26573711629 -0.00429304071 0.00015086774 -0.26261257520 -0.00184395571 0.00026483793 -0.25963994720 0.00054588730 0.00037734215 -0.25680542956 0.00291865380 0.00048394941 -0.25409521954 0.00531650931 0.00058022874 -0.25149551441 0.00778161933 0.00066174916 -0.24899251143 0.01035614936 0.00072407968 -0.24657240785 0.01308226491 0.00076278932 -0.24422140096 0.01600213149 0.00001101666 -0.25884833732 -0.00478893645 0.00012756960 -0.25392202918 -0.00217350800 0.00026827315 -0.24937797956 0.00047401915 0.00042426859 -0.24513784455 0.00318091164 0.00058669725 -0.24112328021 0.00597443611 0.00074670041 -0.23725594262 0.00888185919 0.00089541938 -0.23345748784 0.01193044753 0.00102399546 -0.22964957195 0.01514746776 0.00112356995 -0.22575385102 0.01856018653 0.00118528416 -0.22169198112 0.02219587046 0.00009716646 -0.24942465508 -0.00307212859 0.00022994541 -0.24277446372 -0.00049334814 0.00040802508 -0.23686808162 0.00229300516 0.00061718238 -0.23151175756 0.00529493720 0.00084319424 -0.22651174034 0.00852045386 0.00107183759 -0.22167427876 0.01197756104 0.00128888935 -0.21680562161 0.01567426464 0.00148012644 -0.21171201767 0.01961857055 0.00163132578 -0.20619971575 0.02381848466 0.00172826429 -0.20007496464 0.02828201287 -0.00037585140 -0.34371417189 -0.03108619751 -0.00030522908 -0.35198207492 -0.03251169063 -0.00019282678 -0.35944619250 -0.03343089180 -0.00005064075 -0.36637248295 -0.03392436099 0.00010933279 -0.37302690459 -0.03407265816 0.00027509757 -0.37967541574 -0.03395634328 0.00043465737 -0.38658397471 -0.03365597630 0.00057601594 -0.39401853982 -0.03325211720 0.00068717703 -0.40224506940 -0.03282532594 0.00075614441 -0.41152952176 -0.03245616248 -0.00041821859 -0.33371756162 -0.02818021761 -0.00036023652 -0.34009778461 -0.02891285013 -0.00028074463 -0.34597889492 -0.02936120588 -0.00018574692 -0.35152052410 -0.02956922745 -0.00008124740 -0.35688230375 -0.02958085745 0.00002674995 -0.36222386542 -0.02944003847 0.00013224111 -0.36770484070 -0.02919071312 0.00022922211 -0.37348486115 -0.02887682399 0.00031168893 -0.37972355835 -0.02854231369 0.00037363758 -0.38658056386 -0.02823112482 -0.00044045442 -0.32310504498 -0.02522483393 -0.00039136846 -0.32769259346 -0.02533278637 -0.00033524869 -0.33199607160 -0.02533195481 -0.00027395334 -0.33610657242 -0.02523641646 -0.00020934063 -0.34011518898 -0.02506024851 -0.00014326879 -0.34411301432 -0.02481752815 -0.00007759605 -0.34819114149 -0.02452233259 -0.00001418063 -0.35244066352 -0.02418873901 0.00004511925 -0.35695267348 -0.02383082462 0.00009844535 -0.36181826439 -0.02346266661 -0.00044321067 -0.31205908174 -0.02226305953 -0.00039891120 -0.31492187796 -0.02181371811 -0.00035657396 -0.31765343673 -0.02138538662 -0.00031563372 -0.32030300784 -0.02096916999 -0.00027552525 -0.32291984111 -0.02055617314 -0.00023568334 -0.32555318631 -0.02013750098 -0.00019554276 -0.32825229327 -0.01970425845 -0.00015453830 -0.33106641178 -0.01924755045 -0.00011210472 -0.33404479163 -0.01875848192 -0.00006767681 -0.33723668263 -0.01822815777 -0.00042713911 -0.30076213170 -0.01933790750 -0.00038315105 -0.30194101460 -0.01839786412 -0.00034495545 -0.30310670451 -0.01756374931 -0.00031116180 -0.30428221033 -0.01681072998 -0.00028037962 -0.30549054096 -0.01611397310 -0.00025121841 -0.30675470531 -0.01544864560 -0.00022228767 -0.30809771227 -0.01478991442 -0.00019219693 -0.30954257075 -0.01411294649 -0.00015955568 -0.31111228964 -0.01339290877 -0.00012297342 -0.31282987785 -0.01260496818 -0.00039289154 -0.28939665464 -0.01649239090 -0.00034437431 -0.28890537987 -0.01512744319 -0.00030062814 -0.28851158913 -0.01390929089 -0.00026091131 -0.28821655983 -0.01280433841 -0.00022448207 -0.28802156938 -0.01177899019 -0.00019059869 -0.28792789519 -0.01079965065 -0.00015851943 -0.28793681469 -0.00983272422 -0.00012750255 -0.28804960527 -0.00884461531 -0.00009680633 -0.28826754435 -0.00780172835 -0.00006568902 -0.28859190935 -0.00667046777 -0.00034111973 -0.27814511035 -0.01376952282 -0.00028286726 -0.27597035027 -0.01204467408 -0.00022382704 -0.27402380479 -0.01046425937 -0.00016525597 -0.27227843629 -0.00899323723 -0.00010841095 -0.27070720719 -0.00759656619 -0.00005454889 -0.26928307987 -0.00623920479 -0.00000492667 -0.26797901673 -0.00488611157 0.00003919879 -0.26676798018 -0.00350224508 0.00007657061 -0.26562293260 -0.00205256386 0.00010593189 -0.26451683640 -0.00050202643 -0.00027247547 -0.26718995862 -0.01121231632 -0.00019891621 -0.26329130229 -0.00919177558 -0.00011478713 -0.25979906567 -0.00727090278 -0.00002456952 -0.25664021967 -0.00542066839 0.00006725538 -0.25374173521 -0.00361204286 0.00015620629 -0.25103058322 -0.00181599665 0.00023780194 -0.24843373462 -0.00000350021 0.00030756108 -0.24587816031 0.00185447600 0.00036100245 -0.24329083123 0.00378696153 0.00039364476 -0.24059871829 0.00582298592 -0.00018761055 -0.25671365922 -0.00886378448 -0.00009280745 -0.25102361242 -0.00661096644 0.00002625658 -0.24599308597 -0.00437146912 0.00016077432 -0.24147428991 -0.00212987386 0.00030193858 -0.23731943430 0.00012923800 0.00044094213 -0.23338072916 0.00242128511 0.00056897777 -0.22951038455 0.00476168615 0.00067723829 -0.22556061050 0.00716585976 0.00075691646 -0.22138361707 0.00964922462 0.00079920509 -0.21683161430 0.01222719938 -0.00008717675 -0.24689867195 -0.00676694037 0.00003517270 -0.23932265715 -0.00434446544 0.00019906909 -0.23276157989 -0.00180820639 0.00039040182 -0.22695302698 0.00083590441 0.00059506031 -0.22163458526 0.00358193461 0.00079893395 -0.21654384157 0.00642395186 0.00098791217 -0.21141838273 0.00935602378 0.00114788437 -0.20599579559 0.01237221802 0.00126473995 -0.20001366697 0.01546660223 0.00132436833 -0.19320958371 0.01863324404 -0.00056918909 -0.34325555091 -0.03575464088 -0.00050976024 -0.35185586505 -0.03767836946 -0.00042037304 -0.35943983840 -0.03914172353 -0.00030994777 -0.36632233453 -0.04024176711 -0.00018740474 -0.37281821701 -0.04107556423 -0.00006166425 -0.37924234941 -0.04174017891 0.00005835340 -0.38590959532 -0.04233267518 0.00016372792 -0.39313481831 -0.04295011706 0.00024553900 -0.40123288196 -0.04368956858 0.00029486635 -0.41051864983 -0.04464809376 -0.00062018035 -0.33296283866 -0.03297245457 -0.00058262487 -0.33952256089 -0.03432577851 -0.00052814660 -0.34539881474 -0.03537873157 -0.00046089774 -0.35079745408 -0.03619502098 -0.00038503049 -0.35592433276 -0.03683835397 -0.00030469704 -0.36098530463 -0.03737243777 -0.00022404959 -0.36618622354 -0.03786097963 -0.00014724034 -0.37173294336 -0.03836768678 -0.00007842149 -0.37783131792 -0.03895626644 -0.00002174522 -0.38468720110 -0.03969042587 -0.00064959062 -0.32212957051 -0.03009945820 -0.00062797665 -0.32676597189 -0.03091562511 -0.00059872600 -0.33098151752 -0.03156328198 -0.00056266049 -0.33490397155 -0.03207829956 -0.00052060196 -0.33866109814 -0.03249654862 -0.00047337222 -0.34238066144 -0.03285389991 -0.00042179310 -0.34619042559 -0.03318622419 -0.00036668644 -0.35021815474 -0.03352939223 -0.00030887406 -0.35459161305 -0.03391927479 -0.00024917779 -0.35943856466 -0.03439174262 -0.00065788996 -0.31092124899 -0.02717615155 -0.00064589729 -0.31372170566 -0.02748619268 -0.00063201260 -0.31631371005 -0.02773194348 -0.00061508876 -0.31876897345 -0.02792692621 -0.00059397865 -0.32115920714 -0.02808466309 -0.00056753514 -0.32355612240 -0.02821867637 -0.00053461112 -0.32603143052 -0.02834248827 -0.00049405946 -0.32865684278 -0.02846962104 -0.00044473304 -0.33150407046 -0.02861359691 -0.00038548473 -0.33464482485 -0.02878793812 -0.00064554844 -0.29950337660 -0.02424303438 -0.00063646848 -0.30052536981 -0.02407576460 -0.00062790775 -0.30152115568 -0.02392128480 -0.00061803526 -0.30251954630 -0.02377622427 -0.00060502006 -0.30354935375 -0.02363721231 -0.00058703117 -0.30463939009 -0.02350087821 -0.00056223762 -0.30581846741 -0.02336385129 -0.00052880846 -0.30711539779 -0.02322276083 -0.00048491271 -0.30855899329 -0.02307423613 -0.00042871940 -0.31017806601 -0.02291490649 -0.00061303610 -0.28804145587 -0.02134060647 -0.00059977192 -0.28731257193 -0.02072262430 -0.00058631281 -0.28672961773 -0.02016787464 -0.00057135274 -0.28628277662 -0.01966151707 -0.00055358569 -0.28596223194 -0.01918871116 -0.00053170565 -0.28575816706 -0.01873461650 -0.00050440660 -0.28566076531 -0.01828439265 -0.00047038252 -0.28566021007 -0.01782319920 -0.00042832738 -0.28574668467 -0.01733619573 -0.00037693517 -0.28591037248 -0.01680854182 -0.00056082301 -0.27670098929 -0.01850936757 -0.00053588929 -0.27421891963 -0.01746505519 -0.00050712913 -0.27206485952 -0.01650828175 -0.00047489391 -0.27018575091 -0.01561812797 -0.00043953505 -0.26852853571 -0.01477367457 -0.00040140396 -0.26704015586 -0.01395400227 -0.00036085204 -0.26566755330 -0.01313819177 -0.00031823070 -0.26435766995 -0.01230532378 -0.00027389136 -0.26305744774 -0.01143447903 -0.00022818541 -0.26171382861 -0.01050473822 -0.00048937922 -0.26564747940 -0.01578981747 -0.00044490230 -0.26138002051 -0.01434134066 -0.00039025807 -0.25765264439 -0.01297907482 -0.00032851151 -0.25435555569 -0.01168138031 -0.00026272764 -0.25137895904 -0.01042661745 -0.00019597144 -0.24861305907 -0.00919314658 -0.00013130793 -0.24594806042 -0.00795932805 -0.00007180209 -0.24327416773 -0.00670352218 -0.00002051895 -0.24048158562 -0.00540408932 0.00001947652 -0.23746051874 -0.00403938981 -0.00039917479 -0.25504642869 -0.01322245593 -0.00032689264 -0.24893148216 -0.01138976413 -0.00023560098 -0.24361873566 -0.00961682260 -0.00013205827 -0.23891927749 -0.00788659743 -0.00002302295 -0.23464419592 -0.00618205470 0.00008474654 -0.23060457924 -0.00448616049 0.00018449175 -0.22661151575 -0.00278188091 0.00026945424 -0.22247609372 -0.00105218202 0.00033287555 -0.21800940145 0.00071997009 0.00036799725 -0.21302252722 0.00255160932 -0.00029067979 -0.24506333969 -0.01084778271 -0.00018194200 -0.23700891219 -0.00864860900 -0.00004305923 -0.23008889667 -0.00645809379 0.00011461308 -0.22400400281 -0.00426910267 0.00027971951 -0.21845494033 -0.00207450123 0.00044090464 -0.21314241894 0.00013284494 0.00058681302 -0.20776714834 0.00236007025 0.00070608923 -0.20202983825 0.00461430909 0.00078737784 -0.19563119835 0.00690269590 0.00081932341 -0.18827193838 0.00923236506 -0.00076850592 -0.34202891060 -0.04030630753 -0.00072308811 -0.35049199617 -0.04261955695 -0.00066180749 -0.35787442322 -0.04455769298 -0.00058988227 -0.36451477306 -0.04622189183 -0.00051253066 -0.37075162701 -0.04771332974 -0.00043497087 -0.37692356636 -0.04913318293 -0.00036242111 -0.38336917245 -0.05058262764 -0.00030009959 -0.39042702656 -0.05216284010 -0.00025322451 -0.39843571002 -0.05397499653 -0.00022701410 -0.40773380414 -0.05612027316 -0.00082498068 -0.33168970273 -0.03769957321 -0.00080857342 -0.33807975545 -0.03958740761 -0.00078153638 -0.34372862357 -0.04119470079 -0.00074576924 -0.34886472457 -0.04259314371 -0.00070317172 -0.35371647592 -0.04385442734 -0.00065564351 -0.35851229507 -0.04505024263 -0.00060508432 -0.36348059951 -0.04625228056 -0.00055339384 -0.36884980670 -0.04753223209 -0.00050247179 -0.37484833410 -0.04896178818 -0.00045421786 -0.38170459919 -0.05061263980 -0.00085924648 -0.32082737299 -0.03494721298 -0.00086422115 -0.32527326834 -0.03640905859 -0.00086224185 -0.32925676515 -0.03767005480 -0.00085284669 -0.33292327530 -0.03877823731 -0.00083557376 -0.33641821066 -0.03978164179 -0.00080996118 -0.33988698307 -0.04072830394 -0.00077554704 -0.34347500441 -0.04166625945 -0.00073186945 -0.34732768653 -0.04264354399 -0.00067846652 -0.35159044131 -0.04370819326 -0.00061487635 -0.35640868059 -0.04490824294 -0.00087162901 -0.30960630899 -0.03209181023 -0.00088997958 -0.31220671471 -0.03312288593 -0.00090360744 -0.31457859211 -0.03402016517 -0.00091061565 -0.31680396643 -0.03481290632 -0.00090910725 -0.31896486289 -0.03553036776 -0.00089718531 -0.32114330672 -0.03620180784 -0.00087295288 -0.32342132314 -0.03685648495 -0.00083451301 -0.32588093739 -0.03752365744 -0.00077996878 -0.32860417468 -0.03823258368 -0.00070742322 -0.33167306024 -0.03901252205 -0.00086245391 -0.29819089832 -0.02917594831 -0.00088579699 -0.29901427443 -0.02976726568 -0.00090531667 -0.29981384860 -0.03028144208 -0.00091857715 -0.30062033912 -0.03073288449 -0.00092314264 -0.30146446429 -0.03113599990 -0.00091657733 -0.30237694239 -0.03150519530 -0.00089644542 -0.30338849172 -0.03185487769 -0.00086031112 -0.30452983058 -0.03219945404 -0.00080573862 -0.30583167725 -0.03255333136 -0.00073029212 -0.30732475003 -0.03293091663 -0.00083204687 -0.28674552858 -0.02624221058 -0.00085162164 -0.28583012738 -0.02638057391 -0.00086705304 -0.28508227878 -0.02649029571 -0.00087623223 -0.28448593455 -0.02657390553 -0.00087705038 -0.28402504651 -0.02663393288 -0.00086739867 -0.28368356645 -0.02667290730 -0.00084516827 -0.28344544615 -0.02669335830 -0.00080825036 -0.28329463742 -0.02669781543 -0.00075453610 -0.28321509205 -0.02668880821 -0.00068191668 -0.28319076183 -0.02666886616 -0.00078073353 -0.27543458739 -0.02333318042 -0.00078740183 -0.27278845343 -0.02300118665 -0.00078850009 -0.27050362678 -0.02268313624 -0.00078308192 -0.26851429389 -0.02237170316 -0.00077020094 -0.26675464123 -0.02205956135 -0.00074891077 -0.26515885526 -0.02173938479 -0.00071826503 -0.26366112244 -0.02140384743 -0.00067731733 -0.26219562924 -0.02104562323 -0.00062512130 -0.26069656212 -0.02065738615 -0.00056073055 -0.25909810755 -0.02023181014 -0.00070883957 -0.26442246234 -0.02049144118 -0.00069308582 -0.26002343246 -0.01966747996 -0.00066934133 -0.25619763677 -0.01889637384 -0.00063862725 -0.25281895831 -0.01816201110 -0.00060196476 -0.24976128010 -0.01744827998 -0.00056037505 -0.24689848519 -0.01673906877 -0.00051487928 -0.24410445659 -0.01601826570 -0.00046649863 -0.24125307735 -0.01526975905 -0.00041625427 -0.23821823049 -0.01447743708 -0.00036516737 -0.23487379905 -0.01362518805 -0.00061669065 -0.25387354103 -0.01775957625 -0.00056862190 -0.24766924432 -0.01641782988 -0.00050926027 -0.24228405289 -0.01516641869 -0.00044236925 -0.23751346897 -0.01398056307 -0.00037171231 -0.23315299480 -0.01283548343 -0.00030105294 -0.22899813260 -0.01170640019 -0.00023415462 -0.22484438462 -0.01056853375 -0.00017478084 -0.22048725307 -0.00939710453 -0.00012669507 -0.21572224020 -0.00816733293 -0.00009366079 -0.21034484824 -0.00685443937 -0.00050461244 -0.24395221106 -0.01518016897 -0.00041395834 -0.23586006890 -0.01329061248 -0.00030794045 -0.22888261930 -0.01152968096 -0.00019380896 -0.22271136706 -0.00986309279 -0.00007881404 -0.21703781698 -0.00825656635 0.00002979412 -0.21155347387 -0.00667582003 0.00012476534 -0.20594984252 -0.00508657221 0.00019884944 -0.19991842772 -0.00345454128 0.00024479623 -0.19315073428 -0.00174544561 0.00025535554 -0.18533826699 0.00007499640 -0.00096609919 -0.34007290980 -0.04459563386 -0.00093878631 -0.34793412878 -0.04718431724 -0.00090839661 -0.35479679787 -0.04950531789 -0.00087679576 -0.36099759699 -0.05165666955 -0.00084584944 -0.36687320609 -0.05373640595 -0.00081742330 -0.37276030510 -0.05584256081 -0.00079338302 -0.37899557395 -0.05807316786 -0.00077559427 -0.38591569259 -0.06052626083 -0.00076592270 -0.39385734095 -0.06329987346 -0.00076623399 -0.40315719897 -0.06649203946 -0.00102655328 -0.32993095159 -0.04224459430 -0.00103278183 -0.33580011267 -0.04458379521 -0.00103420017 -0.34099814858 -0.04668252490 -0.00103077078 -0.34575116781 -0.04861379889 -0.00102245613 -0.35028527883 -0.05045063272 -0.00100921867 -0.35482659010 -0.05226604191 -0.00099102089 -0.35960121010 -0.05413304199 -0.00096782524 -0.36483524730 -0.05612464848 -0.00093959419 -0.37075481017 -0.05831387692 -0.00090629022 -0.37758600719 -0.06077374284 -0.00106452449 -0.31922622975 -0.03967361233 -0.00109562420 -0.32323655886 -0.04172639596 -0.00112054689 -0.32684107540 -0.04356084529 -0.00113785174 -0.33018223470 -0.04523189734 -0.00114609793 -0.33340249208 -0.04679448911 -0.00114384463 -0.33664430286 -0.04830355762 -0.00112965100 -0.34005012237 -0.04981403988 -0.00110207622 -0.34376240593 -0.05138087290 -0.00105967947 -0.34792360886 -0.05305899369 -0.00100101990 -0.35267618650 -0.05490333925 -0.00108024428 -0.30813806622 -0.03693163155 -0.00112719679 -0.31039392380 -0.03865525367 -0.00116701977 -0.31246212168 -0.04018260919 -0.00119737322 -0.31442118110 -0.04155529054 -0.00121591714 -0.31634962332 -0.04281489013 -0.00122031152 -0.31832596957 -0.04400300041 -0.00120821636 -0.32042874112 -0.04516121379 -0.00117729165 -0.32273645919 -0.04633112271 -0.00112519740 -0.32532764505 -0.04755431958 -0.00104959359 -0.32828081994 -0.04887239683 -0.00107394410 -0.29684578295 -0.03406759553 -0.00112738298 -0.29742266392 -0.03541350250 -0.00117320183 -0.29799783075 -0.03659014669 -0.00120866980 -0.29859839045 -0.03762830411 -0.00123105605 -0.29925145000 -0.03855875078 -0.00123762972 -0.29998411642 -0.03941226273 -0.00122565998 -0.30082349669 -0.04021961598 -0.00119241598 -0.30179669780 -0.04101158654 -0.00113516686 -0.30293082677 -0.04181895044 -0.00105118180 -0.30425299057 -0.04267248369 -0.00104585539 -0.28552870190 -0.03113044787 -0.00109606614 -0.28447323564 -0.03204427663 -0.00113867608 -0.28358474596 -0.03282578789 -0.00117107606 -0.28284424618 -0.03349526368 -0.00119065695 -0.28223274961 -0.03407298606 -0.00119480960 -0.28173126959 -0.03457923704 -0.00118092488 -0.28132081944 -0.03503429868 -0.00114639364 -0.28098241248 -0.03545845302 -0.00108860675 -0.28069706203 -0.03587198210 -0.00100495506 -0.28044578142 -0.03629516796 -0.00099620963 -0.27436614501 -0.02816913215 -0.00103312965 -0.27169609541 -0.02859071023 -0.00106302552 -0.26935941066 -0.02893186290 -0.00108392657 -0.26728913173 -0.02920049490 -0.00109386212 -0.26541829961 -0.02940451096 -0.00109086151 -0.26367995528 -0.02955181580 -0.00107295406 -0.26200713972 -0.02965031417 -0.00103816909 -0.26033289393 -0.02970791080 -0.00098453593 -0.25859025887 -0.02973251041 -0.00091008391 -0.25671227553 -0.02973201775 -0.00092523826 -0.26353743423 -0.02523259196 -0.00093845687 -0.25924169966 -0.02509593747 -0.00094583317 -0.25545836819 -0.02495070183 -0.00094655591 -0.25206343055 -0.02478832339 -0.00093981387 -0.24893287747 -0.02460024049 -0.00092479582 -0.24594269967 -0.02437789148 -0.00090069053 -0.24296888790 -0.02411271469 -0.00086668676 -0.23988743287 -0.02379614849 -0.00082197329 -0.23657432531 -0.02341963120 -0.00076573887 -0.23290555596 -0.02297460118 -0.00083317273 -0.25322189152 -0.02236977088 -0.00081193119 -0.24726050482 -0.02160309252 -0.00078668203 -0.24201816190 -0.02092463478 -0.00075829866 -0.23729752607 -0.02030307478 -0.00072765449 -0.23290126065 -0.01970708965 -0.00069562290 -0.22863202896 -0.01910535652 -0.00066307731 -0.22429249431 -0.01846655250 -0.00063089111 -0.21968532001 -0.01775935472 -0.00059993770 -0.21461316938 -0.01695244031 -0.00057109048 -0.20887870574 -0.01601448638 -0.00072024450 -0.24359883882 -0.01962961251 -0.00065343596 -0.23590296732 -0.01815530956 -0.00058515512 -0.22917533513 -0.01689599185 -0.00051848940 -0.22312180173 -0.01578907471 -0.00045652626 -0.21744822664 -0.01477197345 -0.00040235311 -0.21186046933 -0.01378210339 -0.00035905740 -0.20606438931 -0.01275687985 -0.00032972657 -0.19976584608 -0.01163371813 -0.00031744805 -0.19267069911 -0.01035003357 -0.00032530927 -0.18448480792 -0.00884324147 -0.00115426620 -0.33742620737 -0.04847705631 -0.00115042845 -0.34422592342 -0.05122171445 -0.00115140685 -0.35025381326 -0.05381111602 -0.00115703976 -0.35581860475 -0.05633803469 -0.00116716554 -0.36122902575 -0.05889524412 -0.00118162257 -0.36679380412 -0.06157551801 -0.00120024920 -0.37282166772 -0.06447163000 -0.00122288381 -0.37962134443 -0.06767635379 -0.00124936474 -0.38750156209 -0.07128246304 -0.00127953038 -0.39677104857 -0.07538273142 -0.00121883187 -0.32771938301 -0.04649053862 -0.00124994973 -0.33271437692 -0.04920099907 -0.00127942420 -0.33723721695 -0.05171561523 -0.00130631173 -0.34148561604 -0.05410718974 -0.00132966877 -0.34565728709 -0.05644852527 -0.00134855176 -0.34994994304 -0.05881242447 -0.00136201715 -0.35456129680 -0.06127169001 -0.00136912139 -0.35968906129 -0.06389912453 -0.00136892091 -0.36553094944 -0.06676753070 -0.00136047217 -0.37228467417 -0.06994971116 -0.00126052714 -0.31735391813 -0.04418417029 -0.00131770802 -0.32067791952 -0.04678094641 -0.00136839175 -0.32375370918 -0.04914422550 -0.00141101548 -0.32669860077 -0.05133494733 -0.00144401636 -0.32962990797 -0.05341405167 -0.00146583153 -0.33266494445 -0.05544247831 -0.00147489813 -0.33592102389 -0.05748116701 -0.00146965332 -0.33951545996 -0.05959105755 -0.00144853423 -0.34356556634 -0.06183308970 -0.00140997801 -0.34818865669 -0.06426820325 -0.00127955227 -0.30654032518 -0.04161721146 -0.00135358763 -0.30830035165 -0.04401475170 -0.00141791086 -0.30997833753 -0.04615183306 -0.00147052032 -0.31163381178 -0.04808225906 -0.00150941440 -0.31332630337 -0.04985983322 -0.00153259147 -0.31511534126 -0.05153835908 -0.00153804990 -0.31706045441 -0.05317164013 -0.00152378806 -0.31922117179 -0.05481347992 -0.00148780434 -0.32165702236 -0.05651768195 -0.00142809710 -0.32442753508 -0.05833804976 -0.00127610754 -0.29548911663 -0.03884892230 -0.00135747288 -0.29576547371 -0.04095561019 -0.00142758287 -0.29608614960 -0.04279332414 -0.00148419556 -0.29646750192 -0.04441007656 -0.00152506898 -0.29692588830 -0.04585387983 -0.00154796119 -0.29747766637 -0.04717274636 -0.00155063021 -0.29813919378 -0.04841468852 -0.00153083410 -0.29892682814 -0.04962771871 -0.00148633090 -0.29985692710 -0.05085984933 -0.00141487865 -0.30094584828 -0.05215909277 -0.00125039324 -0.28441080492 -0.03593856295 -0.00132924808 -0.28325708612 -0.03765671710 -0.00139700914 -0.28225219298 -0.03912358497 -0.00145141049 -0.28137592401 -0.04037935144 -0.00149018619 -0.28060807774 -0.04146420140 -0.00151107029 -0.27992845270 -0.04241831972 -0.00151179684 -0.27931684740 -0.04328189129 -0.00149009991 -0.27875306038 -0.04409510100 -0.00144371356 -0.27821689015 -0.04489813373 -0.00137037184 -0.27768813524 -0.04573117435 -0.00120260964 -0.27351590252 -0.03294539357 -0.00126879753 -0.27095898930 -0.03417126769 -0.00132579102 -0.26865151527 -0.03519750179 -0.00137153444 -0.26653533091 -0.03605103533 -0.00140397211 -0.26455228671 -0.03675880782 -0.00142104837 -0.26264423315 -0.03734775874 -0.00142070755 -0.26075302070 -0.03784482759 -0.00140089397 -0.25882049986 -0.03827695385 -0.00135955197 -0.25678852110 -0.03867107703 -0.00129462587 -0.25459893490 -0.03905413660 -0.00113295700 -0.26301492188 -0.02992867429 -0.00117600555 -0.25905498364 -0.03055245720 -0.00121352985 -0.25545916405 -0.03106996081 -0.00124393669 -0.25212197545 -0.03148607983 -0.00126563283 -0.24893793020 -0.03180570899 -0.00127702504 -0.24580154063 -0.03203374299 -0.00127652009 -0.24260731910 -0.03217507653 -0.00126252475 -0.23924977795 -0.03223460434 -0.00123344578 -0.23562342954 -0.03221722112 -0.00118768995 -0.23162278620 -0.03212782158 -0.00104163562 -0.25311837546 -0.02694766529 -0.00105075644 -0.24772886958 -0.02685348085 -0.00105982699 -0.24285018693 -0.02679584826 -0.00106798657 -0.23831211048 -0.02674543658 -0.00107437445 -0.23394442320 -0.02667291482 -0.00107812991 -0.22957690805 -0.02654895204 -0.00107839224 -0.22503934799 -0.02634421726 -0.00107430072 -0.22016152601 -0.02602937954 -0.00106499464 -0.21477322505 -0.02557510789 -0.00104961326 -0.20870422809 -0.02495207137 -0.00092884577 -0.24403677572 -0.02406162670 -0.00089293452 -0.23716444752 -0.02312753389 -0.00086428379 -0.23099963149 -0.02243005039 -0.00084305337 -0.22528198883 -0.02189005717 -0.00082940304 -0.21975118071 -0.02142843521 -0.00082349257 -0.21414686831 -0.02096606546 -0.00082548176 -0.20820871281 -0.02042382891 -0.00083553037 -0.20167637539 -0.01972260651 -0.00085379820 -0.19428951723 -0.01878327924 -0.00088044502 -0.18578779951 -0.01752672806 -0.00132530425 -0.33412746216 -0.05180501129 -0.00135158816 -0.33941104061 -0.05458081273 -0.00138210467 -0.34429232031 -0.05730160511 -0.00141696577 -0.34902559477 -0.06005792164 -0.00145628344 -0.35386515747 -0.06294029553 -0.00150016969 -0.35906530193 -0.06603925999 -0.00154873651 -0.36488032163 -0.06944534825 -0.00160209589 -0.37156451008 -0.07324909350 -0.00166035983 -0.37937216078 -0.07754102896 -0.00172364033 -0.38855756721 -0.08241168784 -0.00139575015 -0.32508779474 -0.05032042694 -0.00145477677 -0.32885329257 -0.05332507698 -0.00151049467 -0.33247565586 -0.05616738313 -0.00156280145 -0.33609690148 -0.05892351950 -0.00161159469 -0.33985904632 -0.06166966015 -0.00165677199 -0.34390410723 -0.06448197919 -0.00169823094 -0.34837410110 -0.06743665070 -0.00173586913 -0.35341104480 -0.07060984878 -0.00176958416 -0.35915695521 -0.07407774752 -0.00179927360 -0.36575384920 -0.07791652100 -0.00144235690 -0.31523821546 -0.04838440090 -0.00152599485 -0.31761942637 -0.05148601910 -0.00160052708 -0.32001392738 -0.05432876744 -0.00166567773 -0.32249012453 -0.05698305491 -0.00172117094 -0.32511642388 -0.05951929054 -0.00176673084 -0.32796123148 -0.06200788335 -0.00180208158 -0.33109295339 -0.06451924234 -0.00182694730 -0.33457999566 -0.06712377654 -0.00184105214 -0.33849076434 -0.06989189496 -0.00184412024 -0.34289366548 -0.07289400661 -0.00146536946 -0.30483689036 -0.04607014595 -0.00156519083 -0.30594301696 -0.04913283583 -0.00165194198 -0.30714127844 -0.05186039429 -0.00172521578 -0.30845505280 -0.05432199210 -0.00178460511 -0.30990771802 -0.05658680004 -0.00182970283 -0.31152265209 -0.05872398884 -0.00186010181 -0.31332323301 -0.06080272929 -0.00187539493 -0.31533283878 -0.06289219215 -0.00187517506 -0.31757484737 -0.06506154816 -0.00185903506 -0.32007263679 -0.06737996811 -0.00146503282 -0.29414198544 -0.04345087488 -0.00157231311 -0.29405763927 -0.04633472387 -0.00166447942 -0.29409185263 -0.04883689997 -0.00174103675 -0.29424147519 -0.05102579530 -0.00180149013 -0.29450335658 -0.05296980195 -0.00184534455 -0.29487434646 -0.05473731204 -0.00187210502 -0.29535129448 -0.05639671768 -0.00188127657 -0.29593105028 -0.05801641097 -0.00187236418 -0.29661046351 -0.05966478401 -0.00184487289 -0.29738638383 -0.06141022893 -0.00144159196 -0.28341166674 -0.04059980046 -0.00154731011 -0.28219686824 -0.04316087995 -0.00163787946 -0.28109979353 -0.04533292076 -0.00171276180 -0.28009918060 -0.04717992871 -0.00177141892 -0.27917376742 -0.04876590962 -0.00181331258 -0.27830229199 -0.05015486932 -0.00183790460 -0.27746349228 -0.05141081363 -0.00184465673 -0.27663610628 -0.05259774838 -0.00183303079 -0.27579887197 -0.05377967940 -0.00180248853 -0.27493052732 -0.05502061250 -0.00139529187 -0.27290410028 -0.03759013547 -0.00149013025 -0.27059427881 -0.03968050080 -0.00157188219 -0.26839924471 -0.04142309293 -0.00164001209 -0.26627795792 -0.04286985656 -0.00169398440 -0.26418937840 -0.04407273636 -0.00173326354 -0.26209246609 -0.04508367704 -0.00175731392 -0.25994618094 -0.04595462328 -0.00176559998 -0.25770948291 -0.04673751976 -0.00175758614 -0.25534133194 -0.04748431119 -0.00173273682 -0.25280068798 -0.04824694225 -0.00132637753 -0.26287745207 -0.03449509270 -0.00140072195 -0.25948344592 -0.03596278313 -0.00146622764 -0.25622434975 -0.03718205277 -0.00152240878 -0.25302759606 -0.03818104306 -0.00156877951 -0.24982061736 -0.03898789551 -0.00160485399 -0.24653084615 -0.03963075158 -0.00163014638 -0.24308571496 -0.04013775274 -0.00164417084 -0.23941265628 -0.04053704049 -0.00164644151 -0.23543910263 -0.04085675628 -0.00163647256 -0.23109248652 -0.04112504161 -0.00123509392 -0.25358988814 -0.03138788491 -0.00127903361 -0.24909794452 -0.03207692368 -0.00132065590 -0.24480925224 -0.03268443654 -0.00135957302 -0.24059788391 -0.03319895245 -0.00139539717 -0.23633791215 -0.03360900039 -0.00142774055 -0.23190340959 -0.03390310930 -0.00145621537 -0.22716844884 -0.03406980816 -0.00148043385 -0.22200710252 -0.03409762592 -0.00150000818 -0.21629344326 -0.03397509156 -0.00151455058 -0.20990154367 -0.03369073402 -0.00112168603 -0.24529957451 -0.02834172490 -0.00112501365 -0.23967134954 -0.02809211915 -0.00113490703 -0.23438809574 -0.02800488052 -0.00115112598 -0.22923861036 -0.02800904894 -0.00117343030 -0.22401169063 -0.02803366432 -0.00120157979 -0.21849613379 -0.02800776658 -0.00123533427 -0.21248073708 -0.02786039565 -0.00127445354 -0.20575429775 -0.02752059145 -0.00131869741 -0.19810561302 -0.02691739389 -0.00136782568 -0.18932348014 -0.02597984290 -0.00147151063 -0.33021533302 -0.05443393523 -0.00153583907 -0.33353314086 -0.05711067622 -0.00159175655 -0.33695916993 -0.05980330291 -0.00164292531 -0.34066636548 -0.06260826482 -0.00169300760 -0.34482767277 -0.06562201143 -0.00174566568 -0.34961603704 -0.06894099224 -0.00180456180 -0.35520440356 -0.07266165676 -0.00187335821 -0.36176571759 -0.07688045447 -0.00195571715 -0.36947292437 -0.08169383489 -0.00205530089 -0.37849896917 -0.08719824750 -0.00155124183 -0.32206898453 -0.05361728003 -0.00164196261 -0.32424760400 -0.05684208671 -0.00172069781 -0.32674329248 -0.05991123997 -0.00179064930 -0.32961385639 -0.06291299139 -0.00185501894 -0.33291710210 -0.06593559252 -0.00191700858 -0.33671083600 -0.06906729492 -0.00197982009 -0.34105286449 -0.07239635017 -0.00204665533 -0.34600099395 -0.07601100981 -0.00212071614 -0.35161303077 -0.07999952541 -0.00220520439 -0.35794678134 -0.08445014854 -0.00160511626 -0.31290689909 -0.05217981822 -0.00171600694 -0.31408315547 -0.05575492322 -0.00181170353 -0.31564099091 -0.05902304314 -0.00189517832 -0.31757455701 -0.06207188775 -0.00196940356 -0.31987800537 -0.06498916682 -0.00203735153 -0.32254548759 -0.06786259011 -0.00210199450 -0.32557115528 -0.07077986741 -0.00216630475 -0.32894916005 -0.07382870848 -0.00223325454 -0.33267365348 -0.07709682309 -0.00230581616 -0.33673878719 -0.08067192101 -0.00163351234 -0.30305156624 -0.05021203098 -0.00175804509 -0.30333893844 -0.05394096185 -0.00186477441 -0.30396498320 -0.05724085040 -0.00195661843 -0.30489809847 -0.06020266988 -0.00203649534 -0.30610668221 -0.06291739357 -0.00210732329 -0.30755913237 -0.06547599472 -0.00217202044 -0.30922384690 -0.06796944659 -0.00223350496 -0.31106922374 -0.07048872245 -0.00229469501 -0.31306366086 -0.07312479556 -0.00235850875 -0.31517555619 -0.07596863917 -0.00163680848 -0.29282547552 -0.04780439952 -0.00176815008 -0.29231409603 -0.05149197868 -0.00187991109 -0.29202798733 -0.05466679971 -0.00197507572 -0.29193411191 -0.05742305376 -0.00205662817 -0.29199943227 -0.05985493202 -0.00212755264 -0.29219091089 -0.06205662565 -0.00219083333 -0.29247551026 -0.06412232582 -0.00224945444 -0.29282019289 -0.06614622370 -0.00230640017 -0.29319192125 -0.06822251046 -0.00236465473 -0.29355765785 -0.07044537726 -0.00161538312 -0.28255111648 -0.04504740502 -0.00174639491 -0.28130777140 -0.04849974981 -0.00185711427 -0.28014272130 -0.05140302905 -0.00195065626 -0.27903222846 -0.05385075538 -0.00203013593 -0.27795255516 -0.05593644143 -0.00209866835 -0.27687996369 -0.05775359983 -0.00215936857 -0.27579071632 -0.05939574320 -0.00221535166 -0.27466107533 -0.06095638420 -0.00226973267 -0.27346730302 -0.06252903543 -0.00232562667 -0.27218566165 -0.06420720954 -0.00156961468 -0.27255097866 -0.04203152867 -0.00169285261 -0.27061910768 -0.04505605131 -0.00179638462 -0.26862190309 -0.04755167639 -0.00188346611 -0.26654207924 -0.04960349070 -0.00195735250 -0.26436235053 -0.05129658103 -0.00202129920 -0.26206543132 -0.05271603414 -0.00207856160 -0.25963403600 -0.05394693684 -0.00213239511 -0.25705087894 -0.05507437590 -0.00218605516 -0.25429867451 -0.05618343811 -0.00224279713 -0.25136013709 -0.05735921026 -0.00149988157 -0.26314755160 -0.03884725167 -0.00160759618 -0.26054724802 -0.04125265928 -0.00169772280 -0.25777825068 -0.04321487972 -0.00177361136 -0.25481329540 -0.04479897572 -0.00183861177 -0.25162511801 -0.04607001007 -0.00189607395 -0.24818645435 -0.04709304552 -0.00194934782 -0.24447004025 -0.04793314484 -0.00200178328 -0.24044861155 -0.04865537079 -0.00205673026 -0.23609490407 -0.04932478614 -0.00211753867 -0.23138165366 -0.05000645366 -0.00140656223 -0.25466332485 -0.03558505520 -0.00149069864 -0.25139133557 -0.03718134982 -0.00156112950 -0.24792448206 -0.03849477699 -0.00162119808 -0.24419550805 -0.03955492641 -0.00167424762 -0.24013715722 -0.04039138780 -0.00172362139 -0.23568217331 -0.04103375086 -0.00177266264 -0.23076330000 -0.04151160530 -0.00182471463 -0.22531328102 -0.04185454083 -0.00188312062 -0.21926486006 -0.04209214716 -0.00195122386 -0.21255078084 -0.04225401400 -0.00129003508 -0.24742078795 -0.03233542046 -0.00134223301 -0.24345051345 -0.03293389900 -0.00138660539 -0.23937331522 -0.03349350618 -0.00142633233 -0.23503834832 -0.03398905875 -0.00146459393 -0.23029476781 -0.03439537346 -0.00150457028 -0.22499172875 -0.03468726708 -0.00154944150 -0.21897838620 -0.03483955633 -0.00160238766 -0.21210389520 -0.03482705799 -0.00166658889 -0.20421741083 -0.03462458881 -0.00174522526 -0.19516808814 -0.03420696553 </DataArray>
</PointData>
<Points>
<DataArray type="Float32" NumberOfComponents="3">
-1.02116174016 -0.21999533034 2.18384315725 -1.01942403351 -0.22088654982 2.19251405466 -1.01604705423 -0.22187472756 2.20234257597 -1.00999219162 -0.22270539155 2.21338211208 -1.00022083493 -0.22312406973 2.22568605391 -0.98569437345 -0.22287629007 2.23930779235 -0.96537419645 -0.22170758053 2.25430071833 -0.93822169321 -0.21936346909 2.27071822274 -0.90319825301 -0.21558948370 2.28861369649 -0.85926526512 -0.21013115233 2.30804053050 -1.02166776843 -0.20982490476 2.17140352338 -1.01980931575 -0.20854518650 2.17929306739 -1.01671856701 -0.20802253301 2.18841148976 -1.01169477868 -0.20790535203 2.19864744778 -1.00403720724 -0.20784205131 2.20988959873 -0.99304510918 -0.20748103860 2.22202659990 -0.97801774096 -0.20647072165 2.23494710856 -0.95825435906 -0.20445950821 2.24853978200 -0.93305421996 -0.20109580603 2.26269327750 -0.90171658013 -0.19602802287 2.27729625234 -1.02203643525 -0.19911120847 2.15660329615 -1.02008591311 -0.19597456547 2.16350435007 -1.01720757665 -0.19391076056 2.17136802788 -1.01295433529 -0.19254791802 2.18005351086 -1.00687909847 -0.19151416214 2.18941998029 -0.99853477561 -0.19043761722 2.19932661745 -0.98747427615 -0.18894640756 2.20963260361 -0.97325050952 -0.18666865743 2.22019712007 -0.95541638514 -0.18323249114 2.23087934809 -0.93352481245 -0.17826603298 2.24153846897 -1.02226903304 -0.18818055822 2.14001981323 -1.02025517954 -0.18350578558 2.14573217812 -1.01751599866 -0.17993970030 2.15191786401 -1.01377365458 -0.17714544311 2.15850337914 -1.00875031149 -0.17478615473 2.16541523177 -1.00216813355 -0.17252497589 2.17257993013 -0.99374928495 -0.17002504731 2.17992398248 -0.98321592987 -0.16694950972 2.18737389705 -0.97029023249 -0.16296150384 2.19485618209 -0.95469435699 -0.15772417040 2.20229734585 -1.02236685426 -0.17735927080 2.12223041232 -1.02031846901 -0.17146994569 2.12656082693 -1.01764574857 -0.16650964232 2.13076667179 -1.01415552971 -0.16221028089 2.13490013043 -1.00965464920 -0.15830378157 2.13901338635 -1.00394994380 -0.15452206454 2.14315862309 -0.99684825027 -0.15059704997 2.14738802414 -0.98815640540 -0.14626065804 2.15175377304 -0.97768124593 -0.14124480893 2.15630805330 -0.96522960863 -0.13528142281 2.16110304843 -1.02233119136 -0.16697366297 2.10381243109 -1.02027713547 -0.16019814464 2.10657457191 -1.01759874188 -0.15402087671 2.10862012491 -1.01410275382 -0.14825478496 2.11014684255 -1.00959591450 -0.14271279517 2.11135247724 -1.00388496717 -0.13720783312 2.11243478145 -0.99677665505 -0.13155282459 2.11359150761 -0.98807772138 -0.12556069537 2.11502040815 -0.97759490938 -0.11904437123 2.11691923553 -0.96513496228 -0.11181677795 2.11948574219 -1.02216333677 -0.15735005151 2.08534320723 -1.02013253289 -0.15002148131 2.08635768847 -1.01737689411 -0.14287369355 2.08618389704 -1.01361812004 -0.13579130890 2.08514659331 -1.00857791029 -0.12865894802 2.08357053763 -1.00197796447 -0.12136123158 2.08178049036 -0.99353998221 -0.11378278024 2.08010121186 -0.98298566310 -0.10580821468 2.07885746249 -0.97003670677 -0.09732215554 2.07837400261 -0.95441481281 -0.08820922351 2.07897559258 -1.02186458296 -0.14881475316 2.06740007843 -1.01988601522 -0.14127105454 2.06649445201 -1.01698212076 -0.13346838293 2.06416366184 -1.01270442152 -0.12533220630 2.06080246053 -1.00660443945 -0.11678799263 2.05680560070 -0.99823369651 -0.10776120986 2.05256783495 -0.98714371466 -0.09817732598 2.04848391590 -0.97288601584 -0.08796180893 2.04494859616 -0.95501212202 -0.07704012669 2.04235662834 -0.93307355513 -0.06533774721 2.04110276506 -1.02143622235 -0.14169408472 2.05056038237 -1.01953893643 -0.13427796319 2.04756913794 -1.01641633735 -0.12620523493 2.04326509298 -1.01136445140 -0.11738983077 2.03801752204 -1.00367930488 -0.10774568149 2.03219569964 -0.99265692409 -0.09718671792 2.02616890035 -0.97759333533 -0.08562687085 2.02030639871 -0.95778456488 -0.07298007110 2.01497746926 -0.93252663905 -0.05916024946 2.01055138654 -0.90111558413 -0.04408133675 2.00739742511 -1.02087954740 -0.13631436295 2.03540145673 -1.01909265047 -0.12937330612 2.03016602167 -1.01568145939 -0.12148453966 2.02419386414 -1.00960100283 -0.11247653588 2.01769485563 -0.99980630948 -0.10217776712 2.01087886766 -0.98525240803 -0.09041670570 2.00395577171 -0.96489432714 -0.07702182393 1.99713543929 -0.93768709550 -0.06182159416 1.99062774190 -0.90258574180 -0.04464448869 1.98464255103 -0.85854529471 -0.02531897986 1.97938973818 -1.02181566497 -0.22887851744 2.18573480217 -1.01999265851 -0.23231534876 2.19718205797 -1.01690146140 -0.23503419278 2.20876489407 -1.01185184890 -0.23706778035 2.22068036576 -1.00415359629 -0.23844884229 2.23312552831 -0.99311647885 -0.23921010943 2.24629743700 -0.97805027185 -0.23938431261 2.26039314711 -0.95826475056 -0.23900418265 2.27560971392 -0.93306969025 -0.23810245040 2.29214419269 -0.90177486620 -0.23671184667 2.31019363872 -1.02266051493 -0.21847648383 2.17119863516 -1.02061447403 -0.21957243699 2.18086856976 -1.01738601089 -0.22066860257 2.19087254378 -1.01227248189 -0.22166175834 2.20124480815 -1.00457124338 -0.22244868205 2.21201961379 -0.99357965170 -0.22292615144 2.22323121162 -0.97859506322 -0.22299094429 2.23491385256 -0.95891483430 -0.22253983834 2.24710178753 -0.93383632129 -0.22146961136 2.25982926745 -0.90265688054 -0.21967704109 2.27313054325 -1.02328354369 -0.20757320350 2.15480060165 -1.02106915628 -0.20662030470 2.16261948855 -1.01773575123 -0.20609621279 2.17072590743 -1.01257175351 -0.20583161163 2.17909639015 -1.00486558810 -0.20565718513 2.18770746860 -0.99390567996 -0.20540361718 2.19653567463 -0.97898045407 -0.20490159165 2.20555754012 -0.95937833540 -0.20398179245 2.21474959694 -0.93438774890 -0.20247490346 2.22408837696 -0.90329711956 -0.20021160856 2.23355041206 -1.02368582708 -0.19643175027 2.13700454362 -1.02135762502 -0.19371143715 2.14287864042 -1.01795192599 -0.19160888767 2.14883706247 -1.01275152363 -0.18994099323 2.15487228054 -1.00503921159 -0.18852464524 2.16097676540 -0.99409778352 -0.18717673510 2.16714298780 -0.97921003305 -0.18571415422 2.17336341851 -0.95965875383 -0.18395379400 2.17963052829 -0.93472673951 -0.18171254585 2.18593678789 -0.90369678373 -0.17880730117 2.19227466810 -1.02386844094 -0.18531519794 2.11827430309 -1.02148080002 -0.18109831958 2.12208985142 -1.01803577878 -0.17749849149 2.12571808635 -1.01281365213 -0.17435355616 2.12920964809 -1.00509469498 -0.17150135606 2.13261517687 -0.99415918223 -0.16877973369 2.13598531292 -0.97928738880 -0.16602653151 2.13937069646 -0.95975958960 -0.16307959202 2.14282196772 -0.93485605953 -0.15977675769 2.14638976693 -0.90385707350 -0.15595587101 2.15012473430 -1.02383246108 -0.17448662033 2.09907372204 -1.02143960103 -0.16903343723 2.10069694765 -1.01798855320 -0.16405688850 2.10188105652 -1.01275999888 -0.15943295342 2.10274566157 -1.00503461938 -0.15503761128 2.10341037569 -0.99409309598 -0.15074684139 2.10399481176 -0.97921610998 -0.14643662305 2.10461858270 -0.95968434267 -0.14198293553 2.10540130139 -0.93477847536 -0.13726175815 2.10646258073 -0.90377918934 -0.13214907020 2.10792203362 -1.02357896334 -0.16420909125 2.07986664248 -1.02123494781 -0.15776927536 2.07914375515 -1.01781149284 -0.15157594295 2.07783805044 -1.01259242377 -0.14554283801 2.07611748976 -1.00486156592 -0.13958370459 2.07415003452 -0.99390274463 -0.13361228669 2.07210364611 -0.97899978523 -0.12754232834 2.07014628595 -0.95943651305 -0.12128757357 2.06844591544 -0.93449675343 -0.11476176638 2.06717049599 -0.90346433170 -0.10787865081 2.06648798900 -1.02310902354 -0.15474568451 2.06111690640 -1.02086776012 -0.14755831922 2.05787410000 -1.01750584131 -0.14034751910 2.05410114556 -1.01231278666 -0.13304686297 2.04996230144 -1.00457811572 -0.12558992967 2.04562182604 -0.99359134805 -0.11791029805 2.04124397775 -0.97864200319 -0.10994154692 2.03699301495 -0.95901960071 -0.10161725514 2.03303319603 -0.93401366014 -0.09287100154 2.02952877937 -0.90291370104 -0.08363636495 2.02664402337 -1.02242371752 -0.14635947393 2.04328835579 -1.02033895772 -0.13865305405 2.03733180828 -1.01707284220 -0.13066348120 2.03118241932 -1.01192294743 -0.12230868128 2.02491726537 -1.00418684991 -0.11350658022 2.01861342292 -0.99316212612 -0.10417510392 2.01234796844 -0.97814635253 -0.09423217831 2.00619797840 -0.95843710563 -0.08359572929 2.00024052928 -0.93333196191 -0.07218368279 1.99455269755 -0.90212849783 -0.05991396472 1.98921155969 -1.02152412109 -0.13931353331 2.02684483265 -1.01964946036 -0.13130596511 2.01796070605 -1.01651373910 -0.12281569351 2.00959394918 -1.01142476597 -0.11369194597 2.00161955034 -1.00369034962 -0.10378394992 1.99391249784 -0.99261829871 -0.09294093279 1.98634777998 -0.97751642189 -0.08101212201 1.97880038505 -0.95769252782 -0.06784674504 1.97114530136 -0.93245442515 -0.05329402929 1.96325751721 -0.90110992254 -0.03720320221 1.95501202090 -1.02236749184 -0.23787752759 2.18579727384 -1.02048805888 -0.24334717209 2.19921348989 -1.01764416808 -0.24759826966 2.21194435934 -1.01341139828 -0.25085370344 2.22431399639 -1.00736532831 -0.25333635655 2.23664651526 -0.99908153700 -0.25526911212 2.24926603015 -0.98813560319 -0.25687485328 2.26249665527 -0.97410310570 -0.25837646316 2.27666250483 -0.95655962337 -0.25999682488 2.29208769303 -0.93508073503 -0.26195882157 2.30909633410 -1.02346537432 -0.22731111095 2.16968772050 -1.02128711540 -0.23038700350 2.18055651287 -1.01798041552 -0.23294632047 2.19105156377 -1.01284416431 -0.23505988372 2.20133184143 -1.00517725139 -0.23679851508 2.21155631410 -0.99427856637 -0.23823303640 2.22188395003 -0.97944699887 -0.23943426952 2.23247371745 -0.95998143851 -0.24047303629 2.24348458461 -0.93518077491 -0.24142015854 2.25507551975 -0.90434389768 -0.24234645812 2.26740549113 -1.02427863526 -0.21627502427 2.15209491315 -1.02187548261 -0.21721246404 2.16044652309 -1.01822000964 -0.21810518640 2.16856147012 -1.01240399351 -0.21893198152 2.17651483594 -1.00351921135 -0.21967163953 2.18438170223 -0.99065744030 -0.22030295058 2.19223715069 -0.97291045749 -0.22080470481 2.20015626302 -0.94937004006 -0.22115569237 2.20821412090 -0.91912796516 -0.22133470340 2.21648580604 -0.88127600992 -0.22132052804 2.22504640012 -1.02480813265 -0.20498432007 2.13339657070 -1.02225372527 -0.20401767712 2.13922267649 -1.01836363337 -0.20328557752 2.14484077166 -1.01209193397 -0.20272077880 2.15029800396 -1.00239270410 -0.20225603849 2.15564152116 -0.98822002079 -0.20182411414 2.16091847101 -0.96852796107 -0.20135776327 2.16617600127 -0.94227060196 -0.20078974342 2.17146125971 -0.90840202050 -0.20005281213 2.17682139409 -0.86587629370 -0.19907972692 2.18230355215 -1.02505472447 -0.19365405087 2.11397041207 -1.02242240815 -0.19099676618 2.11722412902 -1.01841196961 -0.18869820389 2.12025616164 -1.01190903377 -0.18667705751 2.12311636955 -1.00179922556 -0.18485202057 2.12585461241 -0.98696816988 -0.18314178658 2.12852074985 -0.96630149167 -0.18146504904 2.13116464151 -0.93868481583 -0.17974050148 2.13383614705 -0.90300376730 -0.17788683741 2.13658512609 -0.85814397098 -0.17582275033 2.13946143828 -1.02501926873 -0.18249926919 2.09419415617 -1.02238209601 -0.17834385462 2.09479003663 -1.01836570129 -0.17455377557 2.09517433331 -1.01185634102 -0.17105159962 2.09540495675 -1.00174027163 -0.16775989437 2.09553981749 -0.98690374959 -0.16460122738 2.09563682607 -0.96623303133 -0.16149816626 2.09575389303 -0.93861437329 -0.15837327857 2.09594892891 -0.90293403194 -0.15514913191 2.09627984424 -0.85807826370 -0.15174829385 2.09680454958 -1.02470262340 -0.17173502754 2.07444552191 -1.02213335361 -0.16625306586 2.07225955525 -1.01822551132 -0.16106300262 2.06996197993 -1.01193490379 -0.15609518708 2.06759878961 -1.00221733825 -0.15127996847 2.06521597793 -0.98802862194 -0.14654769604 2.06285953855 -0.96832456210 -0.14182871904 2.06057546512 -0.94206096596 -0.13705338671 2.05840975131 -0.90819364079 -0.13215204830 2.05640839075 -0.86567839380 -0.12705505305 2.05461737710 -1.02410564648 -0.16157637844 2.05510222820 -1.02167674571 -0.15491852332 2.04997184084 -1.01799208263 -0.14843659512 2.04498579477 -1.01214577019 -0.14205860184 2.04013289218 -1.00323192132 -0.13571255148 2.03540193524 -0.99034464895 -0.12932645205 2.03078172615 -0.97257806602 -0.12282831153 2.02626106709 -0.94902628546 -0.11614613794 2.02182876024 -0.91878342022 -0.10920793927 2.01747360780 -0.88094358323 -0.10194172352 2.01318441193 -1.02322919596 -0.15223837441 2.03654199395 -1.02101283707 -0.14453435042 2.02826604934 -1.01766609813 -0.13688526312 2.02061247108 -1.01248998830 -0.12919262586 2.01344228850 -1.00478551675 -0.12135795200 2.00661653095 -0.99385369264 -0.11328275489 1.99999622775 -0.97899552514 -0.10486854786 1.99344240823 -0.95951202341 -0.09601684428 1.98681610173 -0.93470419662 -0.08662915748 1.97997833758 -0.90387305395 -0.07660700083 1.97279014512 -1.02207412983 -0.14393606797 2.01914253807 -1.02014219247 -0.13529467057 2.00748133669 -1.01724824074 -0.12661971668 1.99720870211 -1.01296860622 -0.11774804110 1.98796200263 -1.00687962046 -0.10851647863 1.97937860656 -0.99855761504 -0.09876186405 1.97109588220 -0.98757892150 -0.08832103216 1.96275119783 -0.97351987142 -0.07703081776 1.95398192177 -0.95595679636 -0.06472805562 1.94442542231 -0.93446602789 -0.05124958056 1.93371906774 -1.02280951806 -0.24674535708 2.18417613583 -1.02090425484 -0.25374952892 2.19875685329 -1.01827479828 -0.25930156658 2.21204427027 -1.01469078066 -0.26373398775 2.22446713969 -1.00992183426 -0.26737931012 2.23645421452 -1.00373759134 -0.27057005136 2.24843424769 -0.99590768419 -0.27363872917 2.26083599215 -0.98620174507 -0.27691786122 2.27408820084 -0.97438940626 -0.28073996520 2.28861962671 -0.96024030003 -0.28543755879 2.30485902271 -1.02407628032 -0.23613305408 2.16698775861 -1.02182238903 -0.24080705732 2.17846736082 -1.01850132136 -0.24465539455 2.18906153649 -1.01342433382 -0.24786003957 2.19902843916 -1.00590268293 -0.25060296624 2.20862622237 -0.99524762517 -0.25306614837 2.21811303966 -0.98077041707 -0.25543155980 2.22774704457 -0.96178231512 -0.25788117435 2.23778639062 -0.93759457583 -0.26059696587 2.24848923136 -0.90751845570 -0.26376090817 2.26011372033 -1.02501681245 -0.22505876788 2.14858071660 -1.02250086603 -0.22760823021 2.15706881060 -1.01865977935 -0.22978841539 2.16495338483 -1.01246137548 -0.23167959589 2.17238576985 -1.00287347752 -0.23336204419 2.17951729623 -0.98886390856 -0.23491603276 2.18649929455 -0.96940049170 -0.23642183406 2.19348309537 -0.94345105001 -0.23795972058 2.20062002927 -0.90998340660 -0.23960996479 2.20806142680 -0.86796538455 -0.24145283915 2.21595861856 -1.02563176622 -0.21370495828 2.12927429849 -1.02293997215 -0.21430842407 2.13483049039 -1.01875040724 -0.21485634330 2.13998756126 -1.01180227935 -0.21536503665 2.14483350293 -1.00083479638 -0.21585082480 2.14945630722 -0.98458716621 -0.21633002841 2.15394396597 -0.96179859672 -0.21681896817 2.15838447101 -0.93120829579 -0.21733396474 2.16286581417 -0.89155547130 -0.21789133880 2.16747598727 -0.84157933113 -0.21850741103 2.17230298215 -1.02592179343 -0.20225408506 2.10938779300 -1.02313999369 -0.20106301538 2.11202168795 -1.01877344003 -0.20001489247 2.11443181177 -1.01144741918 -0.19908874180 2.11666600958 -0.99978721787 -0.19826358889 2.11877212648 -0.98241812283 -0.19751845924 2.12079800756 -0.95796542078 -0.19683237833 2.12279149794 -0.92505439847 -0.19618437166 2.12480044272 -0.88231034262 -0.19555346474 2.12687268699 -0.82835853995 -0.19491868307 2.12905607587 -1.02588754586 -0.19088860801 2.08924048884 -1.02310121694 -0.18802738066 2.08891169102 -1.01872911272 -0.18541977709 2.08855388234 -1.01139716869 -0.18302309130 2.08817766098 -0.99973132032 -0.18079461731 2.08779362513 -0.98235750311 -0.17869164912 2.08741237294 -0.95790165254 -0.17667148074 2.08704450261 -0.92498970410 -0.17469140619 2.08670061230 -0.88224759327 -0.17270871946 2.08639130019 -0.82830125555 -0.17068071456 2.08612716445 -1.02552967529 -0.17979098690 2.06915167471 -1.02282392821 -0.17535689638 2.06576978735 -1.01861766031 -0.17122671136 2.06262151894 -1.01165190160 -0.16734046510 2.05966282831 -1.00066768208 -0.16363819088 2.05684967430 -0.98440603176 -0.16005992196 2.05413801574 -0.96160798063 -0.15654569163 2.05148381146 -0.93101455870 -0.15303553314 2.04884302030 -0.89136679596 -0.14946947977 2.04617160109 -0.84140572243 -0.14578756480 2.04342551266 -1.02484883350 -0.16914368153 2.04944063933 -1.02230841378 -0.16320693904 2.04286526470 -1.01843931779 -0.15759140946 2.03690246755 -1.01221199166 -0.15221324314 2.03141588274 -1.00259688151 -0.14698859043 2.02626914512 -0.98856443348 -0.14183360166 2.02132588957 -0.96908509370 -0.13666442719 2.01644975094 -0.94312930830 -0.13139721737 2.01150436410 -0.90966752340 -0.12594812254 2.00635336392 -0.86767018514 -0.12023329305 2.00086038525 -1.02384567228 -0.15912915168 2.03042667140 -1.02155495996 -0.15173288513 2.02046741083 -1.01819432016 -0.14466958560 2.01166447416 -1.01307781258 -0.13781380538 2.00373119545 -1.00551949695 -0.13104009679 1.99638090873 -0.99483343299 -0.12422301210 1.98932694807 -0.98033368041 -0.11723710364 1.98228264751 -0.96133429894 -0.10995692371 1.97496134111 -0.93714934829 -0.10225702459 1.96707636291 -0.90709288819 -0.09401195861 1.95834104696 -1.02252084342 -0.14992985713 2.01242905963 -1.02056385306 -0.14109011115 1.99884551347 -1.01788290241 -0.13261695397 1.98717528474 -1.01424973810 -0.12431453178 1.97690313761 -1.00943610674 -0.11598699079 1.96751383626 -1.00321375497 -0.10743847719 1.95849214487 -0.99535442939 -0.09847313719 1.94932282762 -0.98562987664 -0.08889511698 1.93949064870 -0.97381184334 -0.07850856277 1.92848037229 -0.95967207611 -0.06711762075 1.91577676256 -1.02313404094 -0.25523500221 2.18101695171 -1.02123526663 -0.26328992836 2.19596065102 -1.01879297599 -0.26987869192 2.20922792533 -1.01570993695 -0.27537946022 2.22132393136 -1.01188891742 -0.28017040060 2.23275382584 -1.00723268533 -0.28462968038 2.24402276551 -1.00164400859 -0.28913546689 2.25563590710 -0.99502565511 -0.29406592746 2.26809840732 -0.98728039281 -0.29979922941 2.28191542292 -0.97831098962 -0.30671354009 2.29759211063 -1.02448716663 -0.24474658118 2.16321572874 -1.02221544408 -0.25065076978 2.17471157767 -1.01894826888 -0.25559553265 2.18501544869 -1.01402749830 -0.25982253732 2.19445449287 -1.00679498961 -0.26357345134 2.20335586130 -0.99659260008 -0.26708994224 2.21204670506 -0.98276218696 -0.27061367757 2.22085417525 -0.96464560753 -0.27438632485 2.23010542295 -0.94158471904 -0.27864955164 2.24012759923 -0.91292137876 -0.28364502547 2.25124785519 -1.02549317773 -0.23376653145 2.14435249796 -1.02294128048 -0.23766478998 2.15256970798 -1.01905448778 -0.24099663372 2.15998032039 -1.01275421959 -0.24390502295 2.16678611350 -1.00296189591 -0.24653291797 2.17318886563 -0.98859893673 -0.24902327904 2.17939035511 -0.96858676201 -0.25151906646 2.18559236023 -0.94184679174 -0.25416324050 2.19199665934 -0.90730044592 -0.25709876146 2.19880503074 -0.86386914451 -0.26046858961 2.20621925275 -1.02615254429 -0.22246035553 2.12471613103 -1.02341285754 -0.22446759655 2.12976828616 -1.01911153404 -0.22620775845 2.13433600095 -1.01188995355 -0.22775400363 2.13853173097 -1.00038949583 -0.22917949446 2.14246793177 -0.98325154063 -0.23055739333 2.14625705892 -0.95911746771 -0.23196086262 2.15001156797 -0.92662865684 -0.23346306471 2.15384391451 -0.88442648776 -0.23513716200 2.15786655407 -0.83115234024 -0.23705631685 2.16219194223 -1.02646573637 -0.21099355595 2.10459549963 -1.02363025693 -0.21119479709 2.10654055642 -1.01911930902 -0.21135467018 2.10829595088 -1.01143455290 -0.21149656587 2.10990428296 -0.99907764885 -0.21164387481 2.11140815261 -0.98055025714 -0.21181998768 2.11285015977 -0.95435403806 -0.21204829512 2.11427290440 -0.91899065188 -0.21235218781 2.11571898644 -0.87296175887 -0.21275505639 2.11723100584 -0.81476901930 -0.21328029153 2.11885156255 -1.02643322403 -0.19953163521 2.08427947543 -1.02359356037 -0.19798199922 2.08311976297 -1.01907771408 -0.19656313223 2.08207363068 -1.01138787037 -0.19525979618 2.08111670718 -0.99902621448 -0.19405675301 2.08022462107 -0.98049493163 -0.19293876465 2.07937300095 -0.95429620704 -0.19189059303 2.07853747545 -0.91893222593 -0.19089700009 2.07769367315 -0.87290517354 -0.18994274777 2.07681722268 -0.81471723507 -0.18901259801 2.07588375264 -1.02605547733 -0.18824009583 2.06405693009 -1.02330284954 -0.18496481052 2.05973915002 -1.01898665056 -0.18195890793 2.05588250088 -1.01174975870 -0.17917078109 2.05238194133 -1.00023505223 -0.17654882303 2.04913243006 -0.98308540945 -0.17404142679 2.04602892574 -0.95894370863 -0.17159698540 2.04296638704 -0.92645282808 -0.16916389188 2.03983977264 -0.88425564608 -0.16669053927 2.03654404121 -0.83099504092 -0.16412532061 2.03297415143 -1.02533296632 -0.17728444033 2.04421673529 -1.02275820613 -0.17227883860 2.03663196179 -1.01884601984 -0.16766776060 2.02993602197 -1.01252007061 -0.16335660710 2.02391292311 -1.00270402159 -0.15925077887 2.01834667250 -0.98832153595 -0.15525567667 2.01302127740 -0.96829627683 -0.15127670129 2.00772074510 -0.94155190740 -0.14721925348 2.00222908289 -0.90701209080 -0.14298873403 1.99633029804 -0.86360049020 -0.13849054369 1.98980839783 -1.02426616107 -0.16683017121 2.02504776269 -1.02195971185 -0.16005969106 2.01403144248 -1.01865572326 -0.15381545357 2.00444765447 -1.01369865883 -0.14794436073 1.99592259022 -1.00643298207 -0.14229331450 1.98808244129 -0.99620315649 -0.13670921686 1.98055339922 -0.98235364561 -0.13103896977 1.97296165558 -0.96422891294 -0.12512947522 1.96493340192 -0.94117342200 -0.11882763516 1.95609482980 -0.91253163629 -0.11198035158 1.94607213078 -1.02285553164 -0.15704279099 2.00683888395 -1.02090744838 -0.14844297550 1.99217083631 -1.01841566218 -0.14052775018 1.97963085890 -1.01528537610 -0.13306112850 1.96862388036 -1.01142179317 -0.12580712392 1.95855482935 -1.00673011644 -0.11852974991 1.94882863447 -1.00111554897 -0.11099301991 1.93885022439 -0.99448329380 -0.10296094739 1.92802452772 -0.98673855398 -0.09419754581 1.91575647312 -0.97778653255 -0.08446682864 1.90145098920 -1.02333335777 -0.26309945929 2.17646528507 -1.02147511447 -0.27173587952 2.19097338593 -1.01919832520 -0.27906425405 2.20365862301 -1.01648880805 -0.28546094778 2.21506850709 -1.01333238108 -0.29130232560 2.22575054900 -1.00971486241 -0.29696475239 2.23625225952 -1.00562207010 -0.30282459306 2.24712114947 -1.00103982224 -0.30925821249 2.25890472965 -0.99595393691 -0.31664197558 2.27215051087 -0.99035023221 -0.32535224722 2.28740600393 -1.02469196696 -0.25295596021 2.15848861010 -1.02246142971 -0.25973631217 2.16939962751 -1.01932079855 -0.26556644263 2.17902628712 -1.01466816563 -0.27070768838 2.18772989408 -1.00790162309 -0.27542138621 2.19587175357 -0.99841926306 -0.27996887291 2.20381317077 -0.98561917770 -0.28461148527 2.21191545085 -0.96889945915 -0.28961056009 2.22053989897 -0.94765819955 -0.29522743414 2.23004782033 -0.92129349104 -0.30172344423 2.24080052007 -1.02570283359 -0.24224041206 2.13950474317 -1.02319269988 -0.24723933008 2.14703257214 -1.01940356238 -0.25158057537 2.15372094567 -1.01329284604 -0.25543883092 2.15979278853 -1.00381797584 -0.25898877972 2.16547102547 -0.98993637675 -0.26240510476 2.17097858126 -0.97060547373 -0.26586248903 2.17653838066 -0.94478269176 -0.26953561552 2.18237334843 -0.91142545581 -0.27359916722 2.18870640932 -0.86949119084 -0.27822782711 2.19576048810 -1.02636628333 -0.23111720245 2.11980047235 -1.02366887328 -0.23437911314 2.12410226784 -1.01944630020 -0.23722639644 2.12794466041 -1.01236235031 -0.23976791659 2.13144564160 -1.00108080980 -0.24211253781 2.13472320296 -0.98426546489 -0.24436912431 2.13789533605 -0.96058010177 -0.24664654034 2.14108003240 -0.92868850665 -0.24905365010 2.14439528356 -0.88725446574 -0.25169931783 2.14795908109 -0.83494176525 -0.25469240775 2.15188941653 -1.02668264184 -0.21975071898 2.09966258571 -1.02388989816 -0.22128984121 2.10083876266 -1.01944869554 -0.22262364999 2.10189949307 -1.01187617947 -0.22380848656 2.10287690445 -0.99968949543 -0.22490069213 2.10380312431 -0.98140578891 -0.22595660794 2.10471028017 -0.95554220542 -0.22703257520 2.10563049954 -0.92061589042 -0.22818493516 2.10659590993 -0.87514398942 -0.22947002902 2.10763863886 -0.81764364791 -0.23094419803 2.10879081384 -1.02665223479 -0.20830534924 2.07937787132 -1.02385572282 -0.20810569416 2.07747210465 -1.01941043192 -0.20789208016 2.07578750542 -1.01183383455 -0.20767408199 2.07427502825 -0.99964340317 -0.20746127435 2.07288562779 -0.98135661026 -0.20726323199 2.07157025868 -0.95549092827 -0.20708952963 2.07027987556 -0.92056382966 -0.20694974200 2.06896543307 -0.87509278691 -0.20685344383 2.06757788586 -0.81759527247 -0.20681020983 2.06606818856 -1.02627538785 -0.19694548085 2.05923311725 -1.02356629553 -0.19496085187 2.05423234185 -1.01933119285 -0.19315143111 2.04981075917 -1.01223481658 -0.19147824405 2.04582846414 -1.00094190349 -0.18990231614 2.04214555165 -0.98411719035 -0.18838467285 2.03862211662 -0.96042541392 -0.18688633963 2.03511825395 -0.92853131097 -0.18536834195 2.03149405855 -0.88709961826 -0.18379170527 2.02760962532 -0.83479507257 -0.18211745505 2.02332504918 -1.02555242668 -0.18583550140 2.03951511158 -1.02302156456 -0.18198949420 2.03134952229 -1.01921066185 -0.17852144699 2.02417131609 -1.01307862660 -0.17533451393 2.01772566329 -1.00358436684 -0.17233184917 2.01175773418 -0.98968679062 -0.16941660688 2.00601269904 -0.97034480597 -0.16649194121 2.00023572818 -0.94451732093 -0.16346100633 1.99417199189 -0.91116324355 -0.16022695640 1.98756666047 -0.86924148186 -0.15669294557 1.98016490421 -1.02448367693 -0.17513979851 2.02051064237 -1.02222147819 -0.16932580104 2.00905369401 -1.01904852245 -0.16412187195 1.99907123792 -1.01436476564 -0.15935643278 1.99015507686 -1.00757016368 -0.15485790509 1.98189701362 -0.99806467250 -0.15045471044 1.97388885099 -0.98524824801 -0.14597527038 1.96572239174 -0.96852084615 -0.14124800646 1.95698943867 -0.94728242283 -0.13610134024 1.94728179454 -0.92093293397 -0.13036369328 1.93619126215 -1.02306946429 -0.16502275976 2.00250649769 -1.02116598470 -0.15710395225 1.98757490507 -1.01884445816 -0.15007245013 1.97471258639 -1.01609273473 -0.14365754178 1.96330515600 -1.01289866446 -0.13758851558 1.95273822826 -1.00925009741 -0.13159465990 1.94239741752 -1.00513488364 -0.12540526313 1.93166833812 -1.00054087321 -0.11874961365 1.91993660442 -0.99545591616 -0.11135699983 1.90658783076 -0.98986786256 -0.10295671006 1.89100763151 -1.02339976586 -0.27009172461 2.17066669947 -1.02161781862 -0.27885489152 2.18394356088 -1.01949046992 -0.28659286137 2.19549966179 -1.01704733486 -0.29364927737 2.20588500260 -1.01431802853 -0.30036778273 2.21564958374 -1.01133216603 -0.30709202064 2.22534340561 -1.00811936245 -0.31416563431 2.23551646863 -1.00470923289 -0.32193226695 2.24671877320 -1.00113139245 -0.33073556175 2.25950031976 -0.99741545621 -0.34091916193 2.27441110869 -1.02468461501 -0.26056545914 2.15292338192 -1.02255549509 -0.26788185579 2.16264197443 -1.01961845085 -0.27436783233 2.17120703854 -1.01536084369 -0.28027580415 2.17897453433 -1.00927003498 -0.28585818666 2.18630042190 -1.00083338610 -0.29136739527 2.19354066132 -0.98953825846 -0.29705584537 2.20105121269 -0.97487201341 -0.30317595237 2.20918803609 -0.95632201236 -0.30998013167 2.21830709160 -0.93337561669 -0.31772079868 2.22876433932 -1.02564088252 -0.25032250684 2.13413193819 -1.02325109817 -0.25618903727 2.14054075997 -1.01970643060 -0.26139097432 2.14625392952 -1.01408757501 -0.26611158800 2.15148271655 -1.00547522660 -0.27053414831 2.15643839078 -0.99295008059 -0.27484192525 2.16133222193 -0.97559283217 -0.27921818882 2.16637547971 -0.95248417656 -0.28384620904 2.17177943384 -0.92270480896 -0.28890925589 2.17775535403 -0.88533542457 -0.29459059939 2.18451451001 -1.02626879983 -0.23954218968 2.11460572648 -1.02370451124 -0.24392689240 2.11789863948 -1.01975399217 -0.24779883072 2.12087210931 -1.01322686339 -0.25128701238 2.12362818835 -1.00293274569 -0.25452044514 2.12626892899 -0.98768125984 -0.25762813677 2.12889638359 -0.96628202660 -0.26073909502 2.13161260453 -0.93754466676 -0.26398232766 2.13451964419 -0.90027880110 -0.26748684243 2.13771955495 -0.85329405038 -0.27138164710 2.14131438918 -1.02656859842 -0.22840382959 2.09465810497 -1.02391561767 -0.23124587762 2.09497433491 -1.01976071857 -0.23372794485 2.09529335248 -1.01277804343 -0.23593246071 2.09562958884 -1.00164173454 -0.23794185463 2.09599747511 -0.98502593421 -0.23983855603 2.09641144245 -0.96160478476 -0.24170499432 2.09688592200 -0.93005242848 -0.24362359895 2.09743534488 -0.88904300767 -0.24567679932 2.09807414225 -0.83725066465 -0.24794702486 2.09881674523 -1.02654050972 -0.21708674854 2.07460243188 -1.02388430083 -0.21829644934 2.07202656822 -1.01972619282 -0.21931486006 2.06974943360 -1.01274044968 -0.22017831644 2.06770555709 -1.00160133544 -0.22092315424 2.06582946776 -0.98498311409 -0.22158570920 2.06405569469 -0.96156004965 -0.22220231708 2.06231876696 -0.93000640614 -0.22280931362 2.06055321365 -0.88899644756 -0.22344303458 2.05869356384 -0.83720443791 -0.22413981571 2.05667434660 -1.02618476519 -0.20577026846 2.05475206538 -1.02361044410 -0.20522906402 2.04931406139 -1.01964999792 -0.20469611970 2.04447212725 -1.01311341674 -0.20415496301 2.04007473220 -1.00281069067 -0.20358912144 2.03597034551 -0.98755180982 -0.20298212248 2.03200743645 -0.96614676430 -0.20231749363 2.02803447427 -0.93740554420 -0.20157876239 2.02389992825 -0.90013813963 -0.20074945625 2.01945226763 -0.85315454070 -0.19981310269 2.01453996168 -1.02550159628 -0.19463371132 2.03542036369 -1.02309393085 -0.19219417807 2.02709553638 -1.01953171688 -0.19000826711 2.01969320799 -1.01389627917 -0.18799278385 2.01295575326 -1.00526894254 -0.18606453370 2.00662554698 -0.99273103178 -0.18414032206 2.00044496390 -0.97536387170 -0.18213695435 1.99415637878 -0.95224878710 -0.17997123597 1.98750216640 -0.92246710277 -0.17755997234 1.98022470151 -0.88510014354 -0.17481996885 1.97206635889 -1.02449123446 -0.18385639906 2.01692068499 -1.02233464445 -0.17934224794 2.00562971515 -1.01937093271 -0.17538784564 1.99564445039 -1.01508837157 -0.17182216241 1.98656725938 -1.00897523334 -0.16847416849 1.97800051075 -1.00051979033 -0.16517283413 1.96954657319 -0.98921031487 -0.16174712958 1.96080781534 -0.97453507928 -0.15802602508 1.95138660586 -0.95598235587 -0.15383849088 1.94088531340 -0.93304041696 -0.14901349724 1.92890630664 -1.02315391117 -0.17361765364 1.99956638749 -1.02133246828 -0.16682373006 1.98517531967 -1.01916722843 -0.16097139863 1.97255762904 -1.01668902850 -0.15577348212 1.96112788963 -1.01392870534 -0.15094280328 1.95030067544 -1.01091709583 -0.14619218487 1.93949056048 -1.00768503682 -0.14123444967 1.92811211878 -1.00426336519 -0.13578242043 1.91557992435 -1.00068291779 -0.12954891991 1.90130855120 -0.99697453149 -0.12224677088 1.88471257335 -1.02332556250 -0.27596479447 2.16376675851 -1.02165739929 -0.28441447347 2.17501967872 -1.01966903413 -0.29219912226 2.18491434015 -1.01740545829 -0.29961527593 2.19395755359 -1.01491166303 -0.30695946960 2.20265612983 -1.01223263963 -0.31452823833 2.21151687967 -1.00941337937 -0.32261811725 2.22104661391 -1.00649887350 -0.33152564143 2.23175214335 -1.00353411330 -0.34154734598 2.24414027877 -1.00056409005 -0.35297976599 2.25871783099 -1.02445904449 -0.26737934592 2.14663702344 -1.02249278938 -0.27490557195 2.15454908249 -1.01984076625 -0.28179940959 2.16167068969 -1.01612004035 -0.28828719605 2.16830830515 -1.01094767692 -0.29459526853 2.17476838897 -1.00394074118 -0.30094996421 2.18135740126 -0.99471629837 -0.30757762031 2.18838180213 -0.98289141373 -0.31470457401 2.19614805168 -0.96808315248 -0.32255716252 2.20496261002 -0.94990857987 -0.33136172304 2.21513193727 -1.02530242700 -0.25785491290 2.12832856898 -1.02311244927 -0.26437109829 2.13317762839 -1.01996251988 -0.27027856455 2.13765794079 -1.01514872668 -0.27575386241 2.14193281919 -1.00796715750 -0.28097354259 2.14616557660 -0.99771390021 -0.28611415584 2.15051952601 -0.98368504263 -0.29135225288 2.15515798043 -0.96517667264 -0.29686438446 2.16024425288 -0.94148487806 -0.30282710131 2.16594165635 -0.91190574674 -0.30941695416 2.17241350385 -1.02585591029 -0.24760200785 2.10921029745 -1.02351626329 -0.25299485291 2.11122360512 -1.02003389637 -0.25781163472 2.11317691734 -1.01449088656 -0.26219152783 2.11513232476 -1.00596931087 -0.26627370678 2.11715191801 -0.99355124632 -0.27019734612 2.11929778775 -0.97631876993 -0.27410162039 2.12163202461 -0.95335395870 -0.27812570415 2.12421671923 -0.92373888968 -0.28240877192 2.12711396225 -0.88655563986 -0.28708999827 2.13038584431 -1.02611969465 -0.23683114325 2.08965111118 -1.02370411574 -0.24096063622 2.08900530137 -1.02005449708 -0.24457366770 2.08852844321 -1.01414588932 -0.24777644517 2.08820805088 -1.00495334312 -0.25067517610 2.08803163853 -0.99145190913 -0.25337606797 2.08798672032 -0.97261663800 -0.25598532825 2.08806081043 -0.94742258041 -0.25860916443 2.08824142300 -0.91484478699 -0.26135378396 2.08851607221 -0.87385830841 -0.26432539434 2.08887227223 -1.02609398035 -0.22575283154 2.07001991248 -1.02367589094 -0.22845224863 2.06684100584 -1.02002392335 -0.23073971108 2.06401334231 -1.01411310425 -0.23268486727 2.06146122660 -1.00491846032 -0.23435736555 2.05910896345 -0.99141501822 -0.23582685430 2.05688085756 -0.97257780463 -0.23716298188 2.05470121367 -0.94738184622 -0.23843539666 2.05249433649 -0.91480216965 -0.23971374701 2.05018453074 -0.87381380160 -0.24106768130 2.04769610116 -1.02577896766 -0.21457758519 2.05068560369 -1.02343147319 -0.21565349056 2.04504900724 -1.01994177653 -0.21648481246 2.03993243852 -1.01439190067 -0.21709304696 2.03519308097 -1.00586386858 -0.21749969012 2.03068811808 -0.99343970322 -0.21772623801 2.02627473330 -0.97620142758 -0.21779418669 2.02181011010 -0.95323106461 -0.21772503222 2.01715143196 -0.92361063730 -0.21754027066 2.01215588233 -0.88642216863 -0.21726139809 2.00668064469 -1.02517485687 -0.20351591664 2.03201708712 -1.02297074680 -0.20274816241 2.02394759427 -1.01980765798 -0.20198401942 2.01658655572 -1.01498164789 -0.20117723709 2.00970484302 -1.00778877397 -0.20028156482 2.00307332772 -0.99752509372 -0.19925075201 1.99646288137 -0.98348666460 -0.19803854809 1.98964437551 -0.96496954407 -0.19659870245 1.98238868170 -0.94126978961 -0.19488496451 1.97446667147 -0.91168345868 -0.19285108367 1.96564921638 -1.02428184824 -0.19277833837 2.01438326511 -1.02229359609 -0.18992006461 2.00385505562 -1.01962116905 -0.18741237957 1.99427651781 -1.01588171519 -0.18511369050 1.98529774179 -1.01069238260 -0.18288240463 1.97656881769 -1.00367031933 -0.18057692922 1.96773983562 -0.99443267346 -0.17805567150 1.95846088568 -0.98259659306 -0.17517703872 1.94838205799 -0.96777922621 -0.17179943813 1.93715344266 -0.94959772097 -0.16778127697 1.92442512981 -1.02310014206 -0.18257536282 1.99815303996 -1.02139990536 -0.17735299757 1.98508967998 -1.01938191108 -0.17294494049 1.97330314867 -1.01709147191 -0.16907866002 1.96227300633 -1.01457390053 -0.16548162456 1.95147881330 -1.01187450964 -0.16188130253 1.94040012987 -1.00903861192 -0.15800516234 1.92851651636 -1.00611152006 -0.15358067240 1.91530753310 -1.00313854676 -0.14833530113 1.90025274039 -1.00016500469 -0.14199651694 1.88283169855 -1.02310304499 -0.28047166518 2.15591102575 -1.02158787673 -0.28818213448 2.16435024232 -1.01973364184 -0.29561764509 2.17206595659 -1.01758311925 -0.30302977040 2.17947029576 -1.01517908789 -0.31067008381 2.18697538703 -1.01256432668 -0.31879015871 2.19499335760 -1.00978161457 -0.32764156850 2.20393633468 -1.00687373049 -0.33747588657 2.21421644545 -1.00388345337 -0.34854468632 2.22624581713 -1.00085356214 -0.36109954115 2.24043657690 -1.02400918911 -0.27320188852 2.13974651387 -1.02226846174 -0.28062563195 2.14523141579 -1.01998728522 -0.28766088228 2.15053022735 -1.01696026351 -0.29450217551 2.15585109807 -1.01298200054 -0.30134404762 2.16140217749 -1.00784710026 -0.30838103463 2.16739161512 -1.00135016660 -0.31580767253 2.17402756049 -0.99328580350 -0.32381849731 2.18151816312 -0.98344861491 -0.33260804498 2.19007157255 -0.97163320476 -0.34237085153 2.19989593828 -1.02468256952 -0.26467972733 2.12218912148 -1.02277272712 -0.27164269989 2.12502653430 -1.02017125767 -0.27809408003 2.12801164835 -1.01648662123 -0.28419622234 2.13122001808 -1.01132727785 -0.29011148142 2.13472719795 -1.00430168757 -0.29600221185 2.13860874240 -0.99501831043 -0.30203076824 2.14294020589 -0.98308560650 -0.30835950519 2.14779714286 -0.96811203580 -0.31515077728 2.15325510775 -0.94970605841 -0.32256693912 2.15938965503 -1.02512343119 -0.25516334760 2.10369258930 -1.02310062129 -0.26146691323 2.10414336880 -1.02028529926 -0.26715138192 2.10491765417 -1.01616181357 -0.27236169980 2.10601100433 -1.01021451272 -0.27724281304 2.10741897821 -1.00192774519 -0.28193966777 2.10913713475 -0.99078585946 -0.28659721015 2.11116103288 -0.97627320401 -0.29136038632 2.11348623152 -0.95787412733 -0.29637414243 2.11610828961 -0.93507297791 -0.30178342462 2.11902276608 -1.02533201910 -0.24491091538 2.08471065807 -1.02325209267 -0.25033184692 2.08298969027 -1.02032915004 -0.25506693152 2.08165567939 -1.01598546169 -0.25924839679 2.08065800535 -1.00964329809 -0.26300847035 2.07994604807 -1.00072492972 -0.26647937980 2.07946918747 -0.98865262706 -0.26979335276 2.07917680348 -0.97284866058 -0.27308261683 2.07901827600 -0.95273530076 -0.27647939963 2.07894298498 -0.92773481807 -0.28011592876 2.07890031031 -1.02530857825 -0.23418059668 2.06569706851 -1.02322708968 -0.23847107589 2.06197326967 -1.02030255009 -0.24207487241 2.05863315861 -1.01595718674 -0.24510610220 2.05559496970 -1.00961322688 -0.24767888119 2.05277693733 -1.00069289776 -0.24990732533 2.05009729586 -0.98861842663 -0.25190555056 2.04747427969 -0.97281204075 -0.25378767283 2.04482612317 -0.95269596736 -0.25566780808 2.04207106070 -0.92769243372 -0.25766007226 2.03912732664 -1.02505335360 -0.22323055752 2.04710556137 -1.02302556072 -0.22611817508 2.04150187797 -1.02020523946 -0.22840934818 2.03625752640 -1.01607660988 -0.23018460493 2.03125584592 -1.01012389202 -0.23152447342 2.02638017578 -1.00183130590 -0.23250948177 2.02151385523 -0.99068307156 -0.23322015808 2.01654022352 -0.97616340905 -0.23373703046 2.01134261990 -0.95775653841 -0.23414062700 2.00580438364 -0.93494667966 -0.23451147581 1.99980885397 -1.02456659015 -0.21231896393 2.02938987738 -1.02264745421 -0.21350671944 2.02198328613 -1.02003695823 -0.21430450240 2.01493621736 -1.01634335228 -0.21473369387 2.00807458255 -1.01117488642 -0.21481567489 2.00122429322 -1.00413981072 -0.21457182652 1.99421126086 -0.99484637523 -0.21402352981 1.98686139698 -0.98290283003 -0.21319216582 1.97900061307 -0.96791742517 -0.21209911558 1.97045482065 -0.94949841073 -0.21076576016 1.96104993120 -1.02384853288 -0.20170398193 2.01300375727 -1.02209271857 -0.20087028390 2.00382526513 -1.01979744646 -0.19999447866 1.99507666606 -1.01675703509 -0.19900315793 1.98648512814 -1.01276580302 -0.19782291346 1.97777781945 -1.00761806882 -0.19638033699 1.96868190807 -1.00110815103 -0.19460202027 1.95892456208 -0.99303036821 -0.19241455503 1.94823294956 -0.98317903893 -0.18974453303 1.93633423859 -0.97134848173 -0.18651854601 1.92295559724 -1.02289942677 -0.19164377753 1.99840094177 -1.02136130222 -0.18844244341 1.98743558592 -1.01948644420 -0.18571342052 1.97708630709 -1.01731727946 -0.18324278599 1.96692143122 -1.01489623474 -0.18081661697 1.95650928427 -1.01226573679 -0.17822099057 1.94541819216 -1.00946821234 -0.17524198395 1.93321648084 -1.00654608815 -0.17166567423 1.91947247624 -1.00354179095 -0.16727813856 1.90375450431 -1.00049774749 -0.16186545407 1.88563089098 -1.02272451063 -0.28336533302 2.14724506477 -1.02140327117 -0.28992538366 2.15208375451 -1.01968391704 -0.29658303825 2.15711780957 -1.01760025864 -0.30356358770 2.16260736481 -1.01518610637 -0.31109232297 2.16881255510 -1.01247527062 -0.31939453499 2.17599351530 -1.00950156180 -0.32869551468 2.18441038028 -1.00629879031 -0.33922055298 2.19432328490 -1.00290076654 -0.35119494083 2.20599236402 -0.99934130089 -0.36484396917 2.21967775250 -1.02332898258 -0.27783735490 2.13236883245 -1.02187766133 -0.28486020710 2.13479943840 -1.02005754824 -0.29175195824 2.13789863825 -1.01789602104 -0.29868105392 2.14172280463 -1.01542045749 -0.30581593977 2.14632831015 -1.01265823533 -0.31332506142 2.15177152745 -1.00963673230 -0.32137686449 2.15810882913 -1.00638332616 -0.33013979459 2.16539658781 -1.00292539464 -0.33978229734 2.17369117613 -0.99929031550 -0.35047281838 2.18304896669 -1.02377641256 -0.27063904724 2.11580808165 -1.02222790564 -0.27786102881 2.11617083459 -1.02033207142 -0.28468825474 2.11739372104 -1.01811157887 -0.29126923602 2.11942123484 -1.01558909695 -0.29775248365 2.12219786988 -1.01278729463 -0.30428650863 2.12566812002 -1.00972884087 -0.31101982195 2.12977647913 -1.00643640463 -0.31810093462 2.13446744108 -1.00293265489 -0.32567835764 2.13968549973 -0.99924026060 -0.33390060200 2.14537514895 -1.02406717901 -0.26209289957 2.09813100605 -1.02245407710 -0.26922699193 2.09672413458 -1.02050748725 -0.27570464575 2.09615288948 -1.01824703819 -0.28167776514 2.09631718060 -1.01569235862 -0.28729825423 2.09711691776 -1.01286307729 -0.29271801714 2.09845201082 -1.00977882291 -0.29808895801 2.10022236959 -1.00645922421 -0.30356298094 2.10232790392 -1.00292390991 -0.30929199007 2.10466852365 -0.99919250875 -0.31542788953 2.10714413861 -1.02420166033 -0.25252140145 2.07990579938 -1.02255624874 -0.25925723961 2.07698552984 -1.02058379643 -0.26511384924 2.07472597514 -1.01830250508 -0.27025627241 2.07302516703 -1.01573057640 -0.27484955115 2.07178113727 -1.01288621209 -0.27905872753 2.07089191761 -1.00978761385 -0.28304884360 2.07025553980 -1.00645298337 -0.28698494140 2.06977003559 -1.00290052236 -0.29103206300 2.06933343674 -0.99914843251 -0.29535525044 2.06884377500 -1.02418023497 -0.24224704240 2.06170065534 -1.02253449358 -0.24825091498 2.05748121187 -1.02056099960 -0.25322858321 2.05366280957 -1.01827808561 -0.25735438895 2.05015971929 -1.01570408416 -0.26080267405 2.04688621188 -1.01285732780 -0.26374778033 2.04375655818 -1.00975614909 -0.26636404965 2.04068502904 -1.00641888059 -0.26882582385 2.03758589530 -1.00286385486 -0.27130744476 2.03437342783 -0.99910940445 -0.27398325424 2.03096189746 -1.02400328134 -0.23159231199 2.04408376763 -1.02238888461 -0.23650716118 2.03873737215 -1.02043909747 -0.24036156564 2.03351322433 -1.01817388587 -0.24332174591 2.02833536252 -1.01561321579 -0.24555392255 2.02312782506 -1.01277705320 -0.24722431610 2.01781465031 -1.00968536407 -0.24849914711 2.01231987660 -1.00635811436 -0.24954463614 2.00656754230 -1.00281527006 -0.25052700373 2.00048168575 -0.99907679713 -0.25161247042 1.99398634530 -1.02367117787 -0.22087969975 2.02762332995 -1.02211949487 -0.22432512137 2.02128020217 -1.02021809068 -0.22682551451 2.01482705097 -1.01799001191 -0.22850797441 2.00816662185 -1.01545830516 -0.22949959629 2.00120166029 -1.01264601705 -0.22992747538 1.99383491177 -1.00957619418 -0.22991870692 1.98596912179 -1.00627188316 -0.22960038612 1.97750703582 -1.00275613060 -0.22909960823 1.96835139935 -0.99905198312 -0.22854346847 1.95840495786 -1.02318430297 -0.21043169522 2.01288753602 -1.02172639736 -0.21200393867 2.00563589341 -1.01989797993 -0.21293314781 1.99815412105 -1.01772656982 -0.21326270558 1.99026802243 -1.01523968617 -0.21303599490 1.98180340104 -1.01246484813 -0.21229639873 1.97258606036 -1.00942957485 -0.21108730000 1.96244180389 -1.00616138547 -0.20945208166 1.95119643509 -1.00268779913 -0.20743412664 1.93867575746 -0.99903633497 -0.20507681788 1.92470557448 -1.02254303508 -0.20057078795 2.00044457954 -1.02120966511 -0.19984275625 1.99233063735 -1.01947876588 -0.19899718353 1.98404426611 -1.01738366566 -0.19793557055 1.97525408940 -1.01495769269 -0.19655941802 1.96562873079 -1.01223417522 -0.19477022670 1.95483681386 -1.00924644150 -0.19246949731 1.94254696218 -1.00602781976 -0.18955873060 1.92842779934 -1.00261163827 -0.18593942729 1.91214794892 -0.99903122526 -0.18151308814 1.89337603447 </DataArray>
</Points>
</Piece>
</StructuredGrid>
</VTKFile>
