<?xml version="1.0"?>
<VTKFile type="StructuredGrid" version="0.1">
<StructuredGrid WholeExtent="0 9 0 9 0 9">
<Piece Extent="0 9 0 9 0 9">
<PointData>
<DataArray type="Float32" Name="Deformation" format="ascii" NumberOfComponents="3">
-0.00039043294 0.00223763683 0.01855769821 -0.00047474288 0.00219325274 0.01995348836 -0.00055561220 0.00211323158 0.02161026407 -0.00063107516 0.00199596142 0.02346568503 -0.00069916603 0.00183983033 0.02545741093 -0.00075791909 0.00164322639 0.02752310146 -0.00080536860 0.00140453768 0.02960041631 -0.00083954884 0.00112215227 0.03162701517 -0.00085849406 0.00079445824 0.03354055772 -0.00086023853 0.00041984367 0.03527870366 -0.00041925273 0.00204497382 0.01761560734 -0.00050296272 0.00199900330 0.01905976279 -0.00058697349 0.00191702395 0.02077938445 -0.00066933709 0.00179908040 0.02270460082 -0.00074810561 0.00164521734 0.02476554036 -0.00082133110 0.00145547940 0.02689233155 -0.00088706563 0.00122991124 0.02901510289 -0.00094336128 0.00096855753 0.03106398285 -0.00098827011 0.00067146292 0.03296909991 -0.00101984419 0.00033867206 0.03466058256 -0.00043665445 0.00194978287 0.01647814933 -0.00052448915 0.00192078704 0.01796445289 -0.00061288410 0.00184642295 0.01975322902 -0.00070035696 0.00173010258 0.02176550569 -0.00078542540 0.00157523791 0.02392231088 -0.00086660707 0.00138524093 0.02614467257 -0.00094241964 0.00116352361 0.02835361874 -0.00101138077 0.00091349794 0.03047017736 -0.00107200814 0.00063857591 0.03241537641 -0.00112281941 0.00034216949 0.03411024387 -0.00044690917 0.00193949209 0.01518618136 -0.00054024663 0.00193578424 0.01672270537 -0.00063260128 0.00187173471 0.01859366403 -0.00072310549 0.00175525749 0.02071067819 -0.00081089168 0.00159426655 0.02298536867 -0.00089509222 0.00139667590 0.02532935632 -0.00097483950 0.00117039952 0.02765426198 -0.00104926593 0.00092335138 0.02987170649 -0.00111750389 0.00066344548 0.03189331068 -0.00117868577 0.00039859580 0.03363069540 -0.00045428798 0.00200152962 0.01378056058 -0.00055115962 0.00202117518 0.01538966691 -0.00064538223 0.00196326532 0.01736255575 -0.00073655340 0.00184077464 0.01960239682 -0.00082427072 0.00166667775 0.02201235986 -0.00090813176 0.00145394923 0.02449561459 -0.00098773411 0.00121556368 0.02695533074 -0.00106267536 0.00096449570 0.02929467804 -0.00113255308 0.00071371988 0.03141682621 -0.00119696487 0.00047621082 0.03322494498 -0.00046306199 0.00212332360 0.01230214417 -0.00055815258 0.00215414014 0.01402048421 -0.00065048420 0.00209132089 0.01612177043 -0.00073967141 0.00195288359 0.01850294012 -0.00082532880 0.00175684598 0.02106093061 -0.00090707092 0.00152122582 0.02369267919 -0.00098451236 0.00126404083 0.02629512315 -0.00105726768 0.00100330877 0.02876519981 -0.00112495146 0.00075704738 0.03099984647 -0.00118717827 0.00054327441 0.03289600043 -0.00047750228 0.00229230216 0.01079178929 -0.00056214999 0.00231185942 0.01267030396 -0.00064716441 0.00222620753 0.01493317433 -0.00073143024 0.00205781386 0.01747458662 -0.00081383217 0.00182914576 0.02018872707 -0.00089325490 0.00156267059 0.02296978189 -0.00096858311 0.00128085571 0.02571193733 -0.00103870150 0.00100616847 0.02830937960 -0.00110249476 0.00076107624 0.03065629494 -0.00115884757 0.00056804638 0.03264686957 -0.00050187994 0.00249589342 0.00929035312 -0.00056407629 0.00247151328 0.01139427287 -0.00063468009 0.00233823134 0.01385863372 -0.00071080061 0.00212179498 0.01657961484 -0.00078954713 0.00184795155 0.01945339538 -0.00086802892 0.00154244844 0.02237615451 -0.00094335527 0.00123103302 0.02524407140 -0.00101263544 0.00093945266 0.02795332520 -0.00107297871 0.00069345472 0.03040009509 -0.00112149435 0.00051878658 0.03248056023 -0.00054046607 0.00272152552 0.00783869280 -0.00056485596 0.00261028202 0.01024753762 -0.00061228846 0.00239769843 0.01296001486 -0.00067675323 0.00211105648 0.01588030330 -0.00075223993 0.00177763787 0.01891258170 -0.00083273820 0.00142472431 0.02196102884 -0.00091223770 0.00107959751 0.02492982349 -0.00098472810 0.00076953920 0.02772314442 -0.00104419904 0.00052183107 0.03024517041 -0.00108464019 0.00036375484 0.03240008023 -0.00059753174 0.00295662659 0.00647766552 -0.00056541345 0.00270534591 0.00928524492 -0.00057924676 0.00237491491 0.01229918402 -0.00062825884 0.00199182790 0.01543893053 -0.00070167684 0.00158257919 0.01862393218 -0.00078872794 0.00117366309 0.02177363668 -0.00087863931 0.00079157391 0.02480749173 -0.00096063811 0.00046280596 0.02764494505 -0.00102395150 0.00021385356 0.03020544437 -0.00105780666 0.00007121101 0.03240843738 -0.00040478005 -0.00021763714 0.01920877596 -0.00047323638 0.00006432821 0.02053134081 -0.00053903760 0.00024384579 0.02209596089 -0.00060078108 0.00033149818 0.02385659389 -0.00065706421 0.00033786798 0.02576719754 -0.00070648437 0.00027353778 0.02778172953 -0.00074763895 0.00014909015 0.02985414758 -0.00077912533 -0.00002489230 0.03193840941 -0.00079954088 -0.00023782699 0.03398847271 -0.00080748300 -0.00047913134 0.03595829521 -0.00043912428 -0.00032585467 0.01838584996 -0.00051118155 -0.00004896936 0.01974654166 -0.00058348172 0.00012674763 0.02136133320 -0.00065466469 0.00021182558 0.02317507871 -0.00072337038 0.00021679380 0.02513263229 -0.00078823870 0.00015218160 0.02717884806 -0.00084790958 0.00002851827 0.02925858013 -0.00090102293 -0.00014366688 0.03131668262 -0.00094621866 -0.00035384455 0.03329800963 -0.00098213669 -0.00059148544 0.03514741530 -0.00046926626 -0.00033653160 0.01738341660 -0.00054539407 -0.00005332562 0.01878307988 -0.00062248524 0.00012340516 0.02045793550 -0.00069943155 0.00020576916 0.02234330184 -0.00077512476 0.00020587484 0.02437449728 -0.00084845666 0.00013583062 0.02648684018 -0.00091831902 0.00000774493 0.02861564892 -0.00098360361 -0.00016627377 0.03069624185 -0.00104320222 -0.00037411707 0.03266393737 -0.00109600661 -0.00060367651 0.03445405382 -0.00049507724 -0.00025781250 0.01623279579 -0.00057427963 0.00003510186 0.01768039153 -0.00065403577 0.00021213880 0.01942893974 -0.00073353118 0.00028814829 0.02140436424 -0.00081195138 0.00027798036 0.02353258889 -0.00088848189 0.00019648499 0.02573953750 -0.00096230822 0.00005851219 0.02795113391 -0.00103261589 -0.00012108805 0.03009330196 -0.00109859041 -0.00032746572 0.03209196548 -0.00115941730 -0.00054577082 0.03387304831 -0.00051642848 -0.00009784198 0.01496530739 -0.00059624390 0.00020015553 0.01647791267 -0.00067612088 0.00037126897 0.01831751787 -0.00075541310 0.00043378234 0.02040136685 -0.00083347427 0.00040597964 0.02264670347 -0.00090965806 0.00030614488 0.02497077159 -0.00098331816 0.00015256207 0.02729081507 -0.00105380828 -0.00003648479 0.02952407777 -0.00112048208 -0.00024271171 0.03158780355 -0.00118269328 -0.00044783466 0.03339923627 -0.00053319122 0.00013523536 0.01361227132 -0.00060969258 0.00042567781 0.01521507936 -0.00068672817 0.00057911609 0.01716684185 -0.00076352684 0.00061749065 0.01937741059 -0.00083931743 0.00056274195 0.02175663739 -0.00091332880 0.00043681046 0.02421437405 -0.00098478981 0.00026163662 0.02666047236 -0.00105292929 0.00005916091 0.02900478412 -0.00111697609 -0.00014867622 0.03115716114 -0.00117615908 -0.00033993431 0.03302745522 -0.00054523673 0.00043327493 0.01220500747 -0.00061303136 0.00069551116 0.01393132766 -0.00068384523 0.00081400059 0.01602008364 -0.00075632189 0.00081409260 0.01837559643 -0.00082910489 0.00072113657 0.02090218703 -0.00090083779 0.00056048188 0.02350417646 -0.00097016412 0.00035747789 0.02608588573 -0.00103572744 0.00013747399 0.02855163585 -0.00109617129 -0.00007418045 0.03080574783 -0.00115013924 -0.00025213605 0.03275254269 -0.00055243626 0.00078813213 0.01077483572 -0.00060466593 0.00099349799 0.01266609361 -0.00066545966 0.00105424287 0.01492041519 -0.00073224779 0.00099840754 0.01743902528 -0.00080246068 0.00085403276 0.02012314875 -0.00087352865 0.00064915930 0.02287401043 -0.00094288206 0.00041182791 0.02559283516 -0.00100795124 0.00017007936 0.02818084781 -0.00106616653 -0.00004804559 0.03053927320 -0.00111495829 -0.00021450617 0.03256933618 -0.00055466106 0.00119166237 0.00935307598 -0.00058300196 0.00130348076 0.01145881329 -0.00062955903 0.00127816338 0.01391100845 -0.00068975405 0.00114525485 0.01661079810 -0.00075900880 0.00093429981 0.01945931891 -0.00083274506 0.00067484288 0.02235770753 -0.00090638460 0.00039642872 0.02520710061 -0.00097534921 0.00012860193 0.02790863481 -0.00103506067 -0.00009909284 0.03036344680 -0.00108094075 -0.00025711096 0.03247267322 -0.00055178239 0.00163572104 0.00797104812 -0.00054644516 0.00160930190 0.01034892275 -0.00057413095 0.00146408251 0.01303503539 -0.00062729019 0.00122945387 0.01593401583 -0.00069837328 0.00093480697 0.01895049389 -0.00077983065 0.00060953280 0.02198909935 -0.00086411271 0.00028302236 0.02495446203 -0.00094366987 -0.00001533336 0.02775121171 -0.00101095255 -0.00025614338 0.03028397821 -0.00105841117 -0.00041001668 0.03245739132 -0.00041657896 -0.00229126070 0.01991086940 -0.00047223252 -0.00178216730 0.02115988217 -0.00052596655 -0.00142053807 0.02263402728 -0.00057671384 -0.00118819186 0.02430021195 -0.00062340721 -0.00106694752 0.02612534343 -0.00066497946 -0.00103862392 0.02807632893 -0.00070036339 -0.00108503992 0.03012007570 -0.00072849182 -0.00118801437 0.03222349096 -0.00074829753 -0.00132936614 0.03435348195 -0.00075871335 -0.00149091407 0.03647695589 -0.00045809241 -0.00232954345 0.01917687513 -0.00052001678 -0.00182730494 0.02045713287 -0.00058229405 -0.00147057132 0.02197253061 -0.00064390774 -0.00124191924 0.02367983916 -0.00070384138 -0.00112392536 0.02553582937 -0.00076107851 -0.00109916636 0.02749727207 -0.00081460266 -0.00115021887 0.02952093808 -0.00086339736 -0.00125965958 0.03156359824 -0.00090644614 -0.00141006513 0.03358202338 -0.00094273253 -0.00158401219 0.03553298433 -0.00049940501 -0.00227333789 0.01827965570 -0.00056522814 -0.00177187647 0.01959684634 -0.00063244550 -0.00141858813 0.02116554980 -0.00070014468 -0.00119543422 0.02293282687 -0.00076741325 -0.00108437613 0.02484573834 -0.00083333878 -0.00106737522 0.02685134501 -0.00089700886 -0.00112639285 0.02889670766 -0.00095751107 -0.00124339041 0.03092888708 -0.00101393298 -0.00140032925 0.03289494407 -0.00106536218 -0.00157917076 0.03474193941 -0.00053761561 -0.00212846304 0.01724357473 -0.00060479055 -0.00162771110 0.01860716997 -0.00067375962 -0.00128069338 0.02024292118 -0.00074369069 -0.00106772882 0.02208867609 -0.00081375170 -0.00096913636 0.02408228244 -0.00088311053 -0.00096523491 0.02616158798 -0.00095093510 -0.00103634343 0.02826444043 -0.00101639331 -0.00116278084 0.03032868754 -0.00107865308 -0.00132486608 0.03229217705 -0.00113688229 -0.00150291809 0.03409275668 -0.00056982307 -0.00190073793 0.01609299587 -0.00063562800 -0.00140663802 0.01751625118 -0.00070357509 -0.00107299196 0.01923448107 -0.00077281181 -0.00087779504 0.02117688784 -0.00084248564 -0.00079904258 0.02327267379 -0.00091174404 -0.00081472985 0.02545104122 -0.00097973449 -0.00090285218 0.02764119242 -0.00104560447 -0.00104140487 0.02977232971 -0.00110850143 -0.00120838320 0.03177365537 -0.00116757286 -0.00138178250 0.03357437171 -0.00059312626 -0.00159598158 0.01485228274 -0.00065466444 -0.00112048645 0.01635223736 -0.00071923062 -0.00081158875 0.01817006579 -0.00078577405 -0.00064462490 0.02022696313 -0.00085324396 -0.00059493132 0.02244412448 -0.00092058958 -0.00063784445 0.02474274495 -0.00098676015 -0.00074870069 0.02704401964 -0.00105070490 -0.00090283646 0.02926914365 -0.00111137307 -0.00107558820 0.03133931209 -0.00116771389 -0.00124229232 0.03317572004 -0.00060462403 -0.00122001302 0.01354579900 -0.00065882383 -0.00078108557 0.01514327592 -0.00071806492 -0.00051258861 0.01707951166 -0.00078084345 -0.00038721039 0.01926840298 -0.00084565557 -0.00037763914 0.02162384664 -0.00091099743 -0.00045656310 0.02405973943 -0.00097536518 -0.00059667051 0.02648997811 -0.00103725499 -0.00077064962 0.02882845946 -0.00109516300 -0.00095118865 0.03098908024 -0.00114758537 -0.00111097587 0.03288573723 -0.00060141525 -0.00077865126 0.01219790826 -0.00064503016 -0.00040026460 0.01391751428 -0.00069741669 -0.00019209645 0.01599265501 -0.00075628603 -0.00012454353 0.01833070840 -0.00081934935 -0.00016800255 0.02083905238 -0.00088431785 -0.00029287021 0.02342506488 -0.00094890270 -0.00046954323 0.02599612384 -0.00101081511 -0.00066841831 0.02845960719 -0.00106776624 -0.00085989215 0.03072289288 -0.00111746729 -0.00101436147 0.03269335883 -0.00058059878 -0.00027771534 0.01083297417 -0.00061020738 0.00001014727 0.01270309982 -0.00065462463 0.00013378287 0.01493933217 -0.00071036781 0.00012438367 0.01744338042 -0.00077395421 0.00001314190 0.02011695380 -0.00084190112 -0.00016875021 0.02286176153 -0.00091072582 -0.00039010042 0.02557951284 -0.00097694562 -0.00061971652 0.02817191694 -0.00103707780 -0.00082640627 0.03054068305 -0.00108763965 -0.00097897744 0.03258752040 -0.00053927347 0.00027697572 0.00947536036 -0.00055127947 0.00043832084 0.01152817997 -0.00058702745 0.00044894446 0.01394937944 -0.00064135483 0.00034057920 0.01663592004 -0.00070909904 0.00014495768 0.01948476302 -0.00078509751 -0.00010618748 0.02239286963 -0.00086418766 -0.00038112365 0.02525720113 -0.00094120691 -0.00064811823 0.02797471877 -0.00101099270 -0.00087543859 0.03044238380 -0.00106838244 -0.00103135211 0.03255715750 -0.00042627957 -0.00402144073 0.02064586418 -0.00047177285 -0.00337415115 0.02182155093 -0.00051603861 -0.00289988955 0.02320747786 -0.00055817311 -0.00257672854 0.02478049817 -0.00059727264 -0.00238274069 0.02651746508 -0.00063243347 -0.00229599860 0.02839523179 -0.00066275187 -0.00229457488 0.03039065150 -0.00068732412 -0.00235654210 0.03248057743 -0.00070524651 -0.00245997287 0.03464186279 -0.00071561530 -0.00258293978 0.03685136077 -0.00047600032 -0.00400308931 0.01997519957 -0.00052914661 -0.00336305632 0.02117794386 -0.00058291594 -0.00289418206 0.02259929856 -0.00063644023 -0.00257528136 0.02420548987 -0.00068885136 -0.00238516904 0.02596274400 -0.00073928123 -0.00230265993 0.02783728713 -0.00078686176 -0.00230656887 0.02979534548 -0.00083072484 -0.00237571069 0.03180314524 -0.00087000237 -0.00248890021 0.03382691261 -0.00090382626 -0.00262495227 0.03583287381 -0.00052696916 -0.00389556164 0.01915744933 -0.00058375116 -0.00326041318 0.02039593413 -0.00064240474 -0.00279763610 0.02186578268 -0.00070206896 -0.00248578229 0.02352361237 -0.00076188283 -0.00230340361 0.02532604055 -0.00082098539 -0.00222905193 0.02722968460 -0.00087851568 -0.00224127912 0.02919116189 -0.00093361273 -0.00231863705 0.03116708979 -0.00098541557 -0.00243967759 0.03311408567 -0.00103306325 -0.00258295261 0.03498876690 -0.00057482995 -0.00370401116 0.01821219735 -0.00063184900 -0.00307559364 0.01949611083 -0.00069166879 -0.00262274638 0.02102794354 -0.00075338473 -0.00232296890 0.02275545122 -0.00081609221 -0.00215376070 0.02462638960 -0.00087888665 -0.00209262128 0.02658851443 -0.00094086346 -0.00211705014 0.02858958145 -0.00100111805 -0.00220454680 0.03057734639 -0.00105874583 -0.00233261074 0.03249956501 -0.00111284220 -0.00247874149 0.03430399303 -0.00061522656 -0.00343359131 0.01715902755 -0.00066970266 -0.00281796963 0.01849906309 -0.00072787187 -0.00238200761 0.02010679446 -0.00078871295 -0.00210157876 0.02192159199 -0.00085120464 -0.00195255661 0.02388282601 -0.00091432572 -0.00191081467 0.02592986685 -0.00097705495 -0.00195222648 0.02800208486 -0.00103837106 -0.00205266555 0.03003885036 -0.00109725284 -0.00218800541 0.03197953369 -0.00115267903 -0.00233411958 0.03376350519 -0.00064380288 -0.00308945555 0.01601752380 -0.00069357464 -0.00249691310 0.01742538002 -0.00074817776 -0.00208791449 0.01912334878 -0.00080637903 -0.00183634943 0.02104262026 -0.00086694528 -0.00171610763 0.02311438464 -0.00092864332 -0.00170107880 0.02526983211 -0.00099023997 -0.00176515267 0.02744015283 -0.00105050203 -0.00188221894 0.02955653700 -0.00110819633 -0.00202616733 0.03155017478 -0.00116208968 -0.00217088756 0.03335225637 -0.00065620276 -0.00267675731 0.01480727001 -0.00069972745 -0.00212179597 0.01629565072 -0.00074975023 -0.00175296173 0.01809861981 -0.00080470840 -0.00154201847 0.02013912159 -0.00086303927 -0.00146073005 0.02234010036 -0.00092318016 -0.00148086035 0.02462450042 -0.00098356837 -0.00157417324 0.02691526607 -0.00104264122 -0.00171243258 0.02913534161 -0.00109883601 -0.00186740225 0.03120767134 -0.00115059006 -0.00201084612 0.03305519956 -0.00064807008 -0.00220065005 0.01354785008 -0.00068442360 -0.00170199017 0.01513046431 -0.00072975307 -0.00138964404 0.01705362089 -0.00078202646 -0.00123332346 0.01923168156 -0.00083921177 -0.00120274019 0.02157900803 -0.00089927695 -0.00126760601 0.02400996203 -0.00096019000 -0.00139763272 0.02643890528 -0.00101991889 -0.00156253209 0.02878019950 -0.00107643160 -0.00173201590 0.03094820641 -0.00112769610 -0.00187579594 0.03285728775 -0.00061504871 -0.00166628721 0.01225884791 -0.00064392560 -0.00124686763 0.01395040989 -0.00068535005 -0.00101045613 0.01600936534 -0.00073665864 -0.00092500195 0.01834088572 -0.00079518791 -0.00095845432 0.02085014251 -0.00085827440 -0.00107876248 0.02344230716 -0.00092325468 -0.00125387566 0.02602255116 -0.00098746529 -0.00145174309 0.02849604598 -0.00104824279 -0.00164031403 0.03076796307 -0.00110292373 -0.00178753769 0.03274347391 -0.00055278253 -0.00107882223 0.01095984738 -0.00057449595 -0.00076580028 0.01277607658 -0.00061370496 -0.00062789270 0.01498686649 -0.00066693034 -0.00063179152 0.01748731965 -0.00073069284 -0.00074418875 0.02017253866 -0.00080151323 -0.00093177643 0.02293762606 -0.00087591226 -0.00116124657 0.02567768443 -0.00095041070 -0.00139929121 0.02828781635 -0.00102152932 -0.00161260237 0.03066312436 -0.00108578888 -0.00176787207 0.03269871105 -0.00043433179 -0.00544638409 0.02139564590 -0.00047189894 -0.00473954067 0.02249878557 -0.00050889335 -0.00421417822 0.02379932723 -0.00054445856 -0.00384773168 0.02528141150 -0.00057773810 -0.00361763601 0.02692917896 -0.00060787551 -0.00350132614 0.02872677021 -0.00063401432 -0.00347623703 0.03065832583 -0.00065529808 -0.00351980363 0.03270798644 -0.00067087031 -0.00360946088 0.03485989261 -0.00067987456 -0.00372264372 0.03709818494 -0.00049269121 -0.00538348908 0.02076733996 -0.00053824923 -0.00468327638 0.02189538204 -0.00058485287 -0.00416333378 0.02322795897 -0.00063163613 -0.00380138808 0.02473863853 -0.00067773303 -0.00357516608 0.02640098853 -0.00072227757 -0.00346239459 0.02818857676 -0.00076440377 -0.00344080041 0.03007497101 -0.00080324564 -0.00348811035 0.03203373909 -0.00083793719 -0.00358205119 0.03403844878 -0.00086761243 -0.00370034976 0.03606266789 -0.00055185718 -0.00523812849 0.02000738020 -0.00060072293 -0.00454448338 0.02117052509 -0.00065200283 -0.00403181797 0.02254834492 -0.00070477698 -0.00367754975 0.02410518993 -0.00075812549 -0.00345909622 0.02580541038 -0.00081112846 -0.00335387488 0.02761335649 -0.00086286598 -0.00333930323 0.02949337853 -0.00091241818 -0.00339279878 0.03140982672 -0.00095886514 -0.00349177901 0.03332705132 -0.00100128697 -0.00361366144 0.03520940257 -0.00060702595 -0.00501600849 0.01913234281 -0.00065552456 -0.00433148473 0.02034028426 -0.00070765928 -0.00383000476 0.02177634202 -0.00076241397 -0.00348816698 0.02339652712 -0.00081877251 -0.00328256978 0.02515685061 -0.00087571877 -0.00318981157 0.02701332351 -0.00093223662 -0.00318649075 0.02892195685 -0.00098730994 -0.00324920570 0.03083876166 -0.00103992260 -0.00335455482 0.03271974899 -0.00108905846 -0.00347913653 0.03452092985 -0.00065339377 -0.00472283522 0.01815880397 -0.00069885865 -0.00405260345 0.01942072909 -0.00074913824 -0.00356826812 0.02092780719 -0.00080307994 -0.00324519007 0.02262811152 -0.00085953110 -0.00305873016 0.02446971533 -0.00091733912 -0.00298424926 0.02640069188 -0.00097535136 -0.00299710822 0.02836911443 -0.00103241520 -0.00307266788 0.03032305623 -0.00108737801 -0.00318628912 0.03221059054 -0.00113908718 -0.00331333278 0.03397979061 -0.00068615688 -0.00436431487 0.01710333985 -0.00072692971 -0.00371616261 0.01842792915 -0.00077375577 -0.00325698202 0.02001859738 -0.00082530774 -0.00296056931 0.02181540454 -0.00088025830 -0.00280072073 0.02375841064 -0.00093728011 -0.00275123251 0.02578767570 -0.00099504585 -0.00278590089 0.02784325973 -0.00105222819 -0.00287852211 0.02986522274 -0.00110749982 -0.00300289239 0.03179362473 -0.00115953340 -0.00313280797 0.03356852572 -0.00070051152 -0.00394615357 0.01598252665 -0.00073594227 -0.00333048525 0.01737795399 -0.00077882789 -0.00290652043 0.01906456950 -0.00082763023 -0.00264625500 0.02097386759 -0.00088081110 -0.00252168486 0.02303734265 -0.00093683234 -0.00250480591 0.02518648906 -0.00099415575 -0.00256761404 0.02735280122 -0.00105124319 -0.00268210514 0.02946777351 -0.00110655646 -0.00282027512 0.03146290032 -0.00115855740 -0.00295411986 0.03326967606 -0.00069165394 -0.00347405750 0.01481294055 -0.00072210084 -0.00290389441 0.01628687314 -0.00076167065 -0.00252725732 0.01808158050 -0.00080858025 -0.00231419743 0.02011896211 -0.00086104654 -0.00223476594 0.02232091745 -0.00091728641 -0.00225901403 0.02460934604 -0.00097551675 -0.00235699291 0.02690614734 -0.00103395444 -0.00249875377 0.02913322086 -0.00109081638 -0.00265434781 0.03121246608 -0.00114431946 -0.00279382622 0.03306578249 -0.00065478038 -0.00295373281 0.01361115773 -0.00068160996 -0.00244471314 0.01517075618 -0.00071960008 -0.00212956667 0.01708548729 -0.00076669066 -0.00197634690 0.01926614949 -0.00082082164 -0.00195310732 0.02162354116 -0.00087993294 -0.00202790144 0.02406846072 -0.00094196448 -0.00216878275 0.02651170657 -0.00100485620 -0.00234380475 0.02886407711 -0.00106654801 -0.00252102093 0.03103637075 -0.00112497985 -0.00266848480 0.03293938590 -0.00058508710 -0.00239088567 0.01239375436 -0.00061067414 -0.00196126448 0.01404567263 -0.00064993221 -0.00172382244 0.01609214682 -0.00070049430 -0.00164465369 0.01843089116 -0.00075999341 -0.00168985240 0.02095961987 -0.00082606252 -0.00182551273 0.02357604719 -0.00089633463 -0.00201772883 0.02617788735 -0.00096844272 -0.00223259487 0.02866285458 -0.00104001980 -0.00243620500 0.03092866311 -0.00110869886 -0.00259465338 0.03287302716 -0.00044118552 -0.00660429766 0.02214210020 -0.00047265233 -0.00590625322 0.02317402458 -0.00050417033 -0.00538337362 0.02439259003 -0.00053486985 -0.00501482113 0.02578691091 -0.00056388120 -0.00477975798 0.02734610156 -0.00059033471 -0.00465734643 0.02905927632 -0.00061336070 -0.00462674873 0.03091554954 -0.00063208951 -0.00466712711 0.03290403557 -0.00064565144 -0.00475764384 0.03501384876 -0.00065317683 -0.00487746116 0.03723410345 -0.00050800827 -0.00650773957 0.02153981302 -0.00054700284 -0.00581501798 0.02259585484 -0.00058761028 -0.00529727564 0.02384483371 -0.00062886942 -0.00493336671 0.02526589282 -0.00066981913 -0.00470214537 0.02683817535 -0.00070949823 -0.00458246580 0.02854082448 -0.00074694558 -0.00455318218 0.03035298340 -0.00078120003 -0.00459314868 0.03225379529 -0.00081130041 -0.00468121947 0.03422240333 -0.00083628559 -0.00479624874 0.03623795072 -0.00057396756 -0.00633596408 0.02082003104 -0.00061590327 -0.00564963475 0.02191080107 -0.00066087961 -0.00513921292 0.02320294727 -0.00070784135 -0.00478301130 0.02466709116 -0.00075573320 -0.00455934257 0.02627385431 -0.00080349994 -0.00444651943 0.02799385824 -0.00085008629 -0.00442285457 0.02979772450 -0.00089443700 -0.00446666068 0.03165607463 -0.00093549682 -0.00455625046 0.03353953019 -0.00097221049 -0.00466993660 0.03541871269 -0.00063450931 -0.00609600666 0.01999769026 -0.00067588681 -0.00541832335 0.02113276038 -0.00072162703 -0.00491845306 0.02248045179 -0.00077057911 -0.00457391808 0.02400374131 -0.00082159219 -0.00436224072 0.02566560573 -0.00087351541 -0.00426094327 0.02742902187 -0.00092519792 -0.00424754805 0.02925696653 -0.00097548884 -0.00429957734 0.03111241651 -0.00102323733 -0.00439455345 0.03295834861 -0.00106729253 -0.00450999869 0.03475773965 -0.00068507949 -0.00579490277 0.01908772667 -0.00072348669 -0.00512930364 0.02027562984 -0.00076750121 -0.00464426362 0.02169086838 -0.00081587621 -0.00431625023 0.02328907863 -0.00086736483 -0.00412173096 0.02502589694 -0.00092072024 -0.00403717331 0.02685695968 -0.00097469557 -0.00403904478 0.02873790318 -0.00102804400 -0.00410381289 0.03062436381 -0.00107951866 -0.00420794513 0.03247197792 -0.00112787271 -0.00432790900 0.03423638186 -0.00072112404 -0.00543968787 0.01810507627 -0.00075523612 -0.00479079545 0.01935330658 -0.00079615086 -0.00432591220 0.02084771813 -0.00084252615 -0.00402017092 0.02253633850 -0.00089301990 -0.00384870442 0.02436719525 -0.00094629000 -0.00378664549 0.02628831595 -0.00100099436 -0.00380912693 0.02824772816 -0.00105579089 -0.00389128155 0.03019345946 -0.00110933748 -0.00400824214 0.03207353741 -0.00116029204 -0.00413514150 0.03383598958 -0.00073808889 -0.00503739742 0.01706467506 -0.00076766832 -0.00441101862 0.01837968768 -0.00080522466 -0.00397266636 0.01996452215 -0.00084932243 -0.00369584334 0.02175875630 -0.00089852614 -0.00355405225 0.02370196797 -0.00095140028 -0.00352079579 0.02573373498 -0.00100650939 -0.00356957666 0.02779363517 -0.00106241795 -0.00367389754 0.02982124636 -0.00111769049 -0.00380726114 0.03175614639 -0.00117089150 -0.00394317016 0.03353791308 -0.00073141999 -0.00459506689 0.01598145902 -0.00075731648 -0.00399819300 0.01736867024 -0.00079237131 -0.00359379370 0.01905480152 -0.00083505855 -0.00335343066 0.02096956741 -0.00088385231 -0.00324866559 0.02304268241 -0.00093722667 -0.00325106018 0.02520386106 -0.00099365574 -0.00333217612 0.02738281789 -0.00105161361 -0.00346357510 0.02950926741 -0.00110957437 -0.00361681881 0.03151292415 -0.00116601211 -0.00376346895 0.03332350264 -0.00069656329 -0.00411973174 0.01487036416 -0.00072071384 -0.00356053844 0.01633415136 -0.00075523949 -0.00319856178 0.01813207736 -0.00079852800 -0.00300309607 0.02018200719 -0.00084896716 -0.00294343558 0.02240180590 -0.00090494475 -0.00298887462 0.02470933850 -0.00096484853 -0.00310870747 0.02702247003 -0.00102706630 -0.00327222843 0.02925906552 -0.00108998581 -0.00344873180 0.03133699000 -0.00115199487 -0.00360751186 0.03317410851 -0.00062896472 -0.00361842743 0.01374632647 -0.00065439360 -0.00310627477 0.01529002813 -0.00069147790 -0.00279623820 0.01720987075 -0.00073852429 -0.00265500273 0.01940931103 -0.00079383946 -0.00264925335 0.02179180573 -0.00085573009 -0.00274567507 0.02426081157 -0.00092250286 -0.00291095287 0.02671978528 -0.00099246444 -0.00311177177 0.02907218360 -0.00106392152 -0.00331481677 0.03122146325 -0.00113518077 -0.00348677285 0.03307108097 -0.00044729068 -0.00753338829 0.02286711269 -0.00047407459 -0.00690220613 0.02382970645 -0.00050150911 -0.00642744533 0.02497028087 -0.00052870664 -0.00609161671 0.02628095535 -0.00055477953 -0.00587723111 0.02775384933 -0.00057884018 -0.00576679936 0.02938108223 -0.00060000095 -0.00574283228 0.03115477346 -0.00061737423 -0.00578784070 0.03306704244 -0.00063007239 -0.00588433544 0.03511000861 -0.00063720781 -0.00601482735 0.03727579138 -0.00052179472 -0.00741283759 0.02227913545 -0.00055508565 -0.00678533401 0.02326576968 -0.00059069364 -0.00631525682 0.02443624470 -0.00062751409 -0.00598434455 0.02577386044 -0.00066444239 -0.00577433578 0.02726191685 -0.00070037392 -0.00566696903 0.02888371384 -0.00073420409 -0.00564398286 0.03062255136 -0.00076482827 -0.00568711581 0.03246172935 -0.00079114188 -0.00577810645 0.03438454773 -0.00081204029 -0.00589869330 0.03637430644 -0.00059319875 -0.00722399405 0.02158598456 -0.00062905197 -0.00660141493 0.02260694393 -0.00066867496 -0.00613790017 0.02381930050 -0.00071083465 -0.00581444166 0.02519884766 -0.00075429796 -0.00561203129 0.02672137882 -0.00079783180 -0.00551166094 0.02836268737 -0.00084020310 -0.00549432249 0.03009856672 -0.00088017878 -0.00554100784 0.03190481027 -0.00091652575 -0.00563270886 0.03375721141 -0.00094801095 -0.00575041744 0.03563156355 -0.00065758572 -0.00697555731 0.02080191887 -0.00069300534 -0.00635904850 0.02186660933 -0.00073346803 -0.00590407584 0.02313260805 -0.00077768084 -0.00559081725 0.02456893126 -0.00082435084 -0.00539945061 0.02614459522 -0.00087218509 -0.00531015385 0.02782861618 -0.00091989066 -0.00530310485 0.02959001038 -0.00096617460 -0.00535848152 0.03139779407 -0.00100974397 -0.00545646176 0.03322098351 -0.00104930585 -0.00557722347 0.03502859494 -0.00071103854 -0.00667622704 0.01994119721 -0.00074397755 -0.00606683434 0.02105814602 -0.00078308780 -0.00562248427 0.02238932715 -0.00082706519 -0.00532238050 0.02389712552 -0.00087460565 -0.00514572669 0.02554392603 -0.00092440509 -0.00507172650 0.02729211361 -0.00097515944 -0.00507958358 0.02910407317 -0.00102556460 -0.00514850161 0.03094218961 -0.00107431649 -0.00525768423 0.03276884786 -0.00112011103 -0.00538633511 0.03454643283 -0.00074964015 -0.00633470288 0.01901807842 -0.00077900039 -0.00573337206 0.02019493411 -0.00081554923 -0.00530182591 0.02160261759 -0.00085800023 -0.00501804063 0.02319644468 -0.00090506699 -0.00485999247 0.02493173123 -0.00095546308 -0.00480565764 0.02676379304 -0.00100790210 -0.00483301236 0.02864794594 -0.00106109763 -0.00492003286 0.03053950576 -0.00111376325 -0.00504469535 0.03239378832 -0.00116461255 -0.00518497607 0.03416610944 -0.00076947346 -0.00595968448 0.01804682135 -0.00079510566 -0.00536726129 0.01929035373 -0.00082886728 -0.00495080119 0.02078563916 -0.00086949849 -0.00468670685 0.02247990303 -0.00091573946 -0.00455138091 0.02432037078 -0.00096633035 -0.00452122602 0.02625426780 -0.00102001133 -0.00457264484 0.02822881953 -0.00107552256 -0.00468204002 0.03019125136 -0.00113160422 -0.00482581420 0.03208878871 -0.00118699646 -0.00498037005 0.03386865701 -0.00076662141 -0.00555987150 0.01704168485 -0.00078932513 -0.00497710163 0.01835778503 -0.00082105690 -0.00457811058 0.01995155165 -0.00086057250 -0.00433728835 0.02176051482 -0.00090662767 -0.00422902496 0.02372220466 -0.00095797818 -0.00422771040 0.02577415127 -0.00101337978 -0.00430773469 0.02785388478 -0.00107158825 -0.00444348785 0.02989893528 -0.00113135934 -0.00460935987 0.03184683290 -0.00119144880 -0.00477974078 0.03363510774 -0.00073716693 -0.00514396358 0.01601692774 -0.00075869061 -0.00457149272 0.01741060811 -0.00079013307 -0.00419245452 0.01911351485 -0.00083023479 -0.00397869435 0.02105129431 -0.00087773623 -0.00390205756 0.02314959285 -0.00093137785 -0.00393438951 0.02533405680 -0.00098990014 -0.00404753557 0.02753033253 -0.00105204355 -0.00421334109 0.02966406639 -0.00111654856 -0.00440365143 0.03166090472 -0.00118215563 -0.00459031195 0.03344649388 -0.00067719294 -0.00472066037 0.01498680887 -0.00070023388 -0.00415903415 0.01646220312 -0.00073411073 -0.00380253345 0.01828468857 -0.00077749788 -0.00361983404 0.02036525578 -0.00082906973 -0.00357961167 0.02261489532 -0.00088750067 -0.00365054212 0.02494459775 -0.00095146507 -0.00380130114 0.02726535363 -0.00101963733 -0.00400056449 0.02948815353 -0.00109069185 -0.00421700796 0.03152398802 -0.00116330300 -0.00441930729 0.03328384765 -0.00045309717 -0.00827186286 0.02355256901 -0.00047620727 -0.00775531675 0.02444826968 -0.00050054926 -0.00736636288 0.02551541435 -0.00052526860 -0.00709173825 0.02674750379 -0.00054951071 -0.00691817989 0.02813803877 -0.00057242103 -0.00683242481 0.02968052006 -0.00059314501 -0.00682121002 0.03136844843 -0.00061082807 -0.00687127253 0.03319532467 -0.00062461567 -0.00696934937 0.03515464953 -0.00063365323 -0.00710217755 0.03723992379 -0.00053389374 -0.00813577996 0.02297182396 -0.00056217585 -0.00762127733 0.02389153399 -0.00059360842 -0.00723652648 0.02498851382 -0.00062694411 -0.00696744892 0.02624914908 -0.00066093554 -0.00679996616 0.02765982539 -0.00069433535 -0.00671999973 0.02920692835 -0.00072589617 -0.00671347113 0.03087684360 -0.00075437064 -0.00676630189 0.03265595675 -0.00077851140 -0.00686441351 0.03453065341 -0.00079707108 -0.00699372752 0.03648731921 -0.00060944925 -0.00793714403 0.02229582347 -0.00063992885 -0.00742537158 0.02324913551 -0.00067502873 -0.00704595891 0.02438711537 -0.00071332949 -0.00678411555 0.02568999102 -0.00075341172 -0.00662505100 0.02713799039 -0.00079385600 -0.00655397477 0.02871134144 -0.00083324293 -0.00655609638 0.03039027212 -0.00087015310 -0.00661662533 0.03215501037 -0.00090316709 -0.00672077115 0.03398578416 -0.00093086549 -0.00685374334 0.03586282143 -0.00067656086 -0.00768621208 0.02153870778 -0.00070694974 -0.00717659914 0.02253490127 -0.00074307824 -0.00680285766 0.02372514599 -0.00078351985 -0.00654945951 0.02508393449 -0.00082684806 -0.00640087658 0.02658575934 -0.00087163634 -0.00634158076 0.02820511308 -0.00091645817 -0.00635604394 0.02991648829 -0.00095988705 -0.00642873801 0.03169437751 -0.00100049645 -0.00654413486 0.03351327330 -0.00103685985 -0.00668670637 0.03534766823 -0.00073202572 -0.00739324114 0.02071461710 -0.00076072197 -0.00688395971 0.02176265828 -0.00079602500 -0.00651542020 0.02301653263 -0.00083661030 -0.00627120214 0.02444488440 -0.00088115337 -0.00613488507 0.02601635780 -0.00092832970 -0.00609004852 0.02769959707 -0.00097681478 -0.00612027200 0.02946324644 -0.00102528412 -0.00620913506 0.03127595013 -0.00107241321 -0.00634021722 0.03310635238 -0.00111687753 -0.00649709801 0.03492309742 -0.00077264099 -0.00706848823 0.01983769166 -0.00079872901 -0.00655645292 0.02094623355 -0.00083213706 -0.00619184401 0.02227520229 -0.00087169594 -0.00595706482 0.02378674564 -0.00091623646 -0.00583451866 0.02544301134 -0.00096458943 -0.00580660886 0.02720614717 -0.00101558565 -0.00585573874 0.02903830087 -0.00106805593 -0.00596431161 0.03090162021 -0.00112083108 -0.00611473080 0.03275825294 -0.00117274191 -0.00628939963 0.03457034681 -0.00079520383 -0.00672221037 0.01892207168 -0.00081845433 -0.00620307846 0.02009945411 -0.00084968248 -0.00584032658 0.02151508194 -0.00088787189 -0.00561476889 0.02312342311 -0.00093200615 -0.00550721952 0.02487894554 -0.00098106887 -0.00549849262 0.02673611716 -0.00103404365 -0.00556940233 0.02864940591 -0.00108991409 -0.00570076281 0.03057327971 -0.00114766379 -0.00587338818 0.03246220650 -0.00120627636 -0.00606809261 0.03427065419 -0.00079651139 -0.00636466459 0.01798189738 -0.00081738138 -0.00583283598 0.01923614696 -0.00084692931 -0.00546906539 0.02075009855 -0.00088423325 -0.00525203571 0.02246882170 -0.00092837125 -0.00516042982 0.02433738595 -0.00097842137 -0.00517293061 0.02630086083 -0.00103346168 -0.00526822096 0.02830431587 -0.00109257022 -0.00542498378 0.03029282062 -0.00115482506 -0.00562190194 0.03221144461 -0.00121930426 -0.00583765832 0.03400525738 -0.00077336082 -0.00600610791 0.01703130899 -0.00079299362 -0.00545472516 0.01837013912 -0.00082214561 -0.00508625792 0.01999417911 -0.00085987514 -0.00487658664 0.02183684633 -0.00090524058 -0.00480159173 0.02383155815 -0.00095730028 -0.00483715365 0.02591173193 -0.00101511262 -0.00495915281 0.02801078506 -0.00107773594 -0.00514346966 0.03006213489 -0.00114422861 -0.00536598463 0.03199919880 -0.00121364899 -0.00560257816 0.03375539416 -0.00072254929 -0.00565679735 0.01608444672 -0.00074277452 -0.00507774565 0.01751525760 -0.00077359942 -0.00470010165 0.01926125058 -0.00081389266 -0.00449614303 0.02124140187 -0.00086252294 -0.00443814744 0.02337468770 -0.00091835894 -0.00449839256 0.02558008427 -0.00098026936 -0.00464915605 0.02777656780 -0.00104712287 -0.00486271560 0.02988311451 -0.00111778816 -0.00511134886 0.03181870062 -0.00119113393 -0.00536733350 0.03350230235 -0.00045905489 -0.00885792822 0.02418035478 -0.00047909192 -0.00849350243 0.02501215276 -0.00050093034 -0.00822009584 0.02601100510 -0.00052385539 -0.00802880559 0.02717051518 -0.00054715233 -0.00791072882 0.02848428633 -0.00057010639 -0.00785696266 0.02994592192 -0.00059200282 -0.00785860427 0.03154902531 -0.00061212686 -0.00790675077 0.03328719984 -0.00062976377 -0.00799249931 0.03515404887 -0.00064419878 -0.00810694702 0.03714317576 -0.00054414854 -0.00871356349 0.02360439525 -0.00056795163 -0.00834990083 0.02445955518 -0.00059586008 -0.00808033381 0.02548796297 -0.00062653346 -0.00789580711 0.02667836643 -0.00065863132 -0.00778726540 0.02801951336 -0.00069081322 -0.00774565337 0.02950015156 -0.00072173873 -0.00776191568 0.03110902883 -0.00075006741 -0.00782699703 0.03283489299 -0.00077445882 -0.00793184207 0.03466649184 -0.00079357251 -0.00806739549 0.03659257319 -0.00062261752 -0.00851033965 0.02294013049 -0.00064829371 -0.00814705235 0.02382755766 -0.00067958079 -0.00788146835 0.02489610266 -0.00071489847 -0.00770430767 0.02613005283 -0.00075266648 -0.00760629031 0.02751369550 -0.00079130452 -0.00757813628 0.02903131798 -0.00082923230 -0.00761056560 0.03066720760 -0.00086486955 -0.00769429826 0.03240565169 -0.00089663597 -0.00782005427 0.03423093758 -0.00092295127 -0.00797855364 0.03612735258 -0.00069174042 -0.00825952258 0.02220173617 -0.00071778958 -0.00789391427 0.02313070632 -0.00075035364 -0.00763078306 0.02425040079 -0.00078789684 -0.00746043990 0.02554058848 -0.00082888343 -0.00737319572 0.02698103833 -0.00087177767 -0.00735936149 0.02855151925 -0.00091504379 -0.00740924814 0.03023180016 -0.00095714605 -0.00751316663 0.03200164997 -0.00099654871 -0.00766142789 0.03384083762 -0.00103171600 -0.00784434288 0.03572913201 -0.00074879584 -0.00797237816 0.02140338791 -0.00077411070 -0.00759944390 0.02238354730 -0.00080643984 -0.00733556154 0.02356583396 -0.00084447497 -0.00717033642 0.02492498747 -0.00088690780 -0.00709337382 0.02643574743 -0.00093243006 -0.00709427906 0.02807285342 -0.00097973346 -0.00716265745 0.02981104504 -0.00102750971 -0.00728811429 0.03162506187 -0.00107445052 -0.00746025490 0.03348964350 -0.00111924762 -0.00766868458 0.03537952952 -0.00079106236 -0.00766017225 0.02055926137 -0.00081492849 -0.00727259849 0.02160062673 -0.00084610057 -0.00700308739 0.02285737879 -0.00088357926 -0.00684012985 0.02429826389 -0.00092636522 -0.00677221677 0.02589202836 -0.00097345910 -0.00678783907 0.02760741855 -0.00102386157 -0.00687548765 0.02941318078 -0.00107657329 -0.00702365341 0.03127806140 -0.00113059490 -0.00722082726 0.03317080676 -0.00118492708 -0.00745550011 0.03506016317 -0.00081581858 -0.00733417072 0.01968353218 -0.00083791438 -0.00692233534 0.02079649075 -0.00086759702 -0.00664064419 0.02214001191 -0.00090415612 -0.00647595281 0.02367543184 -0.00094688130 -0.00641511676 0.02536408671 -0.00099506219 -0.00644499160 0.02716731268 -0.00104798841 -0.00655243288 0.02904644593 -0.00110494958 -0.00672429615 0.03096282262 -0.00116523534 -0.00694743696 0.03287777893 -0.00122813531 -0.00720871087 0.03475265101 -0.00082034308 -0.00700563946 0.01879037599 -0.00084073983 -0.00655761174 0.01998568548 -0.00086919040 -0.00625551554 0.02142870992 -0.00090515196 -0.00608393793 0.02307150542 -0.00094808168 -0.00602746597 0.02486612804 -0.00099743671 -0.00607068673 0.02676463388 -0.00105267421 -0.00619818727 0.02871907902 -0.00111325136 -0.00639455466 0.03068151955 -0.00117862532 -0.00664437596 0.03260401155 -0.00124825324 -0.00693223824 0.03443861110 -0.00080191446 -0.00668584433 0.01789396845 -0.00082107625 -0.00618738495 0.01918275706 -0.00084914188 -0.00585498503 0.02073844945 -0.00088551318 -0.00567021782 0.02250149871 -0.00092959197 -0.00561465657 0.02441235793 -0.00098078006 -0.00566987453 0.02641148019 -0.00103847927 -0.00581744496 0.02843931859 -0.00110209142 -0.00603894111 0.03043632622 -0.00117101833 -0.00631593623 0.03234295615 -0.00124466181 -0.00663000359 0.03409966149 -0.00075781131 -0.00638605120 0.01700848520 -0.00077659509 -0.00582061227 0.01840225162 -0.00080571267 -0.00544633626 0.02008420710 -0.00084418620 -0.00524092511 0.02198042581 -0.00089103781 -0.00518208073 0.02401698195 -0.00094528964 -0.00524750508 0.02611994968 -0.00100596383 -0.00541490007 0.02821540319 -0.00107208252 -0.00566196765 0.03022941667 -0.00114266785 -0.00596640975 0.03208806429 -0.00121674196 -0.00630592831 0.03371742023 -0.00046561376 -0.00932979126 0.02473235562 -0.00048277011 -0.00914468052 0.02550379416 -0.00050229191 -0.00900861378 0.02644006774 -0.00052376669 -0.00891643856 0.02753394848 -0.00054678200 -0.00886300239 0.02877820851 -0.00057092536 -0.00884315282 0.03016561995 -0.00059578433 -0.00885173736 0.03168895493 -0.00062094642 -0.00888360356 0.03334098557 -0.00064599919 -0.00893359893 0.03511448401 -0.00067053017 -0.00899657103 0.03700222236 -0.00055240231 -0.00918318500 0.02416336602 -0.00057209120 -0.00899825737 0.02495624069 -0.00059695408 -0.00886592797 0.02592091405 -0.00062565611 -0.00878254642 0.02704812018 -0.00065686245 -0.00874446236 0.02832859313 -0.00068923825 -0.00874802542 0.02975306697 -0.00072144866 -0.00878958521 0.03131227577 -0.00075215884 -0.00886549136 0.03299695358 -0.00078003395 -0.00897209351 0.03479783447 -0.00080373914 -0.00910574127 0.03670565251 -0.00063260203 -0.00897850656 0.02350948834 -0.00065390635 -0.00879200489 0.02433239222 -0.00068197098 -0.00866250768 0.02533597313 -0.00071511419 -0.00858729273 0.02650856471 -0.00075165421 -0.00856363785 0.02783850063 -0.00078990930 -0.00858882084 0.02931411454 -0.00082819772 -0.00866011952 0.03092374010 -0.00086483771 -0.00877481169 0.03265571098 -0.00089814753 -0.00893017515 0.03449836083 -0.00092644543 -0.00912348772 0.03644002331 -0.00070343009 -0.00872704047 0.02278468318 -0.00072559447 -0.00853393287 0.02364709463 -0.00075519020 -0.00840383661 0.02470070764 -0.00079061249 -0.00833435345 0.02593073074 -0.00083025655 -0.00832308516 0.02732237247 -0.00087251760 -0.00836763350 0.02886084133 -0.00091579082 -0.00846560024 0.03053134588 -0.00095847145 -0.00861458714 0.03231909462 -0.00099895468 -0.00881219597 0.03420929609 -0.00103563573 -0.00905602849 0.03618715880 -0.00076210370 -0.00844007120 0.02200291116 -0.00078453448 -0.00823205106 0.02291519375 -0.00081445932 -0.00809539845 0.02403058025 -0.00085062262 -0.00802740458 0.02533006695 -0.00089176877 -0.00802536063 0.02679465012 -0.00093664220 -0.00808655781 0.02840532605 -0.00098398730 -0.00820828730 0.03014309102 -0.00103254848 -0.00838784032 0.03198894132 -0.00108107015 -0.00862250805 0.03392387323 -0.00112829670 -0.00890958170 0.03592888303 -0.00080584003 -0.00812888326 0.02117813289 -0.00082810531 -0.00789436923 0.02215153546 -0.00085762594 -0.00774267691 0.02334105364 -0.00089361615 -0.00767012209 0.02472202200 -0.00093529016 -0.00767302058 0.02626977506 -0.00098186219 -0.00774768817 0.02795964737 -0.00103254647 -0.00789044065 0.02976697348 -0.00108655722 -0.00809759383 0.03166708793 -0.00114310867 -0.00836546350 0.03363532527 -0.00120141503 -0.00869036546 0.03564702003 -0.00083185630 -0.00780476115 0.02032430898 -0.00085368587 -0.00752889715 0.02137096560 -0.00088253765 -0.00735115567 0.02264759048 -0.00091806467 -0.00726618198 0.02412204456 -0.00095991999 -0.00726862133 0.02576218876 -0.00100775664 -0.00735311899 0.02753588399 -0.00106122766 -0.00751432022 0.02941099119 -0.00111998610 -0.00774687027 0.03135537128 -0.00118368500 -0.00804541442 0.03333688519 -0.00125197740 -0.00840459791 0.03532339384 -0.00083736967 -0.00747898937 0.01945540003 -0.00085865508 -0.00714364458 0.02058833003 -0.00088704203 -0.00692631843 0.02196565345 -0.00092243978 -0.00681926021 0.02354558332 -0.00096475756 -0.00681471921 0.02528633269 -0.00101390462 -0.00690494469 0.02714611460 -0.00106979020 -0.00708218594 0.02908314209 -0.00113232354 -0.00733869225 0.03105562821 -0.00120141388 -0.00766671289 0.03302178599 -0.00127697048 -0.00805849715 0.03493982848 -0.00081959736 -0.00716285241 0.01858536665 -0.00084039186 -0.00674662128 0.01981847461 -0.00086898669 -0.00647364889 0.02131070520 -0.00090521305 -0.00633303279 0.02300808693 -0.00094890215 -0.00631387053 0.02485664832 -0.00099988520 -0.00640525967 0.02680241788 -0.00105799340 -0.00659629777 0.02879142412 -0.00112305795 -0.00687608237 0.03076969554 -0.00119491006 -0.00723371103 0.03268326067 -0.00127338094 -0.00765828131 0.03447814801 -0.00077575655 -0.00686763478 0.01772816946 -0.00079627513 -0.00634583703 0.01907624519 -0.00082621920 -0.00599863074 0.02069820842 -0.00086485607 -0.00581117568 0.02252500408 -0.00091145306 -0.00576863163 0.02448757714 -0.00096527746 -0.00585615835 0.02651687253 -0.00102559660 -0.00605891562 0.02854383521 -0.00109167777 -0.00636206323 0.03049941013 -0.00116278829 -0.00675076093 0.03231454222 -0.00123819547 -0.00721016851 0.03392017645 </DataArray>
</PointData>
<Points>
<DataArray type="Float32" NumberOfComponents="3">
0.29590556706 0.34640463683 1.16181369821 0.33910687029 0.36508962037 1.16266057340 0.37067003389 0.38764546889 1.16398294445 0.39142581373 0.41311322068 1.16583898133 0.40220496565 0.44053391401 1.16828685400 0.40383824552 0.46894858716 1.17138473247 0.39715640917 0.49739827842 1.17519078668 0.38299021248 0.52492402607 1.17976318664 0.36217041129 0.55056686840 1.18516010230 0.33552776147 0.57336784367 1.19143970366 0.32835332477 0.33439958151 1.16433200240 0.37453054471 0.35355942334 1.16539442171 0.40818629933 0.37683032826 1.16688271605 0.43057506996 0.40318096447 1.16881159965 0.44295133789 0.43158000013 1.17119578670 0.44656958444 0.46099610345 1.17404999142 0.44268429092 0.49039794259 1.17738892802 0.43254993863 0.51875418575 1.18122731071 0.41742100887 0.54503350110 1.18557985369 0.39855198297 0.56820455683 1.19046127118 0.37460203966 0.32003697765 1.16594323575 0.42263162881 0.33959631891 1.16720154566 0.45745469947 0.36365760356 1.16886126798 0.48066749204 0.39109289525 1.17089971171 0.49386624697 0.42077425765 1.17329418583 0.49864720469 0.45157375444 1.17602199933 0.49660660561 0.48236344928 1.17906046119 0.48934069018 0.51201540584 1.18238688041 0.47844569882 0.53940168779 1.18597856597 0.46551787195 0.56339435879 1.18981282686 0.43197601676 0.30383389950 1.16683551469 0.48059056097 0.32386517173 1.16831157526 0.51558689245 0.34886041077 1.17017891669 0.53881366268 0.37758360865 1.17238344910 0.55211952315 0.40879875738 1.17487108264 0.55735312533 0.44126984900 1.17758772740 0.55636312072 0.47376087551 1.18047929353 0.55099816078 0.50503582895 1.18349169115 0.54310689701 0.53385870133 1.18657083037 0.53453798089 0.55899348468 1.18966262132 0.49779956112 0.28630742126 1.16719695564 0.54558777954 0.30703084641 1.16895414051 0.57969453644 0.33317186591 1.17109597862 0.60212416458 0.36338770032 1.17354294344 0.61488099667 0.39633557015 1.17621550837 0.61996936547 0.43067269596 1.17903414687 0.61939360369 0.46505629827 1.18191933237 0.61515804408 0.49814359764 1.18479153830 0.60926701937 0.52859181459 1.18757123810 0.60372486229 0.55505816967 1.19017890520 0.56939697779 0.26797461716 1.16721567504 0.61480372287 0.28975820757 1.16935887140 0.64688928960 0.31732508498 1.17187277025 0.66770958043 0.34923976587 1.17465832630 0.67932049780 0.38406676677 1.17761649429 0.68377794417 0.42037060417 1.18064822896 0.68313782199 0.45671579458 1.18365448504 0.67945603371 0.49166685450 1.18653621726 0.67478848178 0.52378830044 1.18919438037 0.67119106864 0.55164464889 1.19152992910 0.64409257179 0.24935256142 1.16707978929 0.68541882934 0.27271211984 1.16975539795 0.71428281009 0.30205318396 1.17276960800 0.73268049294 0.33587440096 1.17600972928 0.74260785680 0.37267441807 1.17936307163 0.74606088055 0.41095188249 1.18271694488 0.74503554309 0.44920544144 1.18595865886 0.74152782332 0.48593374211 1.18897552343 0.73753370013 0.51963543173 1.19165484841 0.73504915243 0.54880915749 1.19388394364 0.71921064818 0.23095832826 1.16697741484 0.75461353729 0.25655744785 1.17037335015 0.77898675606 0.28808927885 1.17404680835 0.79414748482 0.32402620121 1.17787728399 0.80191290391 0.36284059487 1.18174427164 0.80410019367 0.40300483977 1.18552726585 0.80252653444 0.44299131586 1.18910576118 0.79900910654 0.48127240306 1.19235925219 0.79536509034 0.51632048133 1.19516723343 0.79341166614 0.54660793061 1.19740919946 0.79207551199 0.21330899191 1.16709666811 0.81956828509 0.24195905621 1.17144235800 0.83811278567 0.27616648567 1.17596468774 0.84922113876 0.31442976226 1.18054112203 0.85440546940 0.35524736800 1.18504912558 0.85517790263 0.39711778486 1.18936616311 0.85305056350 0.43853949484 1.19336969932 0.84953557703 0.47801097993 1.19693719893 0.84614506828 0.51403072212 1.19994612664 0.84439116228 0.54509720340 1.20227394717 0.86001146826 0.19692162659 1.16762566552 0.87746351110 0.22958180956 1.17319205150 0.88877255708 0.26701792040 1.17878356262 0.89501203746 0.30781967975 1.18428137498 0.89725538352 0.35057680827 1.18956666469 0.89657602652 0.39387902660 1.19452060787 0.89404739773 0.43631605539 1.19902438062 0.89074292842 0.47647761529 1.20295915905 0.88773604987 0.51295342695 1.20620611926 0.88610019334 0.54433321101 1.20864643738 0.30691595109 0.35315637795 1.19450331917 0.33721388629 0.37114222843 1.19117257544 0.35913135424 0.39262792664 1.18916328563 0.37304497490 0.41689812832 1.18838136816 0.37933136822 0.44323748925 1.18873274146 0.37836715412 0.47093066518 1.19012332395 0.37052895257 0.49926231187 1.19245903404 0.35619338351 0.52751708508 1.19564579015 0.33573706688 0.55497964057 1.19958951071 0.30953662263 0.58093463409 1.20419611414 0.35174051013 0.34263062664 1.19610043280 0.38413515388 0.36109512903 1.19292778801 0.40759256928 0.38322876335 1.19104800004 0.42285083939 0.40822991357 1.19033706098 0.43064804729 0.43529696369 1.19067096293 0.43172227607 0.46362829769 1.19192569801 0.42681160879 0.49242229956 1.19397725831 0.41665412853 0.52087735328 1.19670163594 0.40198791838 0.54819184284 1.19997482301 0.38355106140 0.57356415223 1.20367281161 0.40625416988 0.33003002651 1.19695634827 0.43995680968 0.34893912767 1.19394394191 0.46428970011 0.37181196752 1.19221232191 0.48028018102 0.39774646334 1.19161125701 0.48895559230 0.42584053243 1.19199051598 0.49134327380 0.45519209207 1.19319986759 0.48847056539 0.48489905956 1.19508908059 0.48136480695 0.51405935217 1.19750792374 0.47105333832 0.54177088719 1.20030616580 0.45856349939 0.56713158192 1.20333357554 0.46858091920 0.31569368879 1.19714397183 0.50270121924 0.33510460707 1.19433209580 0.52719818140 0.35885163350 1.19279850766 0.54331279515 0.38592401671 1.19237000141 0.55228604995 0.41531100537 1.19287337107 0.55535893526 0.44600184810 1.19413541064 0.55377244053 0.47698579354 1.19598291412 0.54876755524 0.50725209035 1.19824267552 0.54158526883 0.53578998716 1.20074148884 0.53346657076 0.56158873261 1.20330614809 0.53684474694 0.29996072474 1.19673620970 0.57039074810 0.32002194996 1.19420330832 0.59429344783 0.34482185563 1.19294881372 0.60992847712 0.37323881276 1.19277933936 0.61867146697 0.40415119238 1.19350149867 0.62189804838 0.43643736552 1.19492190513 0.62098385235 0.46897570320 1.19684717218 0.61730450989 0.50064457645 1.19908391328 0.61223565199 0.53032235629 1.20143874188 0.60715290966 0.55688741374 1.20371827145 0.60916964195 0.28317024558 1.19580596812 0.64104776184 0.30412153908 1.19366863816 0.66355093406 0.33019672827 1.19280549654 0.67810702226 0.36016709056 1.19300531599 0.68614389006 0.39280390337 1.19405686924 0.68908940110 0.42687844412 1.19574892900 0.68837141900 0.46116199022 1.19787026801 0.68541780740 0.49442581909 1.20020965900 0.68165642994 0.52544120813 1.20255587468 0.67851515024 0.55297943477 1.20469768779 0.68367959307 0.26566136257 1.19442615333 0.71269462599 0.28783375715 1.19283914396 0.73294607477 0.31545034576 1.19251081253 0.74582822593 0.34718508919 1.19321397648 0.75273536596 0.38171194823 1.19472145323 0.75506178135 0.41770488367 1.19680606023 0.75420175862 0.45383785629 1.19924061490 0.75154958426 0.48878482689 1.20179793467 0.74849954477 0.52121975624 1.20425083699 0.74644592665 0.54981660514 1.20637213929 0.75849858916 0.24777318694 1.19266967157 0.78335370611 0.27158898689 1.19182588440 0.80045430463 0.30105680245 1.19220701814 0.81107188347 0.33476904772 1.19357136598 0.81647794137 0.37131813684 1.19567722112 0.81794397708 0.40929648393 1.19828287676 0.81674148936 0.44729650310 1.20114662608 0.81414197695 0.48391060847 1.20402676229 0.81141693860 0.51773121416 1.20668157858 0.80983787306 0.54735073430 1.20886936814 0.83175061908 0.22984482994 1.19060942907 0.85104736776 0.25581761105 1.19073991813 0.86405105830 0.28749019269 1.19203636978 0.87181779021 0.32339520524 1.19424352965 0.87540366301 0.36206527910 1.19710614337 0.87586477622 0.40203304467 1.20036895656 0.87425722937 0.44183113232 1.20377671484 0.87163712196 0.47999217244 1.20707416384 0.86906055353 0.51504879544 1.21000604919 0.86758362360 0.54553363170 1.21231711651 0.90155967166 0.21221540280 1.18831833207 0.91379797650 0.24095001234 1.18969230382 0.92171177047 0.27522461082 1.19214112390 0.92604574152 0.31353980082 1.19539651266 0.92754457761 0.35439618490 1.19919019044 0.92695296672 0.39629436565 1.20325387758 0.92501559679 0.43773494564 1.20731929442 0.92247715579 0.47721852744 1.21111816131 0.92008233168 0.51324571363 1.21438219858 0.91857581243 0.54431710677 1.21684312658 0.31549023312 0.36094386001 1.22215817805 0.33574044794 0.37815470605 1.21590177629 0.35015309592 0.39854965841 1.21155544531 0.35875716118 0.42160531564 1.20892412767 0.36158162787 0.44679827627 1.20781276592 0.35865548015 0.47360513887 1.20802630262 0.35000770215 0.50150250197 1.20936968033 0.33566727801 0.52996696412 1.21164784161 0.31566319190 0.55847512387 1.21466572902 0.29002442794 0.58650357976 1.21822828511 0.36995108818 0.35158132498 1.22303651513 0.39161347704 0.36927428159 1.21689374399 0.40713339373 0.39026674912 1.21264678242 0.41685036574 0.41394085997 1.21007939844 0.42110392056 0.43967874656 1.20897536007 0.42023358566 0.46686254129 1.20911843532 0.41457888855 0.49487437659 1.21029239222 0.40447935671 0.52309638485 1.21228099878 0.39027451761 0.55091069849 1.21486802303 0.37230389876 0.57769944992 1.21783723297 0.43090086359 0.34037929884 1.22332190129 0.45344715117 0.35855501485 1.21730833029 0.46961356423 0.38024914426 1.21318702239 0.47998639566 0.40474266749 1.21072282815 0.48515193838 0.43131656495 1.20968059814 0.48569648529 0.45925181704 1.20982518293 0.48220632930 0.48782940418 1.21092143311 0.47526776331 0.51633030677 1.21273419923 0.46546708024 0.54403550523 1.21502833187 0.45339057298 0.57022597995 1.21756868159 0.49708621191 0.32755465981 1.22301312297 0.51991953281 0.34626389608 1.21717736430 0.53624162706 0.36878945677 1.21323729316 0.54682126545 0.39430558850 1.21094027875 0.55242721878 0.42198653791 1.21003369026 0.55382825785 0.45100655162 1.21026489689 0.55179315346 0.48053987626 1.21138126782 0.54709067641 0.50976075846 1.21313017224 0.54048959748 0.53784344485 1.21525897936 0.53275868749 0.56396218205 1.21751505837 0.56725378573 0.31332428606 1.22210896660 0.58970868444 0.33266791555 1.21653267510 0.60566560189 0.35618029957 1.21285872269 0.61601098963 0.38292447330 1.21081761223 0.62163129921 0.41196347190 1.21013984659 0.62341298219 0.44236033051 1.21055592862 0.62224249012 0.47317808431 1.21179636118 0.61900627457 0.50347976846 1.21359164713 0.61459078708 0.53232841811 1.21567228934 0.60988247921 0.55878706842 1.21776879066 0.64015023761 0.29790505580 1.22060821863 0.66149266854 0.31803406350 1.21540609179 0.67653350838 0.34271428561 1.21211243891 0.68621158271 0.37089417220 1.21044069055 0.69146571710 0.40152217337 1.21010427725 0.69323473712 0.43354673923 1.21081662956 0.69245746835 0.46591631985 1.21229117803 0.69007273637 0.49757936533 1.21424135320 0.68701936675 0.52748432577 1.21638058563 0.68423618506 0.55457965125 1.21842230586 0.71452222015 0.28151384722 1.21850966548 0.73394954759 0.30262933021 1.21382944346 0.74749336620 0.32868402779 1.21105956978 0.75607905922 0.35850953549 1.20989537568 0.76063200990 0.39093744881 1.21003219239 0.76207760149 0.42479936326 1.21116535115 0.76134121724 0.45892687437 1.21299018319 0.75934824039 0.49215157764 1.21520201975 0.75702405421 0.52330506860 1.21749619205 0.75529404192 0.55121894274 1.21956803134 0.78911638591 0.26436753850 1.21581209360 0.80575738407 0.28672070591 1.21183455920 0.81719319500 0.31438213906 1.20976124324 0.82426943367 0.34606541347 1.20926752959 0.82783171505 0.38048410465 1.21002880215 0.82872565412 0.41635178812 1.21172044483 0.82779686585 0.45238203938 1.21401784150 0.82589096521 0.48728843395 1.21659637607 0.82385356718 0.51978454735 1.21913143243 0.82253028673 0.54858395508 1.22129839447 0.86267938748 0.24668300786 1.21251428941 0.87559424046 0.27057518088 1.20945326812 0.88428101444 0.30010123235 1.20827858723 0.88943872057 0.33385665646 1.20864301425 0.89176636999 0.37043694738 1.21019931667 0.89196297384 0.40843759929 1.21260026202 0.89072754327 0.44645410638 1.21549861778 0.88875908940 0.48308196282 1.21854715147 0.88675662339 0.51691666279 1.22139863059 0.88541915638 0.54655370047 1.22370582264 0.93395787742 0.22867713347 1.20861503937 0.94213817923 0.25445974535 1.20671739930 0.94740484419 0.28613392058 1.20667272970 0.95024293446 0.32217811474 1.20810769162 0.95113751217 0.36107078344 1.21064894610 0.95057363950 0.40129038228 1.21392315417 0.94903637857 0.44131536687 1.21755697687 0.94701079154 0.47962419280 1.22117707526 0.94498194057 0.51469531568 1.22441011036 0.94343488779 0.54500719110 1.22688274323 0.32193279451 0.36949296668 1.24528586418 0.33463508235 0.38586635736 1.23723224472 0.34342372621 0.40516065452 1.23144345073 0.34807968285 0.42699875432 1.22766742821 0.34838390904 0.45100355292 1.22565212321 0.34411736153 0.47679794648 1.22514548175 0.33506099710 0.50400483116 1.22589544986 0.32099577251 0.53224710313 1.22764997356 0.30170264451 0.56114765854 1.23015699890 0.27696256988 0.59032939356 1.23316447189 0.38363249910 0.36102039004 1.24562299655 0.39723227177 0.37787770139 1.23764978980 0.40679731748 0.39773339726 1.23193659448 0.41237550117 0.42011315480 1.22821573132 0.41401468780 0.44454265115 1.22621952106 0.41176274232 0.47054756347 1.22568028443 0.40566752966 0.49765356892 1.22633034217 0.39577691480 0.52538634466 1.22790201500 0.38213876266 0.55327156783 1.23012762367 0.36480093821 0.58083491559 1.23273948891 0.44941896719 0.35090078480 1.24549713657 0.46358347946 0.36827116576 1.23762600522 0.47361900384 0.38880226351 1.23201727010 0.47978472317 0.41192102944 1.22838899880 0.48233982029 0.43705441492 1.22645925895 0.48154347804 0.46362937133 1.22594611815 0.47765487926 0.49107285007 1.22656764400 0.47093320678 0.51881180250 1.22804190412 0.46163764345 0.54627318002 1.23008696610 0.45002737210 0.57288393399 1.23242089757 0.51850729625 0.33927491888 1.24486646896 0.53286012328 0.35720974990 1.23714534671 0.54304239423 0.37854344740 1.23169516215 0.54947020451 0.40260054108 1.22821997121 0.55255964958 0.42870556063 1.22642382980 0.55272682485 0.45618303575 1.22601079384 0.55038782576 0.48435749612 1.22668491925 0.54595874775 0.51255347143 1.22815026196 0.53985568624 0.54009549139 1.23011087788 0.53249473668 0.56630808567 1.23227082293 0.59011258378 0.32628356019 1.24368917844 0.60423362113 0.34485645325 1.23619226998 0.61422109758 0.36713314306 1.23097995522 0.62059480088 0.39232985257 1.22774138908 0.62387451873 0.41966280469 1.22616572651 0.62458003888 0.44834822238 1.22594212244 0.62323114906 0.47760232858 1.22675973183 0.62034763699 0.50664134621 1.22830770960 0.61644929041 0.53468149822 1.23027521070 0.61205589705 0.56093900754 1.23235139007 0.66344992724 0.31206747663 1.24192344973 0.67687539087 0.33137427526 1.23475123076 0.68630872285 0.35474754464 1.22988133387 0.69232136793 0.38128712673 1.22698599296 0.69548477083 0.41009286350 1.22573744200 0.69637037629 0.44026459693 1.22580791491 0.69554962903 0.47090216897 1.22686964563 0.69359397380 0.50110542160 1.22859486810 0.69107485532 0.52997419678 1.23065581626 0.68856371833 0.55660833649 1.23272472404 0.73773442413 0.29676743610 1.23952746754 0.74995685038 0.31692621537 1.23280668477 0.75845887897 0.34156284626 1.22840898267 0.76381276134 0.36965052642 1.22598652341 0.76659074894 0.40016245347 1.22519146919 0.76736509320 0.43207182505 1.22567598218 0.76670804556 0.46435183880 1.22709222456 0.76519185746 0.49597569236 1.22909235852 0.76338878034 0.52591658336 1.23132854624 0.76187106564 0.55314770944 1.23345294990 0.81218117190 0.28052420653 1.23645941661 0.82264941753 0.30167527302 1.23034308773 0.82982517488 0.32775524207 1.22657258620 0.83423183680 0.35759821446 1.22477572097 0.83639279614 0.39003829098 1.22458030099 0.83683144576 0.42390957243 1.22561413519 0.83607117851 0.45804615960 1.22750503252 0.83463538725 0.49128215327 1.22988080193 0.83304746482 0.52245165423 1.23236925236 0.83183080408 0.55038876328 1.23459819274 0.88600526806 0.26347855580 1.23267748165 0.89412451020 0.28578444765 1.22734489534 0.89956121951 0.31350092619 1.22438182902 0.90274144995 0.34530835370 1.22338632618 0.90409125550 0.37988709246 1.22395643031 0.90403669012 0.41591750475 1.22569018489 0.90300380779 0.45207995287 1.22818563342 0.90141866247 0.48705479908 1.23104081939 0.89970730814 0.51952240567 1.23385378629 0.89829579877 0.54816313492 1.23622257761 0.95842181007 0.24577125184 1.22813984738 0.96355354627 0.26941673871 1.22379656335 0.96682062181 0.29897609277 1.22184639572 0.96850445649 0.33295910697 1.22185107960 0.96888647009 0.36987557429 1.22337235007 0.96824808241 0.40823528769 1.22597194222 0.96687071325 0.44654804012 1.22921159116 0.96503578241 0.48332362455 1.23265303196 0.96302470967 0.51707183395 1.23585799974 0.96111891483 0.54630246127 1.23838822957 0.32654801664 0.37852958161 1.26439396689 0.33384631660 0.39401648648 1.25554804950 0.33863171243 0.41221090525 1.24911132911 0.34052985023 0.43284241606 1.24481143818 0.33916637613 0.45564059702 1.24237600918 0.33416693623 0.48033502626 1.24153267459 0.32515717665 0.50665528189 1.24200906688 0.31176274350 0.53433094204 1.24353281853 0.29360928289 0.56309158483 1.24583156201 0.27032244094 0.59266678838 1.24863292979 0.39343218304 0.37071653534 1.26434262421 0.40125829566 0.38668620884 1.25555342562 0.40657288531 0.40541781948 1.24917496750 0.40922809784 0.42654614919 1.24492317891 0.40907607915 0.44970597987 1.24251398886 0.40596897511 0.47453209344 1.24166332640 0.39975893158 0.50065927182 1.24208712056 0.39029809445 0.52772229692 1.24350130038 0.37743860959 0.55535595066 1.24562179489 0.36103262288 0.58319501494 1.24816453312 0.46268532709 0.36141047453 1.26393929587 0.47084662072 0.37791476573 1.25522826111 0.47649873096 0.39730445501 1.24893496569 0.47967375078 0.41912107093 1.24476434266 0.48040377312 0.44290614206 1.24242132508 0.47872089094 0.46820119693 1.24161084601 0.47465719720 0.49454776412 1.24203783851 0.46824478485 0.52148737219 1.24340723563 0.45951574686 0.54856154968 1.24542397045 0.44850217617 0.57531182516 1.24779297602 0.53385957360 0.35071257237 1.26312751062 0.54213761225 0.36780887967 1.25453400896 0.54792564771 0.38798317220 1.24837200357 0.55139074329 0.41068109153 1.24433476886 0.55269996227 0.43534827917 1.24211557926 0.55202036797 0.46143037667 1.24140770918 0.54951902369 0.48837302558 1.24190443306 0.54536299272 0.51562186743 1.24329902530 0.53971933837 0.54262254377 1.24528476033 0.53275512393 0.56882069612 1.24755491258 0.60650704739 0.33872400209 1.26185079726 0.61465759074 0.35647527317 1.25343212212 0.62037003387 0.37756633142 1.24746676100 0.62390300963 0.40134012118 1.24363429690 0.62551515087 0.42713958679 1.24161431281 0.62546509046 0.45430767260 1.24108639170 0.62401146123 0.48218732298 1.24173011656 0.62141289606 0.51012148226 1.24322507039 0.61792802779 0.53745309479 1.24525083617 0.61381548927 0.56352510492 1.24748699688 0.68017987328 0.32554593689 1.26005268457 0.68793287669 0.34402066877 1.25188405355 0.69334828776 0.36616629302 1.24619991789 0.69673448406 0.39121207011 1.24266276621 0.69839984316 0.41838726050 1.24093508715 0.69865274262 0.44692112467 1.24067936932 0.69780156001 0.47604292310 1.24155810137 0.69615467287 0.50498191625 1.24323377191 0.69402045879 0.53296736461 1.24536886959 0.69170729532 0.55922852864 1.24762588303 0.75443017608 0.31127954998 1.25767670132 0.76148979056 0.33055178899 1.24985125623 0.76637680769 0.35389541737 1.24455215412 0.76940910084 0.38041084853 1.24142001620 0.77090454340 0.40919849588 1.24009546369 0.77118100872 0.43935877281 1.24021911782 0.77055637019 0.46999209272 1.24143159981 0.76934850118 0.50019886902 1.24337353087 0.76787527505 0.52907951510 1.24568553223 0.76645456519 0.55573444438 1.24800822511 0.82881008061 0.29602601458 1.25466637631 0.83485465285 0.31617535633 1.24729518312 0.83897199198 0.34086606482 1.24250414956 0.84145079423 0.36905036668 1.23990588627 0.84257975582 0.39968048852 1.23911300386 0.84264757300 0.43170865696 1.23973811298 0.84194294197 0.46408709863 1.24139382424 0.84075455898 0.49576804015 1.24369274828 0.83937112025 0.52570370813 1.24624749573 0.83808132200 0.55284632921 1.24867067721 0.90287171168 0.27988650390 1.25096523830 0.90755378404 0.30099809333 1.24417728717 0.91065023894 0.32719059574 1.24003658411 0.91238349847 0.35724453476 1.23812021583 0.91297598469 0.38994043399 1.23800526907 0.91265011968 0.42405881707 1.23926883056 0.91162832552 0.45838020761 1.24148798701 0.91013302429 0.49168512924 1.24423982515 0.90838663805 0.52275410557 1.24710143172 0.90661158888 0.55036766023 1.24964989343 0.97616719411 0.26296219115 1.24651681609 0.97911350461 0.28512672251 1.24045902137 0.98092794690 0.31298137049 1.23713013765 0.98173114782 0.34510726299 1.23606284431 0.98164373425 0.38008552789 1.23678982075 0.98078633303 0.41649729308 1.23884374633 0.97927957103 0.45292368645 1.24175730045 0.97724407511 0.48794583589 1.24506316249 0.97480047212 0.52014486928 1.24829401182 0.97206938894 0.54810191452 1.25098252785 0.32964028087 0.38777958849 1.27999007550 0.33332267778 0.40234439753 1.27123325939 0.33546552186 0.41945040090 1.26484310769 0.33562497362 0.43890027255 1.26055632594 0.33335719357 0.46049668642 1.25810961966 0.32821834219 0.48404231646 1.25723969440 0.31976458001 0.50933983660 1.25768325568 0.30755206751 0.53619192080 1.25917700904 0.29113696521 0.56440124298 1.26145766002 0.27007543360 0.59377047711 1.26426191415 0.39999758017 0.38043847443 1.27967814529 0.40395830631 0.39548062431 1.27096215162 0.40644864200 0.41310912746 1.26461943278 0.40721000791 0.43303919427 1.26037886048 0.40598382473 0.45498603513 1.25796930641 0.40251151312 0.47866486042 1.25711964229 0.39653449376 0.50379088054 1.25755873982 0.38779418732 0.53007930586 1.25901547069 0.37603201449 0.55724534677 1.26121870661 0.36098939593 0.58500421367 1.26389731929 0.47157678970 0.37172435816 1.27910562094 0.47571740113 0.38731300007 1.27044639240 0.47844545762 0.40558884849 1.26417200985 0.47965206570 0.42618231374 1.26000343340 0.47922833194 0.44872380608 1.25766162318 0.47706536287 0.47284373582 1.25686753930 0.47305426505 0.49817251325 1.25734214187 0.46708614504 0.52434054866 1.25880639102 0.45905210936 0.55097825233 1.26098124685 0.44884326459 0.57771603456 1.26358766950 0.54415844532 0.36172572661 1.27821974879 0.54836662130 0.37792799652 1.26964131699 0.55121655232 0.39697819800 1.26346770635 0.55271401271 0.41841945691 1.25941036179 0.55286477681 0.44179489914 1.25718072824 0.55167461896 0.46664765058 1.25649025062 0.54914931350 0.49252083711 1.25705037387 0.54529463477 0.51895758461 1.25857254291 0.54011635710 0.54550101897 1.26076820267 0.53362025485 0.57169426606 1.26334879808 0.61752308286 0.35053106671 1.27696777514 0.62167262587 0.36741208541 1.26850226065 0.62452250971 0.38736580997 1.26247338974 0.62615871466 0.40984044976 1.25857996272 0.62666722097 0.43428421419 1.25652077987 0.62613400889 0.46014531263 1.25599464147 0.62464505870 0.48687195449 1.25670034784 0.62228635064 0.51391234914 1.25833669924 0.61914386498 0.54071470599 1.26060249597 0.61530358198 0.56672723441 1.26319653833 0.69145123817 0.33822886539 1.27529694631 0.69540207387 0.35585173846 1.26698455862 0.69812391339 0.37684031841 1.26115592749 0.69974903727 0.40053511827 1.25749255328 0.70040972602 0.42627665109 1.25567593636 0.70023826017 0.45340542990 1.25538757707 0.69936692025 0.48126196774 1.25630897579 0.69792798678 0.50918677766 1.25812163287 0.69605374028 0.53652037269 1.26050704868 0.69387646127 0.56260326588 1.26314672357 0.76572344711 0.32490760959 1.27315450862 0.76932162436 0.34333342740 1.26504354617 0.77178134696 0.36549035732 1.25948218705 0.77324784625 0.39059328840 1.25612845056 0.77386635359 0.41785710971 1.25464035598 0.77378210031 0.44649671031 1.25467592262 0.77314031776 0.47572697925 1.25589316975 0.77208623730 0.50476280559 1.25795011668 0.77076509026 0.53281907840 1.26050478269 0.76932210799 0.55911068672 1.26321518708 0.84012024551 0.31065578624 1.27048770837 0.84319793639 0.32994362396 1.26263455854 0.84525539402 0.35340456070 1.25741903588 0.84641800734 0.38010478613 1.25446797163 0.84681116528 0.40911048993 1.25340819703 0.84656025680 0.43948786178 1.25386654333 0.84579067084 0.47030309136 1.25546984175 0.84462779632 0.50062236834 1.25784492354 0.84319702220 0.52951188240 1.26061861993 0.84162373742 0.55603782321 1.26341776216 0.91442216921 0.29556188228 1.26724379189 0.91679766900 0.31576879987 1.25971293098 0.91830663817 0.34067156254 1.25493334143 0.91902238623 0.36915943742 1.25249143358 0.91901822273 0.40012169162 1.25197361779 0.91836745716 0.43244759226 1.25296630441 0.91714339907 0.46502640646 1.25505590380 0.91541935797 0.49674740134 1.25782882632 0.91326864338 0.52649984401 1.26087148231 0.91076456484 0.55317300160 1.26377028213 0.98840975407 0.27971438464 1.26337000548 0.98988748124 0.30089542686 1.25623399876 0.99069566301 0.32737999685 1.25199197116 0.99082384867 0.35784706825 1.25017915349 0.99026158753 0.39097561464 1.25033077653 0.98899842890 0.42544460966 1.25198207108 0.98702392207 0.45993302691 1.25466826793 0.98432761637 0.49311983999 1.25792459789 0.98089906108 0.52368402253 1.26128629174 0.97672780552 0.55030454814 1.26428858029 0.33151396858 0.39696887097 1.29258177936 0.33301269298 0.41058939464 1.28467194315 0.33361362181 0.42662913177 1.27892281371 0.33288236332 0.44493629550 1.27510225988 0.33038452576 0.46535909897 1.27297815051 0.32568571736 0.48774575533 1.27231835444 0.31835154638 0.51194447774 1.27289074053 0.30794762105 0.53780347933 1.27446317764 0.29403954962 0.56517097325 1.27680353460 0.27619294034 0.59389517265 1.27967968027 0.40397613065 0.38995492083 1.29211230692 0.40559906130 0.40404176821 1.28423346797 0.40641313234 0.42059643291 1.27852752160 0.40612308354 0.43939164120 1.27475989533 0.40443365465 0.46020011935 1.27269601668 0.40104958543 0.48279459364 1.27210131318 0.39567561565 0.50694779032 1.27274121234 0.38801648506 0.53243243568 1.27438114170 0.37777693343 0.55902125597 1.27678652877 0.36466170050 0.58648697748 1.27972280108 0.47697020144 0.38165842586 1.29145335356 0.47867664688 0.39629305410 1.28361169349 0.47965189582 0.41348857369 1.27796030322 0.47971825517 0.43294427959 1.27426084470 0.47869803183 0.45435946671 1.27227497990 0.47641353272 0.47743342999 1.27176437079 0.47268706475 0.50186546436 1.27249067934 0.46734093483 0.52735486475 1.27421556750 0.46019744986 0.55360092610 1.27670069725 0.45107891676 0.58030294333 1.27970773055 0.55041931277 0.37217248795 1.29056668430 0.55216177204 0.38743381161 1.28276523674 0.55324027286 0.40539809158 1.27718215944 0.55357114373 0.42568785430 1.27357244008 0.55307071313 0.44792562618 1.27169106632 0.55165530954 0.47173393366 1.27129302584 0.54924126145 0.49673530317 1.27213330632 0.54574489735 0.52255226113 1.27396689542 0.54108254571 0.54880733398 1.27654878083 0.53517053503 0.57512304813 1.27963395022 0.62424659647 0.36159020902 1.28941406415 0.62597075907 0.37755460006 1.28165271472 0.62708862407 0.39641752402 1.27615409114 0.62758501473 0.41771600895 1.27266201354 0.62744475435 0.44098708290 1.27092030207 0.62665266619 0.46576777393 1.27067277687 0.62519357353 0.49159511009 1.27166325809 0.62305229964 0.51800611942 1.27363556586 0.62021366779 0.54453782998 1.27633352033 0.61666250128 0.57072726983 1.27950094165 0.69837518437 0.35000469096 1.28795725812 0.70001993029 0.36674597874 1.28023274444 0.70110731004 0.38663940845 1.27483709916 0.70166313369 0.40912238717 1.27149689716 0.70171321131 0.43363232201 1.26993871329 0.70128335297 0.45960662006 1.26988912243 0.70039936875 0.48648268843 1.27107469944 0.69908706870 0.51369793420 1.27322201919 0.69737226290 0.54068976447 1.27605765654 0.69528076143 0.56689558635 1.27930818636 0.77272820830 0.33750903568 1.28615803123 0.77422560800 0.35509850696 1.27846394291 0.77520669138 0.37615628231 1.27319218439 0.77570876611 0.40000063258 1.27004442302 0.77576913982 0.42594982863 1.26872232614 0.77542512020 0.45332214133 1.26892756108 0.77471401489 0.48143584152 1.27036179519 0.77367313155 0.50960920006 1.27272669581 0.77233977784 0.53716048781 1.27572393027 0.77075126143 0.56340797563 1.27905516592 0.84722880007 0.32419634509 1.28397814849 0.84850411451 0.34270274402 1.27630492714 0.84929712871 0.36506068305 1.27118034769 0.84962517750 0.39044438881 1.26827192321 0.84950559571 0.41802808791 1.26724716674 0.84895571817 0.44698600700 1.26777359137 0.84799287972 0.47649237268 1.26951871013 0.84663441520 0.50572141160 1.27215003610 0.84489765942 0.53384735036 1.27533508232 0.84279994723 0.56004441560 1.27874136187 0.92180009152 0.31015972108 1.28137937492 0.92277177212 0.32964924922 1.27371431414 0.92328898261 0.35344514812 1.26876258992 0.92331563337 0.38054729948 1.26614672979 0.92281563477 0.40995558498 1.26548926125 0.92175289720 0.44066988634 1.26641271184 0.92009133103 0.47169008525 1.26853960906 0.91779484665 0.50201606340 1.27149248044 0.91482735443 0.53064770249 1.27489385350 0.91115276476 0.55658488421 1.27836625576 0.99636521447 0.29549226555 1.27832347553 0.99694490314 0.31602858186 1.27065072092 0.99709261370 0.34140221496 1.26589991196 0.99668339923 0.37040300821 1.26363617484 0.99559231283 0.40182080498 1.26342463580 0.99369440758 0.43444544864 1.26483042105 0.99086473658 0.46706678254 1.26741865679 0.98697835291 0.49847465006 1.27075446924 0.98191030968 0.52745889455 1.27440298461 0.97553565997 0.55280935938 1.27792932913 0.33247346113 0.40582331273 1.30267666778 0.33286488929 0.41849078195 1.29624816955 0.33276447957 0.43349708815 1.29163447440 0.33181932964 0.45071445658 1.28864940838 0.32967653712 0.47001511249 1.28710679755 0.32598319969 0.49127128113 1.28682046798 0.32038641497 0.51435518774 1.28760424572 0.31253328062 0.53913905757 1.28927195684 0.30207089429 0.56549511587 1.29163742740 0.28864635363 0.59329558788 1.29451448346 0.40601527465 0.39903458806 1.30212785627 0.40644731822 0.41215046091 1.29572487485 0.40645490111 0.42766884750 1.29115676524 0.40576917687 0.44540284109 1.28824340273 0.40412129903 0.46516553493 1.28680466260 0.40124242114 0.48677002230 1.28666042012 0.39686369672 0.51002939643 1.28763055056 0.39071627932 0.53475675060 1.28953492920 0.38253132248 0.56076517806 1.29219343131 0.37203997974 0.58786777206 1.29542593218 0.47974240871 0.39102866775 1.30143973548 0.48020518414 0.40468211313 1.29505545882 0.48031075759 0.42083676035 1.29053174648 0.47987090639 0.43924649025 1.28769115024 0.47869740788 0.45966518366 1.28635622191 0.47660203938 0.48184672142 1.28634951327 0.47339657822 0.50554498435 1.28749357614 0.46889280173 0.53051385330 1.28961096231 0.46290248724 0.55650720909 1.29252422358 0.45523741207 0.58327893256 1.29605591174 0.55365757733 0.38191096274 1.30059181798 0.55413768604 0.39619303607 1.29420373415 0.55432197414 0.41311241978 1.28971525180 0.55409326728 0.43235850077 1.28694669381 0.55333439116 0.45362066591 1.28571838309 0.55192817144 0.47658830210 1.28585064253 0.54975743380 0.50095079622 1.28716379503 0.54670500391 0.52639753515 1.28947816348 0.54265370745 0.55261790578 1.29261407077 0.53748637009 0.57930129500 1.29639183980 0.62776349453 0.37178688398 1.29956361634 0.62824402294 0.38679052721 1.29313351348 0.62847847589 0.40460741890 1.28866311487 0.62840500862 0.42485196937 1.28596407637 0.62796177635 0.44713858894 1.28484805379 0.62708693433 0.47108168796 1.28512670298 0.62571863777 0.49629567675 1.28661167976 0.62379504192 0.52239496563 1.28911463998 0.62125430201 0.54899396494 1.29244723946 0.61803457326 0.57570708501 1.29642113404 0.70206287432 0.36076184242 1.29833464315 0.70252339382 0.37658188404 1.29180860947 0.70277018799 0.39543335079 1.28733116940 0.70277487948 0.41683999275 1.28469734083 0.70250909095 0.44032555999 1.28370214163 0.70194444505 0.46541380260 1.28414058969 0.70105256446 0.49162847065 1.28580770288 0.69980507182 0.51849331422 1.28849849910 0.69817358980 0.54553208338 1.29200799622 0.69612974105 0.57226852821 1.29613121214 0.77655843073 0.34894124901 1.29688441096 0.77697499770 0.36567440402 1.29019283479 0.77718703557 0.38570180854 1.28567524907 0.77717162894 0.40843566763 1.28310053011 0.77690586242 0.43328818631 1.28223755424 0.77636682063 0.45967156964 1.28285519774 0.77553158818 0.48699802266 1.28472233694 0.77437724967 0.51467975040 1.28760784814 0.77288088971 0.54212895791 1.29128060764 0.77101959292 0.56875785024 1.29550949177 0.85125287777 0.33643051469 1.29519243236 0.85159803357 0.35417538462 1.28825000208 0.85171894376 0.37552438525 1.28365118755 0.85156400608 0.39975209071 1.28112768714 0.85108161827 0.42613307514 1.28041119924 0.85022017808 0.45394191268 1.28123342223 0.84892808325 0.48245317747 1.28332605448 0.84715373152 0.51094144365 1.28642079437 0.84484552063 0.53868128535 1.29024934029 0.84195184834 0.56494727671 1.29454339061 0.92614892946 0.32333505041 1.29323821993 0.92639170044 0.34219212333 1.28594392402 0.92635583771 0.36501267401 1.28121481854 0.92592075999 0.39090235871 1.27873285484 0.92496588598 0.41896683373 1.27817998428 0.92337063441 0.44831175534 1.27923815823 0.92101442399 0.47804277982 1.28158932805 0.91777667343 0.50726556344 1.28491544509 0.91353680146 0.53508576250 1.28889846074 0.90817422677 0.56060903326 1.29322032633 1.00124929982 0.30976026713 1.29100128623 1.00135519730 0.32983191763 1.28323841326 1.00108764255 0.35427826791 1.27832197572 1.00021063973 0.38199956835 1.27587007611 0.99848819303 0.41189606933 1.27550081697 0.99568430663 0.44286802122 1.27683230082 0.99156298472 0.47381567441 1.27948263019 0.98588823147 0.50363927927 1.28306990759 0.97842405106 0.53123908618 1.28721223556 0.96893444769 0.55551534551 1.29152771661 0.33282313989 0.41406879743 1.31078233009 0.33282779380 0.42578786356 1.30634600735 0.33260656244 0.43980426034 1.30326211698 0.33195318286 0.45599872751 1.30139793981 0.33066139208 0.47425200484 1.30062075663 0.32852492712 0.49444483210 1.30079784826 0.32533752500 0.51645794905 1.30179649551 0.32089292275 0.54017209546 1.30348397919 0.31498485740 0.56546801108 1.30572758010 0.30740706597 0.59222643569 1.30839457905 0.40676245233 0.40744618966 1.31020754050 0.40676983467 0.41958752282 1.30579387242 0.40656249311 0.43411548294 1.30276469500 0.40595014008 0.45087214509 1.30100650199 0.40474248800 0.46969958429 1.30040578713 0.40274924931 0.49043987562 1.30084904418 0.39978013642 0.51293509412 1.30222276687 0.39564486175 0.53702731483 1.30441344895 0.39015313773 0.56255861281 1.30730758417 0.38311467679 0.58937106312 1.31079166627 0.48077025793 0.39965107399 1.30952200846 0.48078383908 0.41230736248 1.30510898281 0.48061475494 0.42746653819 1.30211824029 0.48010860660 0.44492846746 1.30044892370 0.47911099517 0.46449301665 1.30000017585 0.47746752173 0.48596005209 1.30067113953 0.47502378740 0.50912944014 1.30236095754 0.47162539325 0.53380104714 1.30496877269 0.46711794040 0.55977473943 1.30839372778 0.46134702994 0.58685038337 1.31253496560 0.55488864037 0.39079925733 1.30871865066 0.55490898492 0.40407238104 1.30425477515 0.55478682095 0.41999074940 1.30126687235 0.55441151432 0.43830361339 1.29965881307 0.55367243085 0.45876022396 1.29933446815 0.55245893640 0.48110983208 1.30019770840 0.55066039681 0.50510168871 1.30215240464 0.54816617792 0.53048504482 1.30510242771 0.54486564558 0.55700915137 1.30895164841 0.54064816563 0.58442325931 1.31360393758 0.62915968332 0.38100654656 1.30779038380 0.62918445005 0.39500757697 1.30319468607 0.62910216415 0.41182143993 1.30015471066 0.62884179508 0.43113350164 1.29856977822 0.62833231231 0.45262912832 1.29833920941 0.62750268530 0.47599368618 1.29936232489 0.62628188351 0.50091254145 1.30153844531 0.62459887639 0.52707106033 1.30476689132 0.62238263342 0.55415460904 1.30894698357 0.61956212404 0.58184855379 1.31397804274 0.70362547048 0.37038874859 1.30673012455 0.70364941235 0.38523794877 1.30189215218 0.70358425753 0.40309193309 1.29872587471 0.70338238078 0.42355405095 1.29711542728 0.70299615684 0.44622765178 1.29694494502 0.70237796045 0.47071608497 1.29809856310 0.70148016637 0.49662269994 1.30046041665 0.70025514933 0.52355084611 1.30391464082 0.69865528409 0.55110387287 1.30834537076 0.69663294538 0.57888512964 1.31363674161 0.77832808550 0.35906167031 1.30553078961 0.77834304969 0.37488849491 1.30031061013 0.77825657411 0.39393555222 1.29692448399 0.77801620329 0.41570118010 1.29522936836 0.77756948170 0.43968371642 1.29508222035 0.77686395386 0.46538149903 1.29633999712 0.77584716425 0.49229286580 1.29885965580 0.77446665739 0.51991615460 1.30249815354 0.77266997775 0.54774970328 1.30711244747 0.77040466986 0.57529184971 1.31255949474 0.85330961209 0.34714111862 1.30418529567 0.85330453994 0.36408421388 1.29841349652 0.85314258690 0.38448562066 1.29469465800 0.85272619447 0.40771080784 1.29284520959 0.85195780417 0.43312524430 1.29268158078 0.85073985752 0.46009439893 1.29402020104 0.84897479602 0.48798374062 1.29667749988 0.84656506121 0.51615873825 1.30046990677 0.84341309458 0.54398486070 1.30521385120 0.83942133766 0.57082757687 1.31072576265 0.92861213391 0.33474290042 1.30268655942 0.92857306099 0.35295010417 1.29616424800 0.92826576889 0.37487546174 1.29198051622 0.92749528620 0.39971885293 1.28989655910 0.92606664152 0.42668015750 1.28967357168 0.92378486344 0.45495925527 1.29107274897 0.92045498055 0.48375602601 1.29385528601 0.91588202145 0.51227034951 1.29778237783 0.90987101474 0.53970210556 1.30261521944 0.90222698900 0.56525117394 1.30811500588 1.00427773464 0.32198282260 1.30102749754 1.00418779070 0.34161116425 1.29352630118 1.00364959310 0.36523839880 1.28872617813 1.00230641036 0.39186123412 1.28631702501 0.99980151102 0.42047637809 1.28598873843 0.99577816362 0.45008053861 1.28743121499 0.98987963669 0.47967042356 1.29033435132 0.98174919876 0.50824274081 1.29438804402 0.97103011838 0.53479419826 1.29928218970 0.95736566407 0.55832150379 1.30470668497 0.33286738624 0.42143120874 1.31740635562 0.33284993359 0.43221994362 1.31534952530 0.33282833772 0.44530063862 1.31408976870 0.33280123331 0.46055307996 1.31354802255 0.33276725504 0.47785705385 1.31364522359 0.33272503760 0.49709234650 1.31430230856 0.33267321567 0.51813874412 1.31544021419 0.33261042395 0.54087603293 1.31697987721 0.33253529710 0.56518399915 1.31884223435 0.33244646983 0.59094242897 1.32094822236 0.40686510386 0.41495843915 1.31683410676 0.40683336823 0.42613377432 1.31479796086 0.40672445311 0.43972545093 1.31360884216 0.40646782532 0.45559890432 1.31322631238 0.40599295168 0.47361956984 1.31360993323 0.40522929904 0.49365288283 1.31471926643 0.40410633420 0.51556427864 1.31651387370 0.40255352399 0.53921919259 1.31895331674 0.40050033525 0.56448306005 1.32199715728 0.39787623480 0.59122131634 1.32560495703 0.48093059550 0.40734163472 1.31615741426 0.48089343789 0.41899598747 1.31410355988 0.48075659990 0.43321103695 1.31295168532 0.48042994302 0.44982973298 1.31268873877 0.47982332877 0.46869502539 1.31330166838 0.47884661866 0.48964986399 1.31477742232 0.47740967420 0.51253719862 1.31710294876 0.47542235689 0.53719997910 1.32026519586 0.47279452824 0.56348115525 1.32425111179 0.46943604977 0.59122367689 1.32904764471 0.55512790324 0.39869547805 1.31537068318 0.55509029025 0.41093855766 1.31321632569 0.55495997812 0.42590264726 1.31203691005 0.55465701577 0.44339540924 1.31183448794 0.55410145213 0.46322450596 1.31261111107 0.55321333614 0.48519759980 1.31436883112 0.55191271672 0.50912235312 1.31710969979 0.55011964281 0.53480642830 1.32083576875 0.54775416334 0.56205748772 1.32554908971 0.54473632724 0.59068319373 1.33125171436 0.62952106914 0.38913465171 1.31446831857 0.62948407298 0.40209345943 1.31208626163 0.62936978780 0.41794553242 1.31078312818 0.62911847290 0.43644577639 1.31056274611 0.62867038757 0.45734909704 1.31142894332 0.62796579110 0.48041040006 1.31338554771 0.62694494279 0.50538459117 1.31643638717 0.62554810193 0.53202657606 1.32058528960 0.62371552780 0.56009126043 1.32583608290 0.62138747970 0.58933354999 1.33219259497 0.70417413528 0.37877383827 1.31344472548 0.70413493373 0.39259266735 1.31066337105 0.70402122896 0.40948494300 1.30910895158 0.70378374376 0.42913067773 1.30877269948 0.70337320091 0.45120988410 1.30964584714 0.70274032321 0.47540257461 1.31171962695 0.70183583345 0.50138876181 1.31498527130 0.70061045441 0.52884845821 1.31943401258 0.69901490889 0.55746167636 1.32505708319 0.69699991967 0.58690842878 1.33184571550 0.77915114370 0.36772772033 1.31229430898 0.77910302017 0.38256815599 1.30889765726 0.77894950162 0.40066612955 1.30693299210 0.77862225769 0.42159995657 1.30636353427 0.77805295797 0.44494795262 1.30715250456 0.77717327212 0.47028843326 1.30926312374 0.77591486973 0.49719971407 1.31265861259 0.77420942044 0.52526011062 1.31730219189 0.77198859387 0.55404793848 1.32315708241 0.76918405964 0.58314151320 1.33018650495 0.85451613650 0.35611098045 1.31101147410 0.85444847998 0.37215189992 1.30673912361 0.85418980582 0.39163434265 1.30417386159 0.85360344403 0.41400345619 1.30323443669 0.85255272458 0.43870438807 1.30383959759 0.85090097746 0.46518228583 1.30590809295 0.84851153267 0.49288229701 1.30935867143 0.84524772019 0.52124956914 1.31411008170 0.84097287000 0.54972924975 1.32008107242 0.83555031210 0.57776648639 1.32719039227 0.93033315573 0.34403830122 1.30959062591 0.93023146081 0.36147587368 1.30413777344 0.92977734158 0.38253483286 1.30075017190 0.92869673213 0.40649101990 1.29928459295 0.92671556654 0.43262027594 1.29959780825 0.92355977891 0.46019844215 1.30154658946 0.91895530330 0.48850135965 1.30498770822 0.91262807382 0.51680486961 1.30977793620 0.90430402455 0.54438481316 1.31577404506 0.89370908957 0.57051703145 1.32283280644 1.00666624345 0.33162436522 1.30802616946 1.00651211033 0.35067205185 1.30104361008 1.00574730892 0.37351285074 1.29658053489 1.00387155134 0.39921249098 1.29441318927 1.00038454969 0.42683670171 1.29431781857 0.99478601609 0.45545121202 1.29607066814 0.98657566266 0.48412175104 1.29944798336 0.97525320152 0.51191404789 1.30422600958 0.96031834477 0.53789383166 1.31018099215 0.94127080453 0.56112683149 1.31708917645 </DataArray>
</Points>
</Piece>
</StructuredGrid>
</VTKFile>
