<?xml version="1.0"?>
<VTKFile type="StructuredGrid" version="0.1">
<StructuredGrid WholeExtent="0 9 0 9 0 9">
<Piece Extent="0 9 0 9 0 9">
<PointData>
<DataArray type="Float32" Name="Deformation" format="ascii" NumberOfComponents="3">
0.00021954622 0.00115681093 0.01028333526 0.00022848453 0.00096848584 0.01033973391 0.00022900069 0.00082497856 0.01038862785 0.00022264544 0.00071955012 0.01043106053 0.00021096951 0.00064546160 0.01046807544 0.00019552363 0.00059597403 0.01050071604 0.00017785855 0.00056434848 0.01053002582 0.00015952498 0.00054384600 0.01055704825 0.00014207368 0.00052772765 0.01058282680 0.00012705536 0.00050925447 0.01060840495 0.00021535150 0.00122197992 0.01018688925 0.00020581493 0.00104349212 0.01026813598 0.00019414258 0.00090925612 0.01033496144 0.00018082372 0.00081234232 0.01038947532 0.00016634763 0.00074582115 0.01043378730 0.00015120358 0.00070276304 0.01047000705 0.00013588087 0.00067623840 0.01050024428 0.00012086877 0.00065931765 0.01052660866 0.00010665656 0.00064507123 0.01055120987 0.00009373353 0.00062656954 0.01057615759 0.00017781225 0.00127105515 0.01011454220 0.00016212687 0.00109993684 0.01021442769 0.00014728580 0.00097264709 0.01029470363 0.00013325416 0.00088211330 0.01035827954 0.00011999707 0.00082126289 0.01040806493 0.00010747965 0.00078302326 0.01044696932 0.00009566701 0.00076032183 0.01047790222 0.00008452427 0.00074608601 0.01050377316 0.00007401655 0.00073324320 0.01052749166 0.00006410898 0.00071472081 0.01055196722 0.00011644566 0.00130401526 0.01006629628 0.00010341979 0.00113780409 0.01017860998 0.00009185580 0.00101514015 0.01026785456 0.00008157855 0.00092885549 0.01033747291 0.00007241291 0.00087178219 0.01039090790 0.00006418371 0.00083675230 0.01043160241 0.00005671583 0.00081659787 0.01046299932 0.00004983411 0.00080415098 0.01048854152 0.00004336341 0.00079224368 0.01051167188 0.00003712858 0.00077370803 0.01053583328 0.00004076891 0.00132083892 0.01004215364 0.00003569313 0.00115707798 0.01016068376 0.00003127803 0.00103672398 0.01025441437 0.00002743869 0.00095256133 0.01032705515 0.00002409021 0.00089737445 0.01038231578 0.00002114769 0.00086394774 0.01042390592 0.00001852623 0.00084506562 0.01045553526 0.00001614094 0.00083351250 0.01048091347 0.00001390690 0.00082207278 0.01050375023 0.00001173922 0.00080353089 0.01052775521 -0.00003970083 0.00132150476 0.01004211646 -0.00003505363 0.00115774260 0.01016064996 -0.00003102205 0.00103738726 0.01025438320 -0.00002752365 0.00095322324 0.01032702599 -0.00002447596 0.00089803506 0.01038228813 -0.00002179653 0.00086460720 0.01042387943 -0.00001940290 0.00084572417 0.01045550970 -0.00001721262 0.00083417048 0.01048088876 -0.00001514322 0.00082273063 0.01050372641 -0.00001311225 0.00080418911 0.01052773245 -0.00011544638 0.00130599145 0.01006618690 -0.00010282105 0.00113978206 0.01017850951 -0.00009161899 0.00101711867 0.01026776119 -0.00008166667 0.00093083366 0.01033738513 -0.00007279053 0.00087375940 0.01039082451 -0.00006481705 0.00083872826 0.01043152252 -0.00005757270 0.00081857262 0.01046292233 -0.00005088392 0.00080612485 0.01048846713 -0.00004457718 0.00079421733 0.01051160012 -0.00003847896 0.00077568242 0.01053576446 -0.00017695055 0.00127427762 0.01011436713 -0.00016160968 0.00110318046 0.01021426333 -0.00014708734 0.00097590690 0.01029454849 -0.00013334857 0.00088538502 0.01035813231 -0.00012035843 0.00082454288 0.01040792450 -0.00010808198 0.00078630854 0.01044683477 -0.00009648426 0.00076361006 0.01047777281 -0.00008553032 0.00074937553 0.01050364834 -0.00007518523 0.00073653299 0.01052737106 -0.00006541403 0.00071801052 0.01055185067 -0.00021469616 0.00122634193 0.01018665931 -0.00020542006 0.00104792189 0.01026791234 -0.00019400163 0.00091374063 0.01033474523 -0.00018092757 0.00081686975 0.01038926724 -0.00016668460 0.00075038087 0.01043358766 -0.00015175941 0.00070734561 0.01046981577 -0.00013663870 0.00068083559 0.01050006083 -0.00012180920 0.00066392243 0.01052643213 -0.00010775759 0.00064967774 0.01055103893 -0.00009497060 0.00063117314 0.01057599053 -0.00021916603 0.00116216302 0.01028306561 -0.00022825274 0.00097399047 0.01033945747 -0.00022893642 0.00083060853 0.01038835155 -0.00022276189 0.00072528028 0.01043078965 -0.00021127396 0.00065126877 0.01046781356 -0.00019601744 0.00060183709 0.01050046510 -0.00017853715 0.00057024831 0.01052978605 -0.00016037791 0.00054976548 0.01055681823 -0.00014308451 0.00053365169 0.01058260344 -0.00012820179 0.00051517000 0.01060818348 0.00027443095 0.00088659562 0.01024065169 0.00027973241 0.00076718538 0.01029138848 0.00027655676 0.00067629702 0.01033849351 0.00026633891 0.00060968128 0.01038234995 0.00025051375 0.00056308892 0.01042334099 0.00023051619 0.00053227069 0.01046184982 0.00020778113 0.00051297732 0.01049825963 0.00018374348 0.00050095959 0.01053295360 0.00015983812 0.00049196822 0.01056631491 0.00013749997 0.00048175398 0.01059872676 0.00025111390 0.00095152128 0.01016586984 0.00024140500 0.00084401655 0.01023628545 0.00022864826 0.00076347346 0.01029704341 0.00021341699 0.00070567256 0.01034951677 0.00019628445 0.00066639442 0.01039507858 0.00017782393 0.00064141958 0.01043510190 0.00015860871 0.00062652860 0.01047095978 0.00013921207 0.00061750204 0.01050402526 0.00012020729 0.00061012045 0.01053567141 0.00010216766 0.00060016439 0.01056727127 0.00019964793 0.00100041254 0.01010977118 0.00018526710 0.00090182865 0.01019494825 0.00017061215 0.00082903752 0.01026594757 0.00015580154 0.00077784202 0.01032488474 0.00014095373 0.00074404500 0.01037387532 0.00012618716 0.00072344932 0.01041503490 0.00011162028 0.00071185783 0.01045047905 0.00009737156 0.00070507339 0.01048232335 0.00008355943 0.00069889886 0.01051268338 0.00007030236 0.00068913708 0.01054367471 0.00012806863 0.00103324730 0.01007235766 0.00011640368 0.00094060535 0.01016737775 0.00010534076 0.00087297767 0.01024520617 0.00009483414 0.00082618200 0.01030845361 0.00008483812 0.00079603603 0.01035973077 0.00007530697 0.00077835748 0.01040164834 0.00006619498 0.00076896407 0.01043681701 0.00005745644 0.00076367350 0.01046784747 0.00004904562 0.00075830349 0.01049735043 0.00004091681 0.00074867174 0.01052793657 0.00004441156 0.00105000343 0.01005363119 0.00003989971 0.00096033030 0.01015357485 0.00003572642 0.00089528237 0.01023481939 0.00003185635 0.00085068482 0.01030022316 0.00002825415 0.00082236283 0.01035264449 0.00002488446 0.00080614161 0.01039494172 0.00002171193 0.00079784633 0.01042997318 0.00001870120 0.00079330219 0.01046059721 0.00001581693 0.00078833437 0.01048967214 0.00001302375 0.00077876807 0.01052005630 -0.00004328767 0.00105065880 0.01005359373 -0.00003915986 0.00096098718 0.01015354043 -0.00003533852 0.00089594007 0.01023478743 -0.00003179026 0.00085134281 0.01030019316 -0.00002848165 0.00082302076 0.01035261607 -0.00002537929 0.00080679926 0.01039491458 -0.00002244976 0.00079850366 0.01042994713 -0.00001965966 0.00079395931 0.01046057216 -0.00001697557 0.00078899156 0.01048964810 -0.00001436408 0.00077942576 0.01052003338 -0.00012699349 0.00103519131 0.01007224721 -0.00011569005 0.00094255966 0.01016727538 -0.00010496174 0.00087493924 0.01024511046 -0.00009476413 0.00082814832 0.01030836337 -0.00008505275 0.00079800515 0.01035964505 -0.00007578318 0.00078032799 0.01040156642 -0.00006691096 0.00077093508 0.01043673840 -0.00005839164 0.00076564470 0.01046777192 -0.00005018079 0.00076027508 0.01049727790 -0.00004223395 0.00075064450 0.01052786727 -0.00019867032 0.00100357882 0.01010959357 -0.00018460591 0.00090503139 0.01019478058 -0.00017025090 0.00083226835 0.01026578867 -0.00015572368 0.00078109368 0.01032473357 -0.00014114263 0.00074731136 0.01037373102 -0.00012662613 0.00072672535 0.01041489676 -0.00011229254 0.00071513964 0.01045034654 -0.00009826026 0.00070835819 0.01048219608 -0.00008464767 0.00070218498 0.01051256114 -0.00007157313 0.00069242398 0.01054355745 -0.00025028258 0.00095579922 0.01016563473 -0.00024082247 0.00084838603 0.01023605693 -0.00022831366 0.00076791585 0.01029682226 -0.00021332736 0.00071017122 0.01034930352 -0.00019643475 0.00067093472 0.01039487354 -0.00017820703 0.00064598891 0.01043490513 -0.00015921539 0.00063111636 0.01047077109 -0.00014003102 0.00062209963 0.01050384424 -0.00012122512 0.00061472129 0.01053549741 -0.00010336886 0.00060476390 0.01056710339 -0.00027379468 0.00089183038 0.01024037265 -0.00027925476 0.00077260727 0.01029110531 -0.00027625769 0.00068187020 0.01033821140 -0.00026623360 0.00061537327 0.01038207300 -0.00025061260 0.00056887057 0.01042307218 -0.00023082482 0.00053811621 0.01046159102 -0.00020830039 0.00051886427 0.01049801161 -0.00018446943 0.00050686885 0.01053271600 -0.00016076207 0.00049788404 0.01056608629 -0.00013860843 0.00048766395 0.01059850455 0.00031857728 0.00067844570 0.01021635832 0.00032129982 0.00060815699 0.01026195016 0.00031543702 0.00055510777 0.01030652427 0.00030234173 0.00051675404 0.01035009344 0.00028336679 0.00049055182 0.01039267045 0.00025986505 0.00047395710 0.01043426808 0.00023318936 0.00046442591 0.01047489911 0.00020469256 0.00045941424 0.01051457633 0.00017572752 0.00045637811 0.01055331252 0.00014764706 0.00045277351 0.01059112045 0.00028077727 0.00074290920 0.01015896547 0.00027097075 0.00068627607 0.01021917471 0.00025738118 0.00064453392 0.01027359216 0.00024065162 0.00061533821 0.01032302468 0.00022142513 0.00059634440 0.01036827912 0.00020034479 0.00058520794 0.01041016233 0.00017805364 0.00057958429 0.01044948118 0.00015519476 0.00057712892 0.01048704250 0.00013241120 0.00057549728 0.01052365316 0.00011034603 0.00057234483 0.01056012000 0.00021833305 0.00079145273 0.01011590907 0.00020490854 0.00074505300 0.01018708325 0.00019033492 0.00071178428 0.01024888465 0.00017485213 0.00068945153 0.01030271573 0.00015870011 0.00067585972 0.01034997899 0.00014211881 0.00066881378 0.01039207690 0.00012534815 0.00066611869 0.01043041195 0.00010862808 0.00066557940 0.01046638660 0.00009219853 0.00066500087 0.01050140335 0.00007629945 0.00066218806 0.01053686466 0.00013828101 0.00082405363 0.01008719083 0.00012760618 0.00078447120 0.01016567665 0.00011686675 0.00075684725 0.01023240198 0.00010611868 0.00073908636 0.01028916645 0.00009541788 0.00072909314 0.01033776968 0.00008482030 0.00072477218 0.01038001128 0.00007438187 0.00072402808 0.01041769089 0.00006415853 0.00072476544 0.01045260812 0.00005420622 0.00072488885 0.01048656260 0.00004458086 0.00072230290 0.01052135394 0.00004765752 0.00084068928 0.01007281245 0.00004355665 0.00080451413 0.01015495576 0.00003954520 0.00077971123 0.01022414442 0.00003562667 0.00076423504 0.01028237668 0.00003180460 0.00075604003 0.01033165078 0.00002808247 0.00075308068 0.01037396496 0.00002446381 0.00075331143 0.01041131747 0.00002095214 0.00075468677 0.01044570653 0.00001755095 0.00075516115 0.01047913040 0.00001426377 0.00075268904 0.01051358731 -0.00004650104 0.00084133704 0.01007277564 -0.00004274706 0.00080516523 0.01015492143 -0.00003906125 0.00078036464 0.01022411221 -0.00003544846 0.00076488994 0.01028234627 -0.00003191359 0.00075669578 0.01033162191 -0.00002846149 0.00075373682 0.01037393744 -0.00002509703 0.00075396773 0.01041129114 -0.00002182510 0.00075534314 0.01044568131 -0.00001865057 0.00075581773 0.01047910626 -0.00001557830 0.00075334615 0.01051356429 -0.00013715828 0.00082597428 0.01008708209 -0.00012681197 0.00078640793 0.01016557452 -0.00011638406 0.00075879588 0.01023230559 -0.00010593132 0.00074104340 0.01028907506 -0.00009551051 0.00073105574 0.01033768267 -0.00008517837 0.00072673817 0.01037992819 -0.00007499167 0.00072599594 0.01041761136 -0.00006500718 0.00072673432 0.01045253194 -0.00005528164 0.00072685856 0.01048648969 -0.00004587181 0.00072427392 0.01052128435 -0.00021727783 0.00079457835 0.01011573352 -0.00020414509 0.00074822569 0.01018691589 -0.00018985474 0.00071499338 0.01024872483 -0.00017464649 0.00069268779 0.01030256290 -0.00015876000 0.00067911530 0.01034983267 -0.00014243498 0.00067208226 0.01039193672 -0.00012591111 0.00066939505 0.01043027760 -0.00010942807 0.00066886003 0.01046625790 -0.00009322556 0.00066828357 0.01050128017 -0.00007754325 0.00066547204 0.01053674699 -0.00027982331 0.00074712663 0.01015873163 -0.00027025343 0.00069060194 0.01021894639 -0.00025690478 0.00064894552 0.01027337016 -0.00024041854 0.00061981546 0.01032280963 -0.00022143593 0.00060086981 0.01036807151 -0.00020059813 0.00058976665 0.01040996251 -0.00017854635 0.00058416404 0.01044928932 -0.00015592178 0.00058172004 0.01048685866 -0.00013336563 0.00058009274 0.01052347722 -0.00011151910 0.00057694019 0.01055995170 -0.00031775834 0.00068359647 0.01021607812 -0.00032064402 0.00061352012 0.01026166688 -0.00031496566 0.00056064073 0.01030624183 -0.00030207207 0.00052241876 0.01034981510 -0.00028331211 0.00049631466 0.01039239880 -0.00026003461 0.00047978887 0.01043400506 -0.00023358839 0.00047030187 0.01047464598 -0.00020532230 0.00046531410 0.01051433370 -0.00017658516 0.00046228601 0.01055308033 -0.00014872582 0.00045867807 0.01059089798 0.00035305610 0.00052455313 0.01020891343 0.00035389095 0.00048646445 0.01024943759 0.00034604666 0.00045860148 0.01029068106 0.00033082229 0.00043945629 0.01033247623 0.00030951687 0.00042752099 0.01037465555 0.00028342946 0.00042128763 0.01041705140 0.00025385909 0.00041924833 0.01045949623 0.00022210482 0.00041989515 0.01050182244 0.00018946567 0.00042172019 0.01054386244 0.00015724071 0.00042321552 0.01058544866 0.00030500816 0.00058900304 0.01016484997 0.00029493103 0.00056580263 0.01021526930 0.00028055861 0.00054994082 0.01026308282 0.00026258589 0.00054022239 0.01030864557 0.00024170787 0.00053545213 0.01035231259 0.00021861953 0.00053443484 0.01039443893 0.00019401587 0.00053597530 0.01043537962 0.00016859188 0.00053887830 0.01047548970 0.00014304256 0.00054194862 0.01051512423 0.00011806290 0.00054399107 0.01055463823 0.00023425500 0.00063753556 0.01013179129 0.00022128158 0.00062549296 0.01018963342 0.00020655703 0.00061862517 0.01024237567 0.00019040868 0.00061597140 0.01029076506 0.00017316389 0.00061657083 0.01033554863 0.00015514996 0.00061946263 0.01037747341 0.00013669425 0.00062368599 0.01041728645 0.00011812408 0.00062828011 0.01045573476 0.00009976679 0.00063228416 0.01049356539 0.00008194970 0.00063473732 0.01053152537 0.00014728044 0.00067012775 0.01010973886 0.00013713842 0.00066551881 0.01017253078 0.00012647488 0.00066464303 0.01022855991 0.00011541840 0.00066669580 0.01027883463 0.00010409759 0.00067087251 0.01032436332 0.00009264102 0.00067636856 0.01036615435 0.00008117728 0.00068237934 0.01040521612 0.00006983496 0.00068810024 0.01044255699 0.00005874265 0.00069272665 0.01047918536 0.00004802893 0.00069545398 0.01051610959 0.00005056830 0.00068675669 0.01009869417 0.00004669740 0.00068586360 0.01016396221 0.00004274514 0.00068798288 0.01022163587 0.00003874279 0.00069238805 0.01027285422 0.00003472163 0.00069835265 0.01031875632 0.00003071294 0.00070515021 0.01036048124 0.00002674799 0.00071205427 0.01039916804 0.00002285806 0.00071833835 0.01043595580 0.00001907443 0.00072327599 0.01047198356 0.00001542837 0.00072614072 0.01050839041 -0.00004939760 0.00068739943 0.01009865869 -0.00004584562 0.00068651071 0.01016392854 -0.00004219920 0.00068863320 0.01022160387 -0.00003849041 0.00069304062 0.01027282377 -0.00003475132 0.00069900669 0.01031872732 -0.00003101402 0.00070580515 0.01036045358 -0.00002731058 0.00071270970 0.01039914163 -0.00002367307 0.00071899409 0.01043593056 -0.00002013357 0.00072393202 0.01047195944 -0.00001672417 0.00072679724 0.01050836734 -0.00014613345 0.00067203304 0.01010963391 -0.00013629483 0.00066744353 0.01017243059 -0.00012592518 0.00066658247 0.01022846423 -0.00011515346 0.00066864597 0.01027874322 -0.00010410862 0.00067283009 0.01032427596 -0.00009291961 0.00067833093 0.01036607085 -0.00008171538 0.00068434458 0.01040513629 -0.00007062488 0.00069006712 0.01044248068 -0.00005977707 0.00069469464 0.01047911241 -0.00004930089 0.00069742322 0.01051603989 -0.00023315543 0.00064063460 0.01013162130 -0.00022045435 0.00062864545 0.01018946920 -0.00020599981 0.00062181920 0.01024221726 -0.00019011861 0.00061919656 0.01029061250 -0.00017313759 0.00061981829 0.01033540192 -0.00015538357 0.00062272513 0.01037733256 -0.00013718337 0.00062695782 0.01041715143 -0.00011886383 0.00063155709 0.01045560554 -0.00010075176 0.00063556369 0.01049344191 -0.00008317400 0.00063801836 0.01053140756 -0.00030397971 0.00059318116 0.01016462235 -0.00029412837 0.00057009988 0.01021504519 -0.00027999012 0.00055433185 0.01026286328 -0.00026225813 0.00054468487 0.01030843154 -0.00024162558 0.00053996676 0.01035210487 -0.00021878565 0.00053898532 0.01039423821 -0.00019443152 0.00054054835 0.01043518646 -0.00016925637 0.00054346366 0.01047530454 -0.00014395337 0.00054653906 0.01051494737 -0.00011921570 0.00054858235 0.01055446987 -0.00035212248 0.00052964980 0.01020863854 -0.00035312103 0.00049179019 0.01024915940 -0.00034546313 0.00046410891 0.01029040262 -0.00033044427 0.00044510336 0.01033220028 -0.00030935994 0.00043327095 0.01037438447 -0.00028350561 0.00042710906 0.01041678728 -0.00025417679 0.00042511511 0.01045924078 -0.00022266895 0.00042578649 0.01050157707 -0.00019027759 0.00042762061 0.01054362823 -0.00015829818 0.00042911487 0.01058522634 0.00037893832 0.00041710984 0.01021677532 0.00037820998 0.00039717153 0.01025186944 0.00036879089 0.00038396882 0.01028892477 0.00035194900 0.00037647593 0.01032768354 0.00032895228 0.00037366712 0.01036788799 0.00030106869 0.00037451662 0.01040928038 0.00026956621 0.00037799867 0.01045160293 0.00023571280 0.00038308751 0.01049459789 0.00020077642 0.00038875737 0.01053800751 0.00016602505 0.00039398250 0.01058157402 0.00032447315 0.00048266213 0.01018219718 0.00031370470 0.00047812815 0.01022303480 0.00029839786 0.00047719744 0.01026399054 0.00027927810 0.00047920821 0.01030502599 0.00025707083 0.00048349865 0.01034610270 0.00023250152 0.00048940698 0.01038718227 0.00020629559 0.00049627141 0.01042822625 0.00017917849 0.00050343015 0.01046919621 0.00015187566 0.00051022139 0.01051005374 0.00012511254 0.00051598335 0.01055076039 0.00024780119 0.00053202092 0.01015625325 0.00023461660 0.00053903160 0.01020139946 0.00021938139 0.00054729802 0.01024528144 0.00020247397 0.00055643120 0.01028802525 0.00018427271 0.00056604214 0.01032975692 0.00016515600 0.00057574185 0.01037060252 0.00014550225 0.00058514132 0.01041068809 0.00012568982 0.00059385157 0.01045013968 0.00010609713 0.00060148361 0.01048908334 0.00008710255 0.00060764843 0.01052764513 0.00015526457 0.00056516318 0.01013894479 0.00014511155 0.00057986534 0.01018696424 0.00013420621 0.00059425921 0.01023279786 0.00012271957 0.00060813755 0.01027668134 0.00011082263 0.00062129316 0.01031885037 0.00009868643 0.00063351881 0.01035954064 0.00008648197 0.00064460728 0.01039898782 0.00007438027 0.00065435135 0.01043742761 0.00006255234 0.00066254381 0.01047509569 0.00005116922 0.00066897743 0.01051222774 0.00005320544 0.00058206585 0.01013027309 0.00004935542 0.00060061286 0.01017972992 0.00004533705 0.00061806964 0.01022654017 0.00004119785 0.00063431989 0.01027099430 0.00003698535 0.00064924728 0.01031338280 0.00003274707 0.00066273548 0.01035399615 0.00002853054 0.00067466818 0.01039312484 0.00002438328 0.00068492906 0.01043105935 0.00002035281 0.00069340178 0.01046809016 0.00001648667 0.00069997004 0.01050450776 -0.00005203404 0.00058270590 0.01013023941 -0.00004848593 0.00060125762 0.01017969733 -0.00004476137 0.00061871799 0.01022650875 -0.00004090824 0.00063497085 0.01027096414 -0.00003697441 0.00064990007 0.01031335393 -0.00003300779 0.00066338947 0.01035396858 -0.00002905625 0.00067532292 0.01039309853 -0.00002516768 0.00068558425 0.01043103424 -0.00002138995 0.00069405732 0.01046806614 -0.00001777096 0.00070062598 0.01050448470 -0.00015411173 0.00056706027 0.01013884503 -0.00014424664 0.00058178310 0.01018686724 -0.00013362431 0.00059619289 0.01023270400 -0.00012241573 0.00061008308 0.01027659089 -0.00011079192 0.00062324710 0.01031876350 -0.00009892387 0.00063547839 0.01035945743 -0.00008698261 0.00064657038 0.01039890827 -0.00007513913 0.00065631651 0.01043735159 -0.00006356444 0.00066451021 0.01047502301 -0.00005242955 0.00067094493 0.01051215809 -0.00024668548 0.00053510593 0.01015609122 -0.00023376085 0.00054217278 0.01020124048 -0.00021878704 0.00055048301 0.01024512629 -0.00020214168 0.00055964920 0.01028787458 -0.00018420242 0.00056928395 0.01032961126 -0.00016534689 0.00057899983 0.01037046224 -0.00014595275 0.00058840945 0.01041055343 -0.00012639761 0.00059712539 0.01045001076 -0.00010705914 0.00060476024 0.01048896013 -0.00008831496 0.00061092659 0.01052752746 -0.00032341315 0.00048681982 0.01018197926 -0.00031286269 0.00048241014 0.01022281782 -0.00029778483 0.00048157700 0.01026377601 -0.00027890313 0.00048366186 0.01030481523 -0.00025694119 0.00048800618 0.01034589692 -0.00023262258 0.00049395142 0.01038698251 -0.00020667088 0.00050083903 0.01042803341 -0.00017980967 0.00050801047 0.01046901106 -0.00015276254 0.00051480720 0.01050987689 -0.00012625307 0.00052057067 0.01055059231 -0.00037795258 0.00042217891 0.01021651041 -0.00037738631 0.00040247863 0.01025160009 -0.00036815295 0.00038946350 0.01028865353 -0.00035151714 0.00038211368 0.01032741287 -0.00032874349 0.00037940937 0.01036762024 -0.00030109664 0.00038033075 0.01040901776 -0.00026984121 0.00038385800 0.01045134759 -0.00023624184 0.00038897132 0.01049435184 -0.00020156313 0.00039465087 0.01053777266 -0.00016706973 0.00039987686 0.01058135218 0.00039729483 0.00034830778 0.01023840229 0.00039496112 0.00033534200 0.01026726436 0.00038407490 0.00032840044 0.01029921631 0.00036589025 0.00032650084 0.01033390056 0.00034166125 0.00032866092 0.01037095951 0.00031264200 0.00033389841 0.01041003558 0.00028008658 0.00034123102 0.01045077117 0.00024524908 0.00034967649 0.01049280868 0.00020938358 0.00035825255 0.01053579055 0.00017374417 0.00036597691 0.01057935916 0.00033983881 0.00041674580 0.01020968093 0.00032771058 0.00041878457 0.01024093675 0.00031111622 0.00042380711 0.01027479046 0.00029078650 0.00043117879 0.01031081246 0.00026745221 0.00044026498 0.01034857315 0.00024184412 0.00045043108 0.01038764293 0.00021469300 0.00046104244 0.01042759220 0.00018672962 0.00047146445 0.01046799136 0.00015868477 0.00048106249 0.01050841081 0.00013128922 0.00048920191 0.01054842094 0.00025935900 0.00046826868 0.01018813036 0.00024514399 0.00048155200 0.01022118207 0.00022891095 0.00049554064 0.01025646278 0.00021105074 0.00050986050 0.01029348883 0.00019195424 0.00052413747 0.01033177656 0.00017201229 0.00053799742 0.01037084230 0.00015161578 0.00055106626 0.01041020240 0.00013115556 0.00056296987 0.01044937320 0.00011102249 0.00057333413 0.01048787103 0.00009160744 0.00058178495 0.01052521224 0.00016243101 0.00050285341 0.01017375168 0.00015163672 0.00052362794 0.01020800111 0.00014010185 0.00054358993 0.01024423372 0.00012800842 0.00056253883 0.01028192978 0.00011553841 0.00058027407 0.01032056954 0.00010287384 0.00059659509 0.01035963324 0.00009019671 0.00061130133 0.01039860114 0.00007768901 0.00062419222 0.01043695350 0.00006553275 0.00063506721 0.01047417056 0.00005390993 0.00064372572 0.01050973258 0.00005563047 0.00052047699 0.01016654596 0.00005156414 0.00054499604 0.01020139461 0.00004733170 0.00056794384 0.01023810371 0.00004298499 0.00058920660 0.01027613541 0.00003857583 0.00060867051 0.01031495189 0.00003415607 0.00062622175 0.01035401529 0.00002977755 0.00064174652 0.01039278780 0.00002549210 0.00065513102 0.01043073156 0.00002135156 0.00066626143 0.01046730874 0.00001740777 0.00067502395 0.01050198151 -0.00005446702 0.00052111641 0.01016651431 -0.00005069837 0.00054563994 0.01020136336 -0.00004675673 0.00056859125 0.01023807317 -0.00004269409 0.00058985665 0.01027610582 -0.00003856241 0.00060932248 0.01031492341 -0.00003441369 0.00062687505 0.01035398802 -0.00003029991 0.00064240070 0.01039276175 -0.00002627304 0.00065578574 0.01043070668 -0.00002238506 0.00066691651 0.01046728491 -0.00001868795 0.00067567932 0.01050195853 -0.00016128584 0.00050474866 0.01017365782 -0.00015077544 0.00052554330 0.01020790812 -0.00013952068 0.00054552102 0.01024414253 -0.00012770334 0.00056448181 0.01028184110 -0.00011550523 0.00058222569 0.01032048389 -0.00010310815 0.00059855266 0.01035955096 -0.00009069390 0.00061326272 0.01039852236 -0.00007844428 0.00062615589 0.01043687816 -0.00006654109 0.00063703217 0.01047409841 -0.00005516614 0.00064569157 0.01050966317 -0.00025825037 0.00047135073 0.01018797759 -0.00024429172 0.00048468977 0.01022102967 -0.00022831737 0.00049872203 0.01025631223 -0.00021071732 0.00051307492 0.01029334136 -0.00019188153 0.00052737586 0.01033163314 -0.00017219998 0.00054125223 0.01037070367 -0.00015206264 0.00055433147 0.01041006903 -0.00013185950 0.00056624096 0.01044924530 -0.00011198054 0.00057660813 0.01048774858 -0.00009281572 0.00058506038 0.01052509496 -0.00033878500 0.00042089962 0.01020947470 -0.00032687181 0.00042306299 0.01024072876 -0.00031050405 0.00042818316 0.01027458269 -0.00029041056 0.00043562882 0.01031060669 -0.00026732021 0.00044476867 0.01034837096 -0.00024196186 0.00045497143 0.01038744570 -0.00021506437 0.00046560579 0.01042740112 -0.00018735658 0.00047604045 0.01046780740 -0.00015956738 0.00048564411 0.01050823477 -0.00013242560 0.00049378548 0.01054825341 -0.00039631411 0.00035337233 0.01023815025 -0.00039414036 0.00034064662 0.01026700617 -0.00038343793 0.00033389327 0.01029895435 -0.00036545761 0.00033213632 0.01033363720 -0.00034145020 0.00033439985 0.01037069714 -0.00031266650 0.00033970791 0.01040977660 -0.00028035730 0.00034708455 0.01045051800 -0.00024577340 0.00035555384 0.01049256377 -0.00021016559 0.00036413983 0.01053555631 -0.00017478468 0.00037186658 0.01057913807 0.00040919655 0.00031033890 0.01027225262 0.00040484856 0.00029603963 0.01029364100 0.00039230389 0.00028908703 0.01031951661 0.00037281444 0.00028821892 0.01034931253 0.00034763206 0.00029217308 0.01038246184 0.00031800865 0.00029968734 0.01041839760 0.00028519608 0.00030949947 0.01045655289 0.00025044623 0.00032034730 0.01049636079 0.00021501097 0.00033096861 0.01053725438 0.00018014218 0.00034010122 0.01057866671 0.00035177170 0.00038411340 0.01024597506 0.00033736752 0.00038330381 0.01026744072 0.00031893097 0.00038727310 0.01029395771 0.00029716940 0.00039501724 0.01032465152 0.00027279019 0.00040553216 0.01035864763 0.00024650069 0.00041781383 0.01039507150 0.00021900828 0.00043085820 0.01043304863 0.00019102032 0.00044366121 0.01047170448 0.00016324417 0.00045521882 0.01051016454 0.00013638720 0.00046452698 0.01054755429 0.00026931583 0.00043963871 0.01022625806 0.00025309413 0.00044893723 0.01024778197 0.00023524860 0.00046109085 0.01027478050 0.00021614177 0.00047528888 0.01030614835 0.00019613613 0.00049072061 0.01034078023 0.00017559421 0.00050657534 0.01037757086 0.00015487850 0.00052204239 0.01041541494 0.00013435153 0.00053631106 0.01045320718 0.00011437580 0.00054857064 0.01048984230 0.00009531382 0.00055801045 0.01052421499 0.00016897741 0.00047689196 0.01021310256 0.00015682506 0.00049292376 0.01023466549 0.00014420288 0.00051052938 0.01026198542 0.00013127119 0.00052902686 0.01029380316 0.00011819032 0.00054773425 0.01032885950 0.00010512057 0.00056596959 0.01036589525 0.00009222227 0.00058305092 0.01040365121 0.00007965574 0.00059829629 0.01044086818 0.00006758130 0.00061102375 0.01047628695 0.00005615927 0.00062055134 0.01050864833 0.00005790491 0.00049585031 0.01020650953 0.00005335702 0.00051524728 0.01022809199 0.00004873990 0.00053557780 0.01025557292 0.00004409735 0.00055622423 0.01028761609 0.00003947317 0.00057656893 0.01032288528 0.00003491116 0.00059599428 0.01036004427 0.00003045512 0.00061388263 0.01039775684 0.00002614884 0.00062961635 0.01043468677 0.00002203613 0.00064257780 0.01046949783 0.00001816078 0.00065214936 0.01050085382 -0.00005675321 0.00049649089 0.01020647991 -0.00005251332 0.00051589166 0.01022806222 -0.00004819426 0.00053622522 0.01025554345 -0.00004384010 0.00055687401 0.01028758728 -0.00003949487 0.00057722050 0.01032285740 -0.00003520263 0.00059664713 0.01036001747 -0.00003100741 0.00061453637 0.01039773119 -0.00002695327 0.00063027066 0.01043466223 -0.00002308425 0.00064323247 0.01046947426 -0.00001944440 0.00065280423 0.01050083098 -0.00016784848 0.00047879087 0.01021301465 -0.00015598925 0.00049484078 0.01023457689 -0.00014365351 0.00051246074 0.01026189746 -0.00013100149 0.00053096924 0.01029371689 -0.00011819339 0.00054968478 0.01032877571 -0.00010538942 0.00056792587 0.01036581446 -0.00009274978 0.00058501100 0.01040357366 -0.00008043470 0.00060025868 0.01044079385 -0.00006860438 0.00061298740 0.01047621556 -0.00005741903 0.00062251567 0.01050857932 -0.00026823244 0.00044272738 0.01022611470 -0.00025227408 0.00045207851 0.01024763673 -0.00023469176 0.00046427347 0.01027463539 -0.00021584715 0.00047850294 0.01030600505 -0.00019610195 0.00049395762 0.01034064006 -0.00017581783 0.00050982820 0.01037743480 -0.00015535648 0.00052530538 0.01041528363 -0.00013507958 0.00053957984 0.01045308092 -0.00011534882 0.00055184227 0.01048972104 -0.00009652587 0.00056128338 0.01052409835 -0.00035075662 0.00038827757 0.01024578102 -0.00033657114 0.00038758873 0.01026724249 -0.00031836292 0.00039165252 0.01029375771 -0.00029683742 0.00039946815 0.01032445190 -0.00027270012 0.00041003485 0.01035845029 -0.00024665648 0.00042235185 0.01039487808 -0.00021941195 0.00043541835 0.01043286049 -0.00019167200 0.00044823357 0.01047152274 -0.00016414209 0.00045979675 0.01050999003 -0.00013752769 0.00046910710 0.01054738759 -0.00040827255 0.00031541859 0.01027201456 -0.00040408371 0.00030135531 0.01029339487 -0.00039172089 0.00029458699 0.01031926485 -0.00037243264 0.00029385790 0.01034905760 -0.00034746749 0.00029791232 0.01038220624 -0.00031807398 0.00030549452 0.01041814388 -0.00028550067 0.00031534876 0.01045630362 -0.00025099608 0.00032621933 0.01049611857 -0.00021580876 0.00033685049 0.01053702185 -0.00018118725 0.00034598652 0.01057844655 0.00041571438 0.00029539512 0.01031678462 0.00040857648 0.00027432818 0.01032901801 0.00039388307 0.00026321924 0.01034778656 0.00037288996 0.00026031805 0.01037210465 0.00034685297 0.00026387431 0.01040098668 0.00031702791 0.00027213775 0.01043344702 0.00028467058 0.00028335811 0.01046850007 0.00025103681 0.00029578511 0.01050516021 0.00021738241 0.00030766847 0.01054244182 0.00018496318 0.00031725791 0.01057935931 0.00036093839 0.00037762427 0.01028975340 0.00034309437 0.00036721781 0.01030101226 0.00032205941 0.00036509874 0.01031996745 0.00029848507 0.00036960668 0.01034518972 0.00027302295 0.00037908122 0.01037524983 0.00024632461 0.00039186195 0.01040871856 0.00021904165 0.00040628847 0.01044416666 0.00019182563 0.00042070039 0.01048016491 0.00016532814 0.00043343730 0.01051528407 0.00014020077 0.00044283880 0.01054809490 0.00027805909 0.00043949088 0.01026947174 0.00025869741 0.00043707037 0.01027999986 0.00023849729 0.00044168646 0.01029909540 0.00021774981 0.00045174589 0.01032499634 0.00019674605 0.00046565536 0.01035594064 0.00017577711 0.00048182160 0.01039016628 0.00015513406 0.00049865131 0.01042591123 0.00013510799 0.00051455122 0.01046141347 0.00011598999 0.00052792804 0.01049491097 0.00009807113 0.00053718850 0.01052464170 0.00017510140 0.00048097233 0.01025594050 0.00016078773 0.00048386997 0.01026598148 0.00014655040 0.00049297172 0.01028517085 0.00013249415 0.00050672887 0.01031152466 0.00011872374 0.00052359269 0.01034305896 0.00010534392 0.00054201447 0.01037778978 0.00009245942 0.00056044548 0.01041373317 0.00008017501 0.00057733701 0.01044890518 0.00006859543 0.00059114033 0.01048132183 0.00005782543 0.00060030673 0.01050899919 0.00006009029 0.00050204601 0.01024916054 0.00005476749 0.00050760073 0.01025895778 0.00004957242 0.00051894384 0.01027819421 0.00004452808 0.00053454882 0.01030477483 0.00003965746 0.00055288915 0.01033660464 0.00003498355 0.00057243834 0.01037158866 0.00003052934 0.00059166985 0.01040763189 0.00002631782 0.00060905717 0.01044263933 0.00002237198 0.00062307380 0.01047451598 0.00001871481 0.00063219321 0.01050116687 -0.00005894929 0.00050268930 0.01024913272 -0.00005396116 0.00050824677 0.01025892946 -0.00004908295 0.00051959213 0.01027816592 -0.00004433842 0.00053519893 0.01030474699 -0.00003975134 0.00055354070 0.01033657756 -0.00003534548 0.00057309097 0.01037156252 -0.00003114461 0.00059232326 0.01040760677 -0.00002717248 0.00060971112 0.01044261521 -0.00002345288 0.00062372807 0.01047449273 -0.00002000957 0.00063284765 0.01050114422 -0.00017399240 0.00048287959 0.01025585788 -0.00015999608 0.00048579218 0.01026589719 -0.00014606203 0.00049490592 0.01028508641 -0.00013229538 0.00050867241 0.01031144128 -0.00011880122 0.00052554328 0.01034297755 -0.00010568466 0.00054397013 0.01037771095 -0.00009305080 0.00056240459 0.01041365723 -0.00008100477 0.00057929827 0.01044883213 -0.00006965165 0.00059310279 0.01048125138 -0.00005909656 0.00060226976 0.01050893073 -0.00027701408 0.00044259425 0.01026933688 -0.00025793510 0.00044022110 0.01027986163 -0.00023801114 0.00044487452 0.01029895610 -0.00021753281 0.00045496246 0.01032485785 -0.00019679072 0.00046889284 0.01035580448 -0.00017607546 0.00048507361 0.01039003356 -0.00015567766 0.00050191270 0.01042578266 -0.00013588791 0.00051781804 0.01046128937 -0.00011699683 0.00053119758 0.01049479126 -0.00009929501 0.00054045924 0.01052452591 -0.00035998938 0.00038181066 0.01028957059 -0.00034237608 0.00037151762 0.01030082348 -0.00032157658 0.00036948725 0.01031977542 -0.00029824073 0.00037406226 0.01034499685 -0.00027301839 0.00038358533 0.01037505821 -0.00024655939 0.00039639916 0.01040852993 -0.00021951358 0.00041084643 0.01044398246 -0.00019253080 0.00042526984 0.01047998623 -0.00016626091 0.00043801207 0.01051511168 -0.00014135376 0.00044741583 0.01054792924 -0.00041489336 0.00030050622 0.01031655986 -0.00040791687 0.00027966586 0.01032878340 -0.00039340467 0.00026873344 0.01034754480 -0.00037260917 0.00026596502 0.01037185841 -0.00034678278 0.00026961670 0.01040073858 -0.00031717791 0.00027794455 0.01043319967 -0.00028504695 0.00028920465 0.01046825603 -0.00025164232 0.00030165307 0.01050492200 -0.00021821642 0.00031354590 0.01054221194 -0.00018602165 0.00032313921 0.01057914020 0.00041791921 0.00029566841 0.01037045656 0.00040684908 0.00026527143 0.01037141405 0.00038921763 0.00024798775 0.01038198708 0.00036628523 0.00024148612 0.01040046215 0.00033931224 0.00024343529 0.01042512577 0.00030955903 0.00025150401 0.01045426443 0.00027828596 0.00026336103 0.01048616464 0.00024675340 0.00027667512 0.01051911290 0.00021622172 0.00028911501 0.01055139571 0.00018795128 0.00029834946 0.01058129957 0.00036800546 0.00039013774 0.01033968978 0.00034530998 0.00036605849 0.01034011695 0.00032071882 0.00035478733 0.01035129481 0.00029479179 0.00035383023 0.01037107357 0.00026808867 0.00036069318 0.01039730346 0.00024116924 0.00037288214 0.01042783468 0.00021459328 0.00038790308 0.01046051745 0.00018892060 0.00040326199 0.01049320198 0.00016471096 0.00041646483 0.01052373850 0.00014252417 0.00042501758 0.01054997720 0.00028597616 0.00046118506 0.01031660683 0.00026218421 0.00044183448 0.01031663645 0.00023875992 0.00043506530 0.01032826830 0.00021587762 0.00043826112 0.01034902532 0.00019371166 0.00044880554 0.01037643046 0.00017243638 0.00046408217 0.01040800664 0.00015222611 0.00048147459 0.01044127681 0.00013325520 0.00049836642 0.01047376391 0.00011569799 0.00051214124 0.01050299088 0.00009972881 0.00052018266 0.01052648065 0.00018100062 0.00050878803 0.01030120855 0.00016363586 0.00049258372 0.01030097317 0.00014718548 0.00048881112 0.01031290791 0.00013166353 0.00049477208 0.01033431749 0.00011708408 0.00050776840 0.01036250659 0.00010346120 0.00052510191 0.01039477991 0.00009080894 0.00054407444 0.01042844215 0.00007914138 0.00056198782 0.01046079801 0.00006847259 0.00057614385 0.01048915218 0.00005881661 0.00058384438 0.01051080936 0.00006224815 0.00053292432 0.01029349575 0.00005582900 0.00051829053 0.01029312770 0.00004984006 0.00051601428 0.01030521400 0.00004427032 0.00052335641 0.01032695015 0.00003910878 0.00053757776 0.01035553167 0.00003434444 0.00055593919 0.01038815408 0.00002996629 0.00057570152 0.01042201288 0.00002596332 0.00059412561 0.01045430360 0.00002232455 0.00060847230 0.01048222173 0.00001903896 0.00061600244 0.01050296280 -0.00006111192 0.00053357159 0.01029346925 -0.00005507229 0.00051893924 0.01029310067 -0.00004943177 0.00051666423 0.01030518691 -0.00004418119 0.00052400742 0.01032692340 -0.00003931138 0.00053822966 0.01035550554 -0.00003481316 0.00055659180 0.01038812874 -0.00003067736 0.00057635471 0.01042198841 -0.00002689481 0.00059477923 0.01045427998 -0.00002345633 0.00060912622 0.01048219883 -0.00002035274 0.00061665654 0.01050294040 -0.00017991029 0.00051070750 0.01030112987 -0.00016290395 0.00049451416 0.01030089267 -0.00014678546 0.00049075045 0.01031282701 -0.00013157021 0.00049671841 0.01033423732 -0.00011727355 0.00050972010 0.01036242800 -0.00010391085 0.00052705758 0.01039470348 -0.00009149749 0.00054603289 0.01042836816 -0.00008004884 0.00056394809 0.01046072647 -0.00006958025 0.00057810523 0.01048908282 -0.00006010710 0.00058580636 0.01051074163 -0.00028497764 0.00046430972 0.01031647843 -0.00026150189 0.00044499962 0.01031650432 -0.00023837645 0.00043826240 0.01032813465 -0.00021577591 0.00044148269 0.01034889199 -0.00019387486 0.00045204511 0.01037629888 -0.00017284790 0.00046733432 0.01040787788 -0.00015286961 0.00048473494 0.01044115154 -0.00013411459 0.00050163161 0.01047364239 -0.00011675743 0.00051540895 0.01050287301 -0.00010097271 0.00052345162 0.01052636593 -0.00036714466 0.00039435592 0.01033951575 -0.00034470205 0.00037037994 0.01033993622 -0.00032036018 0.00035918956 0.01035111019 -0.00029467750 0.00035829355 0.01037088751 -0.00026821247 0.00036520072 0.01039711801 -0.00024152355 0.00037741985 0.01042765155 -0.00021516921 0.00039245975 0.01046033795 -0.00018970789 0.00040782921 0.01049302706 -0.00016569806 0.00042103703 0.01052356872 -0.00014369818 0.00042959198 0.01054981276 -0.00041724203 0.00030082375 0.01037024265 -0.00040634035 0.00027063944 0.01037118898 -0.00038889208 0.00025352138 0.01038175397 -0.00036615415 0.00024714430 0.01040022395 -0.00033938351 0.00024918292 0.01042488521 -0.00030983708 0.00025731199 0.01045402407 -0.00027877179 0.00026920621 0.01048592682 -0.00024744458 0.00028254033 0.01051887979 -0.00021711237 0.00029498907 0.01055116927 -0.00018903211 0.00030422717 0.01058108157 0.00041688196 0.00030335070 0.01043172676 0.00040037055 0.00026393315 0.01041884777 0.00037871278 0.00024058321 0.01042007907 0.00035316863 0.00023041102 0.01043257023 0.00032499813 0.00023052672 0.01045347082 0.00029546127 0.00023804044 0.01047993041 0.00026581808 0.00025006232 0.01050909857 0.00023732857 0.00026370250 0.01053812486 0.00021125273 0.00027607113 0.01056415887 0.00018885059 0.00028427833 0.01058435015 0.00037363947 0.00041451316 0.01039445804 0.00034443317 0.00037535779 0.01038322032 0.00031512651 0.00035384216 0.01038641493 0.00028614785 0.00034657101 0.01040094962 0.00025792554 0.00035014908 0.01042373220 0.00023088793 0.00036118111 0.01045167044 0.00020546339 0.00037627183 0.01048167212 0.00018208026 0.00039202599 0.01051064503 0.00016116691 0.00040504833 0.01053549694 0.00014315169 0.00041194358 0.01055313564 0.00029345444 0.00049808113 0.01036649876 0.00026378492 0.00045911264 0.01035649244 0.00023613942 0.00043896517 0.01036116000 0.00021052798 0.00043386413 0.01037722784 0.00018696062 0.00044003495 0.01040142238 0.00016544738 0.00045370304 0.01043047004 0.00014599830 0.00047109383 0.01046109723 0.00012862340 0.00048843272 0.01049003036 0.00011333273 0.00050194513 0.01051399586 0.00010013632 0.00050785650 0.01052972014 0.00018687269 0.00055403257 0.01034784976 0.00016548061 0.00051518216 0.01033866465 0.00014614922 0.00049594176 0.01034431452 0.00012876558 0.00049228371 0.01036140484 0.00011321673 0.00050018037 0.01038654109 0.00009938972 0.00051560409 0.01041632875 0.00008717159 0.00053452724 0.01044737330 0.00007644941 0.00055292216 0.01047628021 0.00006711020 0.00056676121 0.01049965497 0.00005904102 0.00057201674 0.01051410306 0.00006444001 0.00058234543 0.01033851190 0.00005657501 0.00054355082 0.01032973746 0.00004955361 0.00052476145 0.01033587869 0.00004331722 0.00052182305 0.01035348056 0.00003780723 0.00053058135 0.01037908805 0.00003296504 0.00054688209 0.01040924612 0.00002873206 0.00056657100 0.01044049975 0.00002504968 0.00058549379 0.01046939393 0.00002185931 0.00059949621 0.01049247361 0.00001910234 0.00060442397 0.01050628378 -0.00006329778 0.00058299768 0.01033848603 -0.00005587708 0.00054420307 0.01032971140 -0.00004924971 0.00052541376 0.01033585275 -0.00004336056 0.00052247547 0.01035345497 -0.00003815454 0.00053123394 0.01037906299 -0.00003357656 0.00054753489 0.01040922170 -0.00002957153 0.00056722403 0.01044047602 -0.00002608435 0.00058614708 0.01046937085 -0.00002305993 0.00060014978 0.01049245111 -0.00002044318 0.00060507785 0.01050626169 -0.00018579489 0.00055596728 0.01034777300 -0.00016482089 0.00051712337 0.01033858699 -0.00014586303 0.00049788821 0.01034423690 -0.00012881118 0.00049423430 0.01036132802 -0.00011355521 0.00050213416 0.01038646564 -0.00009998499 0.00051756031 0.01041625505 -0.00008799039 0.00053648526 0.01044730152 -0.00007746128 0.00055488152 0.01047621034 -0.00006828752 0.00056872160 0.01049958681 -0.00006035900 0.00057397802 0.01051403620 -0.00029250550 0.00050123218 0.01036637366 -0.00026320161 0.00046229619 0.01035636474 -0.00023588864 0.00044217432 0.01036103137 -0.00021057809 0.00043709284 0.01037709967 -0.00018728143 0.00044327804 0.01040129574 -0.00016601015 0.00045695621 0.01043034570 -0.00014677574 0.00047435362 0.01046097567 -0.00012958968 0.00049169656 0.01048991174 -0.00011446347 0.00050521131 0.01051388005 -0.00010140858 0.00051112415 0.01052960669 -0.00037288382 0.00041877034 0.01039428886 -0.00034396446 0.00037970598 0.01038304518 -0.00031492885 0.00035826160 0.01038623638 -0.00028620472 0.00035104441 0.01040076986 -0.00025821984 0.00035466162 0.01042355301 -0.00023140195 0.00036572043 0.01045149322 -0.00020617880 0.00038082805 0.01048149789 -0.00018297816 0.00039659169 0.01051047440 -0.00016222776 0.00040961857 0.01053533017 -0.00014435537 0.00041651589 0.01055297256 -0.00041638403 0.00030855972 0.01043151946 -0.00040005466 0.00026933721 0.01041862883 -0.00037858594 0.00024613959 0.01041985215 -0.00035323453 0.00023608233 0.01043233855 -0.00032525709 0.00023628091 0.01045323717 -0.00029591029 0.00024385079 0.01047969714 -0.00026645080 0.00025590746 0.01050886760 -0.00023813528 0.00026956639 0.01053789767 -0.00021222041 0.00028194304 0.01056393650 -0.00018996283 0.00029015290 0.01058413321 </DataArray>
</PointData>
<Points>
<DataArray type="Float32" NumberOfComponents="3">
-0.29607645378 0.34532381093 -1.92606666474 -0.30709224661 0.35434250093 -1.89397201917 -0.31567781138 0.36406009927 -1.86697058203 -0.32213642864 0.37423395753 -1.84453560614 -0.32677137892 0.38462142730 -1.82614034432 -0.32988594276 0.39497986018 -1.81125804939 -0.33178340071 0.40506660774 -1.79936197418 -0.33276703332 0.41463902159 -1.78992537150 -0.33314012111 0.42345445330 -1.78242149419 -0.33320594464 0.43127025447 -1.77632359505 -0.24161746057 0.33076023918 -1.92561585149 -0.24681421631 0.34583694897 -1.89365925944 -0.25086570453 0.36027091770 -1.86676675882 -0.25391486134 0.37398343011 -1.84441504046 -0.25610462289 0.38689577091 -1.82608079514 -0.25757792532 0.39892922481 -1.81124071367 -0.25847770476 0.41000507653 -1.79937148686 -0.25894689734 0.42004461080 -1.78994980551 -0.25912843920 0.42896911233 -1.78245236042 -0.25916526647 0.43669986583 -1.77635584241 -0.17865653617 0.31983775885 -1.92527775410 -0.18056260755 0.33945797500 -1.89342469947 -0.18204968472 0.35742921433 -1.86661389943 -0.18317007130 0.37379571138 -1.84432462307 -0.18397607090 0.38860170068 -1.82603613951 -0.18451998716 0.40189141675 -1.81122771788 -0.18485412368 0.41370909412 -1.79937862727 -0.18503078408 0.42409896732 -1.78996813681 -0.18510227199 0.43310527089 -1.78247551561 -0.18512089102 0.44077223933 -1.77638003278 -0.10962281360 0.31255634860 -1.92505237039 -0.11004416285 0.33520556312 -1.89326833835 -0.11037372984 0.35553497782 -1.86651200369 -0.11062297975 0.37367079377 -1.84426435425 -0.11080337778 0.38973921200 -1.82600637788 -0.11092638911 0.40386643360 -1.81121906243 -0.11100347896 0.41617865960 -1.79938339574 -0.11104611249 0.42680209108 -1.78998036566 -0.11106575491 0.43586292909 -1.78249096004 -0.11107387142 0.44348737469 -1.77639616672 -0.03694542588 0.30891598707 -1.92493969821 -0.03696562474 0.33307969745 -1.89319017515 -0.03698181774 0.35458819687 -1.86646107148 -0.03699450792 0.37360866970 -1.84423423429 -0.03700419834 0.39030830027 -1.82599151067 -0.03701139205 0.40485427295 -1.81121474774 -0.03701659209 0.41741377207 -1.79938579259 -0.03702030153 0.42815398199 -1.78998649231 -0.03702302341 0.43724208706 -1.78249869401 -0.03702526078 0.44484527163 -1.77640424479 0.03694649395 0.30891665291 -1.92493973539 0.03696626425 0.33308036207 -1.89319020895 0.03698207371 0.35458886015 -1.86646110265 0.03699442295 0.37360933161 -1.84423426345 0.03700381258 0.39030896088 -1.82599153832 0.03701074320 0.40485493240 -1.81121477423 0.03701571542 0.41741443062 -1.79938581814 0.03701922985 0.42815463997 -1.78998651702 0.03702178709 0.43724274490 -1.78249871783 0.03702388775 0.44484592985 -1.77640426755 0.10962381288 0.31255832478 -1.92505247976 0.11004476158 0.33520754109 -1.89326843882 0.11037396664 0.35553695635 -1.86651209706 0.11062289163 0.37367277194 -1.84426444203 0.11080300015 0.38974118921 -1.82600646127 0.11092575577 0.40386840956 -1.81121914232 0.11100262209 0.41618063435 -1.79938347273 0.11104506269 0.42680406495 -1.78998044004 0.11106454114 0.43586490274 -1.78249103180 0.11107252104 0.44348934909 -1.77639623554 0.17865739788 0.31984098132 -1.92527792916 0.18056312474 0.33946121861 -1.89342486383 0.18204988318 0.35743247414 -1.86661405457 0.18316997689 0.37379898310 -1.84432477030 0.18397570954 0.38860498067 -1.82603627994 0.18451938482 0.40189470202 -1.81122785242 0.18485330643 0.41371238235 -1.79937875668 0.18502977803 0.42410225685 -1.78996826163 0.18510110331 0.43310856068 -1.78247563621 0.18511958597 0.44077552904 -1.77638014933 0.24161811591 0.33076460119 -1.92561608143 0.24681461119 0.34584137874 -1.89365948307 0.25086584548 0.36027540222 -1.86676697504 0.25391475748 0.37398795754 -1.84441524853 0.25610428592 0.38690033062 -1.82608099477 0.25757736950 0.39893380738 -1.81124090496 0.25847694693 0.41000967373 -1.79937167031 0.25894595691 0.42004921558 -1.78994998204 0.25912733817 0.42897371884 -1.78245253136 0.25916402940 0.43670446944 -1.77635600947 0.29607683397 0.34532916302 -1.92606693439 0.30709247840 0.35434800556 -1.89397229561 0.31567787565 0.36406572924 -1.86697085832 0.32213631219 0.37423968768 -1.84453587702 0.32677107447 0.38462723448 -1.82614060619 0.32988544895 0.39498572324 -1.81125830034 0.33178272211 0.40507250757 -1.79936221395 0.33276618039 0.41464494107 -1.78992560152 0.33313911027 0.42346037734 -1.78242171754 0.33320479821 0.43127617000 -1.77632381652 -0.29236379127 0.33352500302 -1.87767889701 -0.30447202449 0.34240649702 -1.85472970886 -0.31390924327 0.35223587518 -1.83521830774 -0.32100894916 0.36279603382 -1.81880736519 -0.32610464370 0.37386986924 -1.80515955273 -0.32952982842 0.38524027775 -1.79393754189 -0.33161800488 0.39669015565 -1.78480400420 -0.33270267460 0.40800239926 -1.77742161121 -0.33311733914 0.41895990487 -1.77145303443 -0.33319550003 0.42934556880 -1.76656094540 -0.23901774145 0.32329562964 -1.87753231057 -0.24497787751 0.33704708027 -1.85462933787 -0.24962483787 0.35066510686 -1.83515560239 -0.25312257719 0.36406200976 -1.81877460776 -0.25563505015 0.37715008930 -1.80514985761 -0.25732621139 0.38984164584 -1.79394485555 -0.25836001557 0.40204897970 -1.78482310523 -0.25890041735 0.41368439122 -1.77744811026 -0.25911137139 0.42466018075 -1.77148337427 -0.25915683234 0.43488864862 -1.76659240089 -0.17695382867 0.31562379663 -1.87742238301 -0.17935893732 0.33302770643 -1.85455406956 -0.18123549550 0.34948721235 -1.83510858164 -0.18264948782 0.36501166771 -1.81875004684 -0.18366689891 0.37961042582 -1.80514259272 -0.18435371340 0.39329283998 -1.79395034686 -0.18477591589 0.40606826351 -1.78483743683 -0.18499949101 0.41794604971 -1.77746799021 -0.18509042339 0.42893555189 -1.77150613455 -0.18511469764 0.43904612336 -1.76661599744 -0.10866287788 0.31050948187 -1.87734911240 -0.10936514860 0.33034835916 -1.85450390304 -0.10991405657 0.34870218011 -1.83507724532 -0.11032874260 0.36564500001 -1.81873368267 -0.11062834750 0.38125087413 -1.80513775851 -0.11083201206 0.39559385774 -1.79395401630 -0.11095887711 0.40874800613 -1.78484699947 -0.11102808344 0.42078737458 -1.77748125145 -0.11105877187 0.43178601835 -1.77152131567 -0.11107008319 0.44181799273 -1.76663173559 -0.03663571403 0.30795266324 -1.87731249679 -0.03674645599 0.32900902214 -1.85447883744 -0.03683336148 0.34830999862 -1.83506159323 -0.03689940308 0.36596199900 -1.81872551546 -0.03694755339 0.38207142958 -1.80513535541 -0.03698078500 0.39674469667 -1.79395586435 -0.03700207050 0.41008820659 -1.78485179359 -0.03701438248 0.42220836565 -1.77748789439 -0.03702069353 0.43321158015 -1.77152891805 -0.03702397625 0.44320425641 -1.76663961585 0.03663683792 0.30795331861 -1.87731253425 0.03674719584 0.32900967902 -1.85447887186 0.03683374937 0.34831065632 -1.83506162520 0.03689946918 0.36596265699 -1.81872554547 0.03694732589 0.38207208750 -1.80513538384 0.03698029017 0.39674535432 -1.79395589150 0.03700133267 0.41008886392 -1.78485181964 0.03701342402 0.42220902277 -1.77748791944 0.03701953489 0.43321223734 -1.77152894209 0.03702263592 0.44320491410 -1.76663963878 0.10866395301 0.31051142588 -1.87734922284 0.10936586223 0.33035031347 -1.85450400541 0.10991443558 0.34870414169 -1.83507734103 0.11032881262 0.36564696634 -1.81873377290 0.11062813286 0.38125284325 -1.80513784423 0.11083153586 0.39559582825 -1.79395409822 0.11095816113 0.40874997715 -1.78484707807 0.11102714824 0.42078934577 -1.77748132700 0.11105763669 0.43178798995 -1.77152138820 0.11106876605 0.44181996548 -1.76663180488 0.17695480628 0.31562696291 -1.87742256063 0.17935959851 0.33303090916 -1.85455423722 0.18123585675 0.34949044317 -1.83510874054 0.18264956568 0.36501491937 -1.81875019801 0.18366671001 0.37961369217 -1.80514273702 0.18435327443 0.39329611602 -1.79395048500 0.18477524363 0.40607154532 -1.78483756935 0.18499860231 0.41794933451 -1.77746811748 0.18508933516 0.42893883802 -1.77150625679 0.18511342687 0.43904941026 -1.76661611470 0.23901857278 0.32329990759 -1.87753254568 0.24497846003 0.33705144975 -1.85462956639 0.24962517247 0.35066954924 -1.83515582354 0.25312266682 0.36406650841 -1.81877482101 0.25563489984 0.37715462961 -1.80515006265 0.25732582828 0.38984621517 -1.79394505233 0.25835940888 0.40205356746 -1.78482329392 0.25889959839 0.41368898881 -1.77744829128 0.25911035356 0.42466478158 -1.77148354827 0.25915563114 0.43489324812 -1.76659256877 0.29236442754 0.33353023779 -1.87767917605 0.30447250214 0.34241191891 -1.85472999203 0.31390954234 0.35224144836 -1.83521858985 0.32100905447 0.36280172581 -1.81880764214 0.32610454485 0.37387565089 -1.80515982153 0.32952951979 0.38524612327 -1.79393780068 0.33161748562 0.39669604260 -1.78480425223 0.33270194865 0.40800830852 -1.77742184880 0.33311641519 0.41896582069 -1.77145326305 0.33319439157 0.42935147876 -1.76656116761 -0.28957631161 0.32467040867 -1.83158366089 -0.30250372640 0.33344644104 -1.81626427440 -0.31257960398 0.34335802902 -1.80311955651 -0.32016010683 0.35420706543 -1.79194735603 -0.32560139743 0.36579544309 -1.78254552180 -0.32925963823 0.37792505485 -1.77471190262 -0.33149099171 0.39039779354 -1.76824434734 -0.33265162035 0.40301555197 -1.76294070477 -0.33309768660 0.41558022300 -1.75859882374 -0.33318535294 0.42789369944 -1.75501655308 -0.23706511056 0.31769140440 -1.83159236807 -0.24359775019 0.33044654495 -1.81627285635 -0.24869133422 0.34345114618 -1.80312958165 -0.25252557440 0.35661061246 -1.79195999941 -0.25528018252 0.36983034814 -1.78256156511 -0.25713487033 0.38301575757 -1.77473173418 -0.25826934961 0.39607224512 -1.76826796211 -0.25886333213 0.40890521513 -1.76296770433 -0.25909652966 0.42142007198 -1.75862841632 -0.25914865397 0.43352222000 -1.75504755353 -0.17567448969 0.31245734710 -1.83159891021 -0.17845389838 0.32819681049 -1.81627930268 -0.18062262558 0.34352116479 -1.80313710893 -0.18225691016 0.35841344793 -1.79196948932 -0.18343299103 0.37285669780 -1.78257360422 -0.18422710706 0.38683395233 -1.77474661397 -0.18471549714 0.40032824941 -1.76828567896 -0.18497440016 0.41332262698 -1.76298795952 -0.18508005500 0.42580012292 -1.75865061604 -0.18510870055 0.43774377517 -1.75507080886 -0.10794143093 0.30896821412 -1.83160328562 -0.10885442333 0.32669722110 -1.81628361253 -0.10956788934 0.34356807326 -1.80314213811 -0.11010672190 0.35961556418 -1.79197582591 -0.11049581393 0.37487448745 -1.78258163952 -0.11076005839 0.38937963666 -1.77475654250 -0.11092434820 0.40316580540 -1.76829749843 -0.11101357630 0.41626778725 -1.76300147087 -0.11105263564 0.42872037580 -1.75866542340 -0.11106641914 0.44055836463 -1.75508631959 -0.03640291617 0.30722398283 -1.83160549258 -0.03658157741 0.32594776024 -1.81628578505 -0.03672153680 0.34359186000 -1.80314466892 -0.03682761738 0.36021695358 -1.79197900933 -0.03690464220 0.37588371247 -1.78258567141 -0.03695743429 0.39065280813 -1.77476152027 -0.03699081669 0.40458491205 -1.76830342106 -0.03700961246 0.41774069570 -1.76300823889 -0.03701864462 0.43018083055 -1.75867283890 -0.03702273623 0.44196598808 -1.75509408621 0.03640407266 0.30722463060 -1.83160552940 0.03658238700 0.32594841133 -1.81628581938 0.03672202075 0.34359251341 -1.80314470114 0.03682779559 0.36021760848 -1.79197903975 0.03690453321 0.37588436821 -1.78258570028 0.03695705527 0.39065346428 -1.77476154780 0.03699018347 0.40458556835 -1.76830344739 0.03700873949 0.41774135208 -1.76300826411 0.03701754501 0.43018148713 -1.75867286304 0.03702142170 0.44196664519 -1.75509410924 0.10794255366 0.30897013477 -1.83160339436 0.10885521754 0.32669915783 -1.81628371466 0.10956837203 0.34357002190 -1.80314223450 0.11010690925 0.35961752123 -1.79197591730 0.11049572131 0.37487645006 -1.78258172652 0.11075970032 0.38938160266 -1.77475662559 0.11092373840 0.40316777326 -1.76829757796 0.11101272766 0.41626975613 -1.76300154705 0.11105156022 0.42872234551 -1.75866549631 0.11106512819 0.44056033565 -1.75508638918 0.17567554491 0.31246047273 -1.83159908577 0.17845466183 0.32819998318 -1.81627947004 0.18062310575 0.34352437389 -1.80313726875 0.18225711581 0.35841668418 -1.79196964216 0.18343293114 0.37285995338 -1.78257375054 0.18422679088 0.38683722081 -1.77474675416 0.18471493418 0.40033152577 -1.76828581330 0.18497360016 0.41332590761 -1.76298808823 0.18507902797 0.42580340562 -1.75865073922 0.18510745675 0.43774705915 -1.75507092654 0.23706606451 0.31769562183 -1.83159260191 0.24359846751 0.33045087081 -1.81627308467 0.24869181062 0.34345555778 -1.80312980365 0.25252580748 0.35661508971 -1.79196021446 0.25528017172 0.36983487355 -1.78256177271 0.25713461699 0.38302031628 -1.77473193401 0.25826885690 0.39607682486 -1.76826815396 0.25886260511 0.40890980626 -1.76296788817 0.25909557523 0.42142466744 -1.75862859226 0.25914748090 0.43352681537 -1.75504772183 0.28957713055 0.32467555943 -1.83158394108 0.30250438219 0.33345180417 -1.81626455768 0.31258007534 0.34336356199 -1.80311983895 0.32016037648 0.35421273015 -1.79194763437 0.32560145210 0.36580120593 -1.78254579344 0.32925946867 0.37793088662 -1.77471216565 0.33149059268 0.39040366950 -1.76824460047 0.33265099061 0.40302145183 -1.76294094741 0.33309682895 0.41558613090 -1.75859905593 0.33318427418 0.42789960399 -1.75501677554 -0.28771294390 0.31875221980 -1.78712223472 -0.30118664815 0.32745739678 -1.77835033058 -0.31168848832 0.33742375146 -1.77077017080 -0.31958973327 0.34846574025 -1.76427605463 -0.32526165185 0.36039781957 -1.75876228135 -0.32907551293 0.37303444584 -1.75412315024 -0.33140258535 0.38619007549 -1.75025296056 -0.33261413798 0.39967916493 -1.74704601158 -0.33308143968 0.41331617058 -1.74439660258 -0.33317575929 0.42691554886 -1.74219903282 -0.23575890130 0.31394042279 -1.78718086059 -0.24267341553 0.32603087495 -1.77839472652 -0.24806497629 0.33862653898 -1.77080462076 -0.25212379469 0.35162812134 -1.76430420008 -0.25504008182 0.36493632844 -1.75878712129 -0.25700404879 0.37845186672 -1.75414704117 -0.25820590670 0.39207544261 -1.75027761652 -0.25883586666 0.40570776253 -1.74707250412 -0.25908413976 0.41924953292 -1.74442536077 -0.25914093710 0.43260146020 -1.74222984325 -0.17481813183 0.31033177013 -1.78722484108 -0.17784726034 0.32496117026 -1.77842803314 -0.18021097203 0.33952880948 -1.77083046671 -0.18199233556 0.35400008160 -1.76432531669 -0.18327441959 0.36834038042 -1.75880575799 -0.18414029278 0.38251509976 -1.75416496553 -0.18467302378 0.39648963341 -1.75029611420 -0.18495568126 0.41022937518 -1.74709237892 -0.18507133388 0.42369971888 -1.74444693459 -0.18510305030 0.43686605831 -1.74225295611 -0.10745827511 0.30792623886 -1.78725417472 -0.10851187591 0.32424826611 -1.77845024960 -0.10933518707 0.34013055143 -1.77084770832 -0.10995693139 0.35558161350 -1.76433940451 -0.11040583169 0.37060997097 -1.75881819180 -0.11071061077 0.38522414253 -1.75417692382 -0.11089999145 0.39943264683 -1.75030845421 -0.11100269652 0.41324400254 -1.74710563659 -0.11104744879 0.42666672833 -1.74446132461 -0.11106297107 0.43970934286 -1.74226837189 -0.03624697079 0.30672380607 -1.78726886001 -0.03647095557 0.32389214589 -1.77846137509 -0.03664633292 0.34043175332 -1.77085634529 -0.03677915768 0.35637270950 -1.76434646362 -0.03687548466 0.37174509554 -1.75882442304 -0.03694136868 0.38657899260 -1.75418291654 -0.03698286457 0.40090448179 -1.75031463712 -0.03700602714 0.41475164426 -1.74711227774 -0.03701691122 0.42815056114 -1.74446853140 -0.03702157163 0.44113131356 -1.74227609107 0.03624814149 0.30672444881 -1.78726889549 0.03647180735 0.32389279300 -1.77846140876 0.03664687886 0.34043240364 -1.77085637729 0.03677941006 0.35637336206 -1.76434649406 0.03687545497 0.37174574958 -1.75882445205 0.03694106760 0.38657964753 -1.75418294421 0.03698230198 0.40090513723 -1.75031466353 0.03700521213 0.41475230000 -1.74711230298 0.03701585208 0.42815121718 -1.74446855552 0.03702027583 0.44113197008 -1.74227611414 0.10745942210 0.30792814415 -1.78725427967 0.10851271950 0.32425019082 -1.77845034979 0.10933573676 0.34013249087 -1.77084780401 0.10995719634 0.35558356366 -1.76433949592 0.11040582066 0.37061192855 -1.75881827915 0.11071033218 0.38522610490 -1.75417700732 0.11089945335 0.39943461207 -1.75030853403 0.11100190659 0.41324596942 -1.74710571291 0.11104641436 0.42666869631 -1.74446139756 0.11106169911 0.43971131211 -1.74226844160 0.17481923141 0.31033486917 -1.78722501107 0.17784808756 0.32496432276 -1.77842819736 0.18021152925 0.33953200350 -1.77083062511 0.18199262563 0.35400330676 -1.76432546925 0.18327444589 0.36834362789 -1.75880590470 0.18414005917 0.38251836226 -1.75416510638 0.18467253466 0.39649290523 -1.75029624922 0.18495494151 0.41023265216 -1.74709250814 0.18507034890 0.42370299842 -1.74444705807 0.18510182600 0.43686933935 -1.74225307392 0.23575992976 0.31394460091 -1.78718108821 0.24267421819 0.32603517219 -1.77839495063 0.24806554479 0.33863093001 -1.77080484029 0.25212412245 0.35163258382 -1.76430441412 0.25504016411 0.36494084307 -1.75878732901 0.25700388267 0.37845641720 -1.75414724190 0.25820549105 0.39208001566 -1.75027780968 0.25883520217 0.40571234790 -1.74707268929 0.25908322895 0.41925412336 -1.74442553762 0.25913978430 0.43260605148 -1.74223001161 0.28771387752 0.31875731646 -1.78712250961 0.30118741806 0.32746272252 -1.77835060878 0.31168907185 0.33742925889 -1.77077044923 0.31959011128 0.34847138731 -1.76427633058 0.32526180879 0.36040356953 -1.75876255243 0.32907543677 0.37304026727 -1.75412341437 0.33140226765 0.38619594227 -1.75025321601 0.33261357385 0.39968505627 -1.74704625695 0.33308062776 0.41332207100 -1.74439683679 0.33317470182 0.42692144820 -1.74219925514 -0.28677261724 0.31576262836 -1.74363589683 -0.30052008555 0.32443442800 -1.74076249219 -0.31123549108 0.33443023315 -1.73826599308 -0.31929766006 0.34557074617 -1.73611393695 -0.32508541870 0.35767666936 -1.73427386123 -0.32897759325 0.37056870506 -1.73271330338 -0.33135300992 0.38406755560 -1.73139980082 -0.33259049495 0.39799392330 -1.73030089101 -0.33306887455 0.41216851051 -1.72938411138 -0.33316697495 0.42641201954 -1.72861699937 -0.23509844714 0.31203554416 -1.74368262475 -0.24220445468 0.32379560219 -1.74079986001 -0.24774554680 0.33618878856 -1.73829664387 -0.25191717977 0.34911341951 -1.73614019443 -0.25491480987 0.36246781124 -1.73429772981 -0.25693389340 0.37615027999 -1.73273646813 -0.25816988664 0.39005914196 -1.73142362749 -0.25881824588 0.40409271339 -1.73032642602 -0.25907442739 0.41814931048 -1.72941208181 -0.25913388746 0.43212724947 -1.72864781299 -0.17438436769 0.30924042559 -1.74371768101 -0.17753879282 0.32331666881 -1.74082789523 -0.18000043195 0.33750788422 -1.73831964039 -0.18185576126 0.35177059830 -1.73615989512 -0.18319125694 0.36606133750 -1.73431563807 -0.18409339517 0.38033662827 -1.73275384787 -0.18464865216 0.39455299708 -1.73144150315 -0.18494350407 0.40866697040 -1.73034558255 -0.18506442711 0.42263507467 -1.72943306471 -0.18509789745 0.43641383636 -1.72867092826 -0.10721321280 0.30737724960 -1.74374106435 -0.10833739519 0.32299761133 -1.74084659704 -0.10921590865 0.33838750880 -1.73833498225 -0.10987938484 0.35354227518 -1.73617303899 -0.11035845538 0.36845724369 -1.73432758627 -0.11068375192 0.38312774752 -1.73276544307 -0.11088590609 0.39754911985 -1.73145342841 -0.11099554953 0.41171669390 -1.73035836128 -0.11104331388 0.42562580285 -1.72944706069 -0.11105983078 0.43927177990 -1.72868634565 -0.03616781635 0.30644599315 -1.74375277350 -0.03641455701 0.32283841324 -1.74085596464 -0.03660773905 0.33882765093 -1.73834266908 -0.03675403083 0.35442844279 -1.73617962602 -0.03686010069 0.36965552540 -1.73433357466 -0.03693261698 0.38452363533 -1.73277125422 -0.03697824805 0.39904750916 -1.73145940388 -0.03700366223 0.41324188346 -1.73036476287 -0.03701552788 0.42712149481 -1.72945407039 -0.03702051333 0.44070107978 -1.72869406563 0.03616898776 0.30644663320 -1.74375280718 0.03641542649 0.32283905800 -1.74085599724 0.03660831473 0.33882829927 -1.73834270050 0.03675432044 0.35442909375 -1.73617965618 0.03686011163 0.36965617819 -1.73433360353 0.03693235626 0.38452428932 -1.73277128179 0.03697772234 0.39904816390 -1.73145943020 0.03700287783 0.41324253866 -1.73036478799 0.03701449074 0.42712215035 -1.72945409441 0.03701922904 0.44070173572 -1.72869408869 0.10721436564 0.30737914669 -1.74374116412 0.10833826009 0.32299952909 -1.74084669403 0.10921649056 0.33838944248 -1.73833507611 0.10987968868 0.35354422071 -1.73617312944 0.11035848610 0.36845919763 -1.73432767313 0.11068351447 0.38312970710 -1.73276552627 0.11088540544 0.39755108295 -1.73145350796 0.11099479067 0.41171865905 -1.73035843730 0.11104230178 0.42562776925 -1.72944713338 0.11105857045 0.43927374740 -1.72868641530 0.17438548339 0.30924351059 -1.74371784304 0.17753964857 0.32331980999 -1.74082805421 0.18000102630 0.33751106921 -1.73831979554 0.18185609354 0.35177381630 -1.73616004579 0.18319132722 0.36606457930 -1.73431578373 0.18409320428 0.38033988626 -1.73275398815 0.18464820166 0.39455626521 -1.73144163780 0.18494279628 0.40867024422 -1.73034571147 0.18506346510 0.42263835130 -1.72943318792 0.18509668504 0.43641711452 -1.72867104593 0.23509950714 0.31203970185 -1.74368284267 0.24220529668 0.32379988417 -1.74080007698 0.24774615983 0.33619316811 -1.73829685840 0.25191755473 0.34911787316 -1.73614040519 0.25491493952 0.36247231877 -1.73429793560 0.25693377234 0.37615482442 -1.73273666789 0.25816951135 0.39006370958 -1.73142382033 0.25881761469 0.40409729371 -1.73032661117 0.25907354050 0.41815389629 -1.72941225866 0.25913274693 0.43213183679 -1.72864798108 0.28677360298 0.31576769742 -1.74363616174 0.30052090923 0.32443973510 -1.74076276154 0.31123612902 0.33443572784 -1.73826626432 0.31929809192 0.34557638391 -1.73611420762 0.32508562749 0.35768241160 -1.73427412899 0.32897756530 0.37057451918 -1.73271356599 0.33135273492 0.38407341493 -1.73140005616 0.33258996591 0.39799980711 -1.73030113705 0.33306808783 0.41217440401 -1.72938434622 0.33316593027 0.42641791390 -1.72861722121 -0.28675426072 0.31569382630 -1.70046592556 -0.30050333441 0.32437259846 -1.70327537401 -0.31122020707 0.33437466478 -1.70570286584 -0.31928371881 0.34552077108 -1.70778147895 -0.32507270973 0.35763166316 -1.70954429126 -0.32896601994 0.37052808684 -1.71102438067 -0.33134248955 0.38403078795 -1.71225482509 -0.33258095866 0.39796051229 -1.71326870242 -0.33306026739 0.41213800568 -1.71409909057 -0.33315925583 0.42638401394 -1.71477906745 -0.23508308148 0.31196962783 -1.70048249714 -0.24219044880 0.32373625860 -1.70329316845 -0.24773282844 0.33613539822 -1.70572157513 -0.25190567136 0.34906539008 -1.70780096712 -0.25490442849 0.36242457757 -1.70956459433 -0.25692455080 0.37611130408 -1.71104570667 -0.25816148924 0.39002391299 -1.71227755406 -0.25881069474 0.40406074770 -1.71329338641 -0.25906761828 0.41812015158 -1.71412645364 -0.25912771078 0.43210046803 -1.71481000568 -0.17437280988 0.30917667334 -1.70049493538 -0.17752826543 0.32325918921 -1.70330652324 -0.17999090239 0.33745612684 -1.70573561539 -0.18184718448 0.35172402760 -1.70781559080 -0.18318357541 0.36601943282 -1.70957982845 -0.18408653888 0.38029888385 -1.71106170731 -0.18464253862 0.39451892202 -1.71229460636 -0.18493803834 0.40863608869 -1.71331190457 -0.18505950175 0.42260692520 -1.71414698092 -0.18509339256 0.43638797288 -1.71483321438 -0.10720604636 0.30731493983 -1.70050323918 -0.10833087002 0.32294137393 -1.70331543762 -0.10921001301 0.33833683952 -1.70574498617 -0.10987409599 0.35349667646 -1.70782534988 -0.11035373960 0.36841622460 -1.70958999382 -0.11067956450 0.38309082380 -1.71107238305 -0.11088219134 0.39751581390 -1.71230598263 -0.11099224079 0.41168653477 -1.71332425761 -0.11104033348 0.42559832625 -1.71416067305 -0.11105709007 0.43924652819 -1.71484869403 -0.03616539133 0.30638440429 -1.70050740745 -0.03641234829 0.32278279642 -1.70331991082 -0.03660574440 0.33877752513 -1.70574968704 -0.03675224369 0.35438332950 -1.70783024427 -0.03685851021 0.36961494863 -1.70959509065 -0.03693120798 0.38448712160 -1.71107773434 -0.03697700103 0.39901458750 -1.71231168347 -0.03700255340 0.41321208542 -1.71333044621 -0.03701452913 0.42709435446 -1.71416753071 -0.03701959223 0.44067613369 -1.71485644510 0.03616655478 0.30638504370 -1.70050743910 0.03641321406 0.32278344032 -1.70331994207 0.03660631937 0.33877817253 -1.70574971758 0.03675253459 0.35438397955 -1.70783027386 0.03685852363 0.36961560060 -1.70959511913 0.03693095036 0.38448777490 -1.71107776161 0.03697647868 0.39901524168 -1.71231170953 0.03700177247 0.41321274015 -1.71333047109 0.03701349563 0.42709500954 -1.71416755454 0.03701831205 0.44067678906 -1.71485646808 0.10720719153 0.30731683508 -1.70050333303 0.10833173129 0.32294328929 -1.70331553060 0.10921059419 0.33833877061 -1.70574507736 0.10987440106 0.35349861945 -1.70782543856 0.11035377278 0.36841817622 -1.70959007947 0.11067933019 0.38309278137 -1.71107246533 0.11088169415 0.39751777530 -1.71230606141 0.11099148551 0.41168849844 -1.71332433295 0.11103932513 0.42560029121 -1.71416074521 0.11105583386 0.43924849404 -1.71484876344 0.17437391851 0.30917975539 -1.70049508816 0.17752911770 0.32326232698 -1.70330667564 0.17999149597 0.33745930823 -1.70573576594 0.18184751790 0.35172724202 -1.70781573827 0.18318364812 0.36602267121 -1.70957997187 0.18408635120 0.38030213866 -1.71106184594 0.18464209176 0.39452218723 -1.71229473974 0.18493733439 0.40863935979 -1.71331203247 0.18505854370 0.42261019919 -1.71414710337 0.18509218428 0.43639124831 -1.71483333166 0.23508413529 0.31197378165 -1.70048270338 0.24219128757 0.32374053703 -1.70329337643 0.24773344061 0.33613977427 -1.70572178290 0.25190604730 0.34906984012 -1.70780117289 0.25490456049 0.36242908126 -1.70956479652 0.25692443306 0.37611584443 -1.71104590390 0.25816111787 0.39002847633 -1.71227774514 0.25881006778 0.40406532369 -1.71329357037 0.25906673567 0.41812473321 -1.71412662968 0.25912657440 0.43210505160 -1.71481017320 0.28675524144 0.31569889085 -1.70046617760 0.30050415517 0.32437790309 -1.70327563219 0.31122084404 0.33438015761 -1.70570312780 0.31928415145 0.34552640656 -1.70778174232 0.32507292078 0.35763740209 -1.70954455363 0.32896599545 0.37053389635 -1.71102463964 0.33134221884 0.38403664148 -1.71225507825 0.33258043435 0.39796638963 -1.71326894733 0.33305948538 0.41214389296 -1.71409932480 0.33315821532 0.42638990361 -1.71477928854 -0.28765680345 0.31853800556 -1.65695359923 -0.30113569054 0.32726697195 -1.66566359083 -0.31164223109 0.33725423701 -1.67317663154 -0.31954774112 0.34831450287 -1.67959915661 -0.32522353666 0.36026247167 -1.68503760126 -0.32904093373 0.37291284554 -1.68959840076 -0.33137124836 0.38608032663 -1.69338799032 -0.33258579657 0.39957961707 -1.69651280519 -0.33305589438 0.41322541900 -1.69907928060 -0.33315285782 0.42683243455 -1.70119385181 -0.23571213777 0.31373553316 -1.65696531438 -0.24263097904 0.32584837612 -1.66567956346 -0.24802660394 0.33846387127 -1.67319533871 -0.25208921118 0.35148291619 -1.67961950282 -0.25500899950 0.36480640847 -1.68505891849 -0.25697616763 0.37833524571 -1.68962044840 -0.25818091429 0.39197032550 -1.69341095523 -0.25881343822 0.40561254544 -1.69653730169 -0.25906393815 0.41916280311 -1.69910635046 -0.25912261280 0.43252199612 -1.70122496423 -0.17478307100 0.31013387328 -1.65697410957 -0.17781544779 0.32478461453 -1.66569155147 -0.18018228046 0.33937127516 -1.67320937713 -0.18196660248 0.35385939907 -1.67963476990 -0.18325144735 0.36821453020 -1.68507491314 -0.18411984853 0.38240221248 -1.68963699020 -0.18465483953 0.39638798981 -1.69342818441 -0.18493945381 0.41013740613 -1.69655567914 -0.18505672487 0.42361600537 -1.69912665773 -0.18508968618 0.43678933144 -1.70124830352 -0.10743657814 0.30773300307 -1.65697998386 -0.10849218927 0.32407567106 -1.66569955413 -0.10931745906 0.33997643778 -1.67321874635 -0.10994107860 0.35544394456 -1.67964495770 -0.11039173896 0.37048683271 -1.68508558538 -0.11069813122 0.38511374355 -1.68964802657 -0.11088894646 0.39933331841 -1.69343967846 -0.11099287573 0.41315419859 -1.69656793824 -0.11103861014 0.42658502543 -1.69914020308 -0.11105484073 0.43963444023 -1.70126387019 -0.03623963419 0.30653289969 -1.65698293629 -0.03646429596 0.32372152957 -1.66570357071 -0.03664033817 0.34027934825 -1.67322344591 -0.03677380312 0.35623654567 -1.67965006608 -0.03687073312 0.37162331183 -1.68509093536 -0.03693717046 0.38646983666 -1.68965355795 -0.03697915744 0.40080631015 -1.69344543800 -0.03700273636 0.41466292226 -1.69657407970 -0.03701394952 0.42806986296 -1.69914698721 -0.03701883922 0.44105732220 -1.70127166470 0.03624078588 0.30653354028 -1.65698296591 0.03646513965 0.32372217395 -1.66570360048 0.03664088380 0.34027999566 -1.67322347538 0.03677406037 0.35623719546 -1.67965009488 0.03687071142 0.37162396339 -1.68509096324 0.03693687900 0.38647048952 -1.68965358474 0.03697860515 0.40080696390 -1.69344546365 0.03700193194 0.41466357658 -1.69657410424 0.03701290140 0.42807051762 -1.69914701078 0.03701755560 0.44105797707 -1.70127168754 0.10743770707 0.30773490198 -1.65698007177 0.10849302508 0.32407758807 -1.66569964273 0.10931800843 0.33997836913 -1.67321883431 0.10994134830 0.35544588693 -1.67964504397 0.11039173589 0.37048878324 -1.68508566917 0.11069786237 0.38511569984 -1.68964810737 0.11088841894 0.39933527849 -1.69343975601 0.11099209677 0.41315616098 -1.69656801256 0.11103758705 0.42658698908 -1.69914027448 0.11105358097 0.43963640456 -1.70126393920 0.17478415439 0.31013696194 -1.65697425292 0.17781626783 0.32478775581 -1.66569169670 0.18018283730 0.33937445777 -1.67320952223 0.18196689709 0.35386261314 -1.67963491321 0.18325148153 0.36821776722 -1.68507505332 0.18411962491 0.38240546533 -1.68963712625 0.18465436156 0.39639125279 -1.69342831572 0.18493872577 0.41014067491 -1.69655580539 0.18505575185 0.42361927700 -1.69912677898 0.18508847413 0.43679260437 -1.70124842017 0.23571315285 0.31373969732 -1.65696550841 0.24263177543 0.32585266104 -1.66567976169 0.24802717199 0.33846825068 -1.67319553871 0.25208954316 0.35148736710 -1.67961970244 0.25500908956 0.36481091116 -1.68505911583 0.25697601184 0.37833978372 -1.68962064182 0.25818051063 0.39197488565 -1.69341114337 0.25881278654 0.40561711781 -1.69653748344 0.25906304022 0.41916738104 -1.69910652497 0.25912147231 0.43252657623 -1.70122513093 0.28765772745 0.31854308526 -1.65695383729 0.30113645539 0.32727228764 -1.66566383696 0.31164281409 0.33725973697 -1.67317688330 0.31954812292 0.34832014185 -1.67959941153 0.32522370124 0.36026821090 -1.68503785686 0.32904086840 0.37291865273 -1.68959865447 0.33137094378 0.38608617592 -1.69338823959 0.33258524672 0.39958548911 -1.69651304741 0.33305509659 0.41323130088 -1.69907951313 0.33315181275 0.42683831985 -1.70119407196 -0.28947917451 0.32428735809 -1.61244019618 -0.30241644974 0.33311261223 -1.62770175743 -0.31250115793 0.34306614050 -1.64078313266 -0.32008955860 0.35395062943 -1.65188744587 -0.32553791124 0.36556876558 -1.66121782107 -0.32920247537 0.37772323550 -1.66897738227 -0.33143951049 0.39021672574 -1.67536925348 -0.33260527610 0.40285192284 -1.68059655869 -0.33305603171 0.41543151336 -1.68486242192 -0.33314803682 0.42775818384 -1.68836996717 -0.23698494943 0.31732611947 -1.61251591307 -0.24352562656 0.33012748668 -1.62776395668 -0.24862665599 0.34317171100 -1.64083385874 -0.25246774095 0.35636488093 -1.65192878619 -0.25522858470 0.36961308496 -1.66125190595 -0.25708889051 0.38282241158 -1.66900638493 -0.25822836161 0.39589894930 -1.67539539006 -0.25882670126 0.40874878660 -1.68062208826 -0.25906361272 0.42127801200 -1.68488964646 -0.25911879923 0.43339271397 -1.68840123157 -0.17561476365 0.31210538525 -1.61257270897 -0.17840010951 0.32788882786 -1.62781061421 -0.18057446321 0.34325106698 -1.64087191102 -0.18221401249 0.35817574228 -1.65195979861 -0.18339494509 0.37264649345 -1.66127747616 -0.18419344876 0.38664696014 -1.66902814285 -0.18468571123 0.40016078203 -1.67541499787 -0.18494792024 0.41317159879 -1.68064124040 -0.18505626354 0.42566305009 -1.68491006964 -0.18508692887 0.43761877560 -1.68842468477 -0.10790461053 0.30862513283 -1.61261058304 -0.10882124178 0.32639661987 -1.62784172934 -0.10953820570 0.34330419774 -1.64089728906 -0.11008034642 0.35938320669 -1.65198048298 -0.11047250807 0.37466898701 -1.66129453185 -0.11073953477 0.38919687895 -1.66904265644 -0.11090627065 0.40300222280 -1.67542807751 -0.11099755982 0.41612035882 -1.68065401583 -0.11103824642 0.42858662728 -1.68492369217 -0.11105317457 0.44043636846 -1.68844032728 -0.03639048340 0.30688533957 -1.61262953442 -0.03657036657 0.32565084684 -1.62785730141 -0.03671150958 0.34333109261 -1.64090999244 -0.03681871598 0.35998726736 -1.65199083916 -0.03689678933 0.37568056159 -1.66130307317 -0.03695053321 0.39047216579 -1.66904992610 -0.03698475117 0.40442327047 -1.67543462959 -0.03700424678 0.41759506610 -1.68066041525 -0.03701382360 0.43004874320 -1.68493051472 -0.03701828519 0.44184549225 -1.68844815961 0.03639162440 0.30688598286 -1.61262956225 0.03657117290 0.32565149287 -1.62785732973 0.03671199905 0.34333174090 -1.64091002073 0.03681890563 0.35998791747 -1.65199086700 0.03689669545 0.37568121313 -1.66130310025 0.03695017128 0.39047281842 -1.66904995224 0.03698413590 0.40442392388 -1.67543465470 0.03700339211 0.41759572006 -1.68066043937 0.03701274269 0.43004939748 -1.68493053797 0.03701699043 0.44184614669 -1.68844818226 0.10790571954 0.30862704008 -1.61261066567 0.10882203343 0.32639854209 -1.62784181363 0.10953869406 0.34330613193 -1.64089737350 0.11008054519 0.35938515024 -1.65198056636 0.11047243060 0.37467093760 -1.66129461325 0.11073919403 0.38919883462 -1.66904273526 0.11090567927 0.40300418192 -1.67542815345 0.11099673007 0.41612232009 -1.68065408888 0.11103719020 0.42858858974 -1.68492376262 0.11105190344 0.44043833149 -1.68844039574 0.17561580866 0.31210848862 -1.61257284383 0.17840087182 0.32789197859 -1.62781075243 0.18057494936 0.34325425503 -1.64087205033 0.18221422948 0.35817895885 -1.65195993709 0.18339490043 0.37264973093 -1.66127761231 0.18419315040 0.38665021215 -1.66902827556 0.18468516763 0.40016404342 -1.67541512643 0.18494714032 0.41317486561 -1.68064136450 0.18505525670 0.42566631963 -1.68491018935 0.18508570499 0.43762204635 -1.68842480056 0.23698589844 0.31733030586 -1.61251609587 0.24352634486 0.33013178649 -1.62776414546 0.24862713882 0.34317609951 -1.64083405078 0.25246798529 0.35636933651 -1.65192897906 0.25522858926 0.36961758907 -1.66125209757 0.25708865573 0.38282694879 -1.66900657355 0.25822788968 0.39590350725 -1.67539557426 0.25882599609 0.40875335605 -1.68062226694 0.25906267995 0.42128258677 -1.68488981885 0.25911764624 0.43339729100 -1.68840139724 0.28947999553 0.32429246918 -1.61244042094 0.30241710935 0.33311794991 -1.62770199204 0.31250163633 0.34307165469 -1.64078337442 0.32008983939 0.35395627641 -1.65188769212 0.32553798143 0.36557450798 -1.66121806917 0.32920232537 0.37772904230 -1.66897762962 0.33143913412 0.39022257228 -1.67536949752 0.33260467059 0.40285779080 -1.68059679689 0.33305519769 0.41543739079 -1.68486265180 0.33314697835 0.42776406514 -1.68837018627 -0.29222030301 0.33293407582 -1.56626699474 -0.30434490782 0.34190458307 -1.58916448861 -0.31379658240 0.35180756591 -1.60861821167 -0.32090900284 0.36242783866 -1.62496682272 -0.32601584521 0.37355021560 -1.63854898052 -0.32945078558 0.38495951107 -1.64970334386 -0.33154750005 0.39644053936 -1.65876857153 -0.33263966467 0.40777811479 -1.66608332230 -0.33306095554 0.41875705165 -1.67198625495 -0.33314504872 0.42916216427 -1.67681602827 -0.23890084990 0.32273424611 -1.56651912981 -0.24487397253 0.33656912221 -1.58935125973 -0.24953276730 0.35025642073 -1.60875305939 -0.25304120239 0.36371016743 -1.62506180190 -0.25556324593 0.37684438807 -1.63861476035 -0.25726286608 0.38957310840 -1.64974920787 -0.25830403099 0.40181035418 -1.65880241755 -0.25885070882 0.41347015118 -1.66611166250 -0.25906686771 0.42446652513 -1.67201421583 -0.25911647583 0.43471350181 -1.67684735064 -0.17686750045 0.31508456915 -1.56670823897 -0.17928202021 0.33256771225 -1.58949134575 -0.18116734773 0.34909324012 -1.60885420249 -0.18258941174 0.36467208681 -1.62513304310 -0.18361414098 0.37931518636 -1.63866410150 -0.18430746417 0.39303347283 -1.64978361159 -0.18473531006 0.40583788027 -1.65882780730 -0.18496360737 0.41773934274 -1.66613292253 -0.18505828483 0.42874879428 -1.67203519119 -0.18508527119 0.43887716894 -1.67687084720 -0.10860994588 0.30998502260 -1.56683432140 -0.10931791641 0.32990033753 -1.58958474604 -0.10987221185 0.34831801357 -1.60892164060 -0.11029191321 0.36531359009 -1.62518054624 -0.11059610153 0.38096260650 -1.63869700413 -0.11080385784 0.39534060218 -1.64980655545 -0.11093426315 0.40852311651 -1.65884474137 -0.11100639850 0.42058568890 -1.66614710307 -0.11103934490 0.43160385872 -1.67204918171 -0.11105218339 0.44165316537 -1.67688651848 -0.03661787744 0.30743558413 -1.56689737627 -0.03673052669 0.32856698236 -1.58963146001 -0.03681924784 0.34793073053 -1.60895537338 -0.03688698911 0.36563467059 -1.62520431123 -0.03693669876 0.38178664451 -1.63871346842 -0.03697132503 0.39649449425 -1.64981803984 -0.03699381614 0.40986606178 -1.65885322035 -0.03700712036 0.42200918907 -1.66615420481 -0.03701418591 0.43303171808 -1.67205618808 -0.03701796104 0.44304149078 -1.67689436505 0.03661901367 0.30743623139 -1.56689740277 0.03673128340 0.32856763107 -1.58963148705 0.03681965612 0.34793138048 -1.60895540046 0.03688707824 0.36563532160 -1.62520433798 0.03693649616 0.38178729640 -1.63871349456 0.03697085630 0.39649514686 -1.64981806519 0.03699310507 0.40986671497 -1.65885324482 0.03700618888 0.42200984269 -1.66615422843 0.03701305413 0.43303237200 -1.67205621098 0.03701664726 0.44304214488 -1.67689438745 0.10861103621 0.30998694207 -1.56683440008 0.10931864833 0.32990226798 -1.58958482654 0.10987261186 0.34831995289 -1.60892172150 0.11029200653 0.36531553643 -1.62518062641 0.11059591207 0.38096455820 -1.63869708272 0.11080340818 0.39534255784 -1.64980663189 0.11093357460 0.40852507495 -1.65884481537 0.11100549104 0.42058764916 -1.66614717461 0.11103823724 0.43160582009 -1.67204925108 0.11105089290 0.44165512735 -1.67688658622 0.17686849896 0.31508769381 -1.56670836737 0.17928270253 0.33257087740 -1.58949147788 0.18116773120 0.34909643723 -1.60885433614 0.18258951345 0.36467530837 -1.62513317643 0.18361397778 0.37931842593 -1.63866423307 0.18430705265 0.39303672498 -1.64978374035 0.18473466656 0.40584114062 -1.65882793258 0.18496274798 0.41774260793 -1.66613304405 0.18505722540 0.42875206199 -1.67203530906 0.18508402729 0.43888043790 -1.67687096192 0.23890171070 0.32273846429 -1.56651930384 0.24487458045 0.33657344366 -1.58935144047 0.24953312595 0.35026082295 -1.60875324401 0.25304131668 0.36371463074 -1.62506198796 0.25556312213 0.37684889560 -1.63861494580 0.25726251176 0.38957764612 -1.64974939100 0.25830345506 0.40181491085 -1.65880259704 0.25884992152 0.41347471840 -1.66611183742 0.25906588061 0.42447109732 -1.67201438561 0.25911530182 0.43471807621 -1.67684751509 0.29222098019 0.33293923116 -1.56626720865 0.30434541655 0.34190995108 -1.58916471368 0.31379690796 0.35181309954 -1.60861844478 0.32090913391 0.36243349684 -1.62496706092 0.32601577394 0.37355596324 -1.63854922108 0.32945050754 0.38496531905 -1.64970358423 0.33154701422 0.39644638454 -1.65876880935 0.33263897350 0.40778398000 -1.66608355541 0.33306006489 0.41876292572 -1.67198648140 0.33314396789 0.42916804198 -1.67681624628 -0.29587911804 0.34447035070 -1.51777527324 -0.30692036058 0.35363794824 -1.54982639914 -0.31552809930 0.36347570393 -1.57677771105 -0.32200590544 0.37374481843 -1.59915776310 -0.32665735030 0.38420649243 -1.61749510943 -0.32978600512 0.39462192658 -1.63231830416 -0.33169544118 0.40475232158 -1.64415590143 -0.33268922973 0.41435887809 -1.65353645538 -0.33307094206 0.42320279678 -1.66098852015 -0.33314414941 0.43104527833 -1.66704064985 -0.24145917260 0.32995277242 -1.51835980122 -0.24667559808 0.34516881463 -1.55024638426 -0.25074472060 0.35971550375 -1.57706886481 -0.25380953721 0.37351765880 -1.59935153460 -0.25601304498 0.38650009883 -1.61761868537 -0.25749824098 0.39858764287 -1.63239460883 -0.25840812225 0.40970510996 -1.64420359674 -0.25888568585 0.41977731914 -1.65356994081 -0.25907392885 0.42872908943 -1.66101793277 -0.25911584831 0.43648523987 -1.66707186436 -0.17854089398 0.31906478483 -1.51879820495 -0.18046094950 0.33881715079 -1.55056138039 -0.18196083110 0.35689553241 -1.57728723694 -0.18309279748 0.37334746221 -1.59949686955 -0.18390910736 0.38822047274 -1.61771137318 -0.18446201942 0.40156209653 -1.63245184277 -0.18480379239 0.41341986612 -1.64423937328 -0.18498668495 0.42384131404 -1.65359505966 -0.18506295581 0.43287397282 -1.66103999687 -0.18508486368 0.44056537502 -1.66709527986 -0.10955238657 0.31180636590 -1.51909048357 -0.10998210203 0.33458294119 -1.55077138702 -0.11031943641 0.35501577943 -1.57743282723 -0.11057579272 0.37323422198 -1.59959376800 -0.11076257395 0.38936761018 -1.61777317313 -0.11089118311 0.40354528539 -1.63249000641 -0.11097302319 0.41589658897 -1.64426323164 -0.11101949720 0.42655086226 -1.65361181261 -0.11104200813 0.43563744662 -1.66105471311 -0.11105195898 0.44328568341 -1.66711089694 -0.03692175477 0.30817749358 -1.51923663625 -0.03694474287 0.33246617029 -1.55087640362 -0.03696354215 0.35407623434 -1.57750563546 -0.03697862939 0.37317793142 -1.59964223000 -0.03699048132 0.38994150718 -1.61780408550 -0.03699957469 0.40453720730 -1.63250910022 -0.03700638627 0.41713527744 -1.64427517240 -0.03701139278 0.42790596328 -1.65362020029 -0.03701507100 0.43701951048 -1.66106208215 -0.03701789766 0.44464616472 -1.66711871622 0.03692289701 0.30817814583 -1.51923666212 0.03694544079 0.33246682254 -1.55087642968 0.03696384606 0.35407688665 -1.57750566140 0.03697858605 0.37317858384 -1.59964225559 0.03699013401 0.38994215977 -1.61780411056 0.03699896317 0.40453786009 -1.63250912464 0.03700554680 0.41713593047 -1.64427519613 0.03701035812 0.42790661658 -1.65362022337 0.03701387038 0.43702016406 -1.66106210465 0.03701655682 0.44464681859 -1.66711873831 0.10955346437 0.31180830061 -1.51909056033 0.10998276175 0.33458488240 -1.55077146468 0.11031972261 0.35501772588 -1.57743290485 0.11057574712 0.37323617257 -1.59959384482 0.11076223547 0.38936956398 -1.61777324858 0.11089058784 0.40354724161 -1.63249008012 0.11097220440 0.41589854699 -1.64426330342 0.11101848533 0.42655282162 -1.65361188248 0.11104083080 0.43563940701 -1.66105478128 0.11105064100 0.44328764469 -1.66711096380 0.17854184292 0.31906793588 -1.51879833004 0.18046153281 0.33882033434 -1.55056150809 0.18196108188 0.35689874156 -1.57728736557 0.18309274737 0.37335069092 -1.59949699773 0.18390878655 0.38822371583 -1.61771149982 0.18446145665 0.40156534970 -1.63245196711 0.18480301494 0.41342312591 -1.64423949484 0.18498571867 0.42384457788 -1.65359517828 0.18506182507 0.43287723900 -1.66104011269 0.18508359142 0.44056864267 -1.66709539331 0.24145992826 0.32995702960 -1.51835997040 0.24667606679 0.34517316282 -1.55024655940 0.25074491826 0.35971992319 -1.57706904335 0.25380948034 0.37352213220 -1.59935171437 0.25601275068 0.38650461137 -1.61761886456 0.25749772696 0.39859218219 -1.63239478606 0.25840740683 0.40970966618 -1.64420377098 0.25888478795 0.41978188484 -1.65357011143 0.25907286800 0.42873365967 -1.66101809955 0.25911464463 0.43648981219 -1.66707202744 0.29587961597 0.34447555972 -1.51777548054 0.30692067648 0.35364335230 -1.54982661809 0.31552822613 0.36348126030 -1.57677793798 0.32200583955 0.37375048974 -1.59915799478 0.32665709133 0.38421224661 -1.61749534308 0.32978555610 0.39462773694 -1.63231853742 0.33169480846 0.40475816672 -1.64415613240 0.33268842302 0.41436474197 -1.65353668257 0.33306997438 0.42320866869 -1.66098874251 0.33314303717 0.43105115290 -1.66704086679 </DataArray>
</Points>
</Piece>
</StructuredGrid>
</VTKFile>
