<?xml version="1.0"?>
<VTKFile type="StructuredGrid" version="0.1">
<StructuredGrid WholeExtent="0 9 0 9 0 9">
<Piece Extent="0 9 0 9 0 9">
<PointData>
<DataArray type="Float32" Name="Deformation" format="ascii" NumberOfComponents="3">
-0.00066321706 0.02908962070 0.01332430463 -0.00066285860 0.02897247951 0.01341276198 -0.00064551242 0.02885294588 0.01347954291 -0.00061620357 0.02873134516 0.01352446813 -0.00057995711 0.02860800269 0.01354735839 -0.00054179810 0.02848324383 0.01354803443 -0.00050675160 0.02835739393 0.01352631696 -0.00047984265 0.02823077834 0.01348202673 -0.00046609632 0.02810372242 0.01341498448 -0.00047053766 0.02797655151 0.01332501092 -0.00066809149 0.02912511815 0.01308975204 -0.00066528665 0.02900233810 0.01318518756 -0.00064639870 0.02887445741 0.01325701892 -0.00061611628 0.02874259210 0.01330517272 -0.00057912801 0.02860785820 0.01332957556 -0.00054012254 0.02847137172 0.01333015405 -0.00050378849 0.02833424868 0.01330683477 -0.00047481450 0.02819760511 0.01325954433 -0.00045788921 0.02806255701 0.01318820932 -0.00045770125 0.02793022042 0.01309275634 -0.00067190088 0.02915823817 0.01283807020 -0.00066690069 0.02902976182 0.01293926103 -0.00064661368 0.02889390610 0.01301530246 -0.00061543686 0.02875246892 0.01306618981 -0.00057776722 0.02860724820 0.01309191844 -0.00053800176 0.02846004187 0.01309248366 -0.00050053749 0.02831264783 0.01306788082 -0.00046977139 0.02816686401 0.01301810525 -0.00045010048 0.02802448833 0.01294315227 -0.00044592176 0.02788731869 0.01284301723 -0.00067482223 0.02918917219 0.01256938870 -0.00066782058 0.02905492583 0.01267536804 -0.00064624210 0.02891144445 0.01275495687 -0.00061422926 0.02876109700 0.01280818912 -0.00057592452 0.02860625244 0.01283509873 -0.00053547034 0.02844927974 0.01283571963 -0.00049700918 0.02829254786 0.01281008575 -0.00046468351 0.02813842575 0.01275823102 -0.00044263577 0.02798928237 0.01268018937 -0.00043500844 0.02784748668 0.01257599475 -0.00067703254 0.02921811162 0.01228383712 -0.00066816618 0.02907800527 0.01239389422 -0.00064536870 0.02892722496 0.01247654550 -0.00061255744 0.02876859774 0.01253184035 -0.00057364972 0.02860495067 0.01255982816 -0.00053256286 0.02843911082 0.01256055830 -0.00049321419 0.02827390524 0.01253408018 -0.00045952103 0.02811216099 0.01248044317 -0.00043540071 0.02795670513 0.01239969666 -0.00042477055 0.02781036474 0.01229189005 -0.00067870877 0.02924524789 0.01198154507 -0.00066805733 0.02909917529 0.01209522522 -0.00064407823 0.02894140013 0.01218063170 -0.00061048535 0.02877509253 0.01223781321 -0.00057099260 0.02860342263 0.01226681843 -0.00052931389 0.02842956055 0.01226769604 -0.00048916310 0.02825667644 0.01224049475 -0.00045425415 0.02808794042 0.01218526323 -0.00042830092 0.02792652263 0.01210205017 -0.00041501733 0.02777559320 0.01199090427 -0.00068002794 0.02927077241 0.01166264212 -0.00066761391 0.02911861104 0.01177974667 -0.00064245542 0.02895412246 0.01186777882 -0.00060807694 0.02878070277 0.01192677740 -0.00056800297 0.02860174806 0.01195678126 -0.00052575800 0.02842065442 0.01195782921 -0.00048486653 0.02824081795 0.01192996009 -0.00044885305 0.02806563473 0.01187321272 -0.00042124205 0.02789850085 0.01178762594 -0.00040555802 0.02774281242 0.01167323858 -0.00068116702 0.02929487661 0.01132725788 -0.00066695577 0.02913648765 0.01144784420 -0.00064058501 0.02896554445 0.01153855018 -0.00060539615 0.02878554986 0.01159940264 -0.00056473060 0.02860000672 0.01163042837 -0.00052192977 0.02841241790 0.01163165417 -0.00048033507 0.02822628624 0.01160310684 -0.00044328791 0.02804511459 0.01154481319 -0.00041412971 0.02787240581 0.01145680002 -0.00039620188 0.02771166274 0.01133909412 -0.00068230300 0.02931775192 0.01097552193 -0.00066620277 0.02915298028 0.01109990345 -0.00063855176 0.02897581859 0.01119350916 -0.00060250695 0.02878975517 0.01125635863 -0.00056122530 0.02859827835 0.01128847146 -0.00051786377 0.02840487644 0.01128986726 -0.00047557932 0.02821303778 0.01126056563 -0.00043752893 0.02802625069 0.01120058615 -0.00040686955 0.02784800349 0.01110994842 -0.00038675815 0.02768178452 0.01098867205 -0.00068361288 0.02933958974 0.01060756385 -0.00066547475 0.02916826407 0.01073631007 -0.00063644040 0.02898509739 0.01083321907 -0.00059947328 0.02879344011 0.01089831507 -0.00055753685 0.02859664269 0.01093162226 -0.00051359457 0.02839805552 0.01093316486 -0.00047060990 0.02820102906 0.01090296708 -0.00043154628 0.02800891371 0.01084105313 -0.00039936719 0.02782505991 0.01074744720 -0.00037703608 0.02765281809 0.01062217352 -0.00065046317 0.02918778647 0.01323363893 -0.00064521754 0.02904492878 0.01328989664 -0.00062981118 0.02890046205 0.01333192275 -0.00060717211 0.02875467104 0.01335982177 -0.00058022832 0.02860784053 0.01337369823 -0.00055190783 0.02846025529 0.01337365667 -0.00052513862 0.02831220010 0.01335980160 -0.00050284871 0.02816395973 0.01333223756 -0.00048796610 0.02801581895 0.01329106906 -0.00048341880 0.02786806254 0.01323640063 -0.00065620571 0.02922928098 0.01299217309 -0.00064960099 0.02907807849 0.01305148348 -0.00063242526 0.02892372439 0.01309597190 -0.00060768370 0.02876697358 0.01312568777 -0.00057838145 0.02860858094 0.01314068051 -0.00054752370 0.02844930134 0.01314099952 -0.00051811560 0.02828988968 0.01312669421 -0.00049316231 0.02813110083 0.01309781401 -0.00047566901 0.02797368968 0.01305440831 -0.00046864084 0.02781841110 0.01299652654 -0.00066104855 0.02926849469 0.01273419596 -0.00065291910 0.02910880613 0.01279648096 -0.00063402141 0.02894495697 0.01284331777 -0.00060738592 0.02877801869 0.01287472579 -0.00057604304 0.02860906278 0.01289072443 -0.00054302321 0.02843916073 0.01289133312 -0.00051135685 0.02826938400 0.01287657127 -0.00048407438 0.02810080408 0.01284645829 -0.00046420623 0.02793449247 0.01280101359 -0.00045478282 0.02777152063 0.01274025658 -0.00066523394 0.02930566472 0.01245962354 -0.00065539273 0.02913741241 0.01252488117 -0.00063478495 0.02896443356 0.01257402175 -0.00060641731 0.02878798822 0.01260705409 -0.00057329654 0.02860933643 0.01262398697 -0.00053842935 0.02842973824 0.01262482921 -0.00050482246 0.02825045369 0.01260958959 -0.00047548260 0.02807274283 0.01257827691 -0.00045341648 0.02789786570 0.01253089997 -0.00044163081 0.02772708234 0.01246746756 -0.00066900415 0.02934102819 0.01216837183 -0.00065724277 0.02916419801 0.01223667614 -0.00063490120 0.02898242793 0.01228814524 -0.00060491641 0.02879706399 0.01232279095 -0.00057022539 0.02860945222 0.01234062509 -0.00053376510 0.02842093867 0.01234165950 -0.00049847252 0.02823286938 0.01232590599 -0.00046728464 0.02804659039 0.01229337640 -0.00044313842 0.02786344774 0.01224408256 -0.00042897085 0.02768478747 0.01217803628 -0.00067260141 0.02937482221 0.01186035681 -0.00065869008 0.02918946363 0.01193185796 -0.00063455549 0.02899921386 0.01198574965 -0.00060302176 0.02880542784 0.01202205465 -0.00056691304 0.02860946051 0.01204079575 -0.00052905344 0.02841266682 0.01204199570 -0.00049226711 0.02821640170 0.01202567729 -0.00045937817 0.02802202011 0.01199186328 -0.00043321075 0.02783087698 0.01194057644 -0.00041658899 0.02764432726 0.01187183954 -0.00067626800 0.02940728391 0.01153549450 -0.00065995553 0.02921350996 0.01161041867 -0.00063393312 0.02901506512 0.01166689636 -0.00060087189 0.02881326161 0.01170496348 -0.00056344293 0.02860941165 0.01172465590 -0.00052431737 0.02840482746 0.01172600955 -0.00048616632 0.02820082127 0.01170906029 -0.00045166088 0.02799870531 0.01167384405 -0.00042347217 0.02779979178 0.01162039670 -0.00040427130 0.02760539293 0.01154875415 -0.00068024616 0.02943865041 0.01119370088 -0.00066126000 0.02923663770 0.01127235034 -0.00063321943 0.02903025550 0.01133164679 -0.00059860533 0.02882074714 0.01137163569 -0.00055989853 0.02860935599 0.01139236252 -0.00051957988 0.02839732540 0.01139387275 -0.00048013023 0.02818589872 0.01137621183 -0.00044403044 0.02797631932 0.01133942523 -0.00041376135 0.02776983053 0.01128355844 -0.00039180381 0.02756767571 0.01120865690 -0.00068477815 0.02946915883 0.01083489195 -0.00066282434 0.02925914755 0.01091764503 -0.00063259974 0.02904505876 0.01098006232 -0.00059636062 0.02882806627 0.01102218958 -0.00055636326 0.02860934389 0.01104407257 -0.00051486394 0.02839006543 0.01104575702 -0.00047411894 0.02817140468 0.01102728870 -0.00043638453 0.02795453547 0.01098871336 -0.00040391699 0.02774063159 0.01093007674 -0.00037897259 0.02753086685 0.01085142460 -0.00069010623 0.02949904629 0.01045898372 -0.00066486944 0.02928134018 0.01054629480 -0.00063225936 0.02905974868 0.01061220437 -0.00059427630 0.02883540083 0.01065674343 -0.00055292059 0.02860942569 0.01067994300 -0.00051019256 0.02838295233 0.01068183409 -0.00046809253 0.02815710977 0.01066244773 -0.00042862082 0.02793302709 0.01062181493 -0.00039377777 0.02771183334 0.01055996670 -0.00036556369 0.02749465756 0.01047693406 -0.00062909878 0.02928325305 0.01317037217 -0.00062341820 0.02911464645 0.01320473040 -0.00061155298 0.02894664402 0.01323000457 -0.00059522550 0.02877902169 0.01324647221 -0.00057615816 0.02861155536 0.01325441085 -0.00055607335 0.02844402097 0.01325409802 -0.00053669346 0.02827619443 0.01324581124 -0.00051974089 0.02810785165 0.01322982806 -0.00050693802 0.02793876858 0.01320642601 -0.00050000725 0.02776872111 0.01317588261 -0.00063578146 0.02933224090 0.01292069866 -0.00062854795 0.02915270241 0.01295600417 -0.00061448838 0.02897311580 0.01298236988 -0.00059549400 0.02879347111 0.01299992221 -0.00057345605 0.02861375836 0.01300878757 -0.00055026580 0.02843396755 0.01300909238 -0.00052781447 0.02825408872 0.01300096304 -0.00050799332 0.02807411187 0.01298452598 -0.00049269360 0.02789402704 0.01295990761 -0.00048380656 0.02771382423 0.01292723434 -0.00064216704 0.02937887609 0.01265419598 -0.00063304253 0.02918850871 0.01269096002 -0.00061673236 0.02899780878 0.01271866677 -0.00059522039 0.02880686720 0.01273735478 -0.00057049046 0.02861577488 0.01274706259 -0.00054452643 0.02842462272 0.01274782875 -0.00051931215 0.02823350160 0.01273969178 -0.00049683147 0.02804250243 0.01272269025 -0.00047906822 0.02785171611 0.01269686268 -0.00046800628 0.02766123354 0.01266224762 -0.00064845602 0.02942333750 0.01237067483 -0.00063710415 0.02922230981 0.01240936467 -0.00061846147 0.02902094319 0.01243865785 -0.00059453543 0.02881934339 0.01245855445 -0.00056733349 0.02861761618 0.01246905454 -0.00053886310 0.02841586734 0.01247015820 -0.00051113171 0.02821420263 0.01246186550 -0.00048614678 0.02801272782 0.01244417653 -0.00046591576 0.02781154869 0.01241709136 -0.00045244611 0.02761077100 0.01238061008 -0.00065484887 0.02946580398 0.01206994588 -0.00064093501 0.02925435020 0.01211098485 -0.00061985225 0.02904273929 0.01214210575 -0.00059356989 0.02883103311 0.01216330574 -0.00056405724 0.02861929350 0.01217458203 -0.00053328363 0.02840758229 0.01217593180 -0.00050321836 0.02819596136 0.01216735223 -0.00047583075 0.02798449252 0.01214884051 -0.00045309011 0.02777323765 0.01212039382 -0.00043696575 0.02756225857 0.01208200936 -0.00066154607 0.02950645442 0.01175181983 -0.00064473733 0.02928487433 0.01179558729 -0.00062108125 0.02906341734 0.01182877307 -0.00059245452 0.02884206980 0.01185139320 -0.00056073382 0.02862081806 0.01186346371 -0.00052779585 0.02839964845 0.01186500063 -0.00049551728 0.02817854732 0.01185602000 -0.00046577482 0.02795750102 0.01183653784 -0.00044044514 0.02773649587 0.01180657020 -0.00042140493 0.02751551823 0.01176613310 -0.00066874810 0.02954546769 0.01141610737 -0.00064871330 0.02931412666 0.01146293872 -0.00062232501 0.02908319757 0.01149842245 -0.00059132008 0.02885258690 0.01152260135 -0.00055743533 0.02862220112 0.01153551819 -0.00052240759 0.02839194669 0.01153721576 -0.00048797370 0.02816173009 0.01152773684 -0.00045587047 0.02793145778 0.01150712421 -0.00042783473 0.02770103624 0.01147542065 -0.00040560333 0.02747037193 0.01143266895 -0.00067665545 0.02958302265 0.01106261918 -0.00065306512 0.02934235166 0.01111280585 -0.00062376009 0.02910230025 0.01115081650 -0.00059029734 0.02886271785 0.01117671472 -0.00055423388 0.02862345392 0.01119056411 -0.00051712670 0.02838435789 0.01119242827 -0.00048053280 0.02814527920 0.01118237079 -0.00044600916 0.02790606731 0.01116045528 -0.00041511278 0.02766657164 0.01112674533 -0.00038940067 0.02742664165 0.01108130453 -0.00068546860 0.02961929819 0.01069116596 -0.00065799501 0.02936979380 0.01074495542 -0.00062556301 0.02912094561 0.01078571784 -0.00058951705 0.02887259608 0.01081351785 -0.00055120157 0.02862458769 0.01082842009 -0.00051196100 0.02837676291 0.01083048923 -0.00047313979 0.02812896421 0.01081978989 -0.00043608236 0.02788103407 0.01079638673 -0.00040213317 0.02763281496 0.01076034438 -0.00037263665 0.02738414935 0.01071172750 -0.00069538804 0.02965447317 0.01030155840 -0.00066370516 0.02939669754 0.01035915416 -0.00062791034 0.02913935390 0.01040288908 -0.00058910998 0.02888235502 0.01043279526 -0.00054841051 0.02862561367 0.01044890477 -0.00050691833 0.02836904263 0.01045124971 -0.00046573987 0.02811255467 0.01043986216 -0.00042598155 0.02785606256 0.01041477422 -0.00038874977 0.02759947907 0.01037601796 -0.00035515097 0.02734271699 0.01032362548 -0.00060144770 0.02937178545 0.01313372382 -0.00059832544 0.02918021323 0.01315566435 -0.00059107303 0.02899143229 0.01317152424 -0.00058081567 0.02880465813 0.01318166139 -0.00056867858 0.02861910619 0.01318643368 -0.00055578695 0.02843399197 0.01318619899 -0.00054326600 0.02824853093 0.01318131523 -0.00053224093 0.02806193855 0.01317214027 -0.00052383694 0.02787343030 0.01315903201 -0.00051917924 0.02768222165 0.01314234834 -0.00060932427 0.02942894130 0.01287400413 -0.00060368815 0.02922417769 0.01289575206 -0.00059370291 0.02902209149 0.01291194047 -0.00058055639 0.02882194905 0.01292273190 -0.00056543642 0.02862301674 0.01292828891 -0.00054953083 0.02842456092 0.01292877404 -0.00053402745 0.02822584797 0.01292434986 -0.00052011411 0.02802614424 0.01291517892 -0.00050897864 0.02782471609 0.01290142376 -0.00050180887 0.02762082990 0.01288324694 -0.00061776926 0.02948342722 0.01259640994 -0.00060926854 0.02926599069 0.01261864918 -0.00059638321 0.02905119744 0.01263550999 -0.00058031172 0.02883833261 0.01264704118 -0.00056225251 0.02862668133 0.01265329156 -0.00054340404 0.02841552872 0.01265430992 -0.00052496476 0.02820415992 0.01265014510 -0.00050813314 0.02799186005 0.01264084588 -0.00049410761 0.02777791425 0.01262646109 -0.00048408664 0.02756160764 0.01260703953 -0.00062686118 0.02953531345 0.01230075629 -0.00061516168 0.02930574460 0.01232406282 -0.00059920221 0.02907882490 0.01234189595 -0.00058014654 0.02885383974 0.01235425433 -0.00055915843 0.02863007447 0.01236113659 -0.00053740165 0.02840681450 0.01236254139 -0.00051603998 0.02818334518 0.01235846738 -0.00049623718 0.02795895190 0.01234891319 -0.00047915701 0.02773292004 0.01233387748 -0.00046596325 0.02750453497 0.01231335888 -0.00063667858 0.02958467021 0.01198685824 -0.00062146262 0.02934353180 0.01201170010 -0.00060224818 0.02910504860 0.01203076148 -0.00058012575 0.02886850132 0.01204403643 -0.00055618579 0.02863317067 0.01205151899 -0.00053151876 0.02839833737 0.01205320322 -0.00050721514 0.02816328213 0.01204908316 -0.00048436539 0.02792728568 0.01203915287 -0.00046405998 0.02768962872 0.01202340639 -0.00044738937 0.02744959198 0.01200183777 -0.00064729998 0.02963156772 0.01165453080 -0.00062826640 0.02937944469 0.01168126813 -0.00060560941 0.02912994329 0.01170176973 -0.00058031425 0.02888234828 0.01171605259 -0.00055336619 0.02863594442 0.01172413373 -0.00052575045 0.02839001646 0.01172603016 -0.00049845228 0.02814384916 0.01172175889 -0.00047245694 0.02789672728 0.01171133693 -0.00044874966 0.02764793557 0.01169478129 -0.00042831570 0.02739675878 0.01167210898 -0.00065880391 0.02967607623 0.01130358903 -0.00063566808 0.02941357563 0.01133247404 -0.00060937416 0.02915358369 0.01135458383 -0.00058077694 0.02889541152 0.01136996790 -0.00055073122 0.02863837022 0.01137867579 -0.00052009179 0.02838177089 0.01138075699 -0.00048971345 0.02812492465 0.01137626103 -0.00046045099 0.02786714260 0.01136523741 -0.00043315921 0.02760773583 0.01134773566 -0.00040869290 0.02734601547 0.01132380529 -0.00067126890 0.02971826596 0.01093384797 -0.00064376271 0.02944601701 0.01096502493 -0.00061363071 0.02917604455 0.01098886692 -0.00058157870 0.02890772195 0.01100544746 -0.00054831248 0.02864042257 0.01101484013 -0.00051453788 0.02837351979 0.01101711846 -0.00048096068 0.02810638698 0.01101235601 -0.00044828671 0.02783839753 0.01100062633 -0.00041722177 0.02756892479 0.01098200297 -0.00038847166 0.02729734214 0.01095655948 -0.00068477348 0.02975820712 0.01054512265 -0.00065264535 0.02947686122 0.01057862794 -0.00061846734 0.02919740061 0.01060428214 -0.00058278443 0.02891931047 0.01062215637 -0.00054614158 0.02864207597 0.01063232173 -0.00050908379 0.02836518227 0.01063484934 -0.00047215602 0.02808811455 0.01062981029 -0.00043590326 0.02781035797 0.01061727571 -0.00040087048 0.02753139770 0.01059731668 -0.00036760266 0.02725071890 0.01057000433 -0.00069939617 0.02979596996 0.01013722813 -0.00066241105 0.02950620062 0.01017299016 -0.00062397234 0.02921772660 0.01020049263 -0.00058445902 0.02893020800 0.01021975971 -0.00054425011 0.02864330492 0.01023081557 -0.00050372461 0.02835667746 0.01023368439 -0.00046326150 0.02806998573 0.01022839033 -0.00042323979 0.02778288981 0.01021495757 -0.00038403849 0.02749504982 0.01019341027 -0.00034603659 0.02720612585 0.01016377262 -0.00056983377 0.02944914867 0.01312291335 -0.00057080409 0.02924020982 0.01314109956 -0.00056870654 0.02903476736 0.01315421760 -0.00056439454 0.02883184139 0.01316263122 -0.00055872152 0.02863045204 0.01316670415 -0.00055254090 0.02842961942 0.01316680013 -0.00054670611 0.02822836365 0.01316328290 -0.00054207058 0.02802570485 0.01315651619 -0.00053948772 0.02782066312 0.01314686375 -0.00053981098 0.02761225861 0.01313468931 -0.00057933972 0.02951432556 0.01285076486 -0.00057658221 0.02929047219 0.01286772957 -0.00057118372 0.02907011129 0.01288041126 -0.00056388009 0.02885227173 0.01288897269 -0.00055540717 0.02863598235 0.01289357665 -0.00054650082 0.02842027202 0.01289438592 -0.00053789690 0.02820416959 0.01289156327 -0.00053033125 0.02798670391 0.01288527147 -0.00052453973 0.02776690384 0.01287567331 -0.00052125819 0.02754379824 0.01286293156 -0.00059036810 0.02957619292 0.01255917750 -0.00058359471 0.02933837322 0.01257549945 -0.00057461066 0.02910385890 0.01258800797 -0.00056403136 0.02887173310 0.01259674937 -0.00055247221 0.02864107896 0.01260176995 -0.00054054864 0.02841097962 0.01260311604 -0.00052887607 0.02818051823 0.01260083393 -0.00051806990 0.02794877793 0.01259496994 -0.00050874555 0.02771484186 0.01258557037 -0.00050151843 0.02747779317 0.01257268154 -0.00060282217 0.02963471551 0.01224808169 -0.00059177221 0.02938384330 0.01226421990 -0.00057893775 0.02913593025 0.01227676682 -0.00056481356 0.02889015447 0.01228571784 -0.00054989441 0.02864569407 0.01229106831 -0.00053467507 0.02840172716 0.01229281361 -0.00051965031 0.02815743185 0.01229094912 -0.00050531489 0.02791198624 0.01228547020 -0.00049216358 0.02766456844 0.01227637223 -0.00048069115 0.02741435657 0.01226365057 -0.00061660519 0.02968985806 0.01191740786 -0.00060104530 0.02942681278 0.01193370164 -0.00058411535 0.02916624540 0.01194644692 -0.00056619190 0.02890746482 0.01195563470 -0.00054765153 0.02864977992 0.01196125599 -0.00052887081 0.02839249958 0.01196330177 -0.00051022631 0.02813493270 0.01196176307 -0.00049209459 0.02787638816 0.01195663087 -0.00047485224 0.02761617485 0.01194789619 -0.00045887581 0.02735360165 0.01193555002 -0.00063162041 0.02974158531 0.01156708642 -0.00061134461 0.02946721202 0.01158375539 -0.00059009385 0.02919472442 0.01159680736 -0.00056813160 0.02892359311 0.01160625657 -0.00054572135 0.02865328871 0.01161211725 -0.00052312658 0.02838328183 0.01161440364 -0.00050061076 0.02811304307 0.01161313000 -0.00047843739 0.02784204303 0.01160831055 -0.00045686993 0.02756975234 0.01159995954 -0.00043617187 0.02729564159 0.01158809121 -0.00064777110 0.02978986202 0.01119704780 -0.00062260075 0.02950497139 0.01121419187 -0.00059682362 0.02922128735 0.01122760723 -0.00057059786 0.02893846832 0.01123734002 -0.00054408163 0.02865617268 0.01124343635 -0.00051743308 0.02837405884 0.01124594235 -0.00049081037 0.02809178521 0.01124490414 -0.00046437164 0.02780901018 0.01124036785 -0.00043827506 0.02752539217 0.01123237959 -0.00041267878 0.02724058957 0.01122098549 -0.00066496051 0.02983465291 0.01080722243 -0.00063474433 0.02954002125 0.01082482179 -0.00060425504 0.02924585428 0.01083860564 -0.00057355589 0.02895201940 0.01084864167 -0.00054271014 0.02865838402 0.01085499757 -0.00051178103 0.02836481555 0.01085774103 -0.00048083181 0.02807118139 0.01085693974 -0.00044992573 0.02777734894 0.01085266138 -0.00041912604 0.02748318560 0.01084497364 -0.00038849600 0.02718855878 0.01083394420 -0.00068309190 0.02987592274 0.01039754072 -0.00064770596 0.02957229196 0.01041545586 -0.00061233848 0.02926834524 0.01042956167 -0.00057697091 0.02896417533 0.01043991811 -0.00054158465 0.02865987498 0.01044658517 -0.00050616114 0.02835553691 0.01044962281 -0.00047068179 0.02805125388 0.01044909101 -0.00043512803 0.02774711863 0.01044504974 -0.00039948129 0.02744322389 0.01043755898 -0.00036372298 0.02713966241 0.01042667869 -0.00070206852 0.02991363626 0.00996793311 -0.00066141624 0.02960171389 0.00998590481 -0.00062102433 0.02928868032 0.01000023442 -0.00058080812 0.02897486509 0.01001092594 -0.00054068293 0.02866059775 0.01001798340 -0.00050056412 0.02834620786 0.01002141081 -0.00046036700 0.02803202495 0.01002121219 -0.00042000692 0.02771837858 0.01001739155 -0.00037939920 0.02740559830 0.01000995292 -0.00033845919 0.02709401365 0.00999890030 -0.00053658078 0.02951110769 0.01313716024 -0.00054171900 0.02929321695 0.01315943710 -0.00054478874 0.02907658971 0.01317582049 -0.00054641404 0.02886083252 0.01318662362 -0.00054721894 0.02864555192 0.01319215970 -0.00054782747 0.02843035443 0.01319274195 -0.00054886367 0.02821484660 0.01318868359 -0.00055095158 0.02799863497 0.01318029784 -0.00055471524 0.02778132606 0.01316789790 -0.00056077869 0.02756252641 0.01315179701 -0.00054833333 0.02958333707 0.01284965624 -0.00054879076 0.02934955373 0.01286893912 -0.00054804566 0.02911663507 0.01288350984 -0.00054647429 0.02888430351 0.01289350044 -0.00054445291 0.02865228148 0.01289904295 -0.00054235779 0.02842029142 0.01290026941 -0.00054056518 0.02818805574 0.01289731185 -0.00053945133 0.02795529689 0.01289030231 -0.00053939252 0.02772173728 0.01287937281 -0.00054076500 0.02748709934 0.01286465540 -0.00056247646 0.02965121806 0.01254083835 -0.00055801859 0.02940277746 0.01255746181 -0.00055305138 0.02915452908 0.01257032122 -0.00054775075 0.02890638683 0.01257944371 -0.00054229261 0.02865826459 0.01258485642 -0.00053685287 0.02841007629 0.01258658648 -0.00053160745 0.02816173580 0.01258466102 -0.00052673225 0.02791315705 0.01257910717 -0.00052240319 0.02766425392 0.01256995206 -0.00051879618 0.02741494032 0.01255722283 -0.00057871170 0.02971466662 0.01221086477 -0.00056914257 0.02945273246 0.01222508017 -0.00055959863 0.02919011079 0.01223630124 -0.00055009941 0.02892696482 0.01224450909 -0.00054066449 0.02866345774 0.01224968486 -0.00053131341 0.02839975278 0.01225180966 -0.00052206574 0.02813601313 0.01225086463 -0.00051294103 0.02787240200 0.01224683088 -0.00050395884 0.02760908259 0.01223968955 -0.00049513873 0.02734621812 0.01222942175 -0.00059674057 0.02977359874 0.01185989370 -0.00058190278 0.02949926307 0.01187186922 -0.00056748009 0.02922321923 0.01188149653 -0.00055337623 0.02894591981 0.01188875226 -0.00053949498 0.02866781741 0.01189361302 -0.00052574008 0.02838936462 0.01189605547 -0.00051201530 0.02811101405 0.01189605622 -0.00049822438 0.02783321827 0.01189359190 -0.00048427109 0.02755642990 0.01188863915 -0.00047005918 0.02728110152 0.01188117460 -0.00061626460 0.02982793038 0.01148808337 -0.00059603930 0.02954221362 0.01149790397 -0.00057648847 0.02925369344 0.01150595372 -0.00055743720 0.02896313415 0.01151222887 -0.00053871054 0.02867130008 0.01151672567 -0.00052013358 0.02837895556 0.01151944041 -0.00050153137 0.02808686490 0.01152036932 -0.00048272900 0.02779579242 0.01151950869 -0.00046355152 0.02750650245 0.01151685477 -0.00044382401 0.02721975931 0.01151240382 -0.00063698533 0.02987757752 0.01109559198 -0.00061129219 0.02958142844 0.01110325943 -0.00058641648 0.02928137244 0.01110971942 -0.00056213827 0.02897849016 0.01111499459 -0.00053823763 0.02867386224 0.01111910756 -0.00051449459 0.02836856931 0.01112208098 -0.00049068923 0.02806369201 0.01112393749 -0.00046660160 0.02776031098 0.01112469971 -0.00044201175 0.02745950685 0.01112439029 -0.00041669975 0.02716236026 0.01112303186 -0.00065860428 0.02992245613 0.01068257774 -0.00062740153 0.02961675186 0.01068801060 -0.00059705682 0.02930609528 0.01069284026 -0.00056733544 0.02899187018 0.01069710509 -0.00053800268 0.02867546037 0.01070084345 -0.00050882380 0.02835824962 0.01070409371 -0.00047956411 0.02804162173 0.01070689425 -0.00044998887 0.02772696050 0.01070928342 -0.00041986337 0.02741564971 0.01071129961 -0.00038895289 0.02710907315 0.01071298117 -0.00068082299 0.02996248218 0.01024919886 -0.00064410740 0.02964802821 0.01025223250 -0.00060820220 0.02932770098 0.01025536287 -0.00057288468 0.02900315655 0.01025861604 -0.00053793215 0.02867605095 0.01026201809 -0.00050312191 0.02834804022 0.01026559510 -0.00046823126 0.02802078039 0.01026937314 -0.00043303752 0.02769592752 0.01027337828 -0.00039731798 0.02737513762 0.01027763661 -0.00036084995 0.02706006676 0.01028217419 -0.00070334298 0.02999757165 0.00979561356 -0.00066114988 0.02967510182 0.00979600013 -0.00061964531 0.02934602859 0.00979733386 -0.00057864195 0.02901223159 0.00979958310 -0.00053795248 0.02867559046 0.00980271624 -0.00049738959 0.02833798483 0.00980670165 -0.00045676595 0.02800129433 0.00981150769 -0.00041589426 0.02766739858 0.00981710275 -0.00037458719 0.02733817721 0.00982345518 -0.00033265743 0.02701550986 0.00983053337 -0.00050401256 0.02955342753 0.01317568395 -0.00051193502 0.02933781531 0.01320907807 -0.00051965486 0.02911683984 0.01323406878 -0.00052732611 0.02889189255 0.01325088052 -0.00053510279 0.02866436484 0.01325973777 -0.00054313893 0.02843564812 0.01326086499 -0.00055158856 0.02820713382 0.01325448665 -0.00056060569 0.02798021334 0.01324082722 -0.00057034435 0.02775627809 0.01322011115 -0.00058095857 0.02753671949 0.01319256293 -0.00051881068 0.02963091923 0.01286935364 -0.00052187441 0.02939939017 0.01289638313 -0.00052540359 0.02916112266 0.01291696383 -0.00052934821 0.02891790873 0.01293117101 -0.00053365827 0.02867154040 0.01293907995 -0.00053828374 0.02842380968 0.01294076593 -0.00054317463 0.02817650859 0.01293630421 -0.00054828093 0.02793142916 0.01292577008 -0.00055355263 0.02769036340 0.01290923881 -0.00055893972 0.02745510332 0.01288678567 -0.00053660726 0.02970254747 0.01253973215 -0.00053453774 0.02945632454 0.01256048725 -0.00053334207 0.02920194391 0.01257661028 -0.00053284136 0.02894161197 0.01258808860 -0.00053285675 0.02867753508 0.01259490960 -0.00053320934 0.02841191960 0.01259706063 -0.00053372028 0.02814697192 0.01259452908 -0.00053421069 0.02788489840 0.01258730232 -0.00053450168 0.02762790541 0.01257536771 -0.00053441439 0.02737819932 0.01255871263 -0.00055690250 0.02976828972 0.01218731926 -0.00054947965 0.02950853863 0.01220188792 -0.00054311541 0.02923921808 0.01221352998 -0.00053756701 0.02896294799 0.01222219222 -0.00053259171 0.02868234826 0.01222782141 -0.00052794673 0.02840003880 0.01223036435 -0.00052338932 0.02811863953 0.01222976780 -0.00051867672 0.02784077035 0.01222597854 -0.00051356617 0.02756905118 0.01221894335 -0.00050781491 0.02730610192 0.01220860901 -0.00057919661 0.02982812345 0.01181261473 -0.00056625478 0.02955595265 0.01182108260 -0.00055436873 0.02927285964 0.01182824478 -0.00054328663 0.02898186251 0.01183404078 -0.00053275663 0.02868597932 0.01183841012 -0.00052252688 0.02838822818 0.01184129232 -0.00051234554 0.02809162715 0.01184262689 -0.00050196078 0.02779919431 0.01184235335 -0.00049112074 0.02751394775 0.01184041122 -0.00047957358 0.02723890555 0.01183674001 -0.00060298980 0.02988202613 0.01141611834 -0.00058441777 0.02959848680 0.01141856879 -0.00056674716 0.02930278306 0.01142127655 -0.00054976167 0.02899830124 0.01142419323 -0.00053324498 0.02868842766 0.01142727044 -0.00051698079 0.02837654864 0.01143045979 -0.00050075277 0.02806605050 0.01143371290 -0.00048434463 0.02776031957 0.01143698137 -0.00046754004 0.02746274217 0.01144021681 -0.00045012270 0.02717670463 0.01144337084 -0.00062778227 0.02992997522 0.01099832987 -0.00060352325 0.02963606129 0.01099484396 -0.00057989581 0.02932890283 0.01099314713 -0.00055675359 0.02901220992 0.01099320848 -0.00053395025 0.02868969265 0.01099499708 -0.00051133944 0.02836506109 0.01099848201 -0.00048877482 0.02804202532 0.01100363236 -0.00046611004 0.02772429543 0.01101041720 -0.00044319874 0.02741558149 0.01101880563 -0.00041989459 0.02711959358 0.01102876671 -0.00065307423 0.02997194821 0.01055974909 -0.00062312588 0.02966859633 0.01055040559 -0.00059345979 0.02935113342 0.01054437839 -0.00056402385 0.02902353427 0.01054164547 -0.00053476590 0.02868977368 0.01054218476 -0.00050563383 0.02835382643 0.01054597422 -0.00047657549 0.02801966733 0.01055299180 -0.00044753875 0.02769127117 0.01056321547 -0.00041847149 0.02737261275 0.01057662316 -0.00038932156 0.02706766684 0.01059319283 -0.00067836588 0.03000792256 0.01010087578 -0.00064278028 0.02969601212 0.01008575115 -0.00060708424 0.02936938930 0.01007549218 -0.00057133391 0.02903222000 0.01007006311 -0.00053558542 0.02868867012 0.01006942819 -0.00049989493 0.02834290558 0.01007355166 -0.00046431859 0.02799909227 0.01008239777 -0.00042891254 0.02766139611 0.01009593077 -0.00039373293 0.02733398299 0.01011411490 -0.00035883591 0.02702101884 0.01013691441 -0.00070315742 0.03003787574 0.00962220970 -0.00066204111 0.02971822888 0.00960137814 -0.00062041427 0.02938358495 0.00958701036 -0.00057844522 0.02903821283 0.00957902035 -0.00053630228 0.02868638137 0.00957732209 -0.00049415375 0.02833235942 0.00958182958 -0.00045216794 0.02798041585 0.00959245679 -0.00041051316 0.02763481952 0.00960911772 -0.00036935773 0.02729983928 0.00963172635 -0.00032886995 0.02697974399 0.00966019665 -0.00047445293 0.02957187318 0.01323770395 -0.00048231698 0.02937258562 0.01328842354 -0.00049364010 0.02915545825 0.01332669829 -0.00050758266 0.02892528250 0.01335264384 -0.00052330503 0.02868684981 0.01336637579 -0.00053996757 0.02844495161 0.01336800978 -0.00055673065 0.02820437933 0.01335766142 -0.00057275465 0.02796992439 0.01333544635 -0.00058719992 0.02774637824 0.01330148019 -0.00059922685 0.02753853230 0.01325587855 -0.00049327730 0.02965201543 0.01290853243 -0.00049739379 0.02943794934 0.01294706402 -0.00050437237 0.02920303392 0.01297650081 -0.00051351106 0.02895295175 0.01299684025 -0.00052410784 0.02869338538 0.01300807979 -0.00053546070 0.02843001738 0.01301021687 -0.00054686763 0.02816853031 0.01300324895 -0.00055762663 0.02791460673 0.01298717346 -0.00056703569 0.02767392920 0.01296198786 -0.00057439280 0.02745218029 0.01292768959 -0.00051527338 0.02972422602 0.01255419859 -0.00051514973 0.02949613561 0.01258052677 -0.00051711940 0.02924483933 0.01260103567 -0.00052067463 0.02897672670 0.01261564841 -0.00052530764 0.02869818723 0.01262428811 -0.00053051068 0.02841561045 0.01262687788 -0.00053577596 0.02813538585 0.01262334085 -0.00054059572 0.02786390297 0.01261360014 -0.00054446219 0.02760755131 0.01259757886 -0.00054686760 0.02737272040 0.01257520013 -0.00053976730 0.02978870774 0.01217565891 -0.00053499030 0.02954738835 0.01218988740 -0.00053141866 0.02928110368 0.01220148380 -0.00052877929 0.02899678120 0.01221033132 -0.00052679913 0.02870134838 0.01221631314 -0.00052520509 0.02840173268 0.01221931248 -0.00052372409 0.02810486156 0.01221921253 -0.00052208306 0.02781766248 0.01221589649 -0.00052000892 0.02754706290 0.01220924756 -0.00051722860 0.02729999030 0.01219914894 -0.00056608521 0.02984566339 0.01177386990 -0.00055632101 0.02959195146 0.01177622152 -0.00054680763 0.02931205617 0.01177902613 -0.00053753099 0.02901328910 0.01178215198 -0.00052847698 0.02870296183 0.01178546729 -0.00051963152 0.02838838593 0.01178884034 -0.00051098049 0.02807687299 0.01179213936 -0.00050250981 0.02777573458 0.01179523260 -0.00049420539 0.02749228228 0.01179798831 -0.00048605312 0.02723382767 0.01180027474 -0.00059355326 0.02989529574 0.01134978802 -0.00057854735 0.02963006886 0.01134060475 -0.00056282381 0.02933792601 0.01133484360 -0.00054663565 0.02902642424 0.01133237340 -0.00053023589 0.02870312058 0.01133306297 -0.00051387754 0.02837557207 0.01133678114 -0.00049781362 0.02805133574 0.01134339674 -0.00048229712 0.02773796863 0.01135277858 -0.00046758108 0.02744302777 0.01136479549 -0.00045391850 0.02717407020 0.01137931630 -0.00062149759 0.02993780761 0.01090436978 -0.00060107482 0.02966198445 0.01088411268 -0.00057900467 0.02935894240 0.01087011712 -0.00055579921 0.02903636046 0.01086225858 -0.00053197055 0.02870191764 0.01086041257 -0.00050803075 0.02836329295 0.01086445456 -0.00048449192 0.02802816538 0.01087426004 -0.00046186614 0.02770421396 0.01088970451 -0.00044066550 0.02739911769 0.01091066346 -0.00042140209 0.02712055557 0.01093701236 -0.00064924435 0.02997340176 0.01043857167 -0.00062330893 0.02968794216 0.01040782093 -0.00059488770 0.02937533456 0.01038602762 -0.00056472761 0.02904327162 0.01037307055 -0.00053357563 0.02869944602 0.01036882849 -0.00050217873 0.02835155043 0.01037318027 -0.00047128387 0.02800727751 0.01038600467 -0.00044163802 0.02767431993 0.01040718051 -0.00041398815 0.02736037035 0.01043658657 -0.00038908121 0.02707312145 0.01047410166 -0.00067611968 0.03000228100 0.00995335016 -0.00064465517 0.02970818588 0.00991280511 -0.00061001038 0.02938733167 0.00988375605 -0.00057312677 0.02904733156 0.00986607229 -0.00053494584 0.02869579873 0.00985962315 -0.00049640906 0.02834034638 0.00986427795 -0.00045845793 0.02798858769 0.00987990601 -0.00042203392 0.02764813586 0.00990637665 -0.00038807852 0.02732660408 0.00994355919 -0.00035753320 0.02703160554 0.00999132295 -0.00070144973 0.03002464811 0.00944966175 -0.00066451905 0.02972295954 0.00940014084 -0.00062391019 0.02939516296 0.00936448332 -0.00058070263 0.02904871412 0.00934252682 -0.00053597585 0.02869106877 0.00933410894 -0.00049080933 0.02832968265 0.00933906727 -0.00044628254 0.02797201152 0.00935723944 -0.00040347498 0.02762551112 0.00938846305 -0.00036346611 0.02729763720 0.00943257569 -0.00032733541 0.02699584551 0.00948941499 -0.00045022569 0.02956220964 0.01332243972 -0.00045372974 0.02939610858 0.01339587459 -0.00046707970 0.02919238542 0.01345144490 -0.00048763563 0.02896126342 0.01348915549 -0.00051275760 0.02871296586 0.01350901119 -0.00053980564 0.02845771601 0.01351101683 -0.00056613983 0.02820573715 0.01349517724 -0.00058912020 0.02796725256 0.01346149725 -0.00060610682 0.02775248550 0.01340998168 -0.00061445975 0.02757165926 0.01334063538 -0.00047423876 0.02964156905 0.01296586798 -0.00047690951 0.02946319908 0.01301798421 -0.00048606687 0.02924182870 0.01305784840 -0.00049997204 0.02898929691 0.01308536403 -0.00051688624 0.02871744271 0.01310043462 -0.00053507067 0.02843810508 0.01310296365 -0.00055278652 0.02816312304 0.01309285465 -0.00056829501 0.02790433557 0.01307001110 -0.00057985733 0.02767358168 0.01303433650 -0.00058573470 0.02748270036 0.01298573435 -0.00050098773 0.02971029855 0.01258257733 -0.00050185210 0.02951933181 0.01261353136 -0.00050602006 0.02928195126 0.01263775793 -0.00051262200 0.02901104919 0.01265508752 -0.00052078834 0.02871951790 0.01266535060 -0.00052964949 0.02842024970 0.01266837762 -0.00053833585 0.02812613688 0.01266399906 -0.00054597784 0.02785007175 0.01265204538 -0.00055170586 0.02760494661 0.01263234705 -0.00055465033 0.02740365376 0.01260473455 -0.00052967883 0.02976904362 0.01217409748 -0.00052788138 0.02956540815 0.01218432291 -0.00052643892 0.02931361914 0.01219319350 -0.00052529916 0.02902714168 0.01220049051 -0.00052440980 0.02871944089 0.01220599522 -0.00052371855 0.02840398186 0.01220948887 -0.00052317311 0.02809422971 0.01221075272 -0.00052272118 0.02780364954 0.01220956804 -0.00052231048 0.02754570645 0.01220571610 -0.00052188871 0.02733386555 0.01219897814 -0.00055951825 0.02981844975 0.01174195817 -0.00055432118 0.02960232946 0.01173216574 -0.00054682312 0.02933769837 0.01172617506 -0.00053771720 0.02903819580 0.01172373753 -0.00052769655 0.02871746110 0.01172460455 -0.00051745430 0.02838913357 0.01172852754 -0.00050768358 0.02806685256 0.01173525790 -0.00049907752 0.02776425738 0.01174454704 -0.00049232925 0.02749498736 0.01175614638 -0.00048813190 0.02727268183 0.01176980730 -0.00058971222 0.02985916243 0.01128768911 -0.00058049536 0.02963099710 0.01125886676 -0.00056667231 0.02935505499 0.01123872261 -0.00054958978 0.02904483299 0.01122699311 -0.00053059450 0.02871382798 0.01122341469 -0.00051103318 0.02837553684 0.01122772379 -0.00049225255 0.02804345646 0.01123965686 -0.00047559933 0.02773108372 0.01125895033 -0.00046242023 0.02745191551 0.01128534064 -0.00045406198 0.02721944870 0.01131856423 -0.00061946695 0.02989182714 0.01081282003 -0.00060572777 0.02965231243 0.01076623283 -0.00058548614 0.02936655504 0.01073285611 -0.00056063057 0.02904767465 0.01071242178 -0.00053304957 0.02870879096 0.01070466170 -0.00050463165 0.02836302367 0.01070930776 -0.00047726533 0.02802349245 0.01072609185 -0.00045283910 0.02770331702 0.01075474584 -0.00043324149 0.02741561705 0.01079500164 -0.00042036101 0.02717351224 0.01084659111 -0.00064798865 0.02991708938 0.01031888065 -0.00062934226 0.02966717683 0.01025607084 -0.00060276427 0.02937306455 0.01021059556 -0.00057055323 0.02904734222 0.01018218807 -0.00053500768 0.02870259949 0.01017058166 -0.00049842615 0.02835142606 0.01017550959 -0.00046310719 0.02800641157 0.01019670512 -0.00043134932 0.02768014571 0.01023390154 -0.00040545110 0.02738521816 0.01028683211 -0.00038771105 0.02713421856 0.01035523011 -0.00067448353 0.02993559462 0.00980740071 -0.00065066267 0.02967649165 0.00973018768 -0.00061800636 0.02937544957 0.00967396092 -0.00057907144 0.02904445711 0.00963845653 -0.00053641475 0.02869550302 0.00962341066 -0.00049259314 0.02834057601 0.00962855942 -0.00045016343 0.02799166485 0.00965363895 -0.00041168248 0.02766075826 0.00969838538 -0.00037970712 0.02735984498 0.00976253482 -0.00035679418 0.02710091376 0.00984582342 -0.00069815780 0.02994798835 0.00927990992 -0.00066901285 0.02968115827 0.00919039024 -0.00063071205 0.02937457614 0.00912497217 -0.00058589885 0.02903964076 0.00908339169 -0.00053721670 0.02868775096 0.00906538477 -0.00048730905 0.02833030555 0.00907068741 -0.00043881935 0.02797870332 0.00909903559 -0.00039439105 0.02764434310 0.00915016530 -0.00035666760 0.02733862369 0.00922381251 -0.00032829246 0.02707294391 0.00931971321 -0.00043365468 0.02952020190 0.01342911073 -0.00042703813 0.02940696491 0.01352983229 -0.00044030887 0.02922756185 0.01360604445 -0.00046793695 0.02900009633 0.01365765741 -0.00050439245 0.02874267198 0.01368458142 -0.00054414543 0.02847339244 0.01368672669 -0.00058166596 0.02821036132 0.01366400345 -0.00061142410 0.02797168226 0.01361632192 -0.00062788991 0.02777545888 0.01354359232 -0.00062553347 0.02763979480 0.01344572489 -0.00046420060 0.02959452348 0.01304003568 -0.00046198219 0.02947310724 0.01310614613 -0.00047160192 0.02927696685 0.01315673418 -0.00048974037 0.02902680856 0.01319159819 -0.00051307810 0.02874333865 0.01321053657 -0.00053829567 0.02844726336 0.01321334768 -0.00056207366 0.02815928896 0.01319982991 -0.00058109264 0.02790012170 0.01316978165 -0.00059203318 0.02769046784 0.01312300128 -0.00059157585 0.02755103363 0.01305928718 -0.00049626322 0.02965480991 0.01262320805 -0.00049664244 0.02952303430 0.01265545200 -0.00050168073 0.02931201564 0.01268093759 -0.00051005492 0.02904389761 0.01269937032 -0.00052044187 0.02874082391 0.01271045569 -0.00053151840 0.02842493823 0.01271389922 -0.00054196134 0.02811838428 0.01270940642 -0.00055044755 0.02784330573 0.01269668279 -0.00055565385 0.02762184628 0.01267543384 -0.00055625708 0.02747614963 0.01264536507 -0.00052900981 0.02970242029 0.01218084870 -0.00053035975 0.02955872459 0.01218043870 -0.00053010677 0.02933461602 0.01218168983 -0.00052868954 0.02905270664 0.01218423392 -0.00052654678 0.02873560854 0.01218770281 -0.00052411717 0.02840593379 0.01219172831 -0.00052183940 0.02808629449 0.01219594228 -0.00052015218 0.02779930271 0.01219997652 -0.00051949420 0.02756757052 0.01220346289 -0.00052030416 0.02741371001 0.01220603320 -0.00056160763 0.02973871374 0.01171517849 -0.00056247502 0.02958215660 0.01168379501 -0.00055644154 0.02934667578 0.01166202603 -0.00054545316 0.02905457882 0.01164944914 -0.00053145583 0.02872817330 0.01164564191 -0.00051639553 0.02838976679 0.01165018193 -0.00050221823 0.02806166683 0.01166264679 -0.00049086991 0.02776618101 0.01168261406 -0.00048429652 0.02752561687 0.01170966134 -0.00048444404 0.02736228199 0.01174336619 -0.00059322394 0.02976504938 0.01122841828 -0.00059232913 0.02959530882 0.01116820972 -0.00058024655 0.02935010271 0.01112498133 -0.00056015469 0.02905085733 0.01109827610 -0.00053523202 0.02871899898 0.01108763702 -0.00050865704 0.02837595395 0.01109260708 -0.00048360824 0.02804314852 0.01111272928 -0.00046326409 0.02774200899 0.01114754662 -0.00045080308 0.02749396166 0.01119660208 -0.00044940371 0.02732043280 0.01125943867 -0.00062302603 0.02978278632 0.01072278891 -0.00061926297 0.02960015974 0.01063637163 -0.00060108329 0.02934680461 0.01057359087 -0.00057260307 0.02904288534 0.01053397494 -0.00053793837 0.02870856634 0.01051705213 -0.00050120526 0.02836401202 0.01052235073 -0.00046651981 0.02802938678 0.01054939905 -0.00043799809 0.02772485504 0.01059772539 -0.00041975618 0.02747058119 0.01066685803 -0.00041591014 0.02728672965 0.01075632528 -0.00065018114 0.02979328366 0.01020051124 -0.00064261741 0.02959868783 0.01009096951 -0.00061851326 0.02933868927 0.01001088979 -0.00058260723 0.02903200602 0.00995980580 -0.00053963787 0.02869735616 0.00993725126 -0.00049434373 0.02835345775 0.00994275989 -0.00045146335 0.02801902884 0.00997586542 -0.00041573529 0.02771278750 0.01003610158 -0.00039189809 0.02745345179 0.01012300207 -0.00038469031 0.02725973977 0.01023610064 -0.00067385655 0.02979790054 0.00966380612 -0.00066173335 0.02959287161 0.00953469216 -0.00063209795 0.02932766448 0.00943991322 -0.00058997609 0.02901956255 0.00937902880 -0.00054039353 0.02868584921 0.00935159841 -0.00048837600 0.02834380787 0.00935718154 -0.00043894926 0.02801072192 0.00939533770 -0.00039713904 0.02770387476 0.00946562639 -0.00036797111 0.02744054978 0.00956760712 -0.00035647119 0.02723803038 0.00970083939 -0.00069321951 0.02979799606 0.00911489442 -0.00067595166 0.02958468954 0.00897022837 -0.00064139885 0.02931563803 0.00886369631 -0.00059451859 0.02900689809 0.00879490409 -0.00054026835 0.02867452627 0.00876345759 -0.00048360564 0.02833457913 0.00876896267 -0.00042948793 0.02800311325 0.00881102520 -0.00038287272 0.02769618517 0.00888925104 -0.00034871750 0.02742985147 0.00900324608 -0.00033197976 0.02722016869 0.00915261616 </DataArray>
</PointData>
<Points>
<DataArray type="Float32" NumberOfComponents="3">
0.86840178294 0.75410362070 0.50520630463 0.89900095622 0.75398647951 0.49743239573 0.92196741351 0.75386694588 0.48840476101 0.93729612977 0.75374534516 0.47847524591 0.94498207993 0.75362200269 0.46799569584 0.94502023894 0.75349724383 0.45731795624 0.93740558174 0.75337139393 0.44679387252 0.92213308328 0.75324477834 0.43677529011 0.89919771850 0.75311772242 0.42761405443 0.86859446234 0.75299055151 0.41966201092 0.86373055872 0.77004341719 0.50497175204 0.89431421566 0.76992063713 0.49720482130 0.91726874269 0.76979275645 0.48818223702 0.93258945117 0.76966089114 0.47825595050 0.94027165246 0.76952615724 0.46777791301 0.94031065793 0.76938967076 0.45710007586 0.93270177895 0.76925254772 0.44657439033 0.91744032689 0.76911590415 0.43655280770 0.89452161310 0.76898085605 0.42738727928 0.86394094896 0.76884851946 0.41942975634 0.85826511558 0.78598077864 0.50472007020 0.88888896005 0.78585230229 0.49695889477 0.91187338027 0.78571644656 0.48794052056 0.92721397924 0.78557500938 0.47801696759 0.93490635995 0.78542978867 0.46754025589 0.93494612541 0.78528258233 0.45686240547 0.92732887861 0.78513518830 0.44633543638 0.91205022256 0.78498940448 0.43631136862 0.88910576026 0.78484702879 0.42714222223 0.85849109470 0.78470985916 0.41918001723 0.85190939999 0.80191591293 0.50445138870 0.88261590233 0.80178166657 0.49669500178 0.90566210632 0.80163818519 0.48768017498 0.92104386950 0.80148783774 0.47775896690 0.92875704941 0.80133299319 0.46728343618 0.92879750359 0.80117602048 0.45660564144 0.92116108958 0.80101928860 0.44607764130 0.90584366491 0.80086516649 0.43605149439 0.88284108713 0.80071602311 0.42687925933 0.85214921378 0.80057422742 0.41891299475 0.84456735841 0.81784902794 0.50416583712 0.87538575543 0.81770892160 0.49641352797 0.89851570090 0.81755814128 0.48740176361 0.91395327749 0.81739951406 0.47748261813 0.92169456788 0.81723586700 0.46700816561 0.92173565474 0.81707002714 0.45633048011 0.91407262074 0.81690482156 0.44580163573 0.89870154857 0.81674307731 0.43577370654 0.87561852090 0.81658762146 0.42659876662 0.84481962039 0.81644128106 0.41862889005 0.83614293732 0.83378033156 0.50386354507 0.86708923231 0.83363425897 0.49611485896 0.89031494408 0.83347648381 0.48710584981 0.90581635873 0.83331017621 0.47718859099 0.91358976236 0.83313850631 0.46671515588 0.91363144108 0.83296464423 0.45603761785 0.90593768097 0.83279176012 0.44550805030 0.89050476815 0.83262302410 0.43547852660 0.86732898872 0.83246160631 0.42630112013 0.83640662876 0.83231067688 0.41832790427 0.82654008317 0.84971003167 0.50354464212 0.85761704589 0.84955787030 0.49579938041 0.88094061592 0.84939338172 0.48679299692 0.89650726874 0.84921996203 0.47687755518 0.90431347989 0.84904100732 0.46640511871 0.90435572485 0.84885991368 0.45572775102 0.89663047915 0.84868007721 0.44519751565 0.88113421828 0.84850489399 0.43516647610 0.85786341776 0.84833776011 0.42598669590 0.82681455309 0.84818207168 0.41801023858 0.81566274245 0.86563833615 0.50320925788 0.84685990914 0.86547994719 0.49546747794 0.87027349648 0.86530900398 0.48646376829 0.88590016306 0.86512900939 0.47655018042 0.89373656748 0.86494346625 0.46607876582 0.89377936831 0.86475587743 0.45540157598 0.88602522414 0.86456974577 0.44487066239 0.87047079358 0.86438857412 0.43483807656 0.84711273520 0.86421586534 0.42565586997 0.81594770759 0.86405512228 0.41767609412 0.80341486161 0.88156545288 0.50285752193 0.83470853498 0.88140068124 0.49511953720 0.85819436583 0.88122351955 0.48611872726 0.87386919721 0.88103745613 0.47620713640 0.88172987215 0.88084597931 0.46573680891 0.88177323368 0.88065257740 0.45505978907 0.87399612484 0.88046073874 0.44452812118 0.85839538866 0.88027395165 0.43449384952 0.83496786819 0.88009570446 0.42530901838 0.80371040646 0.87992948548 0.41732567205 0.78970038712 0.89749158974 0.50248956385 0.82105363636 0.89732026407 0.49475594382 0.84458400404 0.89713709739 0.48575843718 0.86028852672 0.89694544011 0.47584909285 0.86816424093 0.89674864269 0.46537995971 0.86820818321 0.89655005552 0.45470308668 0.86041739010 0.89635302906 0.44417052264 0.84478889816 0.89616091371 0.43413431650 0.82131974392 0.89597705991 0.42494651716 0.79000696392 0.89580481809 0.41695917352 0.83044933930 0.75420178647 0.51145223152 0.85190313688 0.75405892878 0.50175122972 0.86800495720 0.75391446205 0.49116901811 0.87875187224 0.75376867104 0.47995341985 0.88414095402 0.75362184053 0.46835225811 0.88416927451 0.75347425529 0.45661335606 0.87883390573 0.75332620010 0.44498453686 0.86813191967 0.75317795973 0.43371362368 0.85206038832 0.75302981895 0.42304843968 0.83061638367 0.75288206254 0.41323680804 0.82579954424 0.77014758002 0.51121076568 0.84724210976 0.76999637753 0.50151281656 0.86333625609 0.76984202343 0.49093306726 0.87407897806 0.76968527262 0.47971928585 0.87946727050 0.76952687998 0.46811924038 0.87949812825 0.76936760038 0.45638069890 0.87416854615 0.76920818872 0.44475142947 0.86347551904 0.76904939987 0.43347920013 0.84741604174 0.76889198872 0.42281177894 0.82598710911 0.76873671014 0.41299693395 0.82028595381 0.78609103516 0.51095278856 0.84175667507 0.78593134660 0.50125781404 0.85787251662 0.78576749744 0.49068041313 0.86863044801 0.78560055916 0.47946832387 0.87402743884 0.78543160325 0.46786928431 0.87406045867 0.78526170119 0.45613103251 0.86872647708 0.78509192446 0.44450130652 0.85802246364 0.78492334455 0.43322784441 0.84194538794 0.78475703293 0.42255838421 0.82049221954 0.78459406109 0.41274066399 0.81382893183 0.80203240546 0.51067821614 0.83535790178 0.80186415315 0.50098621425 0.85151785612 0.80169117430 0.49041111711 0.86230578813 0.80151472896 0.47920065216 0.86771869109 0.80133607717 0.46760254685 0.86775355827 0.80115647898 0.45586452860 0.86240738298 0.80097719443 0.44423432484 0.85167715847 0.80079948357 0.43295966303 0.83555987804 0.80062460644 0.42228827060 0.81405253497 0.80045382308 0.41246787497 0.80634884211 0.81797194451 0.51038696442 0.82795685886 0.81779511433 0.50069800922 0.84417639196 0.81761334425 0.49012524060 0.85500450443 0.81742798031 0.47891638903 0.86043825930 0.81724036854 0.46731918497 0.86047471959 0.81705185500 0.45558135888 0.85511094833 0.81686378571 0.44395064125 0.84434400853 0.81667750672 0.43267476252 0.82817096321 0.81649436407 0.42200145318 0.80658887541 0.81631570380 0.41217844369 0.79776604845 0.83390990588 0.51007894941 0.81946461527 0.83372454731 0.50039319104 0.83575224148 0.83353429754 0.48982284501 0.84662610296 0.83334051151 0.47861565273 0.85208337555 0.83314454419 0.46701935562 0.85212123515 0.83294775049 0.45528169509 0.84673685761 0.83275148538 0.44365041254 0.83592741880 0.83255710379 0.43237324940 0.81969009460 0.83236596066 0.42169794706 0.79802206086 0.83217941093 0.41187224695 0.78800091465 0.84984654317 0.50975408709 0.80979223999 0.84965276922 0.50007175175 0.82614952205 0.84945432438 0.48950399172 0.83707008972 0.84925252087 0.47829856156 0.84255127189 0.84904867091 0.46670321578 0.84259039745 0.84884408672 0.45496570893 0.83718479529 0.84864008053 0.44333379555 0.82633179429 0.84843796457 0.43205523017 0.81002872335 0.84823905104 0.42137776732 0.78827291135 0.84804465219 0.41154916155 0.77697380452 0.86578210994 0.50941229347 0.79885080198 0.86558009724 0.49973368342 0.81527235101 0.86537371503 0.48916874215 0.82623597076 0.86516420668 0.47796523377 0.83173918038 0.86495281553 0.46637092240 0.83177949903 0.86474078494 0.45463357213 0.82635444585 0.86452935826 0.44300094708 0.81546154000 0.86431977885 0.43172081135 0.79909830062 0.86411329006 0.42104092906 0.77726224687 0.86391113525 0.41120906431 0.76460508187 0.88171685979 0.50905348455 0.78655137021 0.88150684851 0.49937897811 0.80302484571 0.88129275972 0.48881715768 0.81402325209 0.88107576723 0.47761578766 0.81954433308 0.88085704485 0.46602263244 0.81958583240 0.88063776639 0.45428545641 0.81414549377 0.88041910564 0.44265202395 0.80322106092 0.88020223643 0.43137009948 0.78681027756 0.87998833255 0.42068744736 0.76491088743 0.87977856781 0.41085183201 0.75081511050 0.89765104629 0.50867757631 0.77280501365 0.89743334018 0.49900762788 0.78931112351 0.89721174868 0.48844929973 0.80033143975 0.89698740083 0.47725034151 0.80586396205 0.89676142569 0.46565850287 0.80590669008 0.89653495233 0.45392153348 0.80045762352 0.89630910977 0.44228718298 0.78951476204 0.89608502709 0.43100320105 0.77307610533 0.89586383334 0.42031733732 0.75113965305 0.89564665756 0.41047734147 0.78655572839 0.75429725305 0.51614140921 0.80062259272 0.75412864645 0.50499733798 0.81118034577 0.75396064402 0.49325100788 0.81822726512 0.75379302169 0.48107218552 0.82176162841 0.75362555536 0.46863063754 0.82178171322 0.75345802097 0.45609613058 0.81828579717 0.75329019443 0.44363843127 0.81127215786 0.75312185165 0.43142730624 0.80073907290 0.75295276858 0.41963252213 0.78668481991 0.75278272111 0.40842384557 0.78193078368 0.77025053994 0.51589173570 0.79599094648 0.77007100145 0.50474861175 0.80654470302 0.76989141484 0.49300337319 0.81359016205 0.76971177015 0.48082563552 0.81712543231 0.76953205740 0.46838501427 0.81714862257 0.76935226659 0.45585112494 0.81365784157 0.76917238776 0.44339358307 0.80665119807 0.76899241091 0.43118200416 0.79612680082 0.76881232608 0.41938600373 0.78208275857 0.76863212327 0.40817519730 0.77636114591 0.78620141656 0.51562523302 0.79044065840 0.78601104917 0.50448356760 0.80100975955 0.78582034924 0.49273967007 0.80806646551 0.78562940767 0.48056306809 0.81160879243 0.78543831535 0.46812328929 0.81163475646 0.78524716318 0.45558986131 0.80814237375 0.78505604207 0.44313231181 0.80112966044 0.78486504290 0.43092016843 0.79059463270 0.78467425658 0.41912295880 0.77653530668 0.78448377400 0.40791021058 0.76978628858 0.80215007824 0.51534171186 0.78390509276 0.80194905056 0.50420197225 0.79450432467 0.80174768393 0.49245966115 0.80158197686 0.80154608413 0.48028426775 0.80513604187 0.80134435692 0.46784528123 0.80516451226 0.80114260808 0.45531219076 0.80166538057 0.80094094337 0.44285448553 0.79463663935 0.80073946857 0.43064165471 0.78407628114 0.80053828943 0.41884318749 0.76998229850 0.80033751174 0.40762857304 0.76214568519 0.81809672030 0.51504098292 0.77631761382 0.81788526652 0.50390359243 0.78695720766 0.81767365562 0.49216310905 0.79406249741 0.81746194943 0.47998901905 0.79763151375 0.81725020982 0.46755080873 0.79766228737 0.81703849862 0.45501796436 0.79415284894 0.81682687768 0.44255997226 0.78710122917 0.81661540885 0.43034631869 0.77650545872 0.81640415397 0.41854648995 0.76236356830 0.81619317490 0.40732997232 0.75337880922 0.83404153810 0.51472285687 0.76761158585 0.83381995800 0.50358819487 0.77829721784 0.83359850102 0.49184977637 0.78543382852 0.83337715348 0.47967710651 0.78901954119 0.83315590174 0.46723969040 0.78905247916 0.83293473213 0.45470703320 0.78553076575 0.83271363100 0.44224864002 0.77845252428 0.83249258469 0.43003401602 0.76781587804 0.83227157955 0.41823266632 0.75361895036 0.83205060191 0.40701409606 0.74342513418 0.84998472695 0.51438714440 0.75772037312 0.84975338592 0.50325554630 0.76845316450 0.84952245683 0.49151942575 0.77562177150 0.84929184616 0.47934831465 0.77922445729 0.84906146038 0.46691174488 0.77925948502 0.84883120595 0.45437924833 0.77572511789 0.84860098935 0.44192035687 0.76861961905 0.84837071704 0.42970460239 0.75794125168 0.84814029550 0.41790151678 0.74368827895 0.84790963119 0.40668063191 0.73222413356 0.86592648219 0.51403365622 0.74657733990 0.86568581120 0.50290541343 0.75735385695 0.86544575978 0.49117181980 0.76455212770 0.86520617738 0.47900242803 0.76817059516 0.86496691345 0.46656679080 0.76820770235 0.86472781742 0.45403446084 0.76466189225 0.86448873874 0.44157499082 0.75753160788 0.86424952684 0.42935793346 0.74681529224 0.86401003118 0.41755284145 0.73251138834 0.86377010118 0.40632926749 0.71971528085 0.88186699915 0.51366220300 0.73411585047 0.88161749476 0.50253756300 0.74492810448 0.88136864657 0.49080672114 0.75215069845 0.88112029704 0.47863923115 0.75578228794 0.88087228865 0.46620464679 0.75582152851 0.88062446387 0.45367252179 0.75226707572 0.88037666517 0.44121240992 0.74511758513 0.88012873503 0.42899386491 0.73437171231 0.87988051592 0.41718644050 0.72002811281 0.87963185031 0.40595969046 0.70583804955 0.89780647317 0.51327259544 0.72026926908 0.89754869754 0.50215176174 0.73110471639 0.89729135390 0.49042389238 0.73834328508 0.89703435502 0.47825850856 0.74198386872 0.89677761367 0.46582513146 0.74202536090 0.89652104263 0.45329328227 0.73846665519 0.89626455467 0.44083248219 0.73130664519 0.89600806256 0.42861225240 0.72054422447 0.89575147907 0.41680211408 0.70617828661 0.89549471699 0.40557158844 0.73841855230 0.75438578545 0.51927305715 0.74635470062 0.75419421323 0.50716912160 0.75231172259 0.75400543229 0.49464846617 0.75628849297 0.75381865813 0.48182878485 0.75828388658 0.75363310619 0.46882777158 0.75829677821 0.75344799197 0.45576312035 0.75632604264 0.75326253093 0.44275252511 0.75237055468 0.75307593855 0.42991367982 0.74642918912 0.75288743030 0.41736427847 0.73850082076 0.75269622165 0.40522201500 0.73382070250 0.77034724034 0.51901333746 0.74175470769 0.77014247673 0.50690920931 0.74771096973 0.76994039053 0.49438888240 0.75168830078 0.76974024809 0.48156985536 0.75368551301 0.76954131578 0.46856962681 0.75370141860 0.76934285996 0.45550569540 0.75173482972 0.76914414701 0.44249555974 0.74778455853 0.76894444327 0.42965671847 0.74184941720 0.76874301513 0.41710667022 0.73392821791 0.76853912894 0.40496291361 0.72818922409 0.78630596769 0.51873574327 0.73613594369 0.78608853115 0.50663210643 0.74210249319 0.78587373791 0.49411245192 0.74608767413 0.78566087308 0.48129416464 0.74809028806 0.78544922180 0.46829462946 0.74810913653 0.78523806919 0.45523123128 0.74614302108 0.78502670039 0.44222135497 0.74219074326 0.78481440052 0.42938238543 0.73625110462 0.78460045472 0.41683170755 0.72832290671 0.78438414811 0.40468670620 0.72148462716 0.80226205419 0.51844008963 0.72945545646 0.80203248534 0.50633752007 0.73544076329 0.80180556564 0.49381883788 0.73943938387 0.80158058048 0.48100137778 0.74145015443 0.80135681522 0.46800247450 0.74147191120 0.80113355524 0.45493946275 0.73950349043 0.80091008592 0.44192967726 0.73554372833 0.80068569264 0.42909045274 0.72959146114 0.80045966078 0.41653912393 0.72164552509 0.80023127571 0.40439302555 0.71366742181 0.81821558653 0.51812619157 0.72167029387 0.81797444813 0.50602515735 0.72768025038 0.81773596493 0.49350770341 0.73169620086 0.81749941764 0.48069115989 0.73371705485 0.81726408699 0.46769285690 0.73374172187 0.81702925369 0.45463012457 0.73176911147 0.81679419846 0.44162029304 0.72779813317 0.81655820200 0.42878069242 0.72182769651 0.81632054505 0.41622865284 0.71385671102 0.81608050831 0.40408150444 0.70469811814 0.83416665140 0.51779386413 0.71273750376 0.83391452836 0.50569472538 0.71877542478 0.83366502696 0.49317871166 0.72281089594 0.83341743196 0.48036317605 0.72484293202 0.83317102809 0.46736547164 0.72487054776 0.83292510014 0.45430295152 0.72289275792 0.83267893284 0.44129296877 0.71890857724 0.83243181096 0.42845287648 0.71291702050 0.83218301924 0.41590002775 0.70491710243 0.83193184246 0.40375177565 0.69453722627 0.85011533549 0.51744292236 0.70261413398 0.84985283489 0.50534593129 0.70868075682 0.84959284295 0.49283152576 0.71273623998 0.84933467078 0.48001709136 0.71477972867 0.84907762948 0.46702001369 0.71481036810 0.84882103015 0.45395767834 0.71282730347 0.84856418391 0.44094747090 0.70882967998 0.84830640185 0.42810677696 0.70281664285 0.84804699509 0.41555298212 0.69478733728 0.84778527473 0.40340347196 0.68314525627 0.86606172549 0.51707318130 0.69125723239 0.86578947655 0.50497848218 0.69735071684 0.86551950409 0.49246580885 0.70142500382 0.86525118148 0.47965257092 0.70347938752 0.86498388210 0.46665617803 0.70351316212 0.86471697932 0.45359403981 0.70152562183 0.86444984652 0.44058356589 0.69751606084 0.86418185706 0.42774216588 0.69148377334 0.86391238432 0.41518724943 0.68342805351 0.86364080168 0.40303622615 0.67048271827 0.88200590808 0.51668445599 0.67862384683 0.88172456218 0.50459208518 0.68473977517 0.88144510157 0.49208122407 0.68882995831 0.88116701143 0.47926927982 0.69089385127 0.88088977693 0.46627365964 0.69093090906 0.88061288323 0.45321177069 0.68894058672 0.88033581551 0.44020102017 0.68492233926 0.88005805893 0.42735881526 0.67887562171 0.87977909866 0.41480256314 0.67079988908 0.87949841986 0.40264967099 0.65651012235 0.89794796996 0.51627656146 0.66467102516 0.89765820062 0.50418644741 0.67080240215 0.89736972660 0.49167743456 0.67490387431 0.89708220800 0.47886688317 0.67697506264 0.89679530492 0.46587215348 0.67701558815 0.89650867746 0.45281060574 0.67502507183 0.89622198573 0.43979960021 0.67100313469 0.89593488981 0.42695649712 0.66494939772 0.89564704982 0.41439865673 0.65686348193 0.89535812585 0.40224343928 0.68773541315 0.75446314867 0.52084639483 0.69029483748 0.75425420982 0.50826498164 0.69221723102 0.75404876736 0.49535912884 0.69350174035 0.75384584139 0.48222045975 0.69414751203 0.75364445204 0.46894059766 0.69415369265 0.75344361942 0.45561116588 0.69351942878 0.75324236365 0.44232378770 0.69224386698 0.75303970485 0.42917008643 0.69032615384 0.75283466312 0.41624168537 0.68776543593 0.75262625861 0.40363020783 0.68316572617 0.77043262460 0.52057424634 0.68572737528 0.77020877123 0.50799161165 0.68765194247 0.76998841033 0.49508532250 0.68893869191 0.76977057077 0.48194680122 0.68958688772 0.76955428139 0.46866747017 0.68959579407 0.76933857106 0.45533875167 0.68896467509 0.76912246863 0.44205206807 0.68769279494 0.76890500295 0.42889884171 0.68577941776 0.76868520288 0.41597049493 0.68322380769 0.76846209728 0.40335845008 0.67746872055 0.78639873339 0.52028265898 0.68003756458 0.78616091369 0.50769938153 0.68196810162 0.78592639937 0.49479291921 0.68325971624 0.78569427356 0.48165457790 0.68391179305 0.78546361942 0.46837566347 0.68392371662 0.78523352009 0.45504748179 0.68329487153 0.78500305870 0.44176133873 0.68202464238 0.78477131840 0.42860854018 0.68011241374 0.78453738233 0.41568039199 0.67755757021 0.78430033363 0.40306820005 0.67062710447 0.80236145625 0.51997156317 0.67320697410 0.80211058404 0.50738810198 0.67514642332 0.80186267099 0.49448167807 0.67644495734 0.80161689521 0.48134354637 0.67710208141 0.80137243481 0.46806496182 0.67711730075 0.80112846790 0.45473717936 0.67649012060 0.80088417259 0.44145145392 0.67522004618 0.80063872698 0.42829904044 0.67330658273 0.80039130918 0.41537119385 0.67074923548 0.80014109731 0.40275916909 0.66262358612 0.81832077438 0.51964088934 0.66521717258 0.81805772910 0.50705758372 0.66716762246 0.81779716173 0.49415135817 0.66847455919 0.81753838114 0.48101346324 0.66913760620 0.81728069624 0.46773514950 0.66915638692 0.81702341591 0.45440766752 0.66853052479 0.81676584903 0.44112226787 0.66725964322 0.81650730449 0.42797020111 0.66534336564 0.81624709117 0.41504271781 0.66278131550 0.81598451798 0.40243106854 0.65344087369 0.83427666899 0.51929056790 0.65604972872 0.83400229570 0.50670763747 0.65801241390 0.83372980809 0.49380171861 0.65932866576 0.83345867679 0.48066408510 0.65999822082 0.83318837239 0.46738601076 0.66002081560 0.83291836551 0.45405876939 0.65939618660 0.83264812674 0.44077363480 0.65812407037 0.83237712671 0.42762188079 0.65620420341 0.83210483601 0.41469478116 0.65363632224 0.83183072526 0.40208360973 0.64306167538 0.85022912128 0.51892052928 0.64568621125 0.84994423065 0.50633807395 0.64766151253 0.84966054661 0.49343251848 0.64898742105 0.84937772757 0.48029516855 0.64966377867 0.84909543194 0.46701732987 0.64969042722 0.84881331810 0.45369030810 0.64906720855 0.84853104447 0.44040540894 0.64779396451 0.84824826944 0.42725393809 0.64587053695 0.84796465143 0.41432720121 0.64329676770 0.84767984883 0.40171650401 0.63146869936 0.86617811245 0.51853070391 0.63410818890 0.86588348078 0.50594870387 0.63609563321 0.86558931381 0.49304351688 0.63743096904 0.86529547893 0.47990647020 0.63811413313 0.86500184356 0.46662889109 0.63814506225 0.86470827509 0.45330210678 0.63752369312 0.86441464092 0.44001744454 0.63624996252 0.86412080847 0.42686623161 0.63432380719 0.86382664513 0.41393979526 0.63174516387 0.86353201831 0.40132946272 0.61864465383 0.88212362370 0.51812102220 0.62129723039 0.88181999292 0.50553933794 0.62329549083 0.88151604620 0.49263447291 0.62463945371 0.88121187629 0.47949774664 0.62532913762 0.88090757594 0.46622047868 0.62536456113 0.88060323787 0.45289398856 0.62474574283 0.88029895484 0.43960959581 0.62347270128 0.87999481959 0.42645861998 0.62154545506 0.87969092485 0.41353238060 0.61896402275 0.87938736337 0.40092219721 0.60457224698 0.89806563626 0.51769141459 0.60723490444 0.89775371389 0.50510978689 0.60924180024 0.89744068032 0.49220514566 0.61059301904 0.89712686509 0.47906875447 0.61128864552 0.89681259775 0.46579187691 0.61132876434 0.89649820786 0.45246577656 0.61071346016 0.89618402495 0.43918171699 0.60944281765 0.89587037858 0.42603096179 0.60751692148 0.89555759830 0.41310477454 0.60493585631 0.89524601365 0.40049441882 0.63620391305 0.75452510769 0.52086064172 0.63363838017 0.75430721695 0.50828331918 0.63171501444 0.75409058971 0.49538073174 0.63043319181 0.75387483252 0.48224445215 0.62979228825 0.75365955192 0.46896605321 0.62979167972 0.75344435443 0.45563710770 0.63043074218 0.75322884660 0.44234918839 0.63170885160 0.75301263497 0.42919386808 0.63362538393 0.75279532606 0.41626271953 0.63617971514 0.75257652641 0.40364731553 0.63166228015 0.77050163611 0.52057313772 0.62910293112 0.77026785277 0.50799282120 0.62718450752 0.77003493410 0.49508842109 0.62590663308 0.76980260255 0.48195132897 0.62526893156 0.76957058052 0.46867293647 0.62527102668 0.76933859046 0.45534463516 0.62591254220 0.76910635478 0.44205781665 0.62719310184 0.76887359593 0.42890387255 0.62911232936 0.76864003632 0.41597419444 0.63166984848 0.76840539838 0.40336017392 0.62589816750 0.78647375852 0.52026431983 0.62334055473 0.78622531792 0.50768134389 0.62142396895 0.78597706955 0.49477523246 0.62014823426 0.78572892729 0.48163727224 0.61951317474 0.78548080506 0.46835874993 0.61951861448 0.78523261675 0.45503095223 0.62016437756 0.78498427627 0.44174516582 0.62145028809 0.78473569752 0.42859267741 0.62337617013 0.78448679439 0.41566477369 0.62594184779 0.78423748079 0.40305274135 0.61891687744 0.80244140736 0.51993434625 0.61635762689 0.80217947320 0.50734896225 0.61444055608 0.80191685153 0.49444121248 0.61316564546 0.80165370556 0.48130233763 0.61253287547 0.80139019848 0.46802357837 0.61254222655 0.80112649352 0.45469617541 0.61319367914 0.80086275387 0.44141136943 0.61448721368 0.80059914274 0.42826040112 0.61642281062 0.80033582333 0.41533451117 0.61900045040 0.80007295886 0.40272494027 0.61072371228 0.81840451506 0.51958337518 0.60816052350 0.81813017940 0.50699575131 0.60624142627 0.81785413556 0.49408640778 0.60496651683 0.81757683614 0.48094658079 0.60433589145 0.81729873374 0.46766750654 0.60434964634 0.81702028095 0.45434042122 0.60500787777 0.81674193037 0.44105656102 0.60631068197 0.81646413460 0.42790716214 0.60825815519 0.81618734622 0.41498346077 0.61085039367 0.81591201785 0.40237669312 0.60132397436 0.83436301406 0.51921156485 0.59875562044 0.83407729730 0.50662178606 0.59683373685 0.83378877711 0.49371086496 0.59555849851 0.83349821783 0.48057005740 0.59493008035 0.83320638376 0.46729061919 0.59494865732 0.83291403923 0.45396380615 0.59561440433 0.83262194857 0.44068087413 0.59692749632 0.83233087610 0.42753307893 0.59888810821 0.83204158613 0.41461167639 0.60149641495 0.83175484299 0.40200792234 0.59072296600 0.85031683678 0.51881907346 0.58814929361 0.85002068770 0.50622714151 0.58622464517 0.84972063170 0.49331463067 0.58494924061 0.84941774942 0.48017282312 0.58432329988 0.84911312150 0.46689300108 0.58434704292 0.84880782857 0.45356644673 0.58502068966 0.84850295127 0.44028444229 0.58634446006 0.84819957024 0.42713826995 0.58831857405 0.84789876611 0.41421921191 0.59094325158 0.84760161952 0.40161855038 0.57892598952 0.86626591566 0.51840605922 0.57634791891 0.86596021139 0.50581189268 0.57442130859 0.86564955481 0.49289775151 0.57314639329 0.86533532972 0.47975493362 0.57252340772 0.86501891990 0.46647473696 0.57255258659 0.86470170915 0.45314845946 0.57323416463 0.86438508127 0.43986739905 0.57456837655 0.86407042003 0.42672285366 0.57655545707 0.86375910924 0.41380612123 0.57919564091 0.86345253268 0.40120849969 0.56593834725 0.88221018314 0.51797268034 0.56335787222 0.88189572917 0.50537611458 0.56143088446 0.88157540194 0.49246027411 0.56015760667 0.88125085751 0.47931644457 0.55953826155 0.88092375191 0.46603591160 0.55957307179 0.88059574118 0.45270996085 0.56026226008 0.88026848135 0.43942987794 0.56160604914 0.87994362848 0.42628694852 0.56360466164 0.87962283858 0.41337245823 0.56625832029 0.87930776772 0.40077769271 0.55176534152 0.89814957165 0.51751909504 0.54918552943 0.89782710182 0.50491988221 0.54726053012 0.89749802859 0.49200224510 0.54599053089 0.89716423159 0.47885741164 0.54537571906 0.89682759046 0.46557660976 0.54541628196 0.89648998483 0.45225106740 0.54611240689 0.89615329433 0.43897201250 0.54746428117 0.89581939858 0.42583067299 0.54947209213 0.89549017721 0.41291827680 0.55213602707 0.89516750986 0.40032605188 0.58552165411 0.75456742753 0.51931501728 0.57758070559 0.75435181531 0.50722253532 0.57162321620 0.75413083984 0.49471101070 0.56764903192 0.75390589255 0.48189800398 0.56565799872 0.75367836484 0.46890107567 0.56564996258 0.75344964812 0.45583778635 0.56762476947 0.75322113382 0.44282569653 0.57158226537 0.75299421334 0.42998236677 0.57752229625 0.75277027809 0.41742535761 0.58544470810 0.75255071949 0.40527222959 0.58100678989 0.77054921827 0.51900868697 0.57307535709 0.77031768921 0.50690984038 0.56712555111 0.77007942170 0.49439390576 0.56315742196 0.76983620777 0.48157829447 0.56117101964 0.76958983944 0.46858041786 0.56116639416 0.76934210872 0.45551768728 0.56314359554 0.76909480763 0.44250751409 0.56710267377 0.76884972820 0.42966730963 0.57304367887 0.76860866244 0.41711448527 0.58096666085 0.76837340236 0.40496645234 0.57517609716 0.78652508794 0.51867906549 0.56723994778 0.78627886500 0.50657394450 0.56128747929 0.78602448438 0.49405355221 0.55731887056 0.78576415244 0.48123521206 0.55533430045 0.78550007554 0.46823624750 0.55533394785 0.78523446007 0.45517398199 0.55731799163 0.78496951239 0.44216573896 0.56128661067 0.78470743887 0.42932884187 0.56723998384 0.78445044588 0.41678061417 0.57517829002 0.78420073979 0.40463837930 0.56805710299 0.80249503046 0.51832665259 0.56010539603 0.80223527937 0.50621534516 0.55414241291 0.80196595882 0.49369047191 0.55016839641 0.80168968873 0.48086931567 0.54818358926 0.80140908900 0.46786915932 0.54818823424 0.80112677954 0.45480728570 0.55018257410 0.80084538027 0.44180097767 0.55416685161 0.80056751109 0.42896751809 0.56014130951 0.80029579192 0.41642418980 0.56810619058 0.80003284266 0.40428827567 0.55967733445 0.81845903977 0.51795194806 0.55170262019 0.81818686897 0.50583453985 0.54572376416 0.81790377596 0.49330518671 0.54174101822 0.81761277883 0.48048116424 0.53975463420 0.81731689565 0.46747974803 0.53976486394 0.81701914450 0.45441821367 0.54177195930 0.81672254347 0.44141383677 0.54577617212 0.81643011063 0.42858389290 0.55177775423 0.81614486408 0.41604565767 0.55977695749 0.81586982187 0.40391640667 0.55006431864 0.83441710980 0.51755545167 0.54206253864 0.83413357048 0.50543202604 0.53606494522 0.83383786674 0.49289821848 0.53207175470 0.83353338492 0.48007131669 0.53008318338 0.83322351134 0.46706860835 0.53009944757 0.83291163232 0.45400738115 0.53212076359 0.83260113418 0.44100492277 0.53614734775 0.83229540325 0.42817852092 0.54217941636 0.83199782585 0.41564546327 0.55021718574 0.83171178830 0.40352303751 0.53924558261 0.85036923448 0.51713766320 0.53121606975 0.85007532055 0.50500830121 0.52519936828 0.84976816209 0.49247008906 0.52119562456 0.84945146918 0.47964033194 0.51920498492 0.84912895191 0.46663633498 0.51922759573 0.84880432035 0.45357540336 0.52126360332 0.84848128458 0.44057484223 0.52531315405 0.84816355469 0.42775195675 0.53137639426 0.84785484075 0.41522405208 0.53945347029 0.84755885284 0.40310843338 0.52724865345 0.86631540775 0.51669908242 0.51919413188 0.86601205586 0.50456386283 0.51316044551 0.86569459295 0.49202132032 0.50914764649 0.86536699380 0.47918876892 0.50715578696 0.86503323321 0.46618352266 0.50718491903 0.86469728597 0.45312289557 0.50923509485 0.86436312687 0.44012420168 0.51330636655 0.86403473071 0.42730475502 0.51939878627 0.86371607228 0.41478186961 0.52751240613 0.86341112638 0.40267285950 0.51410105825 0.88225562352 0.51624020911 0.50602764340 0.88194371308 0.50409920840 0.49998158911 0.88161709026 0.49155243411 0.49596283922 0.88127992096 0.47871718657 0.49397133760 0.88093637108 0.46571076609 0.49400702808 0.88059060654 0.45265047301 0.49606985454 0.88024679323 0.43965360765 0.50015976081 0.87990909707 0.42683747032 0.50627669075 0.87958168395 0.41431936136 0.51442058822 0.87926871980 0.40221658108 0.49983032406 0.89818987574 0.51576154304 0.49174752268 0.89787022888 0.50361483538 0.48569621124 0.89753558495 0.49106395228 0.48167622144 0.89719021283 0.47822614380 0.47968738496 0.89683838137 0.46521866000 0.47972953349 0.89648435942 0.45215875093 0.48180249873 0.89613241585 0.43916366667 0.48590611235 0.89578681952 0.42635065727 0.49204020606 0.89545183928 0.41383697280 0.50020461153 0.89513174399 0.40173986332 0.53738623843 0.75458587318 0.51620874099 0.52331719062 0.75438658562 0.50508103112 0.51275997967 0.75416945825 0.49334770160 0.50571544523 0.75393928250 0.48117835714 0.50218442692 0.75370084981 0.46874260248 0.50216776438 0.75345895161 0.45621004234 0.50566629724 0.75321837933 0.44375028145 0.51268086513 0.75298392439 0.43153292453 0.52321230767 0.75276037824 0.41972757631 0.53726146451 0.75255253230 0.40850384152 0.53289568086 0.77057031447 0.51587956947 0.51883863508 0.77035624838 0.50473967160 0.50829195952 0.77012133296 0.49299750411 0.50125635619 0.76987125079 0.48082255356 0.49773252709 0.76961168442 0.46838430648 0.49772117423 0.76934831642 0.45585224944 0.50122299962 0.76908682935 0.44339586897 0.50823870527 0.76883290577 0.43118465164 0.51876899318 0.76859222824 0.41938808398 0.53281456536 0.76837047933 0.40817565255 0.52700104172 0.78654676649 0.51552523563 0.51293077740 0.78631867607 0.50437313435 0.50237601675 0.78606737980 0.49262203897 0.49533726753 0.78579926717 0.48044136172 0.49181503752 0.78552072770 0.46800051480 0.49180983449 0.78523815091 0.45546891045 0.49532216620 0.78495792632 0.44301596088 0.50235254042 0.78468644344 0.43081107832 0.51290146494 0.78443009178 0.41902367498 0.52696944750 0.78419526086 0.40782316310 0.51975093803 0.80251544848 0.51514669595 0.50564826273 0.80227412909 0.50398249498 0.49507124514 0.80200784442 0.49222248711 0.48802015835 0.80172352194 0.48003604462 0.48449527544 0.80142808912 0.46759253984 0.48449686948 0.80112847342 0.45506134505 0.48802521355 0.80083160230 0.44261183256 0.49508058073 0.80054440322 0.43041337467 0.50566324410 0.80027380364 0.41863534368 0.51977347673 0.80002673104 0.40744711190 0.51119398679 0.81847657971 0.51474490693 0.49704573622 0.81822286778 0.50356882910 0.48643673851 0.81794297249 0.49180002944 0.47936700777 0.81764420542 0.47960786528 0.47583655808 0.81733387815 0.46716169399 0.47584540355 0.81701930226 0.45463087291 0.47939355826 0.81670778931 0.44218475939 0.48648103633 0.81640665090 0.42999271078 0.49710785184 0.81612319860 0.41822408444 0.51127401888 0.81586474399 0.40704823771 0.50137880501 0.83443037942 0.51432082506 0.48717784303 0.83416515253 0.50313321233 0.47653159066 0.83387300969 0.49135584690 0.46943979487 0.83356150792 0.47915808670 0.46590220266 0.83323820426 0.46670928966 0.46591856101 0.83291065574 0.45417881371 0.46948861691 0.83258641941 0.44173601676 0.47661211734 0.83227305230 0.42955025676 0.48728880930 0.83197811144 0.41779089162 0.50151843977 0.83170915388 0.40662727926 0.49035400970 0.85037706686 0.51387540682 0.47609922833 0.85010124371 0.50267672026 0.46541489539 0.84979820166 0.49089112042 0.45830049878 0.84947561972 0.47868797189 0.45475552641 0.84914117690 0.46623663926 0.45477946620 0.84880255221 0.45370648712 0.45837180607 0.84846742464 0.44126688007 0.46553203391 0.84814347322 0.42908718269 0.47625963766 0.84783837695 0.41733675958 0.49055410521 0.84755981483 0.40618497532 0.47816821787 0.86631686129 0.51340960870 0.46386453727 0.86603140169 0.50220042851 0.45314574650 0.86571879409 0.49040703093 0.44601109858 0.86538673116 0.47819878385 0.44245984655 0.86504290556 0.46574505519 0.44249124345 0.86469500996 0.45321521284 0.44610454231 0.86435073704 0.44077862470 0.45329899617 0.86401777946 0.42860465869 0.46407385806 0.86370382988 0.41686268269 0.47842838101 0.86341658099 0.40572206462 0.46487004653 0.88224998196 0.51292438720 0.45052841501 0.88195588684 0.50170541269 0.43978323779 0.88163503263 0.48990475935 0.43263357339 0.88129503252 0.47769178559 0.42907848032 0.88094349969 0.46523584984 0.42911701709 0.88058804734 0.45270631052 0.43274824223 0.88023628865 0.44027252604 0.43997121425 0.87989583682 0.42810385483 0.45078499167 0.87957430504 0.41636965532 0.46518863300 0.87927930650 0.40523928592 0.45050811268 0.89817664811 0.51242069879 0.43614550671 0.89787495954 0.50119274842 0.42538646308 0.89754716296 0.48938548663 0.41822990231 0.89720071412 0.47716824013 0.41467474493 0.89684306877 0.46471033563 0.41471991145 0.89648168265 0.45218109984 0.41836432239 0.89612401152 0.43974985947 0.42560689829 0.89577751112 0.42758594123 0.43644655965 0.89544963720 0.41585867182 0.45088222700 0.89514784551 0.40473737795 0.49349526813 0.75457620964 0.51154103231 0.47204321214 0.75441010858 0.50185720767 0.45594344822 0.75420638542 0.49128854026 0.44519861631 0.75397526342 0.48008275357 0.43981135636 0.75372696586 0.46848757107 0.43978430831 0.75347171601 0.45675071622 0.44512011212 0.75321973715 0.44511991249 0.45582140772 0.75298125256 0.43384288337 0.47189083506 0.75276648550 0.42316735231 0.49333103408 0.75258565926 0.41334104278 0.48902537852 0.77055986809 0.51118446058 0.46758674697 0.77038149812 0.50147931729 0.45150061900 0.77016012774 0.49089494376 0.44076873342 0.76990759595 0.47967896211 0.43539282902 0.76963574175 0.46807899449 0.43537464460 0.76935640412 0.45634266304 0.44071591894 0.76908142208 0.44471758990 0.45141839086 0.76882263461 0.43345139722 0.46748379914 0.76859188072 0.42279170712 0.48891388258 0.76840099940 0.41298614176 0.48307153340 0.78653283901 0.51080116992 0.46160807722 0.78634187228 0.50107486444 0.44550696542 0.78610449173 0.49047485330 0.43476906757 0.78583358966 0.47924868560 0.42939525328 0.78554205837 0.46764391047 0.42938639213 0.78524279016 0.45590807700 0.43474335372 0.78494867735 0.44428873431 0.44546700763 0.78467261222 0.43303343150 0.46155822347 0.78442748708 0.42238971768 0.48301787081 0.78422619423 0.41260514195 0.47570153948 0.80249578436 0.51039269007 0.45418420819 0.80229214889 0.50064565599 0.43804630410 0.80204035988 0.49003028886 0.42728787949 0.80175388242 0.47879408859 0.42190898666 0.80144618163 0.46718455509 0.42190967792 0.80113072260 0.45544918825 0.42729000554 0.80082097045 0.44383548798 0.43805002184 0.80053039028 0.43259095416 0.45418977909 0.80027244719 0.42196308672 0.47570932960 0.80006060629 0.41219938554 0.46698320344 0.81844936608 0.50996055076 0.44539214514 0.81823324578 0.50019349882 0.42920245167 0.81796861469 0.48956327042 0.41841342990 0.81766911213 0.47831733561 0.41302438671 0.81734837742 0.46670316443 0.41303462896 0.81702004990 0.45496822693 0.41844346353 0.81669776888 0.44335999316 0.42925019728 0.81639517370 0.43212593316 0.44545413708 0.81612590368 0.42151351700 0.46705458980 0.81590359816 0.41177021471 0.45698433197 0.83439424611 0.50950628170 0.43530889334 0.83416608077 0.49972019983 0.41905922477 0.83389013866 0.48907581797 0.40823397955 0.83357991666 0.47782059119 0.40283181096 0.83324891165 0.46620197456 0.40285137228 0.83291062052 0.45446742318 0.40829131678 0.83257854014 0.44286439211 0.41915029775 0.83226616740 0.43164033645 0.43542696847 0.83198699918 0.42104271126 0.45711998221 0.83175453238 0.41131897164 0.44577273175 0.85033108640 0.50903141262 0.42401145805 0.85009157169 0.49922756591 0.40770044003 0.84980581430 0.48856995148 0.39683778917 0.84948693391 0.47730601986 0.39142161695 0.84914805022 0.46568322157 0.39145003487 0.84880228292 0.45394900714 0.39692115441 0.84846275171 0.44235082710 0.40783308707 0.84814257628 0.43113613196 0.42418394433 0.84785487631 0.42055237226 0.44597183769 0.84761277150 0.41084699851 0.43341620946 0.86626054891 0.50853747325 0.41157684457 0.86601063636 0.49871740392 0.39520991408 0.86571652409 0.48804769092 0.38431311947 0.86539080175 0.47677578615 0.37888416220 0.86504605903 0.46514914153 0.37892074373 0.86469488559 0.45341520897 0.38442056552 0.86434987111 0.44182144038 0.39538132903 0.86402360525 0.43061528766 0.41180073572 0.86372867769 0.42004420274 0.43367648706 0.86347767810 0.41035563751 0.41998257181 0.88218329558 0.50802599330 0.39808205814 0.88192419261 0.49819152076 0.38167146355 0.88162315053 0.48751105628 0.37074823121 0.88129215807 0.47623205461 0.36530980426 0.88094320398 0.46460197053 0.36535362588 0.88058827697 0.45286825881 0.37087713921 0.88023936581 0.44127837421 0.38187778743 0.87990845922 0.43007977150 0.39835301369 0.87960754594 0.41951990545 0.42030026115 0.87934861472 0.40984623082 0.40553962546 0.89809998835 0.50749850251 0.38360410405 0.89783315827 0.49765172332 0.36716890508 0.89752657614 0.48696206753 0.35623138510 0.89719164076 0.47567698976 0.35078890066 0.89683975096 0.46404394464 0.35083880831 0.89648230555 0.45231038680 0.35637846461 0.89613070332 0.44072377085 0.36740522608 0.89579634310 0.42953155142 0.38391644930 0.89549062369 0.41898118313 0.40590949080 0.89522494391 0.40932012062 0.45554634532 0.75453420190 0.50531111073 0.42495414706 0.75442096491 0.49754946604 0.40199176521 0.75424156185 0.48853126255 0.38666472972 0.75401409633 0.47860843519 0.37897857051 0.75375667198 0.46813291887 0.37893881753 0.75348739244 0.45745664850 0.38655100071 0.75322436132 0.44693155900 0.40182064998 0.75298568226 0.43690958529 0.42475329527 0.75278945888 0.42774266228 0.45535446653 0.75265379480 0.41978272489 0.45109230832 0.77051282252 0.50492203568 0.42051367462 0.77039140628 0.49712577988 0.39756841581 0.77019526589 0.48808195228 0.38225985131 0.76994510760 0.47814237597 0.37459130056 0.76966163769 0.46765887402 0.37456608298 0.76936556240 0.45698326949 0.38218751802 0.76907758800 0.44646738547 0.39745892509 0.76881842074 0.43646304503 0.42038362363 0.76860876688 0.42732207124 0.45096493307 0.76846933267 0.41939628718 0.44508610441 0.78647735038 0.50450520805 0.41446688091 0.78634557477 0.49667508575 0.39149770941 0.78613455610 0.48760615570 0.37617991307 0.78586643807 0.47765014810 0.36851481505 0.78556336438 0.46715879314 0.36850373853 0.78524747870 0.45648382103 0.37614800665 0.78494092474 0.44597696198 0.39144894258 0.78466584619 0.43598994616 0.41440786949 0.78444438675 0.42687450380 0.44502611054 0.78429869010 0.41898236507 0.43761206427 0.80242916103 0.50406284870 0.40691121364 0.80228546533 0.49620007245 0.38388684111 0.80206135676 0.48710690794 0.36853850799 0.80177944738 0.47713501170 0.36086577558 0.80146234928 0.46663604025 0.36086820519 0.80113267454 0.45596165012 0.36854535813 0.80081303523 0.44546349783 0.38389679569 0.80052604345 0.43549323990 0.40692207919 0.80029431126 0.42640253285 0.43762076992 0.80014045075 0.41854303320 0.42875451857 0.81836963007 0.50359717849 0.39794412052 0.81821307293 0.49570342876 0.37484300600 0.81797759210 0.48658724414 0.35944922906 0.81768549514 0.47660022691 0.35176084372 0.81735908963 0.46609397936 0.35177590402 0.81702068311 0.45542010375 0.35949246398 0.81669258316 0.44493020235 0.37490857764 0.81639709733 0.43497587744 0.39802229902 0.81615653320 0.42590873129 0.42883168216 0.81599319831 0.41808036619 0.41859779800 0.83430013306 0.50311041828 0.38766304926 0.83413039250 0.49518784347 0.36447339918 0.83388518638 0.48605019944 0.34902566927 0.83358594101 0.47604905388 0.34131668105 0.83325408266 0.46553597446 0.34134325603 0.83291103762 0.45486252889 0.34910221572 0.83257823220 0.44438028484 0.36459038165 0.83227709267 0.43444080999 0.38780457531 0.83202904533 0.42539567204 0.41874161824 0.83185551647 0.41759643867 0.40722623323 0.85022204557 0.50260478891 0.37616544759 0.85003941899 0.49465600537 0.35288521575 0.84978606387 0.48549880898 0.33738142162 0.84948214460 0.47548475272 0.32964994915 0.84914782560 0.46496538958 0.32968668226 0.84880327128 0.45429227255 0.33748750488 0.84846864604 0.44381695461 0.35304830095 0.84816411430 0.43389098876 0.37636495438 0.84790984045 0.42486592799 0.40743334912 0.84772598891 0.41709332528 0.39472415494 0.86613674320 0.50208251124 0.36354876322 0.86594214737 0.49411060325 0.34018565079 0.86568214880 0.48493610790 0.32463007910 0.86537546556 0.47491058358 0.31687730960 0.86504081570 0.46438558871 0.31692260374 0.86469691728 0.45371268170 0.32476122298 0.86436248838 0.44324342098 0.34038842876 0.86405624704 0.43332936495 0.36379948254 0.86379691133 0.42432207203 0.39498964577 0.86360319930 0.41657310064 0.38117589380 0.88204560150 0.50154580612 0.34991044386 0.88184057257 0.49355432591 0.32648189941 0.88157536544 0.48436513133 0.31088523470 0.88126726351 0.47432980658 0.30311542398 0.88093355017 0.46379993586 0.30316744151 0.88059150883 0.45312710335 0.31103626153 0.88025842288 0.44266289326 0.32671685831 0.87995157572 0.43275888977 0.35020420610 0.87968825074 0.42376667708 0.38149327915 0.87948573134 0.41603783939 0.36666578049 0.89794999606 0.50099689442 0.33534793723 0.89773668954 0.49298986212 0.31188115670 0.89746763803 0.48378891441 0.29626048141 0.89715889809 0.47374568187 0.28848095387 0.89682652627 0.46321179503 0.28853761659 0.89648657913 0.45253888448 0.29642551207 0.89615511325 0.44207858075 0.31213968284 0.89584818517 0.43218251442 0.33567517139 0.89558185147 0.42320231604 0.36702702024 0.89537216869 0.41548961616 </DataArray>
</Points>
</Piece>
</StructuredGrid>
</VTKFile>
