<?xml version="1.0"?>
<VTKFile type="StructuredGrid" version="0.1">
<StructuredGrid WholeExtent="0 9 0 9 0 9">
<Piece Extent="0 9 0 9 0 9">
<PointData>
<DataArray type="Float32" Name="Deformation" format="ascii" NumberOfComponents="3">
-0.00061028152 -0.00664768653 0.06680934919 -0.00064549411 -0.01277230675 0.06802697655 -0.00067489092 -0.01795510803 0.06944581753 -0.00069931365 -0.02229082481 0.07101225483 -0.00071960397 -0.02587419157 0.07267267111 -0.00073660358 -0.02879994276 0.07437344906 -0.00075115416 -0.03116281284 0.07606097135 -0.00076409741 -0.03305753626 0.07768162066 -0.00077627501 -0.03457884750 0.07918177968 -0.00078852864 -0.03582148100 0.08050783107 -0.00067714502 -0.00703659153 0.06447997019 -0.00071795054 -0.01295219428 0.06600550637 -0.00075639146 -0.01796854117 0.06765765091 -0.00079227009 -0.02217554031 0.06939411670 -0.00082538873 -0.02566309981 0.07117261664 -0.00085554969 -0.02852112775 0.07295086363 -0.00088255527 -0.03083953226 0.07468657054 -0.00090620778 -0.03270822143 0.07633745029 -0.00092630953 -0.03421710336 0.07786121576 -0.00094266281 -0.03545608615 0.07921557985 -0.00072693964 -0.00719991142 0.06167987336 -0.00078840906 -0.01291994695 0.06355434968 -0.00084496451 -0.01778579954 0.06548074025 -0.00089648123 -0.02188141646 0.06742678544 -0.00094283443 -0.02529074501 0.06936022560 -0.00098389933 -0.02809773247 0.07124880109 -0.00101955115 -0.03038632612 0.07306025227 -0.00104966511 -0.03224047326 0.07476231951 -0.00107411644 -0.03374412117 0.07632274316 -0.00109278035 -0.03498121713 0.07770926359 -0.00076906198 -0.00717112830 0.05850801513 -0.00085768709 -0.01269235497 0.06074797569 -0.00093571336 -0.01741407108 0.06297122099 -0.00100370487 -0.02141170233 0.06515334907 -0.00106222571 -0.02476067440 0.06726995800 -0.00111183996 -0.02753641297 0.06929664581 -0.00115311171 -0.02981434373 0.07120901056 -0.00118660505 -0.03166989236 0.07298265030 -0.00121288405 -0.03317848455 0.07459316308 -0.00123251281 -0.03441554598 0.07601614694 -0.00081290864 -0.00698372430 0.05506335196 -0.00092660206 -0.01228620851 0.05766085362 -0.00102374126 -0.01686054374 0.06018522854 -0.00110569880 -0.02076964698 0.06261689564 -0.00117384722 -0.02407643518 0.06493627387 -0.00122955907 -0.02684382533 0.06712378216 -0.00127420689 -0.02913473439 0.06915983944 -0.00130916325 -0.03101207933 0.07102486464 -0.00133580068 -0.03253877713 0.07269927670 -0.00135549174 -0.03377774476 0.07416349455 -0.00086787620 -0.00667118150 0.05144484029 -0.00099597139 -0.01171829775 0.05436745269 -0.00110415151 -0.01613240547 0.05717889833 -0.00119422083 -0.01995849947 0.05986051319 -0.00126798361 -0.02324157457 0.06239363325 -0.00132724412 -0.02602662561 0.06475959450 -0.00137380662 -0.02835864740 0.06693973293 -0.00140947538 -0.03028263477 0.06891538451 -0.00143605465 -0.03184358254 0.07066788523 -0.00145534871 -0.03308648553 0.07217857107 -0.00094336127 -0.00626698203 0.04775143657 -0.00106661250 -0.01100541289 0.05094224212 -0.00117204737 -0.01523684420 0.05400836578 -0.00126102875 -0.01898150886 0.05692728974 -0.00133491954 -0.02225963978 0.05967649615 -0.00139508260 -0.02509146989 0.06223346720 -0.00144288083 -0.02749723208 0.06457568506 -0.00147967709 -0.02949715928 0.06668063189 -0.00150683428 -0.03111148439 0.06852578986 -0.00152571527 -0.03236044033 0.07008864116 -0.00104876043 -0.00580460798 0.04408209725 -0.00113934282 -0.01016434411 0.04745969113 -0.00122253211 -0.01418104789 0.05072976634 -0.00129788037 -0.01784192422 0.05386031334 -0.00136493964 -0.02113417803 0.05681932261 -0.00142326198 -0.02404501422 0.05957478462 -0.00147239943 -0.02656163773 0.06209468984 -0.00151190405 -0.02867125345 0.06434702874 -0.00154132788 -0.03036106631 0.06629979179 -0.00156022298 -0.03161828122 0.06792096946 -0.00119347029 -0.00531754146 0.04053577877 -0.00121497977 -0.00921188160 0.04399426893 -0.00125070902 -0.01297220448 0.04739923540 -0.00129653349 -0.01654299462 0.05070267203 -0.00134832858 -0.01986873652 0.05385657265 -0.00140196973 -0.02289391469 0.05681293113 -0.00145333236 -0.02556301364 0.05952374132 -0.00149829190 -0.02782051788 0.06194099706 -0.00153272377 -0.02961091192 0.06401669221 -0.00155250339 -0.03087868026 0.06570282062 -0.00138688743 -0.00483926458 0.03721143758 -0.00129434077 -0.00816481553 0.04062044476 -0.00125168137 -0.01161750191 0.04407290841 -0.00124874590 -0.01508796911 0.04749745383 -0.00127537100 -0.01846686247 0.05082270630 -0.00132139333 -0.02164482736 0.05397729110 -0.00137664955 -0.02451250914 0.05688983351 -0.00143097631 -0.02696055318 0.05948895882 -0.00147421027 -0.02887960485 0.06170329232 -0.00149618807 -0.03016030950 0.06346145929 -0.00055489506 -0.01544240680 0.06384094985 -0.00059252698 -0.01986556440 0.06520720207 -0.00062477271 -0.02365877150 0.06678314518 -0.00065252253 -0.02688181510 0.06852498691 -0.00067666673 -0.02959448218 0.07038893501 -0.00069809559 -0.03185655974 0.07233119723 -0.00071769939 -0.03372783475 0.07430798132 -0.00073636841 -0.03526809422 0.07627549502 -0.00075499295 -0.03653712513 0.07818994608 -0.00077446327 -0.03759471447 0.08000754225 -0.00060483197 -0.01560282693 0.06172331867 -0.00065221650 -0.01988365130 0.06330943767 -0.00069636934 -0.02356140376 0.06505215744 -0.00073742516 -0.02669325237 0.06691638481 -0.00077551864 -0.02933636522 0.06886702658 -0.00081078447 -0.03154791035 0.07086898957 -0.00084335731 -0.03338505585 0.07288718059 -0.00087337185 -0.03490496977 0.07488650646 -0.00090096276 -0.03616482020 0.07683187399 -0.00092626471 -0.03722177518 0.07868819000 -0.00064970923 -0.01556755315 0.05916885088 -0.00071736301 -0.01970921351 0.06100868765 -0.00077956419 -0.02327963170 0.06295089976 -0.00083646290 -0.02633192919 0.06496837765 -0.00088820928 -0.02891922743 0.06703401177 -0.00093495345 -0.03109464790 0.06912069256 -0.00097684555 -0.03291131204 0.07120131047 -0.00101403570 -0.03442234134 0.07324875593 -0.00104667403 -0.03568085724 0.07523591940 -0.00107491069 -0.03673998122 0.07713569131 -0.00069443948 -0.01534111739 0.05626442080 -0.00078650854 -0.01933872348 0.05837074439 -0.00086857627 -0.02280703470 0.06052985420 -0.00094124680 -0.02579250150 0.06272079121 -0.00100512423 -0.02834157435 0.06492259641 -0.00106081268 -0.03050070369 0.06711431075 -0.00110891626 -0.03231633998 0.06927497523 -0.00115003909 -0.03383493369 0.07138363082 -0.00118478528 -0.03510293525 0.07341931849 -0.00121375895 -0.03616679514 0.07536107922 -0.00074393538 -0.01492805158 0.05309690273 -0.00085819513 -0.01876865366 0.05546140024 -0.00095762460 -0.02213719211 0.05783950284 -0.00104338788 -0.02506962528 0.06021345128 -0.00111664908 -0.02760191148 0.06256548631 -0.00117857230 -0.02977000905 0.06487784869 -0.00123032162 -0.03160987631 0.06713277917 -0.00127306116 -0.03315747158 0.06931251850 -0.00130795501 -0.03444875320 0.07139930745 -0.00133616726 -0.03551967949 0.07337538675 -0.00080310957 -0.01433288766 0.04975317098 -0.00093096481 -0.01799547648 0.05234644759 -0.00104092817 -0.02126368330 0.05493032778 -0.00113449719 -0.02415795648 0.05748618365 -0.00121316944 -0.02669874436 0.05999538732 -0.00127844247 -0.02890649530 0.06243931093 -0.00133181382 -0.03080165766 0.06479932657 -0.00137478105 -0.03240467980 0.06705680638 -0.00140884172 -0.03373601006 0.06919312246 -0.00143549337 -0.03481609681 0.07118964694 -0.00087687471 -0.01356015757 0.04632009988 -0.00100335961 -0.01701566441 0.04909167881 -0.00111270598 -0.02018008764 0.05185281107 -0.00120618576 -0.02305215105 0.05457881409 -0.00128507090 -0.02563057849 0.05724500526 -0.00135063334 -0.02791409376 0.05982670200 -0.00140414502 -0.02990142069 0.06229922172 -0.00144687790 -0.03159128310 0.06463788182 -0.00148010392 -0.03298240481 0.06681799972 -0.00150509503 -0.03407350965 0.06881489281 -0.00097014344 -0.01261439322 0.04288456373 -0.00107392157 -0.01582568989 0.04576288625 -0.00116717705 -0.01887998448 0.04865743481 -0.00125006463 -0.02174686498 0.05153116840 -0.00132273904 -0.02439591940 0.05434704596 -0.00138535506 -0.02679673575 0.05706802648 -0.00143806741 -0.02891890204 0.05965706891 -0.00148103085 -0.03073200626 0.06207713223 -0.00151440013 -0.03220563644 0.06429117540 -0.00153833000 -0.03330938056 0.06626215739 -0.00108782841 -0.01150012657 0.03953343685 -0.00114119272 -0.01442202537 0.04242586229 -0.00119856038 -0.01735695319 0.04539468108 -0.00125774482 -0.02023675420 0.04838307235 -0.00131655947 -0.02299327261 0.05133421524 -0.00137281777 -0.02555835259 0.05419128889 -0.00142433315 -0.02786383834 0.05689747242 -0.00146891903 -0.02984157405 0.05939594498 -0.00150438885 -0.03142340390 0.06162988570 -0.00152855604 -0.03254117209 0.06354247371 -0.00123484228 -0.01022188954 0.03635359355 -0.00120371509 -0.01280114329 0.03914639931 -0.00120107496 -0.01560457313 0.04211503195 -0.00122083737 -0.01851647469 0.04517435175 -0.00125691778 -0.02142114363 0.04823921894 -0.00130323164 -0.02420287561 0.05122449379 -0.00135369442 -0.02674596626 0.05404503655 -0.00140222159 -0.02893471124 0.05661570746 -0.00144272859 -0.03065340619 0.05885136680 -0.00146913091 -0.03178634678 0.06066687480 -0.00050923373 -0.02388467173 0.06157241128 -0.00054779470 -0.02687719150 0.06303245323 -0.00058154964 -0.02948064270 0.06471478040 -0.00061140225 -0.03172941558 0.06658191360 -0.00063825622 -0.03365790040 0.06859637364 -0.00066301527 -0.03530048740 0.07072068133 -0.00068658309 -0.03669156684 0.07291735747 -0.00070986337 -0.03786552896 0.07514892287 -0.00073375983 -0.03885676401 0.07737789835 -0.00075917615 -0.03969966226 0.07956680471 -0.00054585253 -0.02388092557 0.05962563201 -0.00059704909 -0.02677924006 0.06123533378 -0.00064480332 -0.02930378091 0.06303154667 -0.00068942673 -0.03148800238 0.06498332377 -0.00073123083 -0.03336535871 0.06705971817 -0.00077052715 -0.03496930416 0.06922978296 -0.00080762720 -0.03633329296 0.07146257122 -0.00084284249 -0.03749077936 0.07372713604 -0.00087648455 -0.03847521762 0.07599253050 -0.00090886489 -0.03932006197 0.07822780769 -0.00058688370 -0.02371028167 0.05727654428 -0.00065816005 -0.02650987695 0.05906191559 -0.00072402675 -0.02895736009 0.06099678242 -0.00078475594 -0.03108370151 0.06305632283 -0.00084061974 -0.03291987163 0.06521571490 -0.00089189029 -0.03449684090 0.06745013669 -0.00093883971 -0.03584557974 0.06973476628 -0.00098174013 -0.03699705857 0.07204478174 -0.00102086367 -0.03798224783 0.07435536113 -0.00105648248 -0.03883211795 0.07664168252 -0.00063373739 -0.02336120831 0.05459753075 -0.00072773476 -0.02605662727 0.05656769063 -0.00081250074 -0.02843094045 0.05865408206 -0.00088860313 -0.03051024677 0.06083639381 -0.00095660974 -0.03232064514 0.06309431466 -0.00101708839 -0.03388823446 0.06540753337 -0.00107060688 -0.03523911364 0.06775573872 -0.00111773302 -0.03639938159 0.07011861948 -0.00115903462 -0.03739513722 0.07247586443 -0.00119507948 -0.03825247944 0.07480716234 -0.00068782377 -0.02282217377 0.05166097407 -0.00080238043 -0.02540701607 0.05380815083 -0.00090350608 -0.02771408221 0.05604703997 -0.00099218152 -0.02976137198 0.05835901972 -0.00106938761 -0.03156688519 0.06072546826 -0.00113610515 -0.03314862164 0.06312776382 -0.00119331498 -0.03452458111 0.06554728459 -0.00124199792 -0.03571276341 0.06796540878 -0.00128313480 -0.03673116833 0.07036351461 -0.00131770645 -0.03759779567 0.07272298027 -0.00075055300 -0.02208164636 0.04853925688 -0.00087870427 -0.02454856845 0.05083878813 -0.00099032357 -0.02679634558 0.05321925056 -0.00108670437 -0.02883081096 0.05565968357 -0.00116914012 -0.03065779778 0.05813912655 -0.00123892426 -0.03228313927 0.06063661889 -0.00129735026 -0.03371266861 0.06313119995 -0.00134571157 -0.03495221902 0.06560190915 -0.00138530164 -0.03600762371 0.06802778585 -0.00141741393 -0.03688471586 0.07038786946 -0.00082333522 -0.02112809434 0.04530476186 -0.00095331346 -0.02346880947 0.04771509447 -0.00106623403 -0.02566729078 0.05021430821 -0.00116338491 -0.02771229750 0.05277386840 -0.00124605406 -0.02959258888 0.05536524035 -0.00131552943 -0.03129692417 0.05795988941 -0.00137309900 -0.03281406261 0.06052928088 -0.00142005072 -0.03413276344 0.06304488009 -0.00145767256 -0.03524178591 0.06547815237 -0.00148725249 -0.03612988926 0.06780056304 -0.00090758060 -0.01994998602 0.04202987164 -0.00102281520 -0.02215526422 0.04449256180 -0.00112451826 -0.02431647801 0.04707580731 -0.00121343638 -0.02639956541 0.04973705720 -0.00129031620 -0.02837046445 0.05243376049 -0.00135590435 -0.03019511316 0.05512336622 -0.00141094744 -0.03183944955 0.05776332342 -0.00145619211 -0.03326941165 0.06031108112 -0.00149238498 -0.03445093748 0.06272408835 -0.00152027268 -0.03534996508 0.06495979414 -0.00100469930 -0.01853578969 0.03878696887 -0.00108381671 -0.02059545778 0.04122668207 -0.00115845705 -0.02273346750 0.04384734227 -0.00122807202 -0.02488634852 0.04658473301 -0.00129211334 -0.02699063049 0.04937463780 -0.00135003271 -0.02898284306 0.05215284017 -0.00140128186 -0.03079951589 0.05485512365 -0.00144531250 -0.03237717865 0.05741727174 -0.00148157632 -0.03365236099 0.05977506799 -0.00150952505 -0.03456159257 0.06186429590 -0.00111610147 -0.01687397362 0.03564843623 -0.00113292517 -0.01877691522 0.03797294720 -0.00116133120 -0.02090781947 0.04057250747 -0.00119850506 -0.02316638063 0.04335237883 -0.00124163224 -0.02545229295 0.04621782310 -0.00128789823 -0.02766525069 0.04907410209 -0.00133448852 -0.02970494810 0.05182647761 -0.00137858861 -0.03147107944 0.05438021147 -0.00141738400 -0.03286333897 0.05664056549 -0.00144806017 -0.03378142094 0.05851280146 -0.00046995882 -0.03207641405 0.05995347666 -0.00050903748 -0.03383516986 0.06147084066 -0.00054382751 -0.03539392154 0.06322256686 -0.00057523239 -0.03676859340 0.06517468569 -0.00060415558 -0.03797510975 0.06729322757 -0.00063150056 -0.03902939488 0.06954422294 -0.00065817079 -0.03994737310 0.07189370222 -0.00068506974 -0.04074496872 0.07430769586 -0.00071310089 -0.04143810603 0.07675223429 -0.00074316769 -0.04204270935 0.07919334792 -0.00049700366 -0.03195491218 0.05813512564 -0.00055031656 -0.03365400154 0.05975021996 -0.00060040728 -0.03515992033 0.06157692879 -0.00064763481 -0.03648891461 0.06358612031 -0.00069235812 -0.03765723043 0.06574866269 -0.00073493620 -0.03868111384 0.06803542410 -0.00077572804 -0.03957681089 0.07041727271 -0.00081509264 -0.04036056764 0.07286507668 -0.00085338896 -0.04104863014 0.07534970419 -0.00089097601 -0.04165724443 0.07784202342 -0.00053538424 -0.03169500337 0.05594606068 -0.00060873159 -0.03332402194 0.05767772466 -0.00067707653 -0.03477376187 0.05959738068 -0.00074068765 -0.03605924466 0.06168045622 -0.00079983349 -0.03719549180 0.06390237877 -0.00085478261 -0.03819752479 0.06623857581 -0.00090580358 -0.03908036512 0.06866447484 -0.00095316496 -0.03985903428 0.07115550333 -0.00099713530 -0.04054855378 0.07368708877 -0.00103798317 -0.04116394510 0.07623465866 -0.00058404837 -0.03127872232 0.05344409584 -0.00067934620 -0.03283216949 0.05529835722 -0.00076617015 -0.03422794901 0.05732023950 -0.00084499924 -0.03547791065 0.05948825218 -0.00091631252 -0.03659390416 0.06178090476 -0.00098058902 -0.03758777933 0.06417670672 -0.00103830780 -0.03847138590 0.06665416757 -0.00108994788 -0.03925657364 0.06919179679 -0.00113598830 -0.03995519232 0.07176810388 -0.00117690811 -0.04057909169 0.07436159833 -0.00064194383 -0.03068810374 0.05068704521 -0.00075722407 -0.03216538263 0.05265712006 -0.00086002300 -0.03351498460 0.05478182221 -0.00095117790 -0.03474323967 0.05704006696 -0.00103152603 -0.03585647782 0.05941076961 -0.00110190468 -0.03686102905 0.06187284547 -0.00116315110 -0.03776322334 0.06440520985 -0.00121610258 -0.03856939070 0.06698677804 -0.00126159638 -0.03928586111 0.06959646536 -0.00130046977 -0.03991896457 0.07221318710 -0.00070801844 -0.02990518232 0.04773272284 -0.00083742885 -0.03131059977 0.04979901562 -0.00095096999 -0.03262737151 0.05201844576 -0.00104983195 -0.03385355884 0.05436645930 -0.00113520485 -0.03498722308 0.05681850227 -0.00120827879 -0.03602642556 0.05935002070 -0.00127024388 -0.03696922758 0.06193646062 -0.00132229023 -0.03781369046 0.06455326807 -0.00136560793 -0.03855787551 0.06717588908 -0.00140138710 -0.03919984406 0.06977976967 -0.00078121998 -0.02891199277 0.04463894281 -0.00091502420 -0.03025475937 0.04676904633 -0.00103134599 -0.03155761257 0.04906642712 -0.00113156973 -0.03280719524 0.05149798798 -0.00121707980 -0.03399015025 0.05403063169 -0.00128926062 -0.03509312045 0.05663126105 -0.00134949655 -0.03610274871 0.05926677884 -0.00139917201 -0.03700567790 0.06190408785 -0.00143967137 -0.03778855089 0.06451009088 -0.00147237903 -0.03843801053 0.06705169071 -0.00086049625 -0.02769056978 0.04146351918 -0.00098507378 -0.02898479984 0.04361221462 -0.00109348589 -0.03029821065 0.04596208325 -0.00118699954 -0.03160247598 0.04846521176 -0.00126688171 -0.03286926961 0.05107368683 -0.00133439937 -0.03407026532 0.05373959517 -0.00139081951 -0.03517713686 0.05641502345 -0.00143740909 -0.03616155803 0.05905205837 -0.00147543510 -0.03699520259 0.06160278662 -0.00150616451 -0.03764974432 0.06401929490 -0.00094479506 -0.02622294806 0.03826426602 -0.00104264125 -0.02748765961 0.04037352293 -0.00112972456 -0.02884166859 0.04274173111 -0.00120672971 -0.03023772815 0.04529868940 -0.00127434138 -0.03162859149 0.04797419664 -0.00133324429 -0.03296701176 0.05069805169 -0.00138412315 -0.03420574215 0.05340005340 -0.00142766266 -0.03529753584 0.05601000061 -0.00146454753 -0.03619514599 0.05845769216 -0.00149546246 -0.03685132578 0.06067292691 -0.00103306420 -0.02449116230 0.03509899741 -0.00108279026 -0.02575027712 0.03709797370 -0.00113239691 -0.02718048924 0.03944168765 -0.00118136856 -0.02871127886 0.04202897965 -0.00122918965 -0.03027212617 0.04475869007 -0.00127534462 -0.03179251138 0.04752965927 -0.00131931789 -0.03320191470 0.05024072764 -0.00136059389 -0.03442981631 0.05279073554 -0.00139865706 -0.03540569643 0.05507852335 -0.00143299183 -0.03605903525 0.05700293144 -0.00043373161 -0.04011956650 0.05893388914 -0.00047399554 -0.04076748128 0.06049047500 -0.00051021215 -0.04137180794 0.06228834820 -0.00054329257 -0.04193431570 0.06429495392 -0.00057414794 -0.04245677374 0.06647773734 -0.00060368938 -0.04294095130 0.06880414365 -0.00063282800 -0.04338861756 0.07124161803 -0.00066247495 -0.04380154175 0.07375760565 -0.00069354135 -0.04418149307 0.07631955170 -0.00072693833 -0.04453024072 0.07889490137 -0.00045508232 -0.03990881147 0.05720001498 -0.00050988715 -0.04052297672 0.05882112147 -0.00056189510 -0.04109406971 0.06066941402 -0.00061140940 -0.04162511333 0.06271596116 -0.00065873332 -0.04211913049 0.06493183141 -0.00070417009 -0.04257914406 0.06728809329 -0.00074802298 -0.04300817696 0.06975581533 -0.00079059521 -0.04340925206 0.07230606606 -0.00083219005 -0.04378539228 0.07490991399 -0.00087311074 -0.04413962050 0.07753842765 -0.00049213205 -0.03958862464 0.05512050719 -0.00056700903 -0.04015373311 0.05681980601 -0.00063743786 -0.04068361420 0.05873168698 -0.00070358532 -0.04118106988 0.06083061306 -0.00076561817 -0.04164890210 0.06309104717 -0.00082370318 -0.04208991285 0.06548745225 -0.00087800712 -0.04250690409 0.06799429125 -0.00092869675 -0.04290267779 0.07058602711 -0.00097593885 -0.04328003592 0.07323712276 -0.00101990018 -0.04364178045 0.07592204115 -0.00054246505 -0.03914098070 0.05274086694 -0.00063932331 -0.03965145331 0.05452228695 -0.00072826790 -0.04014022104 0.05650466146 -0.00080966051 -0.04060846563 0.05866446166 -0.00088386282 -0.04105736882 0.06097815873 -0.00095123650 -0.04148811235 0.06342222389 -0.00101214323 -0.04190187797 0.06597312832 -0.00106694470 -0.04229984740 0.06860734323 -0.00111600258 -0.04268320240 0.07130133980 -0.00115967855 -0.04305312471 0.07403158923 -0.00060366556 -0.03854785436 0.05010659539 -0.00072079214 -0.03900784019 0.05196432264 -0.00082581269 -0.03946366987 0.05401783183 -0.00091947519 -0.03991358092 0.05624305901 -0.00100252761 -0.04035581087 0.05861594024 -0.00107571793 -0.04078859725 0.06111241158 -0.00113979413 -0.04121017756 0.06370840910 -0.00119550418 -0.04161878935 0.06637986884 -0.00124359606 -0.04201267014 0.06910272688 -0.00128481773 -0.04239005744 0.07185291927 -0.00067331784 -0.03779122031 0.04726319370 -0.00080537766 -0.03821459660 0.04918167141 -0.00092149967 -0.03865374030 0.05130069246 -0.00102286953 -0.03910269606 0.05359195716 -0.00111067287 -0.03955550848 0.05602716580 -0.00118609535 -0.04000622221 0.05857801869 -0.00125032262 -0.04044888188 0.06121621611 -0.00130454032 -0.04087753210 0.06391345838 -0.00134993410 -0.04128621752 0.06664144579 -0.00138768961 -0.04166898277 0.06937187863 -0.00074900614 -0.03685305325 0.04425616304 -0.00088704202 -0.03726342541 0.04621009160 -0.00100675632 -0.03771021198 0.04838273774 -0.00110968373 -0.03818209135 0.05073670817 -0.00119735894 -0.03866774188 0.05323460955 -0.00127131663 -0.03915584194 0.05583904857 -0.00133309150 -0.03963506989 0.05851263192 -0.00138421824 -0.04009410412 0.06121796627 -0.00142623153 -0.04052162298 0.06391765831 -0.00146066607 -0.04090630484 0.06657431471 -0.00082831471 -0.03571532790 0.04113100458 -0.00095974737 -0.03614602948 0.04308534154 -0.00107301010 -0.03663286453 0.04529346204 -0.00116975799 -0.03715804712 0.04770286407 -0.00125164614 -0.03770379129 0.05026104560 -0.00132032964 -0.03825231110 0.05291550461 -0.00137746358 -0.03878582060 0.05561373906 -0.00142470306 -0.03928653385 0.05830324694 -0.00146370317 -0.03973666490 0.06093152622 -0.00149611900 -0.04011842780 0.06344607486 -0.00090882780 -0.03436001894 0.03793321947 -0.00101745585 -0.03485411167 0.03984317957 -0.00111168847 -0.03542147758 0.04206235974 -0.00119293251 -0.03603684367 0.04451597693 -0.00126259482 -0.03667493694 0.04712924809 -0.00132208225 -0.03731048439 0.04982739016 -0.00137280167 -0.03791821300 0.05253562009 -0.00141615991 -0.03847284977 0.05517915482 -0.00145356383 -0.03894912171 0.05768321130 -0.00148642029 -0.03932175580 0.05997300647 -0.00098812966 -0.03276910108 0.03470830889 -0.00105412961 -0.03337937485 0.03651936403 -0.00111421889 -0.03407583076 0.03871892521 -0.00116904747 -0.03482476133 0.04120159879 -0.00121926530 -0.03559245907 0.04386199113 -0.00126552235 -0.03634521648 0.04659470859 -0.00130846857 -0.03704932606 0.04929435754 -0.00134875391 -0.03767108033 0.05185554434 -0.00138702835 -0.03817677180 0.05417287533 -0.00142394183 -0.03853269296 0.05614095690 -0.00039721341 -0.04811606182 0.05846339189 -0.00044040909 -0.04770210758 0.06005946687 -0.00047930936 -0.04738750183 0.06189396806 -0.00051486240 -0.04716154960 0.06393436907 -0.00054801643 -0.04701355591 0.06614814353 -0.00057971965 -0.04693282579 0.06850276507 -0.00061092026 -0.04690866424 0.07096570731 -0.00064256646 -0.04693037631 0.07350444388 -0.00067560646 -0.04698726700 0.07608644841 -0.00071098846 -0.04706864135 0.07867919451 -0.00041688549 -0.04782664819 0.05676851545 -0.00047362910 -0.04740120660 0.05841506358 -0.00052798063 -0.04707047676 0.06029011257 -0.00058011053 -0.04682572284 0.06236403305 -0.00063018926 -0.04665820902 0.06460719560 -0.00067838731 -0.04655919950 0.06698997085 -0.00072487511 -0.04651995846 0.06948272939 -0.00076982314 -0.04653175008 0.07205584184 -0.00081340187 -0.04658583856 0.07467967881 -0.00085578174 -0.04667348808 0.07732461089 -0.00045404831 -0.04745805187 0.05474299093 -0.00053092378 -0.04700109514 0.05645185078 -0.00060383506 -0.04664169426 0.05837869377 -0.00067277625 -0.04637168840 0.06049662857 -0.00073774145 -0.04618291673 0.06277876387 -0.00079872476 -0.04606721840 0.06519820833 -0.00085572026 -0.04601643258 0.06772807065 -0.00090872207 -0.04602239842 0.07034145949 -0.00095772427 -0.04607695510 0.07301148353 -0.00100272097 -0.04617194178 0.07571125144 -0.00050608007 -0.04699530470 0.05242459488 -0.00060564652 -0.04650058190 0.05419902262 -0.00069747741 -0.04610991723 0.05618368287 -0.00078181234 -0.04581488424 0.05835311754 -0.00085889091 -0.04560705651 0.06068186859 -0.00092895273 -0.04547800759 0.06314447794 -0.00099223740 -0.04541931105 0.06571548753 -0.00104898452 -0.04542254045 0.06836943929 -0.00109943370 -0.04547926935 0.07108087517 -0.00114382453 -0.04558107131 0.07382433709 -0.00057035896 -0.04642343849 0.04985110383 -0.00069115072 -0.04589847563 0.05168577326 -0.00079951243 -0.04548390857 0.05372905111 -0.00089617156 -0.04517074831 0.05595446188 -0.00098185558 -0.04495000584 0.05833553004 -0.00105729198 -0.04481269218 0.06084578008 -0.00112320822 -0.04474981832 0.06345873648 -0.00118033179 -0.04475239526 0.06614792374 -0.00122939015 -0.04481143400 0.06888686634 -0.00127111079 -0.04491794555 0.07164908876 -0.00064426317 -0.04572748505 0.04706029432 -0.00078078978 -0.04519358505 0.04894129683 -0.00090054488 -0.04477243118 0.05103876975 -0.00100480668 -0.04445471853 0.05332162348 -0.00109485338 -0.04423114220 0.05575876848 -0.00117196322 -0.04409239727 0.05831911516 -0.00123741440 -0.04402917884 0.06097157397 -0.00129248514 -0.04403218197 0.06368505532 -0.00133845365 -0.04409210178 0.06642846965 -0.00137659815 -0.04419963334 0.06917072739 -0.00072517089 -0.04489247621 0.04408994289 -0.00086791709 -0.04438471889 0.04599478749 -0.00099117950 -0.04398424796 0.04813681000 -0.00109667045 -0.04368223288 0.05047556427 -0.00118610225 -0.04346984307 0.05297060419 -0.00126118720 -0.04333824797 0.05558148362 -0.00132363764 -0.04327861704 0.05826775643 -0.00137516587 -0.04328211970 0.06098897651 -0.00141748422 -0.04333992539 0.06370469770 -0.00145230498 -0.04344320356 0.06637447390 -0.00081046032 -0.04390344379 0.04097782608 -0.00094588604 -0.04347068588 0.04287543938 -0.00106202106 -0.04312812182 0.04504714310 -0.00116071565 -0.04286872927 0.04743724615 -0.00124382009 -0.04268548590 0.04999005743 -0.00131318466 -0.04257136938 0.05264988585 -0.00137065963 -0.04251935737 0.05536104034 -0.00141809527 -0.04252242754 0.05806782978 -0.00145734186 -0.04257355754 0.06071456311 -0.00149024967 -0.04266572506 0.06324554922 -0.00089750965 -0.04274541959 0.03776172042 -0.00100805003 -0.04245029475 0.03961244665 -0.00110367429 -0.04221281564 0.04179374030 -0.00118589504 -0.04202964567 0.04422763102 -0.00125622485 -0.04189744819 0.04683614847 -0.00131617633 -0.04181288661 0.04954132229 -0.00136726205 -0.04177262428 0.05226518213 -0.00141099461 -0.04177332461 0.05492975764 -0.00144888659 -0.04181165095 0.05745707848 -0.00148245059 -0.04188426670 0.05976917429 -0.00098369707 -0.04140343546 0.03447940246 -0.00104776245 -0.04132235422 0.03623500344 -0.00110674397 -0.04124709234 0.03840057283 -0.00116116138 -0.04118042000 0.04086768081 -0.00121153446 -0.04112510741 0.04352789758 -0.00125838294 -0.04108392475 0.04627279333 -0.00130222660 -0.04105964222 0.04899393826 -0.00134358518 -0.04105503002 0.05158290255 -0.00138297844 -0.04107285833 0.05393125641 -0.00142092613 -0.04111589736 0.05593057002 -0.00035706550 -0.05616783273 0.05849172807 -0.00040601837 -0.05466703055 0.06014592692 -0.00044972495 -0.05341420313 0.06202127008 -0.00048922147 -0.05238526227 0.06408458189 -0.00052554418 -0.05155611978 0.06630268668 -0.00055972930 -0.05090268747 0.06864240878 -0.00059281306 -0.05040087715 0.07107057251 -0.00062583170 -0.05002660063 0.07355400221 -0.00065982145 -0.04975576971 0.07605952221 -0.00069581853 -0.04956429621 0.07855395684 -0.00037921012 -0.05579244704 0.05678884247 -0.00043941065 -0.05430373217 0.05849907154 -0.00049737774 -0.05305338917 0.06042013466 -0.00055309818 -0.05201986739 0.06252152270 -0.00060655877 -0.05118161616 0.06477272654 -0.00065774631 -0.05051708481 0.06714323707 -0.00070664757 -0.05000472270 0.06960254517 -0.00075324936 -0.04962297915 0.07212014170 -0.00079753848 -0.04935030350 0.07466551756 -0.00083950170 -0.04916514509 0.07720816362 -0.00041805421 -0.05537019146 0.05475661902 -0.00049840724 -0.05386819266 0.05653755013 -0.00057499246 -0.05260277920 0.05851739347 -0.00064758775 -0.05155361147 0.06066833800 -0.00071597100 -0.05070034985 0.06296257266 -0.00077992011 -0.05002265472 0.06537228639 -0.00083921297 -0.04950018648 0.06786966815 -0.00089362747 -0.04911260550 0.07042690687 -0.00094294151 -0.04883957217 0.07301619149 -0.00098693297 -0.04866074688 0.07560971098 -0.00047198608 -0.05488901559 0.05243203052 -0.00057629629 -0.05336565842 0.05428810703 -0.00067248207 -0.05207919823 0.05633363866 -0.00076068010 -0.05101013898 0.05854231517 -0.00084102707 -0.05013898462 0.06088782634 -0.00091365965 -0.04944623909 0.06334386193 -0.00097871453 -0.04891240635 0.06588411172 -0.00103632838 -0.04851799034 0.06848226547 -0.00108663790 -0.04824349501 0.07111201296 -0.00112977975 -0.04806942432 0.07374704395 -0.00053939403 -0.05433686901 0.04985204976 -0.00066636593 -0.05280137582 0.05177748661 -0.00077975955 -0.05149947127 0.05388946235 -0.00088036520 -0.05041309440 0.05616074158 -0.00096897320 -0.04952418424 0.05856408889 -0.00104637387 -0.04881467982 0.06107226889 -0.00111335751 -0.04826652017 0.06365804616 -0.00117071444 -0.04786164432 0.06629418530 -0.00121923498 -0.04758199130 0.06895345092 -0.00125970944 -0.04740950015 0.07160860760 -0.00061866636 -0.05370170130 0.04705364954 -0.00076190431 -0.05218059125 0.04903243323 -0.00088673787 -0.05088042335 0.05120545669 -0.00099463299 -0.04978612221 0.05354090460 -0.00108705562 -0.04888261248 0.05600696163 -0.00116547169 -0.04815481879 0.05857181245 -0.00123134717 -0.04758766577 0.06120364172 -0.00128614799 -0.04716607807 0.06387063413 -0.00133134010 -0.04687498032 0.06654097432 -0.00136838945 -0.04669929715 0.06918284699 -0.00070819139 -0.05297146205 0.04407380265 -0.00085619957 -0.05150855111 0.04607969123 -0.00098333000 -0.05023887947 0.04830221381 -0.00109147341 -0.04915286688 0.05070009161 -0.00118252053 -0.04824093310 0.05323204587 -0.00125836208 -0.04749349790 0.05585679782 -0.00132088879 -0.04690098103 0.05853306869 -0.00137199139 -0.04645380226 0.06121957972 -0.00141356061 -0.04614238134 0.06387505213 -0.00144748717 -0.04595713805 0.06645820716 -0.00080635740 -0.05213410084 0.04094948188 -0.00094253984 -0.05079050178 0.04294600499 -0.00105944891 -0.04959166465 0.04520032585 -0.00115887641 -0.04853697288 0.04765558998 -0.00124261415 -0.04762580987 0.05025494292 -0.00131245395 -0.04685755904 0.05294153020 -0.00137018763 -0.04623160378 0.05565849733 -0.00141760699 -0.04574732752 0.05834898986 -0.00145650385 -0.04540411366 0.06095615330 -0.00148867002 -0.04520134560 0.06342313318 -0.00091155272 -0.05117756727 0.03771766004 -0.00101421329 -0.05003168964 0.03965811885 -0.00110500757 -0.04895560392 0.04192038493 -0.00118483192 -0.04796208470 0.04442468708 -0.00125458270 -0.04706390657 0.04709125410 -0.00131515626 -0.04627384410 0.04984031478 -0.00136744895 -0.04560467189 0.05259209792 -0.00141235714 -0.04506916450 0.05526683232 -0.00145077717 -0.04468009654 0.05778474678 -0.00148360539 -0.04445024257 0.06006607010 -0.00102216563 -0.05008981091 0.03441530992 -0.00106450803 -0.04923736108 0.03624277718 -0.00110991895 -0.04834752229 0.03848298321 -0.00115732991 -0.04745184682 0.04102467028 -0.00120567240 -0.04658188696 0.04375658070 -0.00125387794 -0.04576919499 0.04656745675 -0.00130087803 -0.04504532319 0.04934604071 -0.00134560418 -0.04444182386 0.05198107487 -0.00138698790 -0.04399024926 0.05436130153 -0.00142396070 -0.04372215170 0.05637546297 -0.00030994918 -0.06437681197 0.05896864084 -0.00036856357 -0.06169023200 0.06071796577 -0.00042006473 -0.05942511174 0.06265209792 -0.00046564940 -0.05754042082 0.06473724317 -0.00050651433 -0.05599512886 0.06693960736 -0.00054385626 -0.05474820549 0.06922539637 -0.00057887194 -0.05375862032 0.07156081606 -0.00061275812 -0.05298534297 0.07391207229 -0.00064671154 -0.05238734309 0.07624537092 -0.00068192895 -0.05192359028 0.07852691781 -0.00033885318 -0.06389023276 0.05720921147 -0.00040510004 -0.06124559440 0.05904017062 -0.00046880031 -0.05900705465 0.06104059048 -0.00052973238 -0.05713667127 0.06317961685 -0.00058767467 -0.05559650203 0.06542639551 -0.00064240557 -0.05434860468 0.06775007227 -0.00069370348 -0.05335503698 0.07011979294 -0.00074134680 -0.05257785671 0.07250470330 -0.00078511393 -0.05197912161 0.07487394917 -0.00082478328 -0.05152088947 0.07719667633 -0.00038107094 -0.06339194981 0.05510449859 -0.00046739083 -0.06075711035 0.05704059521 -0.00054963438 -0.05852164620 0.05912677854 -0.00062734710 -0.05664935032 0.06133557659 -0.00070007447 -0.05510401565 0.06363951733 -0.00076736200 -0.05384943513 0.06601112876 -0.00082875519 -0.05284940171 0.06842293887 -0.00088379952 -0.05206770834 0.07084747565 -0.00093204051 -0.05146814796 0.07325726709 -0.00097302363 -0.05101451353 0.07562484119 -0.00043727572 -0.06286943464 0.05269992473 -0.00054925306 -0.06023278603 0.05474908297 -0.00065196529 -0.05799022473 0.05693086377 -0.00074548919 -0.05610720236 0.05922014985 -0.00082990155 -0.05454917055 0.06159182400 -0.00090527917 -0.05328158091 0.06402076894 -0.00097169883 -0.05226988507 0.06648186745 -0.00102923732 -0.05147953465 0.06895000226 -0.00107797143 -0.05087598126 0.07140005615 -0.00111797795 -0.05042467653 0.07380691186 -0.00050814078 -0.06231015879 0.05004091242 -0.00064450386 -0.05968062763 0.05219547739 -0.00076519135 -0.05743412855 0.05447304782 -0.00087115429 -0.05553897179 0.05684836412 -0.00096334372 -0.05396346756 0.05929616669 -0.00104271065 -0.05267592611 0.06179119594 -0.00111020613 -0.05164465765 0.06430819227 -0.00116678119 -0.05083797241 0.06682189608 -0.00121338686 -0.05022418063 0.06930704779 -0.00125097417 -0.04977159252 0.07173838780 -0.00059433938 -0.06170159379 0.04717288422 -0.00074696034 -0.05910864135 0.04940962193 -0.00087871090 -0.05687469602 0.05177353238 -0.00099133806 -0.05497340301 0.05423524685 -0.00108658879 -0.05337840753 0.05676539659 -0.00116621006 -0.05206335479 0.05933461286 -0.00123194886 -0.05100189002 0.06191352692 -0.00128555217 -0.05016765841 0.06447277004 -0.00132876696 -0.04953430518 0.06698297347 -0.00136334022 -0.04907547555 0.06941476848 -0.00069654480 -0.06103121118 0.04414126264 -0.00085043963 -0.05852483338 0.04642136004 -0.00098192228 -0.05633326545 0.04885251912 -0.00109303614 -0.05443924041 0.05139582552 -0.00118582458 -0.05282549127 0.05401236487 -0.00126233099 -0.05147475105 0.05666322283 -0.00132459875 -0.05036975276 0.05930948501 -0.00137467126 -0.04949322943 0.06191223707 -0.00141459189 -0.04882791406 0.06443256464 -0.00144640404 -0.04835653968 0.06683155336 -0.00081543028 -0.06028648247 0.04099147023 -0.00094875886 -0.05793720991 0.04326053519 -0.00106422382 -0.05583117519 0.04573020969 -0.00116324416 -0.05396522840 0.04834512758 -0.00124723890 -0.05233621962 0.05104992272 -0.00131762703 -0.05094099894 0.05378922895 -0.00137582756 -0.04977641645 0.05650768013 -0.00142325949 -0.04883932223 0.05914991012 -0.00146134182 -0.04812656638 0.06166055276 -0.00149149356 -0.04763499897 0.06398424192 -0.00095166911 -0.05945487922 0.03776892952 -0.00103573514 -0.05735377714 0.03995699086 -0.00111501384 -0.05538976357 0.04242680578 -0.00118895778 -0.05358011137 0.04509818052 -0.00125701957 -0.05194209341 0.04789092130 -0.00131865179 -0.05049298256 0.05072483434 -0.00137330703 -0.04925005167 0.05351972587 -0.00142043787 -0.04823057362 0.05619540211 -0.00145949691 -0.04745182126 0.05867166928 -0.00148993673 -0.04693106748 0.06086833362 -0.00110593454 -0.05852387294 0.03451906306 -0.00110518560 -0.05678254125 0.03654057049 -0.00112369067 -0.05503036891 0.03896250905 -0.00115717264 -0.05331263372 0.04167001179 -0.00120135441 -0.05167461347 0.04454821179 -0.00125195887 -0.05016158597 0.04748224211 -0.00130470891 -0.04881882899 0.05035723582 -0.00135532742 -0.04769162035 0.05305832598 -0.00139953732 -0.04682523784 0.05547064566 -0.00143306147 -0.04626495925 0.05747932792 -0.00025252573 -0.07284493227 0.05984387336 -0.00032578493 -0.06879969373 0.06174369405 -0.00038893452 -0.06539342761 0.06376829522 -0.00044342578 -0.06256199241 0.06588400365 -0.00049071000 -0.06024124669 0.06805714613 -0.00053223845 -0.05836704895 0.07025404945 -0.00056946241 -0.05687525774 0.07244104040 -0.00060383316 -0.05570173158 0.07458444577 -0.00063680198 -0.05478232900 0.07665059235 -0.00066982015 -0.05405290853 0.07860580692 -0.00029261164 -0.07220403008 0.05797783786 -0.00036856552 -0.06824183429 0.06000538609 -0.00044096220 -0.06489572090 0.06213259026 -0.00050937313 -0.06210525877 0.06432950222 -0.00057336977 -0.05981001676 0.06656617377 -0.00063252356 -0.05794956376 0.06881265675 -0.00068640595 -0.05646346862 0.07103900299 -0.00073458837 -0.05529130022 0.07321526431 -0.00077664229 -0.05437262743 0.07531149254 -0.00081213914 -0.05364701911 0.07729773950 -0.00034001969 -0.07159023329 0.05572973674 -0.00043580594 -0.06766993284 0.05792467717 -0.00052648516 -0.06435307242 0.06018584142 -0.00061138161 -0.06158141619 0.06248817956 -0.00068981954 -0.05929672830 0.06480664165 -0.00076112320 -0.05744077291 0.06711617776 -0.00082461687 -0.05595531418 0.06939173793 -0.00087962478 -0.05478211626 0.07160827224 -0.00092547120 -0.05386294333 0.07374073075 -0.00096148038 -0.05313955952 0.07576406352 -0.00039904163 -0.07098388311 0.05316502834 -0.00052249727 -0.06708806789 0.05554149325 -0.00063461046 -0.06378515738 0.05795169312 -0.00073546497 -0.06101904688 0.06037471692 -0.00082514462 -0.05873363169 0.06278965357 -0.00090373320 -0.05687280710 0.06517559203 -0.00097131452 -0.05538046841 0.06751162125 -0.00102797236 -0.05420051093 0.06977683016 -0.00107379053 -0.05327682995 0.07195030771 -0.00110885283 -0.05255332077 0.07401114284 -0.00047396921 -0.07036532070 0.05034917104 -0.00062363059 -0.06650031793 0.05289576029 -0.00075444513 -0.06321165098 0.05545378981 -0.00086763700 -0.06044673304 0.05800379551 -0.00096443037 -0.05815297732 0.06052631332 -0.00104604939 -0.05627779701 0.06300187916 -0.00111371825 -0.05476860532 0.06541102896 -0.00116866109 -0.05357281544 0.06773429864 -0.00121210210 -0.05263784056 0.06995222413 -0.00124526544 -0.05191109390 0.07204534135 -0.00056909418 -0.06971488728 0.04734762319 -0.00073419696 -0.06591076147 0.05002740426 -0.00087509624 -0.06265222841 0.05271577590 -0.00099391147 -0.05989305686 0.05539009656 -0.00109276211 -0.05758701558 0.05802772468 -0.00117376760 -0.05568787334 0.06060601872 -0.00123904740 -0.05414939889 0.06310233711 -0.00129072096 -0.05292536099 0.06549403830 -0.00133090773 -0.05196952841 0.06775848075 -0.00136172717 -0.05123566991 0.06987302290 -0.00068870829 -0.06901292401 0.04422584317 -0.00084918745 -0.06532347700 0.04697635112 -0.00098567083 -0.06212656488 0.04976129584 -0.00110030215 -0.05938660053 0.05254830130 -0.00119522518 -0.05706799686 0.05530499146 -0.00127258366 -0.05513516676 0.05799899027 -0.00133452133 -0.05355252311 0.06059792171 -0.00138318194 -0.05228447881 0.06306940973 -0.00142070924 -0.05129544676 0.06538107830 -0.00144924697 -0.05054983984 0.06750055138 -0.00083710330 -0.06823977209 0.04104928934 -0.00096359314 -0.06474254302 0.04378252683 -0.00107527594 -0.06165433558 0.04661399406 -0.00117282282 -0.05895594626 0.04949309095 -0.00125690493 -0.05662817156 0.05236921743 -0.00132819340 -0.05465180796 0.05519177340 -0.00138735939 -0.05300765198 0.05791015879 -0.00143507402 -0.05167650011 0.06047377352 -0.00147200845 -0.05063914885 0.06283201750 -0.00149883381 -0.04987639469 0.06493429065 -0.00101857095 -0.06737577270 0.03788342005 -0.00107240510 -0.06417203805 0.04048585734 -0.00113301862 -0.06125521574 0.04329751498 -0.00119748724 -0.05862967624 0.04623914674 -0.00126288667 -0.05629979005 0.04923150639 -0.00132629266 -0.05426992764 0.05219534769 -0.00138478092 -0.05254445950 0.05505142439 -0.00143542718 -0.05112775611 0.05772049026 -0.00147530718 -0.05002418794 0.06012329907 -0.00150149664 -0.04923812550 0.06218060458 -0.00123740299 -0.06640126704 0.03479369368 -0.00117061440 -0.06361604057 0.03712626862 -0.00114800593 -0.06094888053 0.03983550304 -0.00116030919 -0.05843637267 0.04280114990 -0.00119825576 -0.05611510273 0.04590296214 -0.00125257725 -0.05402165648 0.04902069270 -0.00131400527 -0.05219261965 0.05203409452 -0.00137327140 -0.05066457801 0.05482292056 -0.00142110725 -0.04947411730 0.05726692375 -0.00144824442 -0.04865782327 0.05924585705 -0.00018145646 -0.08167412637 0.06106716879 -0.00027542266 -0.07602339756 0.06319122241 -0.00035494013 -0.07129235063 0.06535170562 -0.00042183023 -0.06738494418 0.06751651411 -0.00047791433 -0.06420513677 0.06965354355 -0.00052501380 -0.06165688700 0.07173068961 -0.00056494998 -0.05964415345 0.07371584797 -0.00059954426 -0.05807089470 0.07557691431 -0.00063061799 -0.05684106934 0.07728178430 -0.00065999253 -0.05585863596 0.07879835363 -0.00023728246 -0.08081786371 0.05904293708 -0.00032767532 -0.07530749283 0.06136174319 -0.00041257728 -0.07068363561 0.06367724421 -0.00049138044 -0.06685475414 0.06596236554 -0.00056347691 -0.06372931049 0.06819003260 -0.00062825876 -0.06121576672 0.07033317082 -0.00068511810 -0.05922258491 0.07236470562 -0.00073344702 -0.05765822713 0.07425756240 -0.00077263761 -0.05643115545 0.07598466660 -0.00080208196 -0.05544983195 0.07751894362 -0.00029182165 -0.08003194831 0.05657544060 -0.00040158398 -0.07460874481 0.05915348716 -0.00050426912 -0.07005183503 0.06167357455 -0.00059901857 -0.06627232032 0.06411598217 -0.00068497385 -0.06318130199 0.06646098942 -0.00076127647 -0.06068988137 0.06868887572 -0.00082706795 -0.05870915980 0.07077992046 -0.00088148980 -0.05715023860 0.07271440305 -0.00092368354 -0.05592421910 0.07447260290 -0.00095279067 -0.05494220262 0.07603479940 -0.00035437645 -0.07927968225 0.05376409222 -0.00049400938 -0.07391760717 0.05662488065 -0.00061910098 -0.06940615688 0.05937246167 -0.00072983285 -0.06565864506 0.06199411168 -0.00082638655 -0.06258838544 0.06447710708 -0.00090894368 -0.06010869171 0.06680872428 -0.00097768582 -0.05813287759 0.06897623966 -0.00103279455 -0.05657425677 0.07096692964 -0.00107445145 -0.05534614296 0.07276807060 -0.00110283811 -0.05436184986 0.07436693896 -0.00043424932 -0.07852436762 0.05070830484 -0.00060181223 -0.07322453359 0.05383435001 -0.00074615821 -0.06875580911 0.05680567059 -0.00086891152 -0.06503473074 0.05961350175 -0.00097169641 -0.06197783501 0.06224907866 -0.00105613714 -0.05950165849 0.06470363649 -0.00112385799 -0.05752273773 0.06696841039 -0.00117648319 -0.05595760929 0.06903463555 -0.00121563703 -0.05472280971 0.07089354712 -0.00124294374 -0.05373487556 0.07253638027 -0.00054074270 -0.07772930649 0.04750749133 -0.00072185327 -0.07251997773 0.05084032158 -0.00087452614 -0.06810999973 0.05400496634 -0.00100134282 -0.06442157970 0.05699090006 -0.00110488481 -0.06137692487 0.05978759724 -0.00118773361 -0.05889824246 0.06238453233 -0.00125247073 -0.05690773971 0.06477117981 -0.00130167767 -0.05532762383 0.06693701416 -0.00133793593 -0.05408010205 0.06887150984 -0.00136382701 -0.05308738160 0.07056414132 -0.00068315904 -0.07685780095 0.04426106456 -0.00085099320 -0.07179439326 0.04770122170 -0.00099329010 -0.06747793669 0.05100211392 -0.00111221499 -0.06384019430 0.05414305428 -0.00120993315 -0.06081292917 0.05710335589 -0.00128860984 -0.05832790437 0.05986233179 -0.00135041034 -0.05631688297 0.06239929509 -0.00139749991 -0.05471162804 0.06469355885 -0.00143204383 -0.05344390265 0.06672443616 -0.00145620737 -0.05244546988 0.06847124009 -0.00087080077 -0.07587315308 0.04106843743 -0.00098609277 -0.07103823385 0.04447547672 -0.00109153543 -0.06686882798 0.04782887836 -0.00118661627 -0.06331157692 0.05108671209 -0.00127082282 -0.06031312210 0.05420704768 -0.00134364258 -0.05782010498 0.05714795486 -0.00140456309 -0.05577916700 0.05986750340 -0.00145307186 -0.05413694959 0.06232376302 -0.00148865641 -0.05284009420 0.06447480349 -0.00151080426 -0.05183524229 0.06627869455 -0.00111297034 -0.07473866497 0.03802902281 -0.00112401269 -0.07024195316 0.04122151297 -0.00115834747 -0.06629188157 0.04451702467 -0.00120963491 -0.06285672990 0.04783862117 -0.00127153521 -0.05990477782 0.05110936570 -0.00133770859 -0.05740430504 0.05425232153 -0.00140181527 -0.05532359124 0.05719055189 -0.00145751544 -0.05363091613 0.05984712004 -0.00149846934 -0.05229455939 0.06214508923 -0.00151833716 -0.05128280071 0.06400752270 -0.00141897020 -0.07341763869 0.03524223358 -0.00126161368 -0.06939600487 0.03799775680 -0.00118281155 -0.06575630545 0.04109831789 -0.00116635914 -0.06249665560 0.04441552918 -0.00119605173 -0.05961517049 0.04782100303 -0.00125568463 -0.05710996530 0.05118635176 -0.00132905315 -0.05497915518 0.05438318774 -0.00139995260 -0.05322085532 0.05728312329 -0.00145217828 -0.05183318088 0.05975777077 -0.00146952549 -0.05081424704 0.06167874251 </DataArray>
</PointData>
<Points>
<DataArray type="Float32" NumberOfComponents="3">
0.29568571848 0.33751931347 1.21006534919 0.30667523703 0.34060170834 1.24332151976 0.31523192115 0.34528001269 1.27169312617 0.32165976043 0.35122358260 1.29565225483 0.32626274445 0.35810177414 1.31567099210 0.32934486281 0.36558394339 1.33222142437 0.33121010510 0.37333944642 1.34577563802 0.33216246089 0.38103763932 1.35680571943 0.33250591978 0.38834787815 1.36578375499 0.33254447136 0.39493951900 1.37318183107 0.32809543249 0.32531801615 1.21119636526 0.35146168387 0.33000428704 1.24372008921 0.36965278913 0.33594232726 1.27151729090 0.38331622933 0.34284793904 1.29504191368 0.39309948551 0.35043692462 1.31474790090 0.39965003875 0.35842508625 1.33108919589 0.40361537009 0.36652822616 1.34451974201 0.40564296061 0.37446214659 1.35549348260 0.40638029134 0.38194264979 1.36446436101 0.40647484336 0.38868553799 1.37188632059 0.37431175446 0.31088728337 1.21114495978 0.40593502709 0.31744661116 1.24312728135 0.43055530408 0.32486683719 1.27052298584 0.44904945511 0.33291492998 1.29376647268 0.46229434984 0.34135785801 1.31329214126 0.47116685793 0.34996258978 1.32953439099 0.47654384905 0.35849609378 1.34292762127 0.47930219285 0.36672533852 1.35390623152 0.48031875901 0.37441729248 1.36290462113 0.48047041718 0.38133892416 1.37035718951 0.43165386394 0.29472327910 1.21015734847 0.46821830935 0.30325914633 1.24165915173 0.49668811416 0.31226905177 1.26874076922 0.51807842133 0.32156722771 1.29180762068 0.53340437385 0.33096790646 1.31126512581 0.54368111467 0.34028532030 1.32751870434 0.54992378678 0.34933370154 1.34097377600 0.55314753314 0.35792728246 1.35203576050 0.55436749674 0.36588029536 1.36111007757 0.55459882053 0.37300697254 1.36860214694 0.49744094047 0.27732216733 1.20847974702 0.53643457336 0.28777235822 1.23943175592 0.56679986753 0.29836448025 1.26620119927 0.58962211154 0.30894750452 1.28914704653 0.60598659394 0.31937040213 1.30862826717 0.61697860329 0.32948214415 1.32500383063 0.62368342812 0.33913170167 1.33863270638 0.62718635700 0.34816804579 1.34987386388 0.62857267848 0.35644014758 1.35908627259 0.62892768110 0.36379697815 1.36662890196 0.56899216358 0.25918011205 1.20635837116 0.60870686178 0.27131671247 1.23656114948 0.63963921236 0.28336863191 1.26293483421 0.66289950929 0.29519843271 1.28576643911 0.67959804655 0.30666867718 1.30534297796 0.69084511809 0.31764192765 1.32195146454 0.69775101789 0.32798074644 1.33587891263 0.70142603993 0.33754769588 1.34741233599 0.70298047818 0.34620533829 1.35683874841 0.70352462660 0.35381623601 1.36444516367 0.64362671280 0.24079327723 1.20403943657 0.68315821730 0.25422267474 1.23316338798 0.71395479681 0.26749701603 1.25897223227 0.73712959813 0.28046268456 1.28164748727 0.75379576806 0.29296606377 1.30137067082 0.76506645339 0.30485353712 1.31832330077 0.77205480093 0.31597148808 1.33268689493 0.77587395746 0.32616630010 1.34464297116 0.77763706980 0.33528435664 1.35437304729 0.77845728473 0.34317204115 1.36205864116 0.71866376769 0.22265782686 1.20176915898 0.75791168261 0.23682071069 1.22935452698 0.78849526905 0.25096514188 1.25434395167 0.81153136161 0.26488293235 1.27677187987 0.82813679490 0.27836589405 1.29667275837 0.83942840351 0.29120583891 1.31408103398 0.84652302205 0.30319457886 1.32903115349 0.85053748511 0.31412392583 1.34155756372 0.85258862729 0.32378569177 1.35169471147 0.85379328319 0.33197168860 1.35947704353 0.79142250776 0.20526992493 1.19979375407 0.83109030037 0.21944128597 1.22525062203 0.86200927723 0.23398851872 1.24908055065 0.88532378328 0.24860184839 1.27112130577 0.90217816348 0.26297150019 1.29121065323 0.91371676276 0.27678769933 1.30918635886 0.92108392608 0.28974067101 1.32488618851 0.92542399838 0.30152064044 1.33814790800 0.92788132460 0.31181783282 1.34880928318 0.92960024969 0.32032247337 1.35670807988 0.85922211257 0.18912573542 1.19835943758 0.90081711328 0.20241486623 1.22096772871 0.93324546952 0.21678265584 1.24321258743 0.95772584669 0.23176210497 1.26467745383 0.97547691021 0.24688621435 1.28494576803 0.98771732546 0.26168798472 1.30360097011 0.99566575785 0.27570041678 1.32022650018 1.00054087280 0.28845651129 1.33440579833 1.00356133569 0.29948926895 1.34572230467 1.00594581193 0.30833169050 1.35375945929 0.29208332716 0.31719600061 1.25552740252 0.30415922991 0.32177374724 1.27979238320 0.31356102732 0.32790080666 1.30083281532 0.32062276553 0.33530453744 1.31894185867 0.32567849071 0.34371229814 1.33441267305 0.32906224902 0.35285144733 1.34753841824 0.33110808662 0.36244934357 1.35861225404 0.33215004966 0.37223334545 1.36792734025 0.33252218431 0.38193081152 1.37577683664 0.33255853673 0.39126910035 1.38245390302 0.32421162868 0.30619931050 1.25565963603 0.34874891060 0.31190104228 1.27946389382 0.36785142843 0.31891679509 1.30014373044 0.38219889149 0.32700904971 1.31798144913 0.39247100909 0.33594028692 1.33325935313 0.39934749056 0.34547298752 1.34625974568 0.40350804521 0.35536963228 1.35726493002 0.40563238236 0.36539270199 1.36655720938 0.40640021134 0.37530467743 1.37441888701 0.40649124146 0.38486803938 1.38113226616 0.36807389917 0.29319936932 1.25481574370 0.40157078660 0.30021811167 1.27828839764 0.42764940894 0.30828220255 1.29873058323 0.44723833693 0.31719236436 1.31641124101 0.46126614136 0.32674931945 1.33159931157 0.47066139299 0.33675379021 1.34456373543 0.47635266258 0.34700649900 1.35557345317 0.47926852091 0.35730816821 1.36489740534 0.48033753874 0.36745952021 1.37280453250 0.48048828684 0.37726127738 1.37956377519 0.42245565243 0.27859896354 1.25310484969 0.46177688020 0.28700463074 1.27628205268 0.49239231288 0.29619112231 1.29655427174 0.51539337303 0.30599312061 1.31416704854 0.53187148321 0.31624530798 1.32936592476 0.54291806599 0.32678236679 1.34239644207 0.54962454394 0.33743897938 1.35350414213 0.55308233961 0.34804982811 1.36293456660 0.55438287557 0.35844959535 1.37093325717 0.55461757438 0.36847296343 1.37774575549 0.48614240228 0.26280087963 1.25063607819 0.52851921367 0.27254027484 1.27346101696 0.56151748429 0.28283764762 1.29357569405 0.58631627092 0.29354995769 1.31118468594 0.60409463031 0.30453416479 1.32649256914 0.61603161923 0.31564722867 1.33970392016 0.62330629445 0.32674610905 1.35102331550 0.62709771274 0.33768776568 1.36065533165 0.62858493086 0.34832915830 1.36880454512 0.62894700558 0.35852724664 1.37567553241 0.55791966252 0.24620790403 1.24751855336 0.60094980929 0.25710471930 1.26984144854 0.63446226723 0.26841587171 1.28975574823 0.65965930176 0.28000151482 1.30739996743 0.67774317832 0.29172180215 1.32291262112 0.68991616236 0.30343688725 1.33643222428 0.69738051930 0.31500692366 1.34809729190 0.70133851459 0.32629206491 1.35804633895 0.70299241366 0.33715246455 1.36641788043 0.70354448194 0.34744827610 1.37335043132 0.63657294697 0.22922282323 1.24386139938 0.67822068935 0.24097763944 1.26543950542 0.71066400572 0.25311988785 1.28505533236 0.73507473671 0.26548643122 1.30274870725 0.75262472294 0.27791413234 1.31855945711 0.76448580505 0.29023985395 1.33252740899 0.77182982368 0.30230045885 1.34469238994 0.77582861945 0.31393280979 1.35509422699 0.77765403300 0.32497376956 1.36377274719 0.77847790497 0.33526020091 1.37076777758 0.72088776943 0.21224842367 1.23977374042 0.75948387613 0.22443871061 1.26027134565 0.78956004382 0.23714378928 1.27943534451 0.81221484692 0.25014334613 1.29716671960 0.82854685983 0.26321706761 1.31336645352 0.83965465697 0.27614464017 1.32793552886 0.84663681277 0.28870575026 1.34077492824 0.85059190162 0.30068008432 1.35178563425 0.85261849795 0.31184732881 1.36086862948 0.85381517617 0.32198717017 1.36792489656 0.80964964372 0.19568749183 1.23536470065 0.84389139190 0.20776760813 1.25435312726 0.87058772556 0.22068166924 1.27285668275 0.89073190353 0.23411089875 1.29058981873 0.90531718466 0.24773652025 1.30726698677 0.91533682778 0.26123975731 1.32260263847 0.92178409174 0.27430183353 1.33631122541 0.92565223538 0.28660397249 1.34810719919 0.92793451753 0.29782739777 1.35770501139 0.92962419704 0.30765333297 1.36481911360 0.90164408364 0.17994281416 1.23074340425 0.93059525895 0.19124400734 1.24770100827 0.95318439498 0.20392762100 1.26528024516 0.97027817771 0.21752772833 1.28295381885 0.98274329311 0.23157840252 1.30019443328 0.99144642715 0.24561371678 1.31647479238 0.99725426580 0.25916774431 1.33126760008 1.00103349502 0.27177455829 1.34404556031 1.00365080080 0.28296823192 1.35428137700 1.00597286909 0.29228283841 1.36144775409 0.28938565516 0.30010729123 1.29937840305 0.30227723151 0.30596109255 1.31611248217 0.31231349136 0.31332227855 1.33089511266 0.31985104631 0.32196089580 1.34389096456 0.32524650799 0.33164699088 1.35526470788 0.32885648801 0.34215061035 1.36518101264 0.33103759798 0.35324180079 1.37380454885 0.33214644954 0.36469060878 1.38129998654 0.33253965429 0.37626708088 1.38783199572 0.33257382385 0.38774126367 1.39356524641 0.32130352048 0.29000685916 1.29880212072 0.34672019752 0.29662661271 1.31526860479 0.36650695733 0.30459991575 1.32984245152 0.38136775284 0.31372341675 1.34268269923 0.39200653702 0.32379376421 1.35394838623 0.39912726282 0.33460760662 1.36379855084 0.40343388319 0.34596159246 1.37239223138 0.40563035109 0.35765237021 1.37988846615 0.40642061947 0.36947658836 1.38644629347 0.40650864128 0.38123089541 1.39222475165 0.36340041041 0.27806643656 1.29744596290 0.39830352466 0.28558802352 1.31372744094 0.42547647477 0.29428637231 1.32817507239 0.44588669151 0.30398655236 1.34093965909 0.46050160568 0.31451363314 1.35217200287 0.47028864804 0.32569268409 1.36202290557 0.47621524938 0.33734877467 1.37064316902 0.47924884047 0.34930697431 1.37818359507 0.48035685210 0.36139235248 1.38479498556 0.48050671505 0.37342997863 1.39062814231 0.41556172900 0.26461312777 1.29534876715 0.45695119820 0.27308061665 1.31146511242 0.48917618464 0.28255349219 1.32583524711 0.51338538691 0.29288039439 1.33859289587 0.53072750361 0.30390996329 1.34987178336 0.54235123330 0.31549083892 1.35980563425 0.54940527459 0.32747166130 1.36852817321 0.55303832605 0.33970107045 1.37617312489 0.55439908628 0.35202770640 1.38287421396 0.55463625385 0.36430020917 1.38876516508 0.47767288029 0.24997403712 1.29254937102 0.52258720340 0.25933968376 1.30845774104 0.55756022789 0.26957311932 1.32276524751 0.58384136362 0.28053503458 1.33557346131 0.60268002045 0.29208612030 1.34698395330 0.61532560826 0.30408706726 1.35709829436 0.62302753689 0.31639856622 1.36601805535 0.62703521621 0.32888130797 1.37384480715 0.62859805609 0.34139598326 1.38068012063 0.62896546639 0.35380328288 1.38662556666 0.54961926832 0.23447626895 1.28908661210 0.59513552554 0.24460051650 1.30468144860 0.63058274546 0.25551709766 1.31890734544 0.65723214620 0.26708056468 1.33181240715 0.67635494586 0.27914546979 1.34344473827 0.68922236253 0.29156636526 1.35385244333 0.69710561431 0.30419780332 1.36308362688 0.70127591932 0.31689433623 1.37118639344 0.70300449564 0.32951051623 1.37820884756 0.70356256138 0.34190089558 1.38419909376 0.63128629715 0.21844692760 1.28499932793 0.67452014988 0.22909840655 1.30011235690 0.70819787832 0.24055727115 1.31420381272 0.73353525925 0.25264707643 1.32724078513 0.75174806946 0.26519137740 1.33919036385 0.76405208576 0.27801372907 1.35001963863 0.77166308492 0.29093768647 1.35969569921 0.77579684374 0.30378680459 1.36818563532 0.77766913901 0.31638463847 1.37545653669 0.77849574751 0.32855474311 1.38147549308 0.72255937083 0.20221311742 1.28032635608 0.76066506171 0.21306864555 1.29472658775 0.79035976740 0.22486548373 1.30859692120 0.81272822733 0.23736466159 1.32178964697 0.82885518091 0.25032720875 1.33415705563 0.83982536758 0.26351415486 1.34555143771 0.84672352675 0.27668652953 1.35582508377 0.85063439785 0.28960536242 1.36483028435 0.85264272029 0.30203168314 1.37241933002 0.85383323350 0.31372652133 1.37844451131 0.82332389340 0.18610194272 1.27510653412 0.85349424628 0.19674652518 1.28850026295 0.87702255365 0.20861357935 1.30202894271 0.89478857502 0.22136341189 1.31539004443 0.90767206985 0.23465632948 1.32828103919 0.91655279764 0.24815263876 1.34039939802 0.92231051787 0.26151264640 1.35144259197 0.92582499002 0.27439665906 1.36110809211 0.92797597358 0.28646498339 1.36909336949 0.92964322803 0.29737792605 1.37509589515 0.93346526890 0.17044050786 1.26937869960 0.95293168886 0.18036733708 1.28140950431 0.96814037804 0.19197340194 1.29444214908 0.97969382690 0.20477341910 1.30797302924 0.98819452592 0.21828210521 1.32149854011 0.99424496556 0.23201417694 1.33451507700 0.99844763631 0.24548435094 1.34651903525 1.00140502862 0.25820734387 1.35700681017 1.00371963297 0.26969787238 1.36547479708 1.00599393983 0.27947065313 1.37141939131 0.28759604118 0.28615125261 1.34222836555 0.30103150162 0.29313576247 1.35247730365 0.31149070747 0.30157122844 1.36176806775 0.31934532316 0.31125769055 1.37017256909 0.32496701314 0.32199518884 1.37776271890 0.32872744183 0.33358376333 1.38461042844 0.33099827366 0.34582345406 1.39078760895 0.33215117306 0.35851430106 1.39636617166 0.33255780446 0.37145634436 1.40141802781 0.33258983231 0.38444962398 1.40601508867 0.31937431093 0.27665663743 1.34113768531 0.34537767640 0.28416595736 1.35126155534 0.36562066195 0.29302744154 1.36045531213 0.38082345338 0.30306191589 1.36878912807 0.39170623648 0.31409020636 1.37633317553 0.39898919706 0.32593313887 1.38315762691 0.40339252092 0.33841153938 1.38933265457 0.40563639385 0.35134623380 1.39492843092 0.40644100167 0.36455804808 1.40001512832 0.40652653017 0.37786780815 1.40466291916 0.36029436701 0.26542157871 1.33945280965 0.39613530986 0.27355426208 1.34949980994 0.42403777725 0.28292456929 1.35864654391 0.44499519155 0.29337498276 1.36695948078 0.46000097512 0.30474798491 1.37450508977 0.47004855031 0.31688605813 1.38134984012 0.47613133947 0.32963168486 1.38756020103 0.47924276496 0.34282734749 1.39320264174 0.48037624914 0.35631552845 1.39834363147 0.48052521437 0.36993871014 1.40304963945 0.41097500101 0.25271845052 1.33719165140 0.45374328290 0.26150100089 1.34717188167 0.48704104605 0.27141400071 1.35630235337 0.51205523762 0.28231607655 1.36463947258 0.52997280477 0.29406585500 1.37223964533 0.54198069469 0.30652196265 1.37915927769 0.54926585452 0.31954302608 1.38545477571 0.55301523145 0.33298767189 1.39118254544 0.55441577263 0.34671452665 1.39639899293 0.55465442523 0.36058221695 1.40116052425 0.47203500450 0.23881962694 1.33437212340 0.51864047645 0.24820649809 1.34425758472 0.55492946101 0.25864712480 1.35338333081 0.58219829147 0.27000438262 1.36178494882 0.60174330114 0.28214114715 1.36949802591 0.61486082332 0.29492029396 1.37655814925 0.62284719130 0.30820469864 1.38300090600 0.62699873838 0.32185723675 1.38886188331 0.62861179787 0.33574078387 1.39417666835 0.62898270306 0.34971821559 1.39898084828 0.54409316904 0.22399748206 1.33101213848 0.59126577142 0.23387107796 1.34073673331 0.62800201481 0.24477533055 1.34985006650 0.65561905304 0.25655908635 1.35835175485 0.67543403993 0.26907119187 1.36624141522 0.68876412930 0.28216049362 1.37351866442 0.69692647499 0.29567583810 1.38018311930 0.70123823082 0.30946607183 1.38623439667 0.70301655062 0.32338004131 1.39167211339 0.70357858820 0.33726659307 1.39649588627 0.62776828620 0.20852438995 1.32712960947 0.67205804872 0.21869506476 1.33658914166 0.70655770012 0.22995000698 1.34566315073 0.73251222223 0.24209937312 1.35429573604 0.75116659684 0.25495331967 1.36243099695 0.76376580577 0.26832200315 1.37001303282 0.77155483084 0.28201558005 1.37698594299 0.77577865385 0.29584420689 1.38329382683 0.77768225662 0.30961804016 1.38888078369 0.77851062097 0.32314723638 1.39369091293 0.72367914755 0.19267272469 1.32274244922 0.76145618927 0.20287878278 1.33179462395 0.79089550962 0.21432254309 1.34078317378 0.81307249895 0.22674442829 1.34957273773 0.82906254757 0.23988486106 1.35802795482 0.83994104583 0.25348426409 1.36601346406 0.84678338403 0.26728306007 1.37339390448 0.85066495252 0.28102167169 1.38003391510 0.85266114163 0.29444052161 1.38579813493 0.85384734167 0.30728003254 1.39055120299 0.83244454468 0.17671486035 1.31786857055 0.85989907398 0.18662255631 1.32633299440 0.88131443598 0.19804432788 1.33517072594 0.89749458312 0.21061343724 1.34413860528 0.90924346784 0.22396314655 1.35299347252 0.91736504259 0.23772671800 1.36149216777 0.92266325980 0.25153741375 1.36939153115 0.92594207192 0.26502849598 1.37644840277 0.92800543138 0.27783322686 1.38241962274 0.92965729063 0.28958486855 1.38706203117 0.95468326914 0.16092317103 1.31252588630 0.96782558377 0.17012670962 1.32018406723 0.97811347186 0.18126675036 1.32878639750 0.98597317465 0.19382558534 1.33794918404 0.99183093335 0.20728550666 1.34728873376 0.99611298917 0.22112880640 1.35642135358 0.99924558335 0.23483777666 1.36496335041 1.00165495709 0.24789470952 1.37253103117 1.00376735163 0.25978189708 1.37874070279 1.00600900817 0.26998163142 1.38320867218 0.28671782394 0.27522595202 1.38468730478 0.30042430000 0.28326977518 1.38908233467 0.31109406982 0.29267445640 1.39333973014 0.31910631648 0.30325995454 1.39745966885 0.32484022304 0.31484622849 1.40144232844 0.32867497257 0.32725323714 1.40528788655 0.33098974813 0.34030093936 1.40899652084 0.33216373279 0.35380929405 1.41256840894 0.33257610961 0.36759826007 1.41600372851 0.33260606167 0.38148779632 1.41930265720 0.31842720305 0.26606462057 1.38318019578 0.34472347898 0.27450403524 1.38757007870 0.36519382843 0.28423512476 1.39182417027 0.38056663309 0.29509542285 1.39594419973 0.39157027465 0.30692246323 1.39993189635 0.39893313481 0.31955377962 1.40378898938 0.40338359528 0.33282690574 1.40751720808 0.40565003774 0.34657937531 1.41111828170 0.40646084389 0.36064872206 1.41459393951 0.40654439544 0.37487247969 1.41794591076 0.35875884778 0.25519788936 1.38125347621 0.39506821078 0.26411474267 1.38566090332 0.42333459206 0.27424201634 1.38993508834 0.44456450976 0.28543514432 1.39407845997 0.45976448203 0.29754956057 1.39809344690 0.46994102704 0.31044069903 1.40198247781 0.47610066292 0.32396399367 1.40574798140 0.47924990783 0.33797487842 1.40939238637 0.48039527992 0.35232878726 1.41291812141 0.48054329735 0.36688115412 1.41632761520 0.40869837583 0.24286761052 1.37893605303 0.45215515387 0.25227968030 1.38336591109 0.48598821370 0.26283048722 1.38767424854 0.51140369975 0.27438719458 1.39186108859 0.52960775644 0.28681696571 1.39592645441 0.54180652822 0.29998696392 1.39987036919 0.54920615952 0.31376435254 1.40369285611 0.55301279475 0.32801629487 1.40739393835 0.55443257836 0.34260995423 1.41097363910 0.55467165478 0.35741249394 1.41443198155 0.46923140491 0.22931563622 1.37625683319 0.51668096673 0.23917663098 1.38069620456 0.55362654635 0.25013589347 1.38504341506 0.58138795630 0.26205964924 1.38929072463 0.60128500912 0.27481412385 1.39343039325 0.61463751735 0.28826554283 1.39745468089 0.62276529353 0.30228013174 1.40135584750 0.62698815019 0.31672411613 1.40512615305 0.62862589987 0.33146372154 1.40875785751 0.62899835511 0.34636517352 1.41224322085 0.54134355271 0.21478381861 1.37324472362 0.58934230784 0.22498337752 1.37766288632 0.62672144301 0.23629359117 1.38204435207 0.65482103268 0.24856058392 1.38636600713 0.67498115132 0.26163048016 1.39060473777 0.68854187340 0.27534940429 1.39473743026 0.69684327341 0.28956348067 1.39874097087 0.70122542581 0.30411883369 1.40259224588 0.70302840509 0.31886158774 1.40626814154 0.70359228570 0.33363786720 1.40974554413 0.62602043693 0.19951400985 1.36992863127 0.67083583569 0.20987770278 1.37427705892 0.70574475667 0.22143893638 1.37867882376 0.73200668212 0.23399807423 1.38308557511 0.75088109427 0.24735547986 1.38744896230 0.76362747536 0.26131151683 1.39172063467 0.77150530763 0.27566654871 1.39585224153 0.77577407332 0.29022093905 1.39979543223 0.77769325468 0.30477505141 1.40350185609 0.77852233393 0.31912924934 1.40692316244 0.72424767528 0.18374806208 1.36633746308 0.76185820875 0.19403738957 1.37054982493 0.79116834034 0.20570728520 1.37494859431 0.81324865788 0.21848019578 1.37944806761 0.82916974922 0.23207856811 1.38396254120 0.84000220219 0.24622484901 1.38840631147 0.84681660464 0.26064148526 1.39269367478 0.85068354439 0.27505092369 1.39673892753 0.85267360929 0.28917561110 1.40045636608 0.85385738717 0.30273799429 1.40376028682 0.83701088545 0.16772782747 1.36250012601 0.86310608550 0.17764022074 1.36649228691 0.88346404699 0.18923399369 1.37085542791 0.89885071321 0.20211502420 1.37545212366 0.91003202742 0.21588919013 1.38014494882 0.91777393290 0.23016236935 1.38479647802 0.92284237290 0.24454043971 1.38926928592 0.92600329070 0.25862927910 1.39342594717 0.92802262958 0.27203476537 1.39712903641 0.92966633279 0.28436277639 1.40024112830 0.96529568515 0.15169515817 1.35844552699 0.97527612442 0.16086397911 1.36211554743 0.98310372965 0.17215441793 1.36640108874 0.98911660137 0.18501063510 1.37109638231 0.99365284012 0.19887679110 1.37599565950 0.99705054644 0.21319704639 1.38089315169 0.99964782087 0.22741556145 1.38558309026 1.00178276394 0.24097649676 1.38985970657 1.00379347620 0.25332401279 1.39351723199 1.00601805817 0.26390227000 1.39634989791 0.28675434214 0.26722945670 1.42736523551 0.30045788644 0.27633514889 1.42612306222 0.31112497261 0.28665876251 1.42549814939 0.31913474665 0.29803272063 1.42542526044 0.32486635455 0.31028944632 1.42583915879 0.32869894230 0.32326136265 1.42667460785 0.33101165588 0.33678089268 1.42786637103 0.33218364128 0.35068045949 1.42934921174 0.33259404451 0.36479248614 1.43105789340 0.33262201154 0.37894939569 1.43292717942 0.31846539988 0.25814678386 1.42544351811 0.34475973704 0.26762580536 1.42432150812 0.36522774290 0.27825871771 1.42379088394 0.38059793196 0.28989481334 1.42379137832 0.39159881870 0.30238338469 1.42426272402 0.39895891760 0.31557372418 1.42514465379 0.40340674314 0.32931512424 1.42637690037 0.40567080980 0.34345687730 1.42789919652 0.40647963207 0.35784827578 1.42965127499 0.40656172443 0.37233861211 1.43157286853 0.35879693152 0.24732846212 1.42326515486 0.39510429603 0.25726738064 1.42226611977 0.42336819486 0.26828393628 1.42183079626 0.44459531882 0.28024452580 1.42190435054 0.45979235875 0.29301554595 1.42243194884 0.46996600546 0.30646339349 1.42335875737 0.47612294977 0.32045446518 1.42462994235 0.47926988251 0.33485515779 1.42619066999 0.48041349450 0.34953186807 1.42798610651 0.48056047656 0.36435099278 1.42996141814 0.40873476081 0.23501328652 1.42088452263 0.45218883066 0.24543055172 1.42001075138 0.48601900419 0.25686079103 1.41966959065 0.51143154792 0.26918077597 1.41981205383 0.52963272835 0.28226727802 1.42038915434 0.54182881199 0.29599706869 1.42135190556 0.54922606535 0.31024691945 1.42265132089 0.55303075493 0.32489360182 1.42423841372 0.55444914725 0.33981388729 1.42606419747 0.55468750881 0.35488454734 1.42807968551 0.46926471151 0.22144005209 1.41835599827 0.51671060814 0.23228599554 1.41760925714 0.55365284660 0.24411565477 1.41735897140 0.58141125993 0.25680248186 1.41756236493 0.60130568115 0.27021992887 1.41817666160 0.61465594331 0.28424144789 1.41915908530 0.62278187944 0.29874049098 1.42046685991 0.62700332258 0.31359051022 1.42205720929 0.62864010577 0.32866495767 1.42388735734 0.62901206205 0.34383728541 1.42591452792 0.54137260738 0.20684755387 1.41573395863 0.58936689572 0.21800438907 1.41511549126 0.62674239780 0.23017490029 1.41495064282 0.65483909553 0.24320856144 1.41520316056 0.67499697080 0.25695484644 1.41583679173 0.68855600553 0.27126322922 1.41681528357 0.69685618163 0.28598318371 1.41810238333 0.70123748099 0.30096418382 1.41966183826 0.70303988553 0.31605570349 1.42145739561 0.70360337716 0.33110721663 1.42345280263 0.62604427218 0.19147458689 1.41307278057 0.67085496063 0.20275640930 1.41258330794 0.70576033349 0.21516490040 1.41249630920 0.73201969540 0.22849793270 1.41278231746 0.75089235096 0.24255337867 1.41341186580 0.76363760478 0.25712911079 1.41435548730 0.77151476148 0.27202300157 1.41558371508 0.77578312568 0.28703292347 1.41706708221 0.77770200199 0.30195674900 1.41877612179 0.77853069502 0.31659235063 1.42068136690 0.72426552967 0.17555994620 1.41042684093 0.76187207008 0.18671273317 1.41006656137 0.79117932938 0.19921202792 1.41004767484 0.81325770022 0.21276951363 1.41034771236 0.82917757527 0.22709687350 1.41094420490 0.84000934717 0.24190579072 1.41181468348 0.84682340859 0.25690794849 1.41293667908 0.85069015218 0.27181503001 1.41428772270 0.85267997060 0.28633871846 1.41584534534 0.85386325650 0.30019069703 1.41758707800 0.83702220360 0.15934242682 1.40785051657 0.86311549132 0.17004403766 1.40761910575 0.88347206117 0.18244265563 1.40765644404 0.89885775068 0.19612222221 1.40794722199 0.91003839739 0.21066667888 1.40847613013 0.91777983882 0.22565996713 1.40922785904 0.92284791251 0.24068602843 1.41018709925 0.92600845600 0.25532880426 1.41133854131 0.92802730682 0.26917223612 1.41266687578 0.92967030249 0.28180026548 1.41415679320 0.96530011774 0.14306082380 1.40539818435 0.97528249158 0.15292099974 1.40529479530 0.98311120457 0.16498315635 1.40537432110 0.98912448745 0.17865497643 1.40562872308 0.99366057096 0.19334414276 1.40604996258 0.99705768585 0.20845833812 1.40663000095 0.99965406284 0.22340524530 1.40736079951 1.00178793268 0.23759254708 1.40823431960 1.00379752611 0.25042792626 1.40924252257 1.00602107387 0.26131906560 1.41037736975 0.28770893450 0.26205983394 1.47087217251 0.30113452073 0.27230390178 1.46379497330 0.31158481003 0.28355094685 1.45813137505 0.31943133408 0.29564102168 1.45374234047 0.32504562454 0.30841417880 1.45048883229 0.32879921309 0.32171047073 1.44823181324 0.33106363138 0.33536995001 1.44683224603 0.33221041110 0.34923266914 1.44615109340 0.33261108390 0.36313868068 1.44604931807 0.33263718147 0.37692803713 1.44638788276 0.31949210447 0.25281910257 1.46844151828 0.34548858231 0.26351622673 1.46164317681 0.36572369149 0.27513397269 1.45619731113 0.38091799000 0.28753096311 1.45197412793 0.39179203582 0.30056582063 1.44884383387 0.39906638695 0.31409716790 1.44667663564 0.40346160139 0.32798362757 1.44534273992 0.40569823713 0.34208382230 1.44471235338 0.40649685216 0.35625637472 1.44465568269 0.40657800447 0.37035990749 1.44504293454 0.36041169705 0.24174639061 1.46590503786 0.39624563420 0.25301009135 1.45937085797 0.42413986133 0.26509555196 1.45412375822 0.44508829146 0.27788061595 1.45004490638 0.46008483761 0.29124312686 1.44701547022 0.47012341281 0.30506092820 1.44491661753 0.47619793008 0.31921186350 1.44362951607 0.47930230244 0.33357377627 1.44303533362 0.48043044293 0.34802451005 1.44301523796 0.48057626456 0.36244190836 1.44345039685 0.41108706330 0.22910815725 1.46333961077 0.45384633281 0.24096751197 1.45706995323 0.48713473412 0.25356275149 1.45200703770 0.51213955675 0.26678384822 1.44804667822 0.53004809022 0.28052077455 1.44508468884 0.54204762406 0.29466350288 1.44301688359 0.54932544780 0.30910200563 1.44173907651 0.55306885094 0.32372625518 1.44114708164 0.55446512303 0.33842622395 1.44113671302 0.55470155358 0.35309188433 1.44160378469 0.47213755430 0.21517086167 1.46082211652 0.51873133459 0.22757050490 1.45483239902 0.55500972446 0.24066263813 1.44994347097 0.58226910417 0.25433452789 1.44607144588 0.60180585397 0.26847344074 1.44313243723 0.61491635413 0.28296664320 1.44104255853 0.62289698489 0.29770140181 1.43971792328 0.62704412652 0.31256498313 1.43907464495 0.62865415927 0.32744465368 1.43902883706 0.62902346339 0.34222768000 1.43949661309 0.54418252111 0.20020096308 1.45842943463 0.59134129596 0.21300108648 1.45275013177 0.62806624693 0.22652227872 1.44802937942 0.65567425200 0.24062652298 1.44421121174 0.67548218917 0.25517580248 1.44123966290 0.68880693640 0.27003210039 1.43905876706 0.69696537171 0.28505739990 1.43761255839 0.70127437306 0.30011368421 1.43684507105 0.70305081845 0.31506293651 1.43670033922 0.70361158586 0.32976713998 1.43712239706 0.62784131479 0.18446492067 1.45623844462 0.67211687336 0.19744127302 1.45091508794 0.70660571612 0.21126874009 1.44636108444 0.73255231854 0.22575370148 1.44255797822 0.75120115611 0.24070253682 1.43948731333 0.76379670431 0.25592162569 1.43713063386 0.77158343860 0.27121734773 1.43546948387 0.77580583446 0.28639608253 1.43448540746 0.77770836738 0.30126420971 1.43415994867 0.77853551283 0.31562810887 1.43447465160 0.72373328640 0.16822919363 1.45432602601 0.76149872321 0.18107308085 1.44941920395 0.79092954660 0.19502908908 1.44503490743 0.81310062208 0.20980993138 1.44120374772 0.82908681513 0.22512832080 1.43795633604 0.83996299124 0.24069697037 1.43532328364 0.84680401591 0.25622859315 1.43333520177 0.85068475463 0.27143590220 1.43202270167 0.85268007288 0.28603161055 1.43141639458 0.85386483615 0.29972843126 1.43154689175 0.83247778702 0.15176024115 1.45276905830 0.85992750194 0.16407852629 1.44835441624 0.88133915297 0.17793039254 1.44414716978 0.89751648090 0.19288908068 1.44024052264 0.90926322652 0.20852783147 1.43672767851 0.91738313062 0.22441988566 1.43370184110 0.92267993400 0.24013848402 1.43125621409 0.92595737744 0.25525686731 1.42948400119 0.92801920174 0.26934827631 1.42847840610 0.92966914769 0.28198595176 1.42833263251 0.95469416770 0.13532452242 1.45164442103 0.96784386600 0.14663962566 1.44781266124 0.97813594982 0.16009971731 1.44379419288 0.98599721330 0.17508501738 1.43976030540 0.99185445060 0.19097574587 1.43588228827 0.99613445585 0.20715212280 1.43233143094 0.99926402320 0.22299436817 1.42927902288 1.00166994680 0.23788270198 1.42689635354 1.00377902079 0.25119734424 1.42535471239 1.00601803930 0.26231851497 1.42482538890 0.28958493971 0.25961515100 1.51581813055 0.30245646264 0.27114805205 1.50229355493 0.31247497627 0.28337780951 1.49112745667 0.31999679916 0.29614989056 1.48208390552 0.32537824989 0.30930976241 1.47492697124 0.32897564702 0.32270289226 1.46942072360 0.33114530913 0.33617474731 1.46532923236 0.33224355479 0.34957079476 1.46241656728 0.33262670257 0.36273650181 1.46044679811 0.33265107105 0.37551733565 1.45918399463 0.32151051983 0.24999755198 1.51268806229 0.34691214658 0.26216025837 1.49966241801 0.36668296034 0.27489664200 1.48888530984 0.38152744718 0.28807474786 1.48013591263 0.39215009318 0.30156262090 1.47319340122 0.39925538440 0.31522830610 1.46783695047 0.40354780691 0.32893984843 1.46384573521 0.40573184678 0.34256529286 1.46099893029 0.40651199009 0.35597268437 1.45907571057 0.40659272290 0.36903006791 1.45785525089 0.36360622317 0.23838476843 1.50959031748 0.39849429388 0.25134079013 1.49703051661 0.42565086714 0.26472208619 1.48660406479 0.44604410036 0.27842090355 1.47810788135 0.46064215095 0.29232948913 1.47133888565 0.47041317632 0.30634008987 1.46609399701 0.47632533389 0.32034495270 1.46217013478 0.47934678107 0.33423632455 1.45936421829 0.48044567527 0.34790645235 1.45747316689 0.48059017390 0.36124758305 1.45629389992 0.41575819067 0.22510490144 1.50660386803 0.45712967990 0.23890445789 1.49450706732 0.48933672009 0.25299420791 1.48440524773 0.51352850086 0.26728343880 1.47611927169 0.53085421180 0.28168143788 1.46947000166 0.54246304253 0.29609749246 1.46427830010 0.54950418265 0.31044088986 1.46036502946 0.55312682176 0.32462091739 1.45755105220 0.55448014947 0.33854686236 1.45565723077 0.55471335538 0.35212801208 1.45450442763 0.47785256328 0.21048605210 1.50380768581 0.52274507998 0.22506607220 1.49220128675 0.55769854262 0.23985307298 1.48241038490 0.58396239085 0.25475743478 1.47428954365 0.60278606435 0.26968953793 1.46769332642 0.61541900275 0.28455976279 1.46247629662 0.62311064573 0.29927848968 1.45849301766 0.62711043294 0.31375609896 1.45559805295 0.62866780403 0.32790297096 1.45364596590 0.62903219867 0.34162948603 1.45249131992 0.54977548194 0.19485632152 1.50128074274 0.59526726947 0.21004044360 1.49022239150 0.63069435813 0.22543874723 1.48074100253 0.65732751252 0.24093797263 1.47273815725 0.67643749719 0.25642486005 1.46611543708 0.68929507673 0.27178614973 1.46077442345 0.69717101572 0.28690858192 1.45661669777 0.70133607872 0.30167889684 1.45354384147 0.70306103032 0.31598383475 1.45145743597 0.70361663509 0.32971013589 1.45025906269 0.63141308758 0.17854381077 1.49910201070 0.67462302371 0.19404238264 1.48867959817 0.70828219007 0.20989129647 1.47951862687 0.73360560802 0.22592013352 1.47158457251 0.75180829895 0.24195847501 1.46484291080 0.76410528420 0.25783590219 1.45925911745 0.77171158516 0.27338199631 1.45479866817 0.77584222320 0.28842633861 1.45142703867 0.77771221967 0.30279851032 1.44910970465 0.77853659596 0.31632809269 1.44781214184 0.72265152115 0.16187662097 1.49735046158 0.76073911805 0.17728669986 1.48768212335 0.79042006184 0.19335078655 1.47886478413 0.81277841954 0.20979899860 1.47094824943 0.82889825822 0.22636145359 1.46398232472 0.83986364490 0.24276826907 1.45801681550 0.84675864664 0.25874956263 1.45310152726 0.85066733047 0.27403545183 1.44928626548 0.85267376345 0.28835605424 1.44662083565 0.85386201261 0.30144148744 1.44515504327 0.82337692358 0.14518285319 1.49610506727 0.85354232784 0.15998820582 1.48733918364 0.87706599686 0.17595728328 1.47890100057 0.89482768925 0.19266964905 1.47094864803 0.90770716362 0.20970486655 1.46364025601 0.91658417856 0.22664249926 1.45713395448 0.92233849270 0.24306211062 1.45158787343 0.92584986464 0.25854326409 1.44716014282 0.92799805299 0.27266552311 1.44400889265 0.92966281636 0.28500845114 1.44229225289 0.93347543583 0.12879060854 1.49544479969 0.95295942843 0.14236171105 1.48775999566 0.96817801857 0.15785085250 1.47974880240 0.97973515932 0.17462716600 1.47170522832 0.98823480375 0.19205978469 1.46392328181 0.99428090492 0.20951784166 1.45669697126 0.99847741592 0.22637047005 1.45032030507 1.00142828981 0.24198680296 1.44508729163 1.00373747965 0.25573597351 1.44129193934 1.00600893853 0.26698711483 1.43922825659 0.29238569649 0.25979347514 1.56281312439 0.30442597197 0.27283961790 1.54181429410 0.31379686551 0.28616615056 1.52437444380 0.32083186228 0.29962436012 1.51012295219 0.32586444745 0.31306553363 1.49868919796 0.32922810617 0.32634095811 1.48970255984 0.33125632360 0.33930192059 1.48279241652 0.33228258492 0.35179970809 1.47758814671 0.33264037528 0.36368560764 1.47371912911 0.33266317985 0.37481090628 1.47081474245 0.32452384901 0.24959810735 1.55869701611 0.34903256158 0.26354285928 1.53850656496 0.36810683557 0.27758247794 1.52169673808 0.38242694351 0.29159704331 1.50792019653 0.39267315796 0.30546663538 1.49682960141 0.39952575146 0.31907133412 1.48807761377 0.40366499657 0.33229121951 1.48131689470 0.40577116584 0.34500637154 1.47620010527 0.40652453181 0.35709687020 1.47237990656 0.40660536703 0.36844279545 1.46950895964 0.36838358870 0.23717668918 1.55473818599 0.40185234367 0.25225739233 1.53530049437 0.42790248796 0.26720876183 1.51906180653 0.44746341823 0.28194287735 1.50570102935 0.46146453110 0.29637181858 1.49489706972 0.47083522323 0.31040766519 1.48632883453 0.47650489126 0.32396249687 1.47967523067 0.47940293183 0.33694839329 1.47461516502 0.48045874158 0.34927743413 1.47082754448 0.48060171715 0.36086169908 1.46799127593 0.42275105028 0.22295619783 1.55097984498 0.46204089146 0.23925528633 1.53228564436 0.49262627869 0.25521299963 1.51658287875 0.51559915485 0.27076657523 1.50358414414 0.53205146282 0.28585325064 1.49300203652 0.54307514546 0.30041026337 1.48454915189 0.54976214568 0.31437485095 1.47793808622 0.55320440633 0.32768425087 1.47288143550 0.55449387032 0.34027570065 1.46909179572 0.55472248050 0.35208643780 1.46628176287 0.48641236844 0.20736361051 1.54746520403 0.52875377821 0.22480861057 1.52955157692 0.56172066376 0.24176318875 1.51437318431 0.58649202180 0.25817284993 1.50168823441 0.60424684902 0.27398309895 1.49125493544 0.61616414213 0.28913944070 1.48283149560 0.62342289783 0.30358738004 1.47617612313 0.62720211280 0.31727242183 1.47104702622 0.62868078376 0.33014007094 1.46720241310 0.62903790740 0.34213583223 1.46440049199 0.55815367791 0.19082590442 1.54423747406 0.60114657714 0.20918943432 1.52718785409 0.63462809915 0.22702732661 1.51254595282 0.65979988748 0.24426641444 1.50013199368 0.67786358566 0.26083353093 1.48976620009 0.69002083723 0.27665550922 1.48126879545 0.69747328572 0.29165918244 1.47446000319 0.70142257468 0.30577138372 1.46916004672 0.70307034764 0.31891894619 1.46518914946 0.70361824814 0.33102870300 1.46236753482 0.63676111338 0.17377005679 1.54133986604 0.67837486151 0.19266982686 1.52528403786 0.71079104088 0.21117341061 1.51121441385 0.73518062032 0.22915198175 1.49903411546 0.75271456866 0.24647671396 1.48864626409 0.76456385473 0.26301878095 1.47995398120 0.77189944737 0.27864935643 1.47286038820 0.77589231541 0.29323961408 1.46726860653 0.77771342769 0.30666072761 1.46308175762 0.77853375303 0.31878387072 1.46020296290 0.72102080957 0.15662304481 1.53881559088 0.75959420456 0.17552185748 1.52392969025 0.78965194493 0.19436943817 1.51049179700 0.81229208872 0.21293426484 1.49851329324 0.82861269395 0.23098481545 1.48800556108 0.83971181863 0.24828956796 1.47897998261 0.84668752079 0.26461700031 1.47144793995 0.85063785845 0.27973559047 1.46542081519 0.85266088963 0.29341381640 1.46090999043 0.85385467236 0.30542015604 1.45792684778 0.80971890119 0.13981184570 1.53670785955 0.84396017952 0.15801759545 1.52321437327 0.87065326731 0.17678340669 1.51049133184 0.89079216111 0.19571797672 1.49868822055 0.90537085746 0.21443000281 1.48795452466 0.91538335290 0.23252818226 1.47843972946 0.92182364398 0.24962121238 1.47029332022 0.92568572723 0.26531779043 1.46366478221 0.92796359921 0.27922661373 1.45870360070 0.92965125645 0.29095637956 1.45555926098 0.90164152293 0.12376343667 1.53505988298 0.93062835964 0.14042911007 1.52322764894 0.95323746402 0.15858331360 1.51132624797 0.97033870590 0.17760783035 1.49967759089 0.98280195513 0.19688444343 1.48860358847 0.99149708154 0.21579493591 1.47842615151 0.99729395495 0.23372109091 1.46946719080 1.00106244521 0.25004469151 1.46204861713 1.00367242214 0.26414752082 1.45649234128 1.00599375558 0.27541136192 1.45312027405 0.29611454354 0.26249287363 1.61246716879 0.30704530848 0.27735061753 1.58255267783 0.31555187194 0.29194277008 1.55776038601 0.32193724384 0.30612946323 1.53753247707 0.32650443409 0.31977082894 1.52131113477 0.32955645260 0.33272699915 1.50853854283 0.33139630928 0.34485810581 1.49865688501 0.33232701404 0.35602428088 1.49110834504 0.33265157680 0.36608565631 1.48533510666 0.33267300747 0.37490236404 1.48077935363 0.32853529504 0.25153674397 1.60698224572 0.35185195909 0.26764898849 1.57830295088 0.36999660331 0.28322723281 1.55447345383 0.38361711897 0.29816872521 1.53497044373 0.39336139733 0.31237071394 1.51927060975 0.39987732968 0.32573044728 1.50685064108 0.40381280726 0.33814517351 1.49718722688 0.40581572137 0.34951214089 1.48975705633 0.40653396326 0.35972859769 1.48403681861 0.40661542421 0.36869179219 1.47950320288 0.37474687245 0.23805524647 1.60176583566 0.40632185216 0.25575781330 1.57423618995 0.43089599948 0.27260080170 1.55128707401 0.44934691777 0.28852402612 1.53243210425 0.46255221042 0.30346730103 1.51718489706 0.47138948078 0.31737044087 1.50505906883 0.47673633224 0.33017326010 1.49556823596 0.47947036816 0.34181557318 1.48822601485 0.48046919191 0.35223719455 1.48254602189 0.48061040686 0.36137793867 1.47804187348 0.43206854947 0.22261472515 1.59677009222 0.46858198706 0.24203389412 1.57036923502 0.49700472653 0.26027696597 1.54825858878 0.51835229335 0.27732028498 1.52999560551 0.53364021300 0.29314019542 1.51513773717 0.54388401095 0.30771304156 1.50324243575 0.55009921267 0.32101516768 1.49386715324 0.55330134364 0.33302291805 1.48656934162 0.55450592933 0.34371263696 1.48090645286 0.55472849522 0.35306066866 1.47643593896 0.49781959979 0.20578152401 1.59194716904 0.53675936318 0.22683403313 1.56671892609 0.56707745058 0.24646921488 1.54544534036 0.58985889883 0.26468242077 1.52773909435 0.60618874476 0.28146900230 1.51321287057 0.61715202521 0.29682431099 1.50147935152 0.62383377703 0.31074369833 1.49215121972 0.62731903706 0.32322251583 1.48484115767 0.62869284213 0.33425611501 1.47916184788 0.62904022910 0.34383984735 1.47472597286 0.56931929708 0.18812198706 1.58724921972 0.60898097990 0.21051503249 1.56330210317 0.63986883773 0.23139103765 1.54290467095 0.66309238731 0.25073535248 1.52574071762 0.67976114535 0.26853332689 1.51149403772 0.69098462860 0.28477031080 1.49984842579 0.69787235379 0.29943165414 1.49048767638 0.70153383764 0.31250270682 1.48309558404 0.70307859690 0.32396881878 1.47735594331 0.70361614830 0.33381533994 1.47295254873 0.64388691504 0.17020245831 1.58262839790 0.68337383660 0.19343369438 1.56013560625 0.71413355408 0.21525592354 1.54069392279 0.73727841190 0.23560399911 1.52407862219 0.75392075445 0.25441277438 1.51006497911 0.76517292616 0.27161710264 1.49842826824 0.77214727142 0.28715183719 1.48894376423 0.77595613465 0.30095183134 1.48138674175 0.77771186025 0.31295193838 1.47553247548 0.77852679263 0.32308701160 1.47115624009 0.71884172735 0.15258928176 1.57803685719 0.75806493265 0.17594682096 1.55723627533 0.78862626573 0.19827736179 1.53887043808 0.81164262571 0.21941327966 1.52283095489 0.82823091173 0.23918694998 1.50900943522 0.83950802291 0.25743074815 1.49729748852 0.84659085839 0.27397704959 1.48758672425 0.85059631730 0.28865822969 1.47976875184 0.85264129876 0.30130666387 1.47373518077 0.85384270191 0.31175472754 1.46937762048 0.79150300771 0.13584880143 1.57342675121 0.83118126745 0.15841121441 1.55462095040 0.86210163878 0.18066884163 1.53749155904 0.88541068186 0.20228811312 1.52207586259 0.90225495685 0.22293545889 1.50841114653 0.91378102390 0.24227730898 1.49653469632 0.92113544318 0.25998009341 1.48648379743 0.92546477484 0.27571024219 1.47829573534 0.92791557903 0.28913418536 1.47200779552 0.92963441593 0.29991835293 1.46765726344 0.85919002980 0.12054736131 1.56875023358 0.90084984037 0.14118367689 1.55230647148 0.93331433934 0.16264385230 1.53661462790 0.95780823346 0.18435341847 1.52189149214 0.97555622948 0.20573790633 1.50835385351 0.98778303416 0.22622284677 1.49621850128 0.99571335425 0.24523377074 1.48570222478 1.00057189651 0.26219620915 1.47702181328 1.00358336767 0.27653569292 1.47039405609 1.00597247451 0.28767775296 1.46603574251 </DataArray>
</Points>
</Piece>
</StructuredGrid>
</VTKFile>
