<?xml version="1.0"?>
<VTKFile type="StructuredGrid" version="0.1">
<StructuredGrid WholeExtent="0 9 0 9 0 9">
<Piece Extent="0 9 0 9 0 9">
<PointData>
<DataArray type="Float32" Name="Deformation" format="ascii" NumberOfComponents="3">
-0.00049405164 0.00054815156 -0.00207988357 -0.00048887992 0.00054824592 -0.00207851018 -0.00048425414 0.00054135225 -0.00208606923 -0.00047885149 0.00052819271 -0.00209933013 -0.00047134912 0.00050948945 -0.00211506229 -0.00046042420 0.00048596462 -0.00213003510 -0.00044475390 0.00045834037 -0.00214101796 -0.00042301538 0.00042733887 -0.00214478029 -0.00039388581 0.00039368226 -0.00213809148 -0.00035604236 0.00035809270 -0.00211772094 -0.00048781455 0.00055499409 -0.00206191648 -0.00048037727 0.00055522543 -0.00206409707 -0.00047394612 0.00055099215 -0.00207040283 -0.00046747766 0.00054257283 -0.00207931503 -0.00045992845 0.00053024609 -0.00208931499 -0.00045025503 0.00051429051 -0.00209888398 -0.00043741397 0.00049498468 -0.00210650330 -0.00042036181 0.00047260720 -0.00211065423 -0.00039805512 0.00044743667 -0.00210981807 -0.00036945044 0.00041975167 -0.00210247611 -0.00048194701 0.00055770385 -0.00204358880 -0.00047277656 0.00055796581 -0.00204748674 -0.00046482337 0.00055551875 -0.00205266006 -0.00045729706 0.00055036288 -0.00205859420 -0.00044940726 0.00054249838 -0.00206477459 -0.00044036357 0.00053192545 -0.00207068665 -0.00042937563 0.00051864428 -0.00207581581 -0.00041565304 0.00050265506 -0.00207964750 -0.00039840543 0.00048395798 -0.00208166716 -0.00037684241 0.00046255324 -0.00208136020 -0.00047659814 0.00055650206 -0.00202494556 -0.00046619230 0.00055664862 -0.00202918324 -0.00045703818 0.00055510170 -0.00203329367 -0.00044854856 0.00055173450 -0.00203724441 -0.00044013624 0.00054642023 -0.00204100306 -0.00043121400 0.00053903209 -0.00204453720 -0.00042119462 0.00052944329 -0.00204781439 -0.00040949091 0.00051752703 -0.00205080224 -0.00039551564 0.00050315652 -0.00205346831 -0.00037868162 0.00048620495 -0.00205578020 -0.00047191709 0.00055160991 -0.00200603179 -0.00046073902 0.00055145542 -0.00200969066 -0.00045074283 0.00054991061 -0.00201275637 -0.00044147102 0.00054685935 -0.00201534244 -0.00043246606 0.00054218555 -0.00201756238 -0.00042327046 0.00053577308 -0.00201952970 -0.00041342671 0.00052750584 -0.00202135793 -0.00040247729 0.00051726771 -0.00202316056 -0.00038996470 0.00050494259 -0.00202505111 -0.00037543142 0.00049041435 -0.00202714310 -0.00046805299 0.00054324863 -0.00198689253 -0.00045653123 0.00054256778 -0.00198951304 -0.00044608961 0.00054011510 -0.00199150089 -0.00043630329 0.00053590909 -0.00199296505 -0.00042674741 0.00052996824 -0.00199401451 -0.00041699714 0.00052231106 -0.00199475826 -0.00040662763 0.00051295605 -0.00199530529 -0.00039521403 0.00050192169 -0.00199576459 -0.00038233149 0.00048922650 -0.00199624513 -0.00036755518 0.00047488897 -0.00199685590 -0.00046515498 0.00053163941 -0.00196757281 -0.00045368345 0.00053016725 -0.00196915447 -0.00044323080 0.00052588481 -0.00196997995 -0.00043328424 0.00051905536 -0.00197018901 -0.00042333097 0.00050994222 -0.00196992143 -0.00041285820 0.00049880867 -0.00196931696 -0.00040135314 0.00048591802 -0.00196851538 -0.00038830299 0.00047153356 -0.00196765645 -0.00037319495 0.00045591858 -0.00196687994 -0.00035551625 0.00043933637 -0.00196632560 -0.00046337221 0.00051700348 -0.00194811767 -0.00045231020 0.00051443541 -0.00194911901 -0.00044231868 0.00050738935 -0.00194864628 -0.00043265272 0.00049646983 -0.00194709110 -0.00042256740 0.00048228139 -0.00194484510 -0.00041131779 0.00046542857 -0.00194229989 -0.00039815898 0.00044651589 -0.00193984707 -0.00038234602 0.00042614790 -0.00193787828 -0.00036313399 0.00040492912 -0.00193678511 -0.00033977798 0.00038346410 -0.00193695920 -0.00046285380 0.00049956203 -0.00192857214 -0.00045252599 0.00049555380 -0.00192991072 -0.00044350553 0.00048479835 -0.00192795260 -0.00043464760 0.00046832415 -0.00192374810 -0.00042480740 0.00044715966 -0.00191834751 -0.00041284010 0.00042233338 -0.00191280113 -0.00039760090 0.00039487377 -0.00190815925 -0.00037794498 0.00036580930 -0.00190547219 -0.00035272753 0.00033616845 -0.00190579024 -0.00032080374 0.00030697970 -0.00191016369 -0.00046374891 0.00047953629 -0.00190898126 -0.00045444535 0.00047370401 -0.00191203367 -0.00044694364 0.00045828144 -0.00190835164 -0.00043950774 0.00043478997 -0.00190023677 -0.00043040163 0.00040475095 -0.00188999061 -0.00041788928 0.00036968576 -0.00187991477 -0.00040023465 0.00033111577 -0.00187231081 -0.00037570173 0.00029056236 -0.00186948032 -0.00034255448 0.00024954688 -0.00187372488 -0.00029905687 0.00020959070 -0.00188734607 -0.00050523755 0.00054448008 -0.00208634357 -0.00050205732 0.00053981365 -0.00209464454 -0.00049860514 0.00053074682 -0.00210515944 -0.00049420472 0.00051766961 -0.00211742762 -0.00048817974 0.00050097202 -0.00213098847 -0.00047985392 0.00048104403 -0.00214538134 -0.00046855094 0.00045827566 -0.00216014562 -0.00045359450 0.00043305691 -0.00217482067 -0.00043430832 0.00040577776 -0.00218894586 -0.00041001608 0.00037682823 -0.00220206057 -0.00050004433 0.00055239930 -0.00206721516 -0.00049490784 0.00054988440 -0.00207363130 -0.00049002749 0.00054383558 -0.00208219514 -0.00048470425 0.00053425348 -0.00209233639 -0.00047823906 0.00052113876 -0.00210348475 -0.00046993289 0.00050449208 -0.00211506994 -0.00045908669 0.00048431409 -0.00212652167 -0.00044500142 0.00046060546 -0.00213726966 -0.00042697802 0.00043336684 -0.00214674361 -0.00040431746 0.00040259889 -0.00215437324 -0.00049494466 0.00055600700 -0.00204690208 -0.00048824821 0.00055487703 -0.00205182922 -0.00048211201 0.00055090821 -0.00205845409 -0.00047585883 0.00054381976 -0.00206622839 -0.00046881147 0.00053333091 -0.00207460382 -0.00046029271 0.00051916088 -0.00208303210 -0.00044962533 0.00050102890 -0.00209096494 -0.00043613212 0.00047865418 -0.00209785403 -0.00041913585 0.00045175596 -0.00210315110 -0.00039795933 0.00042005346 -0.00210630784 -0.00049007019 0.00055541783 -0.00202570054 -0.00048219564 0.00055489375 -0.00202939332 -0.00047501163 0.00055201320 -0.00203408681 -0.00046788818 0.00054632359 -0.00203934691 -0.00046019532 0.00053737234 -0.00204473950 -0.00045130307 0.00052470686 -0.00204983048 -0.00044058145 0.00050787454 -0.00205418574 -0.00042740048 0.00048642282 -0.00205737117 -0.00041113019 0.00045989909 -0.00205895268 -0.00039114059 0.00042785076 -0.00205849614 -0.00048555255 0.00055074640 -0.00200390675 -0.00047686729 0.00055003677 -0.00200647862 -0.00046887927 0.00054719903 -0.00200924384 -0.00046101199 0.00054172011 -0.00201193523 -0.00045268896 0.00053308694 -0.00201428558 -0.00044333368 0.00052078643 -0.00201602770 -0.00043236965 0.00050430551 -0.00201689439 -0.00041922039 0.00048313111 -0.00201661846 -0.00040330939 0.00045675016 -0.00201493271 -0.00038406016 0.00042464958 -0.00201156994 -0.00048152340 0.00054210734 -0.00198181693 -0.00047238036 0.00054040832 -0.00198324013 -0.00046386786 0.00053651420 -0.00198407570 -0.00045544996 0.00052996446 -0.00198423663 -0.00044659073 0.00052029857 -0.00198363587 -0.00043675424 0.00050705601 -0.00198218641 -0.00042540455 0.00048977627 -0.00197980122 -0.00041200573 0.00046799882 -0.00197639328 -0.00039602184 0.00044126314 -0.00197187555 -0.00037691696 0.00040910872 -0.00196616101 -0.00047811438 0.00052961527 -0.00195972728 -0.00046885203 0.00052611063 -0.00195983287 -0.00046013031 0.00052000720 -0.00195873293 -0.00045142178 0.00051101176 -0.00195649439 -0.00044219898 0.00049883111 -0.00195318418 -0.00043193445 0.00048317202 -0.00194886926 -0.00042010073 0.00046374128 -0.00194361655 -0.00040617036 0.00044024567 -0.00193749300 -0.00038961590 0.00041239198 -0.00193056555 -0.00036990988 0.00037988698 -0.00192290113 -0.00047545714 0.00051338483 -0.00193793401 -0.00046639948 0.00050724590 -0.00193641186 -0.00045781956 0.00049772650 -0.00193336605 -0.00044914716 0.00048481717 -0.00192895179 -0.00043981206 0.00046850845 -0.00192332432 -0.00042924401 0.00044879089 -0.00191663888 -0.00041687280 0.00042565503 -0.00190905070 -0.00040212818 0.00039909143 -0.00190071501 -0.00038443994 0.00036909063 -0.00189178706 -0.00036323785 0.00033564317 -0.00188242207 -0.00047368333 0.00049353062 -0.00191673332 -0.00046513989 0.00048391637 -0.00191313212 -0.00045708852 0.00046972060 -0.00190812558 -0.00044884580 0.00045133580 -0.00190185211 -0.00043972831 0.00042915445 -0.00189445009 -0.00042905263 0.00040356902 -0.00188605791 -0.00041613536 0.00037497198 -0.00187681399 -0.00040029307 0.00034375583 -0.00186685670 -0.00038084234 0.00031031304 -0.00185632444 -0.00035709977 0.00027503609 -0.00184535561 -0.00047292459 0.00047016729 -0.00189642144 -0.00046519046 0.00045622425 -0.00189014866 -0.00045809012 0.00043603799 -0.00188316207 -0.00045073739 0.00041052281 -0.00187543863 -0.00044224608 0.00038059300 -0.00186695529 -0.00043173001 0.00034716283 -0.00185768901 -0.00041830301 0.00031114661 -0.00184761674 -0.00040107889 0.00027345863 -0.00183671543 -0.00037917146 0.00023501317 -0.00182496204 -0.00035169456 0.00019672453 -0.00181233353 -0.00051738886 0.00054018086 -0.00209310270 -0.00051582723 0.00053202774 -0.00210880767 -0.00051361537 0.00052134976 -0.00212233694 -0.00051048508 0.00050827061 -0.00213502734 -0.00050616817 0.00049291397 -0.00214821568 -0.00050039643 0.00047540352 -0.00216323880 -0.00049290167 0.00045586296 -0.00218143351 -0.00048341569 0.00043441596 -0.00220413664 -0.00047167030 0.00041118621 -0.00223268502 -0.00045739729 0.00038629741 -0.00226841547 -0.00051304061 0.00054896196 -0.00207225691 -0.00050988610 0.00054430810 -0.00208247797 -0.00050654587 0.00053681996 -0.00209340702 -0.00050251796 0.00052626770 -0.00210511467 -0.00049730042 0.00051242149 -0.00211767151 -0.00049039131 0.00049505150 -0.00213114814 -0.00048128868 0.00047392790 -0.00214561517 -0.00046949058 0.00044882085 -0.00216114319 -0.00045449507 0.00041950052 -0.00217780280 -0.00043580020 0.00038573708 -0.00219566461 -0.00050857236 0.00055327605 -0.00204970511 -0.00050409107 0.00055095307 -0.00205611891 -0.00049971323 0.00054569583 -0.00206431268 -0.00049479547 0.00053700286 -0.00207374983 -0.00048869444 0.00052437268 -0.00208389374 -0.00048076678 0.00050730383 -0.00209420782 -0.00047036912 0.00048529482 -0.00210415546 -0.00045685812 0.00045784419 -0.00211320005 -0.00043959041 0.00042445047 -0.00212080499 -0.00041792262 0.00038461217 -0.00212643367 -0.00050410009 0.00055316296 -0.00202590475 -0.00049855595 0.00055198470 -0.00202970559 -0.00049326301 0.00054791287 -0.00203507743 -0.00048751317 0.00054026169 -0.00204135478 -0.00048059832 0.00052834537 -0.00204787215 -0.00047181036 0.00051147813 -0.00205396403 -0.00046044118 0.00048897420 -0.00205896495 -0.00044578268 0.00046014779 -0.00206220941 -0.00042712676 0.00042431312 -0.00206303192 -0.00040376531 0.00038078441 -0.00206076699 -0.00049973975 0.00054866255 -0.00200131327 -0.00049339456 0.00054742508 -0.00200321312 -0.00048734080 0.00054340659 -0.00200572478 -0.00048086662 0.00053582980 -0.00200835148 -0.00047326017 0.00052391739 -0.00201059647 -0.00046380959 0.00050689206 -0.00201196297 -0.00045180303 0.00048397651 -0.00201195423 -0.00043652865 0.00045439343 -0.00201007348 -0.00041727459 0.00041736553 -0.00200582397 -0.00039332900 0.00037211549 -0.00199870892 -0.00049560731 0.00053981465 -0.00197638812 -0.00048872072 0.00053729624 -0.00197661659 -0.00048209217 0.00053211249 -0.00197627823 -0.00047505138 0.00052349280 -0.00197516189 -0.00046692808 0.00051066659 -0.00197305647 -0.00045705200 0.00049286326 -0.00196975084 -0.00044475286 0.00046931224 -0.00196503387 -0.00042936040 0.00043924293 -0.00195869446 -0.00041020435 0.00040188475 -0.00195052147 -0.00038661443 0.00035646712 -0.00194030379 -0.00049181874 0.00052665911 -0.00195158675 -0.00048464825 0.00052162028 -0.00194989111 -0.00047766269 0.00051396606 -0.00194676127 -0.00047026300 0.00050303630 -0.00194220796 -0.00046185016 0.00048817079 -0.00193624190 -0.00045182512 0.00046870938 -0.00192887382 -0.00043958886 0.00044399187 -0.00192011446 -0.00042454233 0.00041335809 -0.00190997453 -0.00040608650 0.00037614786 -0.00189846479 -0.00038362234 0.00033170100 -0.00188559594 -0.00048849000 0.00050923578 -0.00192736662 -0.00048129097 0.00050041923 -0.00192301178 -0.00047419792 0.00048890281 -0.00191719743 -0.00046669704 0.00047424589 -0.00190991164 -0.00045827450 0.00045600784 -0.00190114251 -0.00044841649 0.00043374805 -0.00189087812 -0.00043660920 0.00040702587 -0.00187910656 -0.00042233881 0.00037540070 -0.00186581591 -0.00040509150 0.00033843190 -0.00185099427 -0.00038435347 0.00029567885 -0.00183462971 -0.00048573706 0.00048758449 -0.00190418517 -0.00047876270 0.00047371518 -0.00189595370 -0.00047184346 0.00045685824 -0.00188761019 -0.00046454905 0.00043690720 -0.00187869490 -0.00045644921 0.00041375558 -0.00186874806 -0.00044711364 0.00038729691 -0.00185730993 -0.00043611207 0.00035742473 -0.00184392075 -0.00042301422 0.00032403256 -0.00182812078 -0.00040738981 0.00028701393 -0.00180945026 -0.00038880855 0.00024626237 -0.00178744945 -0.00048367589 0.00046174510 -0.00188249985 -0.00047717725 0.00044153019 -0.00186869197 -0.00047074485 0.00041776785 -0.00185802308 -0.00046401460 0.00039080582 -0.00184897968 -0.00045662238 0.00036099183 -0.00184004830 -0.00044820410 0.00032867363 -0.00182971544 -0.00043839565 0.00029419893 -0.00181646762 -0.00042683295 0.00025791548 -0.00179879135 -0.00041315187 0.00022017101 -0.00177517313 -0.00039698834 0.00018131325 -0.00174409949 -0.00053012539 0.00053547003 -0.00209955176 -0.00052988176 0.00052498784 -0.00212051271 -0.00052893420 0.00051324272 -0.00213685410 -0.00052723497 0.00050015115 -0.00215091052 -0.00052473633 0.00048562962 -0.00216501654 -0.00052139053 0.00046959462 -0.00218150674 -0.00051714985 0.00045196265 -0.00220271571 -0.00051196653 0.00043265019 -0.00223097802 -0.00050579284 0.00041157372 -0.00226862825 -0.00049858103 0.00038864975 -0.00231800098 -0.00052648966 0.00054484253 -0.00207670908 -0.00052506138 0.00053860940 -0.00209013094 -0.00052323769 0.00053005705 -0.00210330481 -0.00052060757 0.00051877464 -0.00211668992 -0.00051676001 0.00050435131 -0.00213074546 -0.00051128397 0.00048637623 -0.00214593064 -0.00050376845 0.00046443854 -0.00216270467 -0.00049380241 0.00043812740 -0.00218152677 -0.00048097483 0.00040703197 -0.00220285613 -0.00046487469 0.00037074140 -0.00222715198 -0.00052256407 0.00054963586 -0.00205184934 -0.00052009326 0.00054629996 -0.00205992764 -0.00051742330 0.00053999856 -0.00206963118 -0.00051389951 0.00053007135 -0.00208047324 -0.00050886720 0.00051585804 -0.00209196706 -0.00050167168 0.00049669833 -0.00210362591 -0.00049165827 0.00047193191 -0.00211496304 -0.00047817229 0.00044089849 -0.00212549170 -0.00046055905 0.00040293777 -0.00213472517 -0.00043816387 0.00035738945 -0.00214217669 -0.00051845137 0.00054984351 -0.00202552908 -0.00051508390 0.00054800833 -0.00202984365 -0.00051162396 0.00054290622 -0.00203587740 -0.00050727987 0.00053370605 -0.00204287423 -0.00050125995 0.00051957670 -0.00205007807 -0.00049277251 0.00049968704 -0.00205673285 -0.00048102585 0.00047320596 -0.00206208247 -0.00046522831 0.00043930232 -0.00206537087 -0.00044458819 0.00039714501 -0.00206584196 -0.00041831381 0.00034590289 -0.00206273967 -0.00051425431 0.00054545900 -0.00199830482 -0.00051013977 0.00054368333 -0.00199981984 -0.00050597258 0.00053861902 -0.00200208765 -0.00050091776 0.00052934350 -0.00200450664 -0.00049414033 0.00051493418 -0.00200647520 -0.00048480531 0.00049446850 -0.00200739174 -0.00047207771 0.00046702388 -0.00200665464 -0.00045512258 0.00043167776 -0.00200366230 -0.00043310492 0.00038750756 -0.00199781311 -0.00040518976 0.00033359072 -0.00198850547 -0.00051007564 0.00053647582 -0.00197073310 -0.00050536738 0.00053327379 -0.00196979704 -0.00050060210 0.00052697596 -0.00196830612 -0.00049498227 0.00051664846 -0.00196598421 -0.00048771039 0.00050135737 -0.00196255517 -0.00047798893 0.00048016881 -0.00195774289 -0.00046502038 0.00045214889 -0.00195127123 -0.00044800722 0.00041636369 -0.00194286405 -0.00042615192 0.00037187933 -0.00193224523 -0.00039865698 0.00031776192 -0.00191913864 -0.00050601811 0.00052288750 -0.00194337045 -0.00050087320 0.00051672851 -0.00193971611 -0.00049564542 0.00050781602 -0.00193457700 -0.00048964251 0.00049528569 -0.00192792069 -0.00048217220 0.00047827317 -0.00191971470 -0.00047254224 0.00045591411 -0.00190992659 -0.00046006038 0.00042734416 -0.00189852389 -0.00044403434 0.00039169897 -0.00188547416 -0.00042377188 0.00034811420 -0.00187074492 -0.00039858072 0.00029572549 -0.00185430373 -0.00050218447 0.00050468753 -0.00191677341 -0.00049676372 0.00049399631 -0.00190951789 -0.00049123547 0.00048097818 -0.00190094449 -0.00048506755 0.00046491996 -0.00189092983 -0.00047772781 0.00044510847 -0.00187935050 -0.00046868409 0.00042083051 -0.00186608313 -0.00045740423 0.00039137291 -0.00185100431 -0.00044335607 0.00035602249 -0.00183399066 -0.00042600746 0.00031406605 -0.00181491879 -0.00040482623 0.00026479041 -0.00179366529 -0.00049867748 0.00048186943 -0.00189149849 -0.00049314544 0.00046502602 -0.00187914323 -0.00048750518 0.00044630145 -0.00186745277 -0.00048142652 0.00042521604 -0.00185562537 -0.00047457929 0.00040129016 -0.00184285929 -0.00046663333 0.00037404414 -0.00182835280 -0.00045725847 0.00034299834 -0.00181130415 -0.00044612453 0.00030767310 -0.00179091160 -0.00043290135 0.00026758877 -0.00176637343 -0.00041725876 0.00022226569 -0.00173688788 -0.00049559988 0.00045442669 -0.00186810225 -0.00049012484 0.00042976646 -0.00184853299 -0.00048458745 0.00040362479 -0.00183414603 -0.00047888849 0.00037583869 -0.00182262107 -0.00047292869 0.00034624513 -0.00181163779 -0.00046660882 0.00031468111 -0.00179887589 -0.00045982962 0.00028098363 -0.00178201507 -0.00045249184 0.00024498968 -0.00175873503 -0.00044449624 0.00020653624 -0.00172671545 -0.00043574357 0.00016546032 -0.00168363603 -0.00054306698 0.00053056370 -0.00210508157 -0.00054391302 0.00051879356 -0.00212927280 -0.00054421100 0.00050650732 -0.00214796326 -0.00054399676 0.00049346667 -0.00216385839 -0.00054330616 0.00047943330 -0.00217966364 -0.00054217504 0.00046416889 -0.00219808447 -0.00054063925 0.00044743515 -0.00222182631 -0.00053873464 0.00042899376 -0.00225359463 -0.00053649705 0.00040860640 -0.00229609486 -0.00053396232 0.00038603478 -0.00235203246 -0.00054007778 0.00054020144 -0.00208023898 -0.00054018296 0.00053290118 -0.00209608407 -0.00053983937 0.00052365863 -0.00211115487 -0.00053866187 0.00051193343 -0.00212610218 -0.00053626531 0.00049718524 -0.00214157679 -0.00053226457 0.00047887370 -0.00215822950 -0.00052627451 0.00045645845 -0.00217671108 -0.00051790998 0.00042939916 -0.00219767235 -0.00050678585 0.00039715547 -0.00222176409 -0.00049251699 0.00035918702 -0.00224963709 -0.00053665376 0.00054521130 -0.00205318619 -0.00053604292 0.00054102375 -0.00206282724 -0.00053503852 0.00053393334 -0.00207380493 -0.00053296349 0.00052318442 -0.00208571333 -0.00052914078 0.00050802133 -0.00209814649 -0.00052289332 0.00048768842 -0.00211069848 -0.00051354404 0.00046143002 -0.00212296335 -0.00050041587 0.00042849048 -0.00213453517 -0.00048283176 0.00038811415 -0.00214500799 -0.00046011463 0.00033954536 -0.00215397587 -0.00053288757 0.00054556554 -0.00202454443 -0.00053159013 0.00054305146 -0.00202953111 -0.00052992609 0.00053709872 -0.00203609857 -0.00052704463 0.00052681393 -0.00204351144 -0.00052209492 0.00051130372 -0.00205103434 -0.00051422616 0.00048967472 -0.00205793190 -0.00050258751 0.00046103353 -0.00206346873 -0.00048632817 0.00042448680 -0.00206690946 -0.00046459730 0.00037914115 -0.00206751871 -0.00043654410 0.00032410319 -0.00206456110 -0.00052887187 0.00054123640 -0.00199493492 -0.00052692187 0.00053887454 -0.00199622445 -0.00052461976 0.00053292205 -0.00199822090 -0.00052104826 0.00052241628 -0.00200031611 -0.00051529008 0.00050639456 -0.00200190194 -0.00050642795 0.00048389424 -0.00200237023 -0.00049354458 0.00045395267 -0.00200111283 -0.00047572270 0.00041560720 -0.00199752160 -0.00045204502 0.00036789516 -0.00199098839 -0.00042159427 0.00030985389 -0.00198090504 -0.00052469931 0.00053219615 -0.00196497890 -0.00052213539 0.00052838320 -0.00196293608 -0.00051923718 0.00052117061 -0.00196035705 -0.00051511736 0.00050958576 -0.00195694694 -0.00050888859 0.00049265599 -0.00195241087 -0.00049966355 0.00046940866 -0.00194645394 -0.00048655490 0.00043887112 -0.00193878127 -0.00046867531 0.00040007074 -0.00192909798 -0.00044513745 0.00035203487 -0.00191710918 -0.00041505399 0.00029379086 -0.00190251998 -0.00052046256 0.00051841703 -0.00193529761 -0.00051732793 0.00051146763 -0.00192969476 -0.00051389601 0.00050161168 -0.00192269215 -0.00050939492 0.00048791668 -0.00191422354 -0.00050305282 0.00046945015 -0.00190422274 -0.00049409784 0.00044527961 -0.00189262352 -0.00048175814 0.00041447256 -0.00187935967 -0.00046526186 0.00037609651 -0.00186436497 -0.00044383714 0.00032921898 -0.00184757322 -0.00041671212 0.00027290748 -0.00182891819 -0.00051625426 0.00049987130 -0.00190651227 -0.00051259677 0.00048801805 -0.00189652931 -0.00050871390 0.00047401251 -0.00188541131 -0.00050402392 0.00045700334 -0.00187296550 -0.00049794509 0.00043613920 -0.00185899913 -0.00048989568 0.00041056876 -0.00184331943 -0.00047929395 0.00037944066 -0.00182573363 -0.00046555818 0.00034190359 -0.00180604896 -0.00044810661 0.00029710620 -0.00178407265 -0.00042635753 0.00024419715 -0.00175961195 -0.00051216707 0.00047653120 -0.00187924412 -0.00050803915 0.00045792468 -0.00186346850 -0.00050380852 0.00043814041 -0.00184869966 -0.00049914734 0.00041644006 -0.00183399243 -0.00049372777 0.00039208528 -0.00181840166 -0.00048722193 0.00036433775 -0.00180098216 -0.00047930200 0.00033245912 -0.00178078877 -0.00046964011 0.00029571105 -0.00175687632 -0.00045790842 0.00025335520 -0.00172829963 -0.00044377907 0.00020465323 -0.00169411354 -0.00050829365 0.00044836900 -0.00185411439 -0.00050375232 0.00042107770 -0.00183054112 -0.00049929753 0.00039376263 -0.00181274232 -0.00049490818 0.00036582112 -0.00179812393 -0.00049056319 0.00033665054 -0.00178409190 -0.00048624147 0.00030564825 -0.00176805218 -0.00048192194 0.00027221161 -0.00174741071 -0.00047758351 0.00023573797 -0.00171957343 -0.00047320509 0.00019562469 -0.00168194629 -0.00046876560 0.00015126914 -0.00163193524 -0.00055583346 0.00052567801 -0.00210908294 -0.00055761313 0.00051354454 -0.00213460110 -0.00055909514 0.00050122522 -0.00215491677 -0.00056031285 0.00048837262 -0.00217265219 -0.00056129961 0.00047463932 -0.00219042960 -0.00056208875 0.00045967787 -0.00221087125 -0.00056271363 0.00044314086 -0.00223659940 -0.00056320760 0.00042468083 -0.00227023628 -0.00056360401 0.00040395037 -0.00231440414 -0.00056393619 0.00038060204 -0.00237172524 -0.00055349126 0.00053519911 -0.00208251395 -0.00055500017 0.00052729631 -0.00209983123 -0.00055608734 0.00051773645 -0.00211622354 -0.00055636961 0.00050590322 -0.00213239150 -0.00055546381 0.00049118029 -0.00214903571 -0.00055298679 0.00047295135 -0.00216685677 -0.00054855537 0.00045060008 -0.00218655529 -0.00054178640 0.00042351016 -0.00220883188 -0.00053229670 0.00039106528 -0.00223438714 -0.00051970312 0.00035264911 -0.00226392169 -0.00055057541 0.00054012724 -0.00205356709 -0.00055172817 0.00053523046 -0.00206438956 -0.00055235515 0.00052761711 -0.00207622928 -0.00055177996 0.00051650124 -0.00208878482 -0.00054932624 0.00050109689 -0.00210175475 -0.00054431760 0.00048061813 -0.00211483765 -0.00053607768 0.00045427901 -0.00212773207 -0.00052393011 0.00042129358 -0.00214013659 -0.00050719850 0.00038087588 -0.00215174979 -0.00048520648 0.00033223999 -0.00216227022 -0.00054717223 0.00054043510 -0.00202292168 -0.00054788532 0.00053720094 -0.00202849154 -0.00054800104 0.00053059587 -0.00203535282 -0.00054666379 0.00051974259 -0.00204287261 -0.00054301796 0.00050376383 -0.00205041803 -0.00053620796 0.00048178227 -0.00205735618 -0.00052537819 0.00045292063 -0.00206305416 -0.00050967304 0.00041630162 -0.00206687909 -0.00048823692 0.00037104794 -0.00206819808 -0.00046021423 0.00031628230 -0.00206637822 -0.00054336807 0.00053609542 -0.00199125705 -0.00054355980 0.00053306171 -0.00199235265 -0.00054312749 0.00052640142 -0.00199401301 -0.00054114096 0.00051520322 -0.00199569534 -0.00053667005 0.00049855579 -0.00199685682 -0.00052878462 0.00047554780 -0.00199695464 -0.00051655450 0.00044526792 -0.00199544599 -0.00049904952 0.00040680482 -0.00199178806 -0.00047533953 0.00035924718 -0.00198543802 -0.00044449436 0.00030168366 -0.00197585309 -0.00053924926 0.00052708091 -0.00195925253 -0.00053883981 0.00052266673 -0.00195618831 -0.00053783696 0.00051476245 -0.00195262870 -0.00053533135 0.00050245905 -0.00194829348 -0.00053041361 0.00048484750 -0.00194290243 -0.00052217436 0.00046101878 -0.00193617533 -0.00050970423 0.00043006387 -0.00192783198 -0.00049209385 0.00039107373 -0.00191759216 -0.00046843384 0.00034313935 -0.00190517564 -0.00043781484 0.00028535170 -0.00189030222 -0.00053490215 0.00051336429 -0.00192758745 -0.00053381353 0.00050586996 -0.00192021400 -0.00053223195 0.00049540765 -0.00191161873 -0.00052935486 0.00048108600 -0.00190170749 -0.00052437970 0.00046201364 -0.00189038613 -0.00051650393 0.00043729924 -0.00187756054 -0.00050492499 0.00040605144 -0.00186313657 -0.00048884033 0.00036737888 -0.00184702008 -0.00046744740 0.00032039020 -0.00182911693 -0.00043994365 0.00026419405 -0.00180933300 -0.00053041305 0.00049491828 -0.00189694112 -0.00052856914 0.00048252537 -0.00188464517 -0.00052641491 0.00046806571 -0.00187140195 -0.00052333134 0.00045065999 -0.00185697784 -0.00051869941 0.00042942893 -0.00184113924 -0.00051190011 0.00040349324 -0.00182365255 -0.00050231441 0.00037197363 -0.00180428417 -0.00048932330 0.00033399080 -0.00178280049 -0.00047230775 0.00028866546 -0.00175896791 -0.00045064876 0.00023511832 -0.00173255284 -0.00052586831 0.00047171560 -0.00186799287 -0.00052319484 0.00045248692 -0.00184969727 -0.00052048833 0.00043246530 -0.00183239719 -0.00051738069 0.00041075695 -0.00181514499 -0.00051350383 0.00038646806 -0.00179699303 -0.00050848966 0.00035870482 -0.00177699365 -0.00050197009 0.00032657341 -0.00175419921 -0.00049357704 0.00028918003 -0.00172766207 -0.00048294242 0.00024563088 -0.00169643459 -0.00046969815 0.00019503215 -0.00165956911 -0.00052135426 0.00044372897 -0.00184142204 -0.00051777882 0.00041560856 -0.00181558575 -0.00051455469 0.00038833513 -0.00179502332 -0.00051162278 0.00036095282 -0.00177724943 -0.00050892402 0.00033250574 -0.00175977880 -0.00050639934 0.00030203801 -0.00174012613 -0.00050398965 0.00026859377 -0.00171580613 -0.00050163588 0.00023121712 -0.00168433351 -0.00049927896 0.00018895221 -0.00164322297 -0.00049685979 0.00014084314 -0.00158998922 -0.00056804466 0.00052102908 -0.00211094666 -0.00057067419 0.00050934039 -0.00213601076 -0.00057323600 0.00049747805 -0.00215696700 -0.00057572562 0.00048502446 -0.00217607315 -0.00057813860 0.00047156201 -0.00219558702 -0.00058047046 0.00045667311 -0.00221776638 -0.00058271676 0.00043994017 -0.00224486904 -0.00058487303 0.00042094558 -0.00227915279 -0.00058693481 0.00039927174 -0.00232287540 -0.00058889765 0.00037450105 -0.00237829468 -0.00056641638 0.00052999599 -0.00208320130 -0.00056926230 0.00052190767 -0.00210086628 -0.00057171803 0.00051240230 -0.00211777718 -0.00057341959 0.00050084314 -0.00213459792 -0.00057400300 0.00048659349 -0.00215199240 -0.00057310432 0.00046901664 -0.00217062452 -0.00057035955 0.00044747586 -0.00219115819 -0.00056540475 0.00042133444 -0.00221425731 -0.00055787593 0.00038995567 -0.00224058579 -0.00054740913 0.00035270283 -0.00227080753 -0.00056406297 0.00053450854 -0.00205284346 -0.00056693716 0.00052902614 -0.00206418642 -0.00056916948 0.00052116681 -0.00207629956 -0.00057014146 0.00051018098 -0.00208900242 -0.00056923460 0.00049531907 -0.00210211456 -0.00056583043 0.00047583151 -0.00211545552 -0.00055931047 0.00045096874 -0.00212884487 -0.00054905623 0.00041998118 -0.00214210214 -0.00053444923 0.00038211925 -0.00215504690 -0.00051487099 0.00033663340 -0.00216749869 -0.00056106888 0.00053455826 -0.00202063174 -0.00056378011 0.00053054359 -0.00202644857 -0.00056568042 0.00052350315 -0.00203325201 -0.00056599368 0.00051264929 -0.00204056393 -0.00056394377 0.00049719440 -0.00204790619 -0.00055875456 0.00047635083 -0.00205480066 -0.00054964992 0.00044933096 -0.00206076920 -0.00053585374 0.00041534715 -0.00206533369 -0.00051658988 0.00037361177 -0.00206801598 -0.00049108223 0.00032333720 -0.00206833795 -0.00055751855 0.00053013669 -0.00198732472 -0.00055987251 0.00052630782 -0.00198813009 -0.00056134091 0.00051914285 -0.00198935244 -0.00056107871 0.00050785941 -0.00199055975 -0.00055824090 0.00049167515 -0.00199132001 -0.00055198245 0.00046980769 -0.00199120121 -0.00054145835 0.00044147467 -0.00198977132 -0.00052582356 0.00040589374 -0.00198659835 -0.00050423307 0.00036228252 -0.00198125026 -0.00047584186 0.00030985865 -0.00197329505 -0.00055349642 0.00052123538 -0.00195368100 -0.00055529571 0.00051616663 -0.00194970836 -0.00055624099 0.00050781747 -0.00194531873 -0.00055549898 0.00049542266 -0.00194026717 -0.00055223637 0.00047821698 -0.00193430872 -0.00054561986 0.00045543518 -0.00192719843 -0.00053481616 0.00042631203 -0.00191869135 -0.00051899197 0.00039008231 -0.00190854251 -0.00049731398 0.00034598077 -0.00189650697 -0.00046894891 0.00029324218 -0.00188233977 -0.00054908694 0.00050784586 -0.00192045918 -0.00055013105 0.00049996782 -0.00191166074 -0.00055047074 0.00048925856 -0.00190186878 -0.00054935694 0.00047495037 -0.00189096348 -0.00054604056 0.00045627555 -0.00187882503 -0.00053977254 0.00043246640 -0.00186533361 -0.00052980379 0.00040275520 -0.00185036940 -0.00051538523 0.00036637424 -0.00183381258 -0.00049576779 0.00032255582 -0.00181554334 -0.00047020238 0.00027053223 -0.00179544186 -0.00054437454 0.00048995969 -0.00188841783 -0.00054445988 0.00047755918 -0.00187446461 -0.00054412021 0.00046319766 -0.00185972048 -0.00054275503 0.00044605386 -0.00184392598 -0.00053976387 0.00042530654 -0.00182682165 -0.00053454624 0.00040013444 -0.00180814801 -0.00052650166 0.00036971631 -0.00178764560 -0.00051502963 0.00033323090 -0.00176505495 -0.00049952967 0.00028985696 -0.00174011661 -0.00047940130 0.00023877323 -0.00171257109 -0.00053944368 0.00046756841 -0.00185831556 -0.00053836356 0.00044878853 -0.00183859733 -0.00053727946 0.00042936632 -0.00181959172 -0.00053579571 0.00040834446 -0.00180043195 -0.00053351668 0.00038476559 -0.00178025127 -0.00053004672 0.00035767239 -0.00175818290 -0.00052499019 0.00032610753 -0.00173336007 -0.00051795143 0.00028911366 -0.00170491603 -0.00050853481 0.00024573346 -0.00167198401 -0.00049634467 0.00019500959 -0.00163369723 -0.00053437880 0.00044066355 -0.00183091095 -0.00053192344 0.00041350365 -0.00180453629 -0.00053003855 0.00038749610 -0.00178220040 -0.00052858141 0.00036143349 -0.00176175870 -0.00052740937 0.00033410838 -0.00174106661 -0.00052637973 0.00030431336 -0.00171797955 -0.00052534980 0.00027084101 -0.00169035295 -0.00052417691 0.00023248390 -0.00165604222 -0.00052271838 0.00018803463 -0.00161290277 -0.00052083151 0.00013628576 -0.00155879004 -0.00057932039 0.00051683304 -0.00211006356 -0.00058278833 0.00050628075 -0.00213301493 -0.00058628295 0.00049534746 -0.00215336628 -0.00058977746 0.00048357761 -0.00217290251 -0.00059324507 0.00047051569 -0.00219340850 -0.00059665898 0.00045570616 -0.00221666914 -0.00059999239 0.00043869349 -0.00224446934 -0.00060321852 0.00041902215 -0.00227859397 -0.00060631056 0.00039623661 -0.00232082794 -0.00060924173 0.00036988134 -0.00237295613 -0.00057853942 0.00052475252 -0.00208196838 -0.00058271867 0.00051684814 -0.00209868308 -0.00058646786 0.00050776792 -0.00211508214 -0.00058950057 0.00049691233 -0.00213176148 -0.00059153037 0.00048368186 -0.00214931706 -0.00059227084 0.00046747700 -0.00216834481 -0.00059143557 0.00044769823 -0.00218944067 -0.00058873813 0.00042374604 -0.00221320059 -0.00058389210 0.00039502091 -0.00224022050 -0.00057661106 0.00036092334 -0.00227109635 -0.00057685043 0.00052848007 -0.00205086675 -0.00058145802 0.00052251683 -0.00206178968 -0.00058527780 0.00051469939 -0.00207341111 -0.00058784052 0.00050438282 -0.00208568083 -0.00058867691 0.00049092220 -0.00209854861 -0.00058731771 0.00047367259 -0.00211196421 -0.00058329365 0.00045198906 -0.00212587741 -0.00057613548 0.00042522668 -0.00214023798 -0.00056537392 0.00039274053 -0.00215499568 -0.00055053972 0.00035388567 -0.00217010030 -0.00057434106 0.00052804107 -0.00201764550 -0.00057908517 0.00052316626 -0.00202312578 -0.00058279587 0.00051592605 -0.00202940801 -0.00058489067 0.00050569128 -0.00203619159 -0.00058478707 0.00049183283 -0.00204317590 -0.00058190260 0.00047372152 -0.00205006033 -0.00057565475 0.00045072822 -0.00205654429 -0.00056546105 0.00042222378 -0.00206232716 -0.00055073900 0.00038757905 -0.00206710834 -0.00053090611 0.00034616488 -0.00207058722 -0.00057109894 0.00052346087 -0.00198319142 -0.00057567894 0.00051867588 -0.00198348247 -0.00057910517 0.00051123208 -0.00198412765 -0.00058074436 0.00050053992 -0.00198482477 -0.00057996324 0.00048600988 -0.00198527166 -0.00057612854 0.00046705240 -0.00198516614 -0.00056860700 0.00044307797 -0.00198420603 -0.00055676534 0.00041349703 -0.00198208915 -0.00053997030 0.00037772005 -0.00197851333 -0.00051758860 0.00033515749 -0.00197317638 -0.00056721170 0.00051476483 -0.00194839133 -0.00057131814 0.00050892515 -0.00194365082 -0.00057428881 0.00050040167 -0.00193862482 -0.00057549495 0.00048863094 -0.00193311140 -0.00057430779 0.00047304949 -0.00192690863 -0.00057009857 0.00045309385 -0.00191981459 -0.00056223850 0.00042820055 -0.00191162734 -0.00055009883 0.00039780613 -0.00190214495 -0.00053305078 0.00036134712 -0.00189116549 -0.00051046558 0.00031826005 -0.00187848704 -0.00056276699 0.00050197833 -0.00191413202 -0.00056608156 0.00049379350 -0.00190442188 -0.00056842988 0.00048321901 -0.00189395432 -0.00056923578 0.00046966654 -0.00188258250 -0.00056792310 0.00045254779 -0.00187015956 -0.00056391569 0.00043127445 -0.00185653866 -0.00055663738 0.00040525822 -0.00184157295 -0.00054551200 0.00037391078 -0.00182511558 -0.00052996341 0.00033664384 -0.00180701969 -0.00050941544 0.00029286909 -0.00178713845 -0.00055785243 0.00048512673 -0.00188130031 -0.00056004803 0.00047316040 -0.00186658674 -0.00056161149 0.00045946827 -0.00185117098 -0.00056206020 0.00044334892 -0.00183476910 -0.00056091155 0.00042410090 -0.00181709719 -0.00055768294 0.00040102281 -0.00179787132 -0.00055189174 0.00037341322 -0.00177680758 -0.00054305535 0.00034057069 -0.00175362204 -0.00053069116 0.00030179381 -0.00172803078 -0.00051431655 0.00025638114 -0.00169974988 -0.00055255567 0.00046423539 -0.00185078301 -0.00055329634 0.00044690529 -0.00183093647 -0.00055391673 0.00042893365 -0.00181132958 -0.00055406156 0.00040938028 -0.00179120222 -0.00055337552 0.00038730498 -0.00176979425 -0.00055150334 0.00036176755 -0.00174634554 -0.00054808972 0.00033182781 -0.00172009595 -0.00054277937 0.00029654555 -0.00169028535 -0.00053521699 0.00025498059 -0.00165615360 -0.00052504731 0.00020619273 -0.00161694057 -0.00054696432 0.00043932968 -0.00182346690 -0.00054590530 0.00041490762 -0.00179826212 -0.00054542871 0.00039139933 -0.00177548494 -0.00054533320 0.00036746283 -0.00175341289 -0.00054541739 0.00034175613 -0.00173032350 -0.00054547992 0.00031293726 -0.00170449429 -0.00054531942 0.00027966423 -0.00167420278 -0.00054473453 0.00024059507 -0.00163772652 -0.00054352388 0.00019438779 -0.00159334301 -0.00054148610 0.00013970041 -0.00153932980 -0.00058928050 0.00051330602 -0.00210582444 -0.00059364765 0.00050446525 -0.00212512676 -0.00059788536 0.00049491508 -0.00214336698 -0.00060201075 0.00048418754 -0.00216192149 -0.00060604096 0.00047181468 -0.00218216665 -0.00060999310 0.00045732856 -0.00220547882 -0.00061388429 0.00044026123 -0.00223323436 -0.00061773167 0.00042014473 -0.00226680966 -0.00062155235 0.00039651111 -0.00230758106 -0.00062536345 0.00036889243 -0.00235692494 -0.00058954667 0.00051962912 -0.00207848249 -0.00059511858 0.00051223060 -0.00209277550 -0.00060007326 0.00050394509 -0.00210740476 -0.00060430133 0.00049426993 -0.00212292223 -0.00060769339 0.00048270242 -0.00213987988 -0.00061014005 0.00046873989 -0.00215882969 -0.00061153193 0.00045187964 -0.00218032362 -0.00061175963 0.00043161900 -0.00220491366 -0.00061071376 0.00040745528 -0.00223315177 -0.00060828494 0.00037888580 -0.00226558991 -0.00058867175 0.00052216671 -0.00204748838 -0.00059507887 0.00051580856 -0.00205677115 -0.00060047638 0.00050833178 -0.00206695929 -0.00060466969 0.00049926594 -0.00207813478 -0.00060746420 0.00048814062 -0.00209037964 -0.00060866534 0.00047448540 -0.00210377583 -0.00060807850 0.00045782983 -0.00211840538 -0.00060550910 0.00043770351 -0.00213435026 -0.00060076255 0.00041363600 -0.00215169247 -0.00059364426 0.00038515688 -0.00217051401 -0.00058675230 0.00052098959 -0.00201393385 -0.00059361115 0.00051515578 -0.00201824678 -0.00059917901 0.00050797006 -0.00202343270 -0.00060321108 0.00049902583 -0.00202936178 -0.00060546259 0.00048791650 -0.00203590422 -0.00060568873 0.00047423546 -0.00204293018 -0.00060364472 0.00045757613 -0.00205030986 -0.00059908578 0.00043753189 -0.00205791343 -0.00059176710 0.00041369616 -0.00206561107 -0.00058144391 0.00038566233 -0.00207327296 -0.00058388488 0.00051616860 -0.00197891065 -0.00059079804 0.00051022889 -0.00197833547 -0.00059626544 0.00050275484 -0.00197822710 -0.00060002077 0.00049339983 -0.00197840583 -0.00060179773 0.00048181725 -0.00197869192 -0.00060133002 0.00046766046 -0.00197890565 -0.00059835133 0.00045058285 -0.00197886730 -0.00059259537 0.00043023779 -0.00197839715 -0.00058379583 0.00040627866 -0.00197731546 -0.00057168641 0.00037835884 -0.00197544253 -0.00058016605 0.00050777456 -0.00194351052 -0.00058672217 0.00050098453 -0.00193817030 -0.00059181996 0.00049258105 -0.00193274463 -0.00059519399 0.00048223822 -0.00192706953 -0.00059657881 0.00046963009 -0.00192098103 -0.00059570898 0.00045443077 -0.00191431516 -0.00059231905 0.00043631432 -0.00190690795 -0.00058614358 0.00041495484 -0.00189859540 -0.00057691712 0.00039002639 -0.00188921356 -0.00056437424 0.00036120306 -0.00187859845 -0.00057569237 0.00049587829 -0.00190882521 -0.00058146615 0.00048737933 -0.00189888435 -0.00058592687 0.00047734362 -0.00188838739 -0.00058882600 0.00046539123 -0.00187715550 -0.00058991502 0.00045114225 -0.00186500987 -0.00058894540 0.00043421677 -0.00185177165 -0.00058566861 0.00041423488 -0.00183726203 -0.00057983611 0.00039081668 -0.00182130217 -0.00057119939 0.00036358224 -0.00180371326 -0.00055950990 0.00033215167 -0.00178431646 -0.00057056042 0.00048055061 -0.00187594647 -0.00057511261 0.00046936994 -0.00186161071 -0.00057867045 0.00045693745 -0.00184655751 -0.00058101205 0.00044270912 -0.00183046636 -0.00058191554 0.00042614092 -0.00181301671 -0.00058115906 0.00040668884 -0.00179388802 -0.00057852072 0.00038380885 -0.00177275978 -0.00057377867 0.00035695696 -0.00174931144 -0.00056671102 0.00032558912 -0.00172322246 -0.00055709590 0.00028916134 -0.00169417233 -0.00056486674 0.00046186234 -0.00184596603 -0.00056774419 0.00044691299 -0.00182748244 -0.00057013499 0.00043125748 -0.00180865712 -0.00057184738 0.00041404214 -0.00178880471 -0.00057268956 0.00039441332 -0.00176723985 -0.00057246973 0.00037151734 -0.00174327721 -0.00057099613 0.00034450056 -0.00171623144 -0.00056807695 0.00031250931 -0.00168541717 -0.00056352042 0.00027468992 -0.00165014907 -0.00055713474 0.00023018873 -0.00160974178 -0.00055870791 0.00043988432 -0.00181997565 -0.00055944349 0.00041996511 -0.00179763265 -0.00056040480 0.00040019861 -0.00177608833 -0.00056142725 0.00037924055 -0.00175397316 -0.00056234625 0.00035574666 -0.00172991761 -0.00056299721 0.00032837267 -0.00170255214 -0.00056321555 0.00029577434 -0.00167050724 -0.00056283668 0.00025660738 -0.00163241336 -0.00056169599 0.00020952753 -0.00158690099 -0.00055962892 0.00015319053 -0.00153260057 -0.00059754482 0.00051066414 -0.00209762012 -0.00060294427 0.00050399352 -0.00211185939 -0.00060769260 0.00049626256 -0.00212622145 -0.00061196789 0.00048700968 -0.00214191134 -0.00061594821 0.00047577330 -0.00216013407 -0.00061981163 0.00046209186 -0.00218209469 -0.00062373623 0.00044550377 -0.00220899820 -0.00062790008 0.00042554746 -0.00224204965 -0.00063248126 0.00040176135 -0.00228245406 -0.00063765784 0.00037368387 -0.00233141645 -0.00059912443 0.00051478624 -0.00207241098 -0.00060621133 0.00050816791 -0.00208263741 -0.00061227065 0.00050104559 -0.00209401140 -0.00061751064 0.00049307508 -0.00210712019 -0.00062213955 0.00048391219 -0.00212255105 -0.00062636564 0.00047321274 -0.00214089122 -0.00063039715 0.00046063253 -0.00216272795 -0.00063444235 0.00044582736 -0.00218864848 -0.00063870948 0.00042845305 -0.00221924007 -0.00064340681 0.00040816539 -0.00225508996 -0.00059926091 0.00051569330 -0.00204255978 -0.00060758786 0.00050900737 -0.00204870269 -0.00061456150 0.00050218093 -0.00205633943 -0.00062042150 0.00049498952 -0.00206567898 -0.00062540752 0.00048720869 -0.00207693034 -0.00062975922 0.00047861398 -0.00209030250 -0.00063371627 0.00046898092 -0.00210600443 -0.00063751833 0.00045808506 -0.00212424514 -0.00064140508 0.00044570194 -0.00214523360 -0.00064561616 0.00043160710 -0.00216917881 -0.00059806614 0.00051350989 -0.00200946769 -0.00060716871 0.00050659898 -0.00201153516 -0.00061466146 0.00049974066 -0.00201493792 -0.00062081127 0.00049281018 -0.00201968070 -0.00062588502 0.00048568280 -0.00202576821 -0.00063014959 0.00047823378 -0.00203320518 -0.00063387186 0.00047033838 -0.00204199634 -0.00063731871 0.00046187187 -0.00205214639 -0.00064075702 0.00045270950 -0.00206366007 -0.00064445367 0.00044272655 -0.00207654210 -0.00059565200 0.00050836054 -0.00197453590 -0.00060504875 0.00050102984 -0.00197261476 -0.00061266685 0.00049379687 -0.00197153926 -0.00061879078 0.00048659422 -0.00197121835 -0.00062370500 0.00047935452 -0.00197156094 -0.00062769399 0.00047201036 -0.00197247596 -0.00063104222 0.00046449435 -0.00197387235 -0.00063403417 0.00045673911 -0.00197565902 -0.00063695431 0.00044867722 -0.00197774491 -0.00064008711 0.00044024131 -0.00198003893 -0.00059213038 0.00050036983 -0.00193916560 -0.00060132285 0.00049238703 -0.00193342141 -0.00060867399 0.00048442162 -0.00192787583 -0.00061447082 0.00047639883 -0.00192238493 -0.00061900036 0.00046824387 -0.00191680480 -0.00062254961 0.00045988195 -0.00191099151 -0.00062540561 0.00045123828 -0.00190480115 -0.00062785537 0.00044223808 -0.00189808979 -0.00063018591 0.00043280656 -0.00189071351 -0.00063268425 0.00042286894 -0.00188252840 -0.00058761315 0.00048966230 -0.00190475797 -0.00059608587 0.00048075762 -0.00189543506 -0.00060277920 0.00047168700 -0.00188568000 -0.00060796222 0.00046228117 -0.00187527346 -0.00061190402 0.00045237084 -0.00186399607 -0.00061487370 0.00044178674 -0.00185162851 -0.00061714033 0.00043035959 -0.00183795142 -0.00061897301 0.00041792010 -0.00182274547 -0.00062064083 0.00040429901 -0.00180579131 -0.00062241287 0.00038932702 -0.00178686959 -0.00058221219 0.00047636252 -0.00187271419 -0.00058943268 0.00046622872 -0.00186013563 -0.00059507879 0.00045566510 -0.00184668416 -0.00059937579 0.00044429842 -0.00183197691 -0.00060254892 0.00043175546 -0.00181563103 -0.00060482346 0.00041766297 -0.00179726363 -0.00060642465 0.00040164773 -0.00177649186 -0.00060757776 0.00038333649 -0.00175293284 -0.00060850804 0.00036235603 -0.00172620371 -0.00060944075 0.00033833310 -0.00169592160 -0.00057603940 0.00046059503 -0.00184443545 -0.00058145815 0.00044888740 -0.00182900305 -0.00058566909 0.00043642798 -0.00181262067 -0.00058882234 0.00042250775 -0.00179458831 -0.00059106798 0.00040641771 -0.00177420594 -0.00059255612 0.00038744884 -0.00175077355 -0.00059343685 0.00036489213 -0.00172359113 -0.00059386029 0.00033803855 -0.00169195866 -0.00059397652 0.00030617909 -0.00165517613 -0.00059393564 0.00026860475 -0.00161254352 -0.00056920664 0.00044248440 -0.00182132294 -0.00057225713 0.00042882075 -0.00180351726 -0.00057464642 0.00041404773 -0.00178522193 -0.00057641268 0.00039696634 -0.00176520064 -0.00057759411 0.00037637762 -0.00174221708 -0.00057822890 0.00035108258 -0.00171503495 -0.00057835523 0.00031988223 -0.00168241793 -0.00057801128 0.00028157759 -0.00164312971 -0.00057723526 0.00023496969 -0.00159593399 -0.00057606534 0.00017885954 -0.00153959446 </DataArray>
</PointData>
<Points>
<DataArray type="Float32" NumberOfComponents="3">
-1.02174705164 0.12064815156 -1.64990888357 -1.02010423382 0.12415984125 -1.64190439083 -1.01685045579 0.12830900383 -1.63298744783 -1.01093807371 0.13332326678 -1.62319610791 -1.00131944377 0.13943025762 -1.61256842443 -0.98694692215 0.14685760385 -1.60114245074 -0.96677286501 0.15583293297 -1.58895624019 -0.93974962855 0.16658387248 -1.57604784613 -0.90482956894 0.17933804989 -1.56245532193 -0.86096504236 0.19432309270 -1.54821672094 -1.02226555530 0.12327336446 -1.66558380400 -1.02052225681 0.12832056074 -1.65937333777 -1.01755090974 0.13340865683 -1.65180173369 -1.01264773143 0.13878067572 -1.64311606766 -1.00510893922 0.14467964039 -1.63356341562 -0.99423075043 0.15134857385 -1.62339085346 -0.97930938242 0.15903049908 -1.61284545711 -0.95964105251 0.16796843908 -1.60217430249 -0.93452197805 0.17840541685 -1.59162446550 -0.90324837637 0.19058445538 -1.58144302207 -1.02265324331 0.12523985200 -1.68356368893 -1.02083455032 0.13143860611 -1.67913638936 -1.01807485848 0.13723069327 -1.67338770074 -1.01392832450 0.14287073737 -1.66661064953 -1.00794910512 0.14861336227 -1.65909826219 -0.99969135707 0.15471319187 -1.65114356516 -0.98870923708 0.16142485004 -1.64303958490 -0.97455690188 0.16900296065 -1.63507934787 -0.95678850820 0.17770214758 -1.62755588052 -0.93495821278 0.18777703472 -1.62076220931 -1.02291026481 0.12654783539 -1.70318990852 -1.02104122888 0.13351415891 -1.70053795599 -1.01842245428 0.13977528277 -1.69695329458 -1.01478009177 0.14559362339 -1.69265840491 -1.00984029216 0.15123159719 -1.68787576758 -1.00332920622 0.15695162057 -1.68282786321 -0.99497298475 0.16301610996 -1.67773717242 -0.98449777852 0.16968748176 -1.67282617581 -0.97162973832 0.17722815240 -1.66831735400 -0.95609501495 0.18590053828 -1.66443318760 -1.02303676894 0.12719753584 -1.72380383289 -1.02114240701 0.13454740070 -1.72292244804 -1.01859384942 0.14104259495 -1.72170646080 -1.01520327212 0.14694950544 -1.72023788519 -1.01078285102 0.15253451904 -1.71859873525 -1.00514476206 0.15806402259 -1.71687102502 -0.99810118117 0.16380440296 -1.71513676853 -0.98946428428 0.17002204702 -1.71347797983 -0.97904624733 0.17698334161 -1.71197667293 -0.96665924624 0.18495467360 -1.71071486189 -1.02303290484 0.12718917455 -1.74474683217 -1.02113819922 0.13453851306 -1.74563427590 -1.01858919620 0.14103279945 -1.74685514498 -1.01519810439 0.14693855518 -1.74832764177 -1.01077713237 0.15252230173 -1.74996996865 -1.00513848873 0.15805056057 -1.75170032798 -0.99809438209 0.16378985316 -1.75343692212 -0.98945702102 0.17000670099 -1.75509795345 -0.97903861412 0.17696762553 -1.75660162432 -0.96665136999 0.18493914823 -1.75786613711 -1.02289882165 0.12652297274 -1.76536027652 -1.02102872003 0.13348767754 -1.76801784994 -1.01840864689 0.13974606588 -1.77160729270 -1.01476482745 0.14556094425 -1.77590622605 -1.00982348689 0.15119511917 -1.78069227122 -1.00331085042 0.15691139715 -1.78574304947 -0.99495314326 0.16297258469 -1.79083618205 -0.98447659059 0.16964148829 -1.79574929020 -0.97160741763 0.17718091446 -1.80025999516 -0.95607184958 0.18585366971 -1.80414591820 -1.02263466850 0.12519915163 -1.78498553605 -1.02081408396 0.13139507571 -1.78941758055 -1.01805235378 0.13718256386 -1.79517084957 -1.01390368015 0.14281684432 -1.80195218941 -1.00792226526 0.14855314528 -1.80946844642 -0.99966231129 0.15464669499 -1.81742646690 -0.98867802043 0.16135272165 -1.82553309719 -0.97452359486 0.16892645349 -1.83349518360 -0.95675323677 0.17762311873 -1.84101957246 -0.93492114835 0.18769794558 -1.84781311009 -1.02224059455 0.12321793240 -1.80296398092 -1.02049440553 0.12826088912 -1.80917787812 -1.01752046915 0.13334246304 -1.81675376115 -1.01261490137 0.13870642703 -1.82544408326 -1.00507381817 0.14459655396 -1.83500129768 -0.99419333550 0.15125661672 -1.84517785766 -0.97926956935 0.15893038817 -1.85572621641 -0.95959863568 0.16786164118 -1.86639882719 -0.93447665046 0.17829414864 -1.87694814322 -0.90319972966 0.19047168340 -1.88712661774 -1.02171674891 0.12057953629 -1.81863698126 -1.02006979926 0.12408529934 -1.82664315301 -1.01681314529 0.12822593302 -1.83556397304 -1.01089872996 0.13322986404 -1.84536045899 -1.00127849628 0.13932551912 -1.85599362847 -0.98690438722 0.14674132499 -1.86742449913 -0.96672834576 0.15570570837 -1.87961408859 -0.93970231490 0.16644709596 -1.89252341448 -0.90477823760 0.17919391450 -1.90611349443 -0.86090805687 0.19417459070 -1.92034534607 -1.02228297829 0.11383868310 -1.64387801024 -1.02054645345 0.11657134038 -1.63231477502 -1.01758573352 0.12009086782 -1.62102955166 -1.01269755055 0.12445923619 -1.60983499984 -1.00517863659 0.12973841626 -1.59854377922 -0.99432572370 0.13599037879 -1.58696854948 -0.97943554393 0.14327709454 -1.57492197029 -0.95980482933 0.15166053429 -1.56221670132 -0.93473031197 0.16120266880 -1.54866540224 -0.90350872390 0.17196546884 -1.53408073273 -1.02311348329 0.11561649308 -1.66150806625 -1.02116204003 0.11949995686 -1.65262404738 -1.01804527915 0.12362464657 -1.64348970007 -1.01305421627 0.12809485189 -1.63412162212 -1.00547986700 0.13301486249 -1.62453641132 -0.99461324695 0.13848896805 -1.61475066547 -0.97974537173 0.14462145825 -1.60478098236 -0.96016725696 0.15151662277 -1.59464395979 -0.93516991825 0.15927875128 -1.58435619555 -0.90404437121 0.16801213346 -1.57393428743 -1.02373515728 0.11694751887 -1.68098124029 -1.02162243245 0.12169385879 -1.67469458156 -1.01838845613 0.12627223670 -1.66797911302 -1.01331999550 0.13081869205 -1.66093361258 -1.00570381773 0.13546926426 -1.65365685817 -0.99482668998 0.14035999277 -1.64624762770 -0.97997537941 0.14562691701 -1.63880469912 -0.96043665320 0.15140607643 -1.63142685033 -0.93549727852 0.15783351045 -1.62421285927 -0.90444402253 0.16504525851 -1.61726150385 -1.02414813192 0.11783187508 -1.70177087749 -1.02192774790 0.12315314837 -1.69802308431 -1.01861541739 0.12803368669 -1.69391792573 -1.01349510795 0.13263071180 -1.68954938802 -1.00585078712 0.13710144543 -1.68501145744 -0.99496642248 0.14160310935 -1.68039812026 -0.98012598156 0.14629292530 -1.67580336275 -0.96061343193 0.15132811502 -1.67132117119 -0.93571274114 0.15686590027 -1.66704553184 -0.90470787676 0.16306350279 -1.66307043096 -1.02435253883 0.11826967634 -1.72335032300 -1.02207810357 0.12387792782 -1.72210626237 -1.01872631586 0.12890904502 -1.72072627344 -1.01357977331 0.13353086627 -1.71924736524 -1.00592107353 0.13791122990 -1.71770654682 -0.99503281415 0.14221797423 -1.71614082722 -0.98019759278 0.14661893758 -1.71458721547 -0.96069800702 0.15128195830 -1.71308272061 -0.93581665449 0.15637487470 -1.71166435169 -0.90483613282 0.16206552510 -1.71036911775 -1.02434850968 0.11826103728 -1.74519292194 -1.02207361664 0.12386829938 -1.74644082248 -1.01872130444 0.12889836019 -1.74782429137 -1.01357421127 0.13351911062 -1.74930596106 -1.00591497530 0.13789844153 -1.75084846401 -0.99502623471 0.14220424381 -1.75241443266 -0.98019062767 0.14660440834 -1.75396649945 -0.96069079235 0.15126682600 -1.75546729685 -0.93580936694 0.15635938768 -1.75687945728 -0.90482898961 0.16204998425 -1.75816561321 -1.02413617611 0.11780607252 -1.76677201946 -1.02191440429 0.12312436525 -1.77052347137 -1.01860053608 0.12800168069 -1.77463211474 -1.01347864155 0.13259539997 -1.77900359228 -1.00583279078 0.13706290420 -1.78354354669 -0.99494705385 0.14156157452 -1.78815762066 -0.98010550083 0.14624879204 -1.79275145691 -0.96059220181 0.15128193788 -1.79723069813 -0.93569122686 0.15681839316 -1.80150098703 -0.90468664605 0.16301553902 -1.80546796631 -1.02371566976 0.11690489669 -1.78756096068 -1.02160058371 0.12164622766 -1.79385091579 -1.01836416368 0.12621905500 -1.80056987880 -1.01329328383 0.13075968945 -1.80761867571 -1.00567481831 0.13540444179 -1.81489813254 -0.99479564128 0.14028962277 -1.82230907531 -0.97994262688 0.14555154315 -1.82975233003 -0.96040264927 0.15132651367 -1.83712872272 -0.93546258261 0.15775084511 -1.84433907939 -0.90440930105 0.16496084822 -1.85128422605 -1.02308712229 0.11555762441 -1.80703309074 -1.02113227208 0.11943398883 -1.81591986248 -1.01801234018 0.12355053160 -1.82505771875 -1.01301835782 0.12801193422 -1.83442962815 -1.00544135624 0.13292287818 -1.84401855926 -0.99457236669 0.13838804499 -1.85380748069 -0.97970242040 0.14451211614 -1.86377936102 -0.96012254861 0.15139977314 -1.87391716885 -0.93512378257 0.15915569748 -1.88420387279 -0.90399715352 0.16788457066 -1.89462244141 -1.02225066533 0.11376437030 -1.82466175477 -1.02050958659 0.11648775098 -1.83622701819 -1.01754521850 0.11999615899 -1.84751576985 -1.01265408322 0.12435208939 -1.85871486641 -1.00513270293 0.12961803724 -1.87001116453 -0.99427759980 0.13585649759 -1.88159152087 -0.97938529600 0.14312996549 -1.89364279206 -0.95975231372 0.15150093602 -1.90635183478 -0.93467517512 0.16103190421 -1.91990550567 -0.90345040238 0.17178536513 -1.93449066138 -1.02268868515 0.10602876797 -1.63935676936 -1.02088796511 0.10801182090 -1.62513249350 -1.01816988119 0.11076971470 -1.61208704032 -1.01409627368 0.11427198707 -1.59985111264 -1.00822898287 0.11848817568 -1.58805541331 -1.00012984906 0.12338781823 -1.57633064514 -0.98936071252 0.12894045240 -1.56430751099 -0.97548341355 0.13511561588 -1.55161671366 -0.95805979244 0.14188284635 -1.53788895601 -0.93665168947 0.14921168150 -1.52275494085 -1.02375325323 0.10715892488 -1.65845233068 -1.02165029278 0.10993198687 -1.64757113730 -1.01844091715 0.11302953641 -1.63728093311 -1.01341677485 0.11647148639 -1.62741555247 -1.00586951442 0.12027774970 -1.61780882977 -0.99509078436 0.12446823923 -1.60829459936 -0.98037223319 0.12906286788 -1.59870669562 -0.96100550945 0.13408154852 -1.58887895292 -0.93628226165 0.13954419405 -1.57864520562 -0.90549413831 0.14547071736 -1.56783928810 -1.02455047222 0.10800427082 -1.67904472188 -1.02222069934 0.11136954604 -1.67137018236 -1.01864266360 0.11472167591 -1.66394319400 -1.01290540359 0.11811834822 -1.65670985545 -1.00409795790 0.12161725076 -1.64961626534 -0.99130936513 0.12527607132 -1.64260852233 -0.97362866388 0.12915249770 -1.63563272506 -0.95014489274 0.13330421768 -1.62863497217 -0.91994709031 0.13778891905 -1.62156136231 -0.88212429518 0.14266428961 -1.61435799413 -1.02508045811 0.10856484563 -1.70070624220 -1.02259929862 0.11232452048 -1.69614090574 -1.01877526612 0.11584606871 -1.69165426338 -1.01256235544 0.11921235817 -1.68723978049 -1.00291456143 0.12250625670 -1.68289092242 -0.98878587892 0.12581063214 -1.67860115454 -0.96913030277 0.12920835234 -1.67436394222 -0.94290182781 0.13278228515 -1.67017275080 -0.90905444888 0.13661529840 -1.66602104566 -0.86654216083 0.14079025995 -1.66190229217 -1.02534332685 0.10884068917 -1.72300919088 -1.02278620443 0.11279693225 -1.72149458450 -1.01883887027 0.11640265031 -1.71999458164 -1.01238782596 0.11975330184 -1.71851108654 -1.00231957310 0.12294434534 -1.71704600341 -0.98752061326 0.12607123932 -1.71560123648 -0.96687744804 0.12922944229 -1.71417869000 -0.93927657903 0.13251441273 -1.71278026818 -0.90360450782 0.13602160916 -1.71140787526 -0.85874773600 0.13984649008 -1.71006341546 -1.02533919441 0.10883184127 -1.74552586716 -1.02278153059 0.11278680342 -1.74704249570 -1.01883362164 0.11639135621 -1.74854458917 -1.01238201072 0.11974096484 -1.75002953251 -1.00231324101 0.12293109454 -1.75149471069 -0.98751385567 0.12605721053 -1.75293750864 -0.96687039787 0.12921477802 -1.75435531132 -0.93926941078 0.13249926223 -1.75574550368 -0.90359743758 0.13600612839 -1.75710547067 -0.85874102143 0.13983084171 -1.75843259725 -1.02506817676 0.10853834178 -1.76782857029 -1.02258539093 0.11229415605 -1.77239591641 -1.01875966579 0.11581212190 -1.77688472635 -1.01254510527 0.11917513278 -1.78130087736 -1.00289581326 0.12246608212 -1.78565024666 -0.98876589368 0.12576786338 -1.78993871149 -0.96910945045 0.12916337001 -1.79417214908 -0.94288058746 0.13273549545 -1.79835643667 -0.90903340862 0.13656713314 -1.80249745149 -0.86652201786 0.14074117654 -1.80660107077 -1.02453038986 0.10796023054 -1.78948959951 -1.02219789925 0.11131901220 -1.79716612367 -1.01861714830 0.11466488290 -1.80459543358 -1.01287730516 0.11805559126 -1.81183088000 -1.00406753796 0.12154888592 -1.81892581372 -0.99127701485 0.12520251554 -1.82593358552 -0.97359490396 0.12907422875 -1.83290754620 -0.95011037343 0.13322177418 -1.83990104652 -0.91991259141 0.13770290048 -1.84696743728 -0.88209072602 0.14257535629 -1.85416006926 -1.02372594968 0.10709754740 -1.81008125406 -1.02161916938 0.10986139395 -1.82096439457 -1.01840621474 0.11294957469 -1.83125715123 -1.01337880595 0.11638212589 -1.84112529936 -1.00582866320 0.12017908379 -1.85073461426 -0.99504750668 0.12436048464 -1.86025087123 -0.98032705658 0.12894636471 -1.86983984558 -0.96095903309 0.13395676023 -1.87966731262 -0.93623515638 0.13941170746 -1.88989904764 -0.90544714666 0.14533124265 -1.90070082596 -1.02265497218 0.10595033221 -1.82917583318 -1.02084931513 0.10792132334 -1.84340200614 -1.01812701067 0.11066613278 -1.85645031970 -1.01404980320 0.11415452227 -1.86868989438 -1.00817943709 0.11835625355 -1.88048985068 -1.00007765673 0.12324108834 -1.89221930909 -0.98930620651 0.12877878838 -1.90424739014 -0.97542683081 0.13493911540 -1.91694321432 -0.95800127402 0.14169183114 -1.93067590214 -0.93659128052 0.14900669734 -1.94581457411 -1.02296379206 0.09750428484 -1.63634455176 -1.02112890752 0.09875753384 -1.62035949325 -1.01861090570 0.10065786864 -1.60616935275 -1.01516737489 0.10313864635 -1.59326716292 -1.01055590337 0.10613322409 -1.58114595638 -1.00453407945 0.10957495900 -1.56929876580 -0.99685949141 0.11339720819 -1.55721862381 -0.98728972754 0.11753332879 -1.54439856305 -0.97558237614 0.12191667793 -1.53033161616 -0.96149502548 0.12648061271 -1.51451081580 -1.02418455139 0.09812935008 -1.65641626464 -1.02198721389 0.09982933669 -1.64421758011 -1.01874381442 0.10185355742 -1.63318830305 -1.01375919448 0.10417925917 -1.62302680791 -1.00633819554 0.10678368882 -1.61343146915 -0.99578565909 0.10964409328 -1.60410066124 -0.98140642663 0.11273771944 -1.59473275862 -0.96250533963 0.11604181420 -1.58502613577 -0.93838723958 0.11953362445 -1.57467916713 -0.90835696797 0.12319039709 -1.56339022717 -1.02509892209 0.09859591295 -1.67775398514 -1.02262959083 0.10063066321 -1.66916609789 -1.01884195396 0.10274765476 -1.66129209949 -1.01270132165 0.10495704788 -1.65396610621 -1.00317300409 0.10726900283 -1.64702223432 -0.98922231145 0.10969367989 -1.64029460005 -0.96981455392 0.11224123933 -1.63361731968 -0.94391504168 0.11492184143 -1.62682450946 -0.91048908490 0.11774564646 -1.61975028565 -0.86850199377 0.12072281469 -1.61222876450 -1.02570700692 0.09890396697 -1.69999597352 -1.02305614485 0.10116146223 -1.69489348425 -1.01890545723 0.10333999965 -1.69017079304 -1.01199392551 0.10547167724 -1.68574805642 -1.00106053108 0.10758859301 -1.68154543092 -0.98484425538 0.10972284495 -1.67748307308 -0.96208407981 0.11190653106 -1.67348113942 -0.93151898580 0.11417174936 -1.66945978648 -0.89188795477 0.11655059783 -1.66533917078 -0.84192996813 0.11907517450 -1.66103944886 -1.02600890863 0.09905350564 -1.72278049001 -1.02326698241 0.10142168255 -1.72108817687 -1.01893445717 0.10363043107 -1.71951443465 -1.01163717514 0.10572281202 -1.71803565711 -1.00000097858 0.10774188625 -1.71662823803 -0.98265170973 0.10973071457 -1.71526857117 -0.95821521082 0.11173235783 -1.71393305029 -0.92531732412 0.11378987685 -1.71259806917 -0.88258389186 0.11594633246 -1.71124002158 -0.82864075629 0.11824478550 -1.70983530128 -1.02600472996 0.09904452246 -1.74574579483 -1.02326221002 0.10141127300 -1.74743861342 -1.01892908668 0.10361878800 -1.74901307529 -1.01163123965 0.10571011698 -1.75049190689 -0.99999454864 0.10772830944 -1.75189783469 -0.98264489335 0.10971641489 -1.75325358515 -0.95820815349 0.11171748283 -1.75458188473 -0.92531020876 0.11377456277 -1.75590545989 -0.88257693886 0.11593070423 -1.75724703711 -0.82863422351 0.11822895671 -1.75862934283 -1.02569457366 0.09887701096 -1.76853014823 -1.02304193415 0.10113018240 -1.77363323159 -1.01888947869 0.10330490945 -1.77835676592 -1.01197628814 0.10543325688 -1.78277980434 -1.00104144333 0.10754728948 -1.78698139996 -0.98482402511 0.10967907201 -1.79104060586 -0.96206311433 0.11186066926 -1.79503647517 -0.93149779183 0.11412414601 -1.79904806098 -0.89186713845 0.11650156703 -1.80315441641 -0.84191023504 0.11902499709 -1.80743459454 -1.02507854250 0.09855096462 -1.79077181044 -1.02260626130 0.10057835956 -1.79936046903 -1.01881576613 0.10268863439 -1.80723555751 -1.01267248969 0.10489189649 -1.81456234806 -1.00314186470 0.10719825326 -1.82150611288 -0.98918932386 0.10961781208 -1.82823212416 -0.96978029988 0.11216068034 -1.83490565407 -0.94388022546 0.11483696543 -1.84169197480 -0.91045453331 0.11765677474 -1.84875635854 -0.86846865614 0.12063021565 -1.85626407748 -1.02415673921 0.09806637697 -1.81210904170 -1.02195529795 0.09975575331 -1.82430876342 -1.01870808191 0.10176980182 -1.83533950100 -1.01372001342 0.10408570057 -1.84550253664 -1.00629601482 0.10668062767 -1.85509915253 -0.99574100845 0.10953176119 -1.86443063087 -0.98135991665 0.11261627924 -1.87379825386 -0.96245766176 0.11591135989 -1.88350330369 -0.93833916611 0.11939418125 -1.89384706257 -0.90830935204 0.12304192139 -1.90513081268 -1.02292926655 0.09742324151 -1.83218010225 -1.02108915059 0.09866231246 -1.84816655245 -1.01856655895 0.10054825071 -1.86235864738 -1.01511902841 0.10301433388 -1.87526336867 -1.01050409574 0.10599383960 -1.88738769794 -1.00447929774 0.10942004549 -1.89923861684 -0.99680217118 0.11322622917 -1.91132310698 -0.98723025285 0.11734566828 -1.92414815000 -0.97552107953 0.12171164044 -1.93822072754 -0.96143218801 0.12625742328 -1.95404782122 -1.02310791884 0.08855111239 -1.63484074824 -1.02126941940 0.08908473026 -1.61799772123 -1.01891681395 0.09006765381 -1.60328592794 -1.01594398594 0.09143634098 -1.59010586728 -1.01224481884 0.09312724971 -1.57785803817 -1.00771319612 0.09507683793 -1.56594293953 -1.00224300124 0.09722156359 -1.55376107028 -0.99572811766 0.09949788461 -1.54071292934 -0.98806242886 0.10184225895 -1.52619901563 -0.97913981829 0.10419114452 -1.50961982807 -1.02440706407 0.08875645892 -1.65539953543 -1.02217300217 0.08940469229 -1.64256634839 -1.01895996165 0.09032694072 -1.63122468017 -1.01410526243 0.09148685019 -1.62098433764 -1.00694622444 0.09284806666 -1.61145512770 -0.99682016761 0.09437423608 -1.60224685722 -0.98306441187 0.09602900443 -1.59296933310 -0.96501627716 0.09777601767 -1.58323236222 -0.94201308341 0.09957892175 -1.57264575148 -0.91339215053 0.10140136266 -1.56081930774 -1.02538024087 0.08890825037 -1.67710888151 -1.02284934674 0.08964220565 -1.66808523429 -1.01899080029 0.09051881713 -1.66003798531 -1.01272452259 0.09152213302 -1.65272909297 -1.00297043474 0.09263620151 -1.64592051570 -0.98864845783 0.09384507082 -1.63937421188 -0.96867851294 0.09513278915 -1.63285213993 -0.94198052118 0.09648340473 -1.62611625826 -0.90747440362 0.09788096574 -1.61892852526 -0.86408008135 0.09930952042 -1.61105089935 -1.02602754189 0.08900645900 -1.69964004237 -1.02329855038 0.08979716058 -1.69428288383 -1.01900944753 0.09064305032 -1.68947600020 -1.01180190942 0.09154178375 -1.68509268989 -1.00031761210 0.09249101640 -1.68100625132 -0.98319823164 0.09348840379 -1.67708998288 -0.95908544410 0.09453160144 -1.67321718299 -0.92662092554 0.09561826487 -1.66926115006 -0.88444635203 0.09674604961 -1.66509518248 -0.83120339961 0.09791261119 -1.66059257868 -1.02634905980 0.08905105706 -1.72266427389 -1.02352071032 0.08986944726 -1.72088780192 -1.01901602103 0.09069940756 -1.71928888169 -1.01133756589 0.09154539671 -1.71782768501 -0.99898791887 0.09241187349 -1.71646438371 -0.98046965392 0.09330329665 -1.71515914961 -0.95428534502 0.09422412496 -1.71387215451 -0.91893756612 0.09517881717 -1.71256357025 -0.87292889118 0.09617183206 -1.71119356863 -0.81476189417 0.09720762837 -1.70972232148 -1.02634488724 0.08904201681 -1.74585283198 -1.02351592384 0.08985895591 -1.74762849349 -1.01901063845 0.09068765612 -1.74922678662 -1.01133163499 0.09153256619 -1.75068663494 -0.99898151738 0.09239813492 -1.75204696202 -0.98046288953 0.09328881107 -1.75334669142 -0.95427835534 0.09420904341 -1.75462474671 -0.91893051873 0.09516328072 -1.75592005144 -0.87292198361 0.09615597177 -1.75727152920 -0.81475535389 0.09719156534 -1.75871810354 -1.02601511688 0.08897931049 -1.76887697251 -1.02328428818 0.08976557674 -1.77423346343 -1.01899341744 0.09060756328 -1.77903987184 -1.01178425971 0.09150288650 -1.78342209630 -1.00029857000 0.09244916283 -1.78750603540 -0.98317810333 0.09344400868 -1.79141758771 -0.95906461473 0.09448504046 -1.79528265180 -0.92659985924 0.09556987458 -1.79922712627 -0.88442559186 0.09669612745 -1.80337690968 -0.83118356763 0.09786141549 -1.80785790061 -1.02535984136 0.08886291037 -1.79140795138 -1.02282590060 0.08958919996 -1.80043121668 -1.01896447567 0.09045889631 -1.80847829418 -1.01269558302 0.09145595194 -1.81578662569 -1.00293923905 0.09256431938 -1.82259365298 -0.98861546019 0.09376795115 -1.82913681783 -0.96864426286 0.09505079979 -1.83565356203 -0.94194566348 0.09639681783 -1.84238132734 -0.90743967847 0.09778995779 -1.84955755556 -0.86404632425 0.09921417220 -1.85741968847 -1.02437915335 0.08869278868 -1.81311702449 -1.02214085835 0.08932971578 -1.82595025812 -1.01892393080 0.09024142250 -1.83729221050 -1.01406574791 0.09139135681 -1.84753277974 -1.00690368689 0.09274296670 -1.85706186393 -0.99677512497 0.09425970014 -1.86626936118 -0.98301743937 0.09590500510 -1.87554516960 -0.96496800729 0.09764232955 -1.88527918729 -0.94196420597 0.09943512149 -1.89586131235 -0.91334341261 0.10124682887 -1.90768144289 -1.02307314550 0.08846891769 -1.83367544772 -1.02122925870 0.08898701440 -1.85051909269 -1.01887190048 0.08995490911 -1.86523177764 -1.01589489736 0.09130869543 -1.87841311504 -1.01219207587 0.09298446695 -1.89066271738 -1.00765726255 0.09491831729 -1.90258019712 -1.00218428392 0.09704634004 -1.91476516674 -0.99566696653 0.09930462882 -1.92781723871 -0.98799913690 0.10162927723 -1.94233602552 -0.97907462157 0.10395637888 -1.95892113963 -1.02312068531 0.07945512931 -1.63484474960 -1.02130963949 0.07926966118 -1.61804912442 -1.01909561285 0.07931139438 -1.60344620485 -1.01645923863 0.07954219790 -1.59038994234 -1.01338115003 0.07992394073 -1.57823428837 -1.00984198029 0.08041849184 -1.56633319442 -1.00582236262 0.08098772024 -1.55404061195 -1.00130293025 0.08159349490 -1.54071049243 -0.99626431640 0.08219768481 -1.52569678734 -0.99068715429 0.08276215897 -1.50835344815 -1.02442047754 0.07926894163 -1.65540181040 -1.02220785646 0.07887073959 -1.64262041473 -1.01909534952 0.07867991740 -1.63140293473 -1.01447876600 0.07866293942 -1.62131709086 -1.00775391518 0.07878627000 -1.61193060360 -0.99831660635 0.07901637351 -1.60281119342 -0.98556264876 0.07931971432 -1.59352658079 -0.96888785171 0.07966275677 -1.58364448618 -0.94768802446 0.08001196523 -1.57273263007 -0.92135897630 0.08033380407 -1.56035873292 -1.02539416251 0.07912708817 -1.67710926241 -1.02288020690 0.07856916871 -1.66813049770 -1.01909367567 0.07820380689 -1.66019300726 -1.01299177932 0.07800094562 -1.65302554381 -1.00353172832 0.07793052783 -1.64635686009 -0.98967073317 0.07796249644 -1.63991570883 -0.97036600438 0.07806679439 -1.63343084276 -0.94457475241 0.07821336459 -1.62663101462 -0.91125418778 0.07837214998 -1.61924497714 -0.86936152096 0.07851309346 -1.61100148305 -1.02604182655 0.07902954164 -1.69963841962 -1.02332677901 0.07836480251 -1.69431116846 -1.01909069380 0.07788279154 -1.68957837038 -1.01199839845 0.07755579243 -1.68529215501 -1.00071472051 0.07735608891 -1.68130465200 -0.98390448754 0.07725596468 -1.67746799096 -0.96023252708 0.07722770344 -1.67363430154 -0.92836366668 0.07724358891 -1.66965571336 -0.88696273389 0.07727590479 -1.66538435606 -0.83469455625 0.07729693479 -1.66067235927 -1.02636355600 0.07897627476 -1.72266059603 -1.02354766098 0.07825749493 -1.72089422210 -1.01908650636 0.07771660003 -1.71932097200 -1.01149874327 0.07732705579 -1.71789377828 -0.99930302284 0.07706232796 -1.71656557348 -0.98101799621 0.07689588226 -1.71528929014 -0.95516231449 0.07680118444 -1.71401786082 -0.92025462882 0.07675170025 -1.71270421804 -0.87481359033 0.07672089540 -1.71130129436 -0.81735785015 0.07668223566 -1.70976202233 -1.02635943719 0.07896726025 -1.74584710561 -1.02354294098 0.07824709996 -1.74761145374 -1.01908121584 0.07770496106 -1.74918276007 -1.01149293367 0.07731431162 -1.75060726744 -0.99929676640 0.07704861966 -1.75193121870 -0.98101138594 0.07688135324 -1.75320085669 -0.95515546422 0.07678598039 -1.75446242427 -0.92024767315 0.07673596915 -1.75576216428 -0.87480668465 0.07670478758 -1.75714631957 -0.81735117063 0.07666590370 -1.75866113298 -1.02602955647 0.07900247083 -1.76886926234 -1.02331270722 0.07833347153 -1.77419465848 -1.01907492470 0.07784760332 -1.77892568249 -1.01198108952 0.07751713584 -1.78320947629 -1.00069608225 0.07731433873 -1.78719318180 -0.98388478351 0.07721148165 -1.79102394093 -0.96021207389 0.07718083425 -1.79484889559 -0.92834283397 0.07719466616 -1.79881518770 -0.88694194437 0.07722524704 -1.80306995919 -0.83467428567 0.07724484654 -1.80776035195 -1.02537400015 0.07908187922 -1.79139838023 -1.02285704787 0.07851646363 -1.80037563144 -1.01906773544 0.07814425548 -1.80831168721 -1.01296333070 0.07793510437 -1.81547725868 -1.00350110149 0.07785885987 -1.82214305695 -0.98963831568 0.07788537155 -1.82857979317 -0.97033224110 0.07798448901 -1.83505817846 -0.94454014560 0.07812606181 -1.84184892394 -0.91121929703 0.07827993955 -1.84922274075 -0.86932696324 0.07841597180 -1.85745034001 -1.02439285459 0.07920545812 -1.81310577324 -1.02217605113 0.07879593020 -1.82588616772 -1.01905975051 0.07859464625 -1.83710272215 -1.01443977708 0.07856779315 -1.84718746840 -1.00771195520 0.07868155777 -1.85657243831 -0.99827210921 0.07890212698 -1.86568966374 -0.98551606348 0.07919568765 -1.87497117656 -0.96883964235 0.07952842664 -1.88484900862 -0.94763867018 0.07986653084 -1.89575519177 -0.92130897133 0.08017618710 -1.90812175788 -1.02308620612 0.07937318027 -1.83366275537 -1.02126980519 0.07917172520 -1.85045806243 -1.01905107240 0.07919850430 -1.86506073524 -1.01641054855 0.07941477810 -1.87811695928 -1.01332877445 0.07978180715 -1.89027292002 -1.00978629088 0.08026085198 -1.90217480296 -1.00576363864 0.08081317315 -1.91446879358 -1.00124135853 0.08140003119 -1.92780107735 -0.99619999135 0.08198268665 -1.94281783977 -0.99062007790 0.08252240007 -1.96016526631 -1.02300171132 0.07050221426 -1.63635594666 -1.02124970650 0.06958857765 -1.62051564979 -1.01915530931 0.06870141454 -1.60665962243 -1.01674626472 0.06783334407 -1.59414210470 -1.01405031768 0.06697698537 -1.58231733670 -1.01109521318 0.06612495757 -1.57053955854 -1.00790869618 0.06526987981 -1.55816301033 -1.00451851165 0.06440437122 -1.54454193219 -1.00095240456 0.06352105094 -1.52903056422 -0.99723811987 0.06261253809 -1.51098314653 -1.02422447811 0.06989548845 -1.65642275686 -1.02209197557 0.06844016455 -1.64438275170 -1.01915596871 0.06714271855 -1.63373593699 -1.01490349249 0.06597620680 -1.62405401677 -1.00882158185 0.06491368566 -1.61490869508 -1.00039727175 0.06392821147 -1.60587167595 -0.98911759712 0.06299284059 -1.59651466342 -0.97446959292 0.06208062937 -1.58640936153 -0.95594029410 0.06116463417 -1.57512747432 -0.93301673561 0.06021791133 -1.56224070582 -1.02514042100 0.06943823145 -1.67775497927 -1.02272241114 0.06757654773 -1.66930479428 -1.01915505320 0.06597126789 -1.66176932117 -1.01351986472 0.06458082768 -1.65488218681 -1.00489836327 0.06336366284 -1.64837701810 -0.99237206639 0.06227820912 -1.64198744191 -0.97502249164 0.06128290228 -1.63544708512 -0.95193115656 0.06033617807 -1.62848957461 -0.92217957872 0.05939647222 -1.62084853726 -0.88484927565 0.05842222050 -1.61225759995 -1.02574962444 0.06913043480 -1.69999107619 -1.02314109456 0.06699757499 -1.69498040213 -1.01915265282 0.06518679411 -1.69048638907 -1.01259548385 0.06364681802 -1.68636492587 -1.00228077232 0.06232637257 -1.68247190134 -0.98701970287 0.06117418363 -1.67866320433 -0.96562346016 0.06013897705 -1.67479472368 -0.93690322885 0.05916947868 -1.67072234823 -0.89967019358 0.05821441439 -1.66630196681 -0.85273553902 0.05722251004 -1.66138946826 -1.02605217287 0.06897209005 -1.72276950991 -1.02334810720 0.06670309412 -1.72110819984 -1.01914885764 0.06478902875 -1.71961375482 -1.01213045233 0.06317378915 -1.71824054496 -1.00096891939 0.06180127052 -1.71694294035 -0.98434028694 0.06061536808 -1.71567531112 -0.96092058312 0.05955997704 -1.71439202737 -0.92938583606 0.05857899259 -1.71304745921 -0.88841207388 0.05761630996 -1.71159597674 -0.83667532472 0.05661582435 -1.70999195008 -1.02604815074 0.06896318874 -1.74572874273 -1.02334353039 0.06669295293 -1.74738681202 -1.01914375773 0.06477770337 -1.74887803252 -1.01212487260 0.06316135240 -1.75024735512 -1.00096291486 0.06178781235 -1.75153973072 -0.98433392435 0.06060099557 -1.75280011019 -0.96091394094 0.05954481440 -1.75407344444 -0.92937900447 0.05856318117 -1.75540468435 -0.88840515479 0.05760000822 -1.75683878082 -0.83666843176 0.05659920789 -1.75842068473 -1.02573764249 0.06910372241 -1.76850723695 -1.02312744550 0.06696699922 -1.77351486326 -1.01913744313 0.06515254952 -1.77800583627 -1.01257884711 0.06360911909 -1.78212366739 -1.00226286911 0.06228545373 -1.78601186799 -0.98700072085 0.06113029920 -1.78981394944 -0.96560361403 0.06009240129 -1.79367342315 -0.93688276034 0.05912050577 -1.79773380048 -0.89964937149 0.05816335844 -1.80213859282 -0.85271465917 0.05716970507 -1.80703131154 -1.02512073257 0.06939368260 -1.79074345487 -1.02269993386 0.06752508077 -1.79919097814 -1.01913000392 0.06591329874 -1.80672378019 -1.01349247830 0.06451670056 -1.81360779280 -1.00486889254 0.06329365031 -1.82010894773 -0.99234078220 0.06220251205 -1.82649317679 -0.97498968283 0.06120164986 -1.83302641175 -0.95189712996 0.06024942779 -1.83997458439 -0.92214465916 0.05930420993 -1.84760362649 -0.88481380596 0.05832436033 -1.85617946984 -1.02419750541 0.06983306086 -1.81207585877 -1.02206107683 0.06836704541 -1.82411378128 -1.01912153014 0.06705968258 -1.83475847838 -1.01486586862 0.06588370812 -1.84443804237 -1.00878109553 0.06481185776 -1.85358056553 -1.00035421415 0.06381686723 -1.86261414014 -0.98907222775 0.06287147226 -1.87196685850 -0.97442213960 0.06194840859 -1.88206681290 -0.95589095298 0.06102041196 -1.89334209561 -0.93296567114 0.06006021810 -1.90622079895 -1.02296804546 0.07042184873 -1.83214291095 -1.02121095576 0.06949274091 -1.84798189726 -1.01911211186 0.06859143260 -1.86183654496 -1.01669912051 0.06770975310 -1.87435272715 -1.01399958846 0.06683953174 -1.88617631693 -1.01104112245 0.06597259782 -1.89795318740 -1.00785132923 0.06510078065 -1.91032921166 -1.00445781554 0.06421590955 -1.92395026281 -1.00088818812 0.06330981383 -1.93946221396 -0.99717005373 0.06237432280 -1.95751093819 -1.02275061669 0.06197824593 -1.63937373023 -1.02108975917 0.06031773070 -1.62539924431 -1.01910391024 0.05855003846 -1.61293561967 -1.01683819600 0.05668690642 -1.60138507098 -1.01433774256 0.05474007184 -1.59014981286 -1.01164767604 0.05272127194 -1.57863205998 -1.00881312256 0.05064224397 -1.56623402698 -1.00587920821 0.04851472515 -1.55235792850 -1.00289105912 0.04635045272 -1.53640597920 -0.99989380140 0.04416116392 -1.51778039372 -1.02381875204 0.06086478961 -1.65846204214 -1.02182555832 0.05832565311 -1.64785633188 -1.01914780992 0.05594557528 -1.63823655722 -1.01540322919 0.05369533232 -1.62922406457 -1.01020953851 0.05154570043 -1.62044020034 -1.00318446026 0.04946745583 -1.61150631092 -0.99394571678 0.04743137473 -1.60204374273 -0.98211103047 0.04540823333 -1.59167384216 -0.96729812367 0.04336880783 -1.58001795562 -0.94912471877 0.04128387446 -1.56669742953 -1.02461875029 0.06002748531 -1.67904588352 -1.02237619927 0.05682933806 -1.67161103015 -1.01917940593 0.05398984402 -1.66477908284 -1.01432555171 0.05144912119 -1.65832575007 -1.00711181805 0.04914728758 -1.65202674034 -0.99683538638 0.04702446120 -1.64565776214 -0.98279343815 0.04502076007 -1.63899452396 -0.96428315480 0.04307630219 -1.63181273428 -0.94060171775 0.04113120556 -1.62388810161 -0.91104630846 0.03912558821 -1.61499633443 -1.02515069908 0.05946635840 -1.70069798295 -1.02274176083 0.05582866500 -1.69629264882 -1.01919878139 0.05268262885 -1.69220854180 -1.01360525691 0.04994797524 -1.68832947655 -1.00504468354 0.04754442941 -1.68453926773 -0.99260055745 0.04539171666 -1.68072173000 -0.97535637478 0.04340956224 -1.67676067804 -0.95239563169 0.04151769142 -1.67253992649 -0.92280182434 0.03963582948 -1.66794329003 -0.88565844886 0.03768370169 -1.66285458331 -1.02541468604 0.05918143424 -1.72299106903 -1.02292232180 0.05532351337 -1.72153049760 -1.01920601938 0.05202371397 -1.72017027939 -1.01324243812 0.04919159667 -1.71887459308 -1.00400823738 0.04673672207 -1.71760761736 -0.99048007648 0.04456865081 -1.71633353089 -0.97163461479 0.04259694349 -1.71501651234 -0.94644851164 0.04073116075 -1.71362074040 -0.91389842639 0.03888086319 -1.71211039373 -0.87296101836 0.03695561144 -1.71044965101 -1.02541079881 0.05917273821 -1.74549787037 -1.02291796100 0.05531376264 -1.74695388618 -1.01920120302 0.05201288357 -1.74830964088 -1.01323718871 0.04917968768 -1.74960044876 -1.00400258193 0.04672376168 -1.75086162409 -0.99047404651 0.04455469225 -1.75212848115 -0.97162824629 0.04258206607 -1.75343633423 -0.94644184513 0.04071546985 -1.75482049762 -0.91389150687 0.03886449026 -1.75631628558 -0.87295389534 0.03693871400 -1.75795901241 -1.02513912502 0.05944029566 -1.76779111556 -1.02272875722 0.05579929224 -1.77219212429 -1.01918441539 0.05264992181 -1.77627197157 -1.01358960202 0.04991195049 -1.78014639265 -1.00502781957 0.04750514437 -1.78393112277 -0.99258257054 0.04534926959 -1.78774189717 -0.97533735740 0.04336409223 -1.79169445109 -0.95237568265 0.04146937843 -1.79590451977 -0.92278104875 0.03958489428 -1.80048783845 -0.88563695819 0.03763040590 -1.80556014236 -1.02459975230 0.05998413197 -1.78944353321 -1.02235478928 0.05677998163 -1.79687452161 -1.01915573962 0.05393461290 -1.80370261672 -1.01429977139 0.05138808728 -1.81015177384 -1.00708405269 0.04908046628 -1.81644594827 -0.99680575162 0.04695181143 -1.82280909532 -0.98276203625 0.04494218423 -1.82946517028 -0.96425007468 0.04299164619 -1.83663812847 -0.94056703499 0.04104025884 -1.84455192519 -0.91101008529 0.03902808367 -1.85343051574 -1.02379276829 0.06080427248 -1.81002785190 -1.02179613599 0.05825571026 -1.82063038786 -1.01911525878 0.05586674101 -1.83024692162 -1.01536779018 0.05360780026 -1.83925594140 -1.01017138367 0.05144932354 -1.84803593544 -1.00314369276 0.04936174638 -1.85696539195 -0.99390237093 0.04731550430 -1.86642279918 -0.98206507170 0.04528103284 -1.87678664534 -0.96724944857 0.04322876751 -1.88843541867 -0.94907315502 0.04112914386 -1.90174760740 -1.02271826062 0.06190074257 -1.82911680024 -1.02105287614 0.06022635757 -1.84308903275 -1.01906305600 0.05844609033 -1.85555023155 -1.01679375173 0.05657079164 -1.86709824442 -1.01428991488 0.05461131228 -1.87833091913 -1.01159649699 0.05257850304 -1.88984610345 -1.00875844959 0.05048321470 -1.90224164515 -1.00582072422 0.04833629806 -1.91611539199 -1.00282827244 0.04614860389 -1.93206519176 -0.99982604577 0.04393098299 -1.95068889221 -1.02236702124 0.05416910300 -1.64389749111 -1.02082993622 0.05173337138 -1.63270185494 -1.01894942253 0.04916959030 -1.62228363553 -1.01676816424 0.04648001190 -1.61214155778 -1.01432884541 0.04366688835 -1.60177434657 -1.01167415009 0.04073247178 -1.59068072682 -1.00884676236 0.03767901436 -1.57835942341 -1.00588936627 0.03450876824 -1.56430916124 -1.00284464588 0.03122398557 -1.54802866520 -0.99975528526 0.02782691850 -1.52901666019 -1.02320298563 0.05240553534 -1.66151933358 -1.02140880354 0.04873989121 -1.65304412786 -1.01907686381 0.04531871867 -1.64491766569 -1.01600176339 0.04208899591 -1.63685618347 -1.01197809924 0.03899770112 -1.62857591759 -1.00680046832 0.03599181249 -1.61979310445 -1.00026346759 0.03301830821 -1.61022398044 -0.99216169400 0.03002416649 -1.59958478196 -0.98228974452 0.02695636551 -1.58759174540 -0.97044221610 0.02376188347 -1.57396110716 -1.02382888437 0.05108065484 -1.68098182659 -1.02184181114 0.04649253504 -1.67505211146 -1.01917120697 0.04242817913 -1.66923444808 -1.01542561319 0.03879316813 -1.66338296166 -1.01021357111 0.03549308309 -1.65735177741 -1.00314362206 0.03243350503 -1.65099502053 -0.99382430735 0.02952001498 -1.64416681622 -0.98186416829 0.02665819398 -1.63672128971 -0.96687174621 0.02375362306 -1.62851256619 -0.94845558243 0.02071188324 -1.61939477087 -1.02424481403 0.05019453234 -1.70175911081 -1.02212904161 0.04499125950 -1.69824997252 -1.01923253629 0.04049786658 -1.69475331405 -1.01503980888 0.03659237882 -1.69120428115 -1.00903537020 0.03315282147 -1.68753801955 -1.00070373109 0.03005721978 -1.68368967499 -0.98952940236 0.02718359899 -1.67959439322 -0.97499689485 0.02440998435 -1.67518731998 -0.95659071937 0.02161440110 -1.67040360100 -0.93379538676 0.01867487450 -1.66517838204 -1.02445087116 0.04974723866 -1.72332532690 -1.02227057760 0.04423602124 -1.72216187780 -1.01926093606 0.03952767596 -1.72099359493 -1.01484444571 0.03548647823 -1.71980253070 -1.00844360570 0.03197670348 -1.71857073751 -0.99948091520 0.02886262712 -1.71728026777 -0.98737887337 0.02600852457 -1.71591317388 -0.97155997939 0.02327867123 -1.71445150825 -0.95144673240 0.02053734254 -1.71287732328 -0.92646163159 0.01764881390 -1.71117267138 -1.02444715233 0.04973884462 -1.74515461554 -1.02226650173 0.04422677688 -1.74631199407 -1.01925649059 0.03951750217 -1.74747462206 -1.01483961893 0.03547531661 -1.74866009910 -1.00843838678 0.03196451633 -1.74988602482 -0.99947529416 0.02884939743 -1.75116999881 -0.98737284109 0.02599425604 -1.75252962067 -0.97155352759 0.02326338828 -1.75398249002 -0.95143985370 0.02052109027 -1.75554620646 -0.92645431942 0.01763165812 -1.75723836959 -1.02423375410 0.05016942104 -1.76672111739 -1.02211689661 0.04496348306 -1.77022448810 -1.01921928415 0.04046724015 -1.77371572677 -1.01502542379 0.03655874422 -1.77725937514 -1.00901982264 0.03311604722 -1.78091997498 -1.00068698776 0.03001720109 -1.78476206803 -0.98951142625 0.02714025775 -1.78885019604 -0.97497764519 0.02436326913 -1.79324890077 -0.95657015166 0.02156428718 -1.79802272397 -0.93377345274 0.01862136383 -1.80323620739 -1.02381077304 0.05103903874 -1.78749897314 -1.02182184488 0.04644609643 -1.79342352667 -1.01914940104 0.04237678480 -1.79923624040 -1.01540195555 0.03873661130 -1.80508274760 -1.01018802245 0.03543108338 -1.81110868150 -1.00311611578 0.03236570847 -1.81745967537 -0.99379474957 0.02944599400 -1.82428136245 -0.98183243786 0.02657744742 -1.83171937599 -0.96683769468 0.02366557618 -1.83991934924 -0.94841903407 0.02061588770 -1.84902691547 -1.02317830570 0.05234776856 -1.80696232345 -1.02138142915 0.04867457361 -1.81543327653 -1.01904692555 0.04524603106 -1.82355549429 -1.01596930944 0.04200876812 -1.83161260524 -1.01194309541 0.03890941201 -1.83988823790 -1.00676279800 0.03589458994 -1.84866602076 -1.00022293179 0.03291092913 -1.85822958234 -0.99211801132 0.02990505680 -1.86886255116 -0.98224255117 0.02682360015 -1.88084855572 -0.97039106590 0.02361318640 -1.89447122454 -1.02233644865 0.05409568130 -1.82458530898 -1.02079573206 0.05164887124 -1.83577790446 -1.01891194197 0.04907487383 -1.84619281978 -1.01672758073 0.04637506491 -1.85633133687 -1.01428515069 0.04355082032 -1.86669473768 -1.01162715421 0.04060351590 -1.87778430414 -1.00879609362 0.03753452747 -1.89010131819 -1.00583447128 0.03434523089 -1.90414706178 -1.00278478953 0.03103700198 -1.92042281684 -0.99968955073 0.02761121659 -1.93942986532 -1.02185054482 0.04736066414 -1.64992662012 -1.02047037637 0.04411175072 -1.64242542866 -1.01869985309 0.04087239424 -1.63471310897 -1.01656930122 0.03758978745 -1.62643428171 -1.01410904697 0.03421112310 -1.61723356754 -1.01134941656 0.03068359392 -1.60675558714 -1.00832073623 0.02695439266 -1.59464496116 -1.00505333218 0.02297071207 -1.58054631028 -1.00157753064 0.01867974489 -1.56410425516 -0.99792365784 0.01402868387 -1.54496341645 -1.02237686517 0.04474641587 -1.66559429850 -1.02084191006 0.03989556480 -1.65994911221 -1.01894912108 0.03549237983 -1.65379213265 -1.01672288238 0.03142587755 -1.64697932265 -1.01418757810 0.02758507452 -1.63936664504 -1.01136759238 0.02385898732 -1.63081006264 -1.00828730936 0.02013663253 -1.62116553829 -1.00497111318 0.01630702672 -1.61028903482 -1.00144338799 0.01225918647 -1.59803651505 -0.99772851792 0.00788212836 -1.58426394181 -1.02277055720 0.04278354516 -1.68356265991 -1.02111948655 0.03673113403 -1.67963094435 -1.01913492938 0.03145491710 -1.67514757272 -1.01683682205 0.02680031051 -1.67008054968 -1.01424510091 0.02261273041 -1.66439787991 -1.01137970232 0.01873759294 -1.65806756809 -1.00826056263 0.01502031425 -1.65105761887 -1.00490761822 0.01130631048 -1.64333603694 -1.00134080542 0.00744099778 -1.63487082697 -0.99758006061 0.00326979228 -1.62562999362 -1.02303173280 0.04147217655 -1.70317443065 -1.02130320072 0.03461854549 -1.70085443721 -1.01925737431 0.02876007811 -1.69812919134 -1.01691123103 0.02371314351 -1.69500781376 -1.01428174831 0.01929411078 -1.69149942518 -1.01138590360 0.01531934900 -1.68761314630 -1.00824067433 0.01160522727 -1.68335809785 -1.00486303796 0.00796811467 -1.67874340052 -1.00126997193 0.00422438029 -1.67377817504 -0.99747845367 0.00019039321 -1.66847154210 -1.02316050385 0.04081243462 -1.72377233700 -1.02139314741 0.03355788627 -1.72300310289 -1.01931655218 0.02740793496 -1.72208675069 -1.01694622013 0.02216443373 -1.72103096585 -1.01429765323 0.01762923564 -1.71984343384 -1.01138635344 0.01360419372 -1.71853184012 -1.00822782274 0.00989116102 -1.71710387016 -1.00483756310 0.00629199059 -1.71556720942 -1.00123107649 0.00260853547 -1.71392954337 -0.99742386489 -0.00135735128 -1.71219855745 -1.02315698223 0.04080444390 -1.74469910524 -1.02138942151 0.03354924345 -1.74546045353 -1.01931255932 0.02739855971 -1.74637001293 -1.01694190018 0.02215423834 -1.74741985692 -1.01429294858 0.01761812498 -1.74860205892 -1.01138120907 0.01359206530 -1.74990869239 -1.00822218613 0.00987790495 -1.75133183077 -1.00483138431 0.00627748957 -1.75286354751 -1.00122430810 0.00259266482 -1.75449591607 -0.99741646203 -0.00137472365 -1.75622100988 -1.02302127981 0.04144832897 -1.76529746167 -1.02129211788 0.03459270412 -1.76761000123 -1.01924549205 0.02873202445 -1.77032874026 -1.01689838197 0.02368261451 -1.77344433793 -1.01426776731 0.01926079883 -1.77694745342 -1.01137062770 0.01528290197 -1.78082874592 -1.00822394280 0.01156524848 -1.78507887461 -1.00484469226 0.00792416290 -1.78968849866 -1.00124985574 0.00417596979 -1.79464827726 -0.99745641287 0.00013699369 -1.79994886959 -1.02275350849 0.04274421437 -1.78491013257 -1.02110133138 0.03668835538 -1.78883525813 -1.01911544668 0.03140840127 -1.79331269483 -1.01681577634 0.02674961941 -1.79837425985 -1.01422224231 0.02255727718 -1.80405177036 -1.01135476656 0.01867664194 -1.81037704356 -1.00823327101 0.01495298106 -1.81738189662 -1.00487767764 0.01123156191 -1.82509814672 -1.00130790838 0.00735765186 -1.83355761105 -0.99754388519 0.00317651829 -1.84279210678 -1.02235378014 0.04469222466 -1.80287984423 -1.02081715687 0.03983628429 -1.80851973634 -1.01892251952 0.03542776223 -1.81467163882 -1.01669419408 0.03135531022 -1.82147947364 -1.01415650653 0.02750758004 -1.82908716276 -1.01133378286 0.02377322342 -1.83763862814 -1.00825034906 0.02004089213 -1.84727779176 -1.00493053112 0.01619923791 -1.85814857558 -1.00139865502 0.01213691252 -1.87039490156 -0.99767904675 0.00774256771 -1.88416069167 -1.02182220664 0.04729248440 -1.81854932294 -1.02043968923 0.04403657795 -1.82604694799 -1.01866680691 0.04079017941 -1.83375533441 -1.01653374601 0.03749974412 -1.84202983027 -1.01407069288 0.03411172741 -1.85122578361 -1.01130783384 0.03057258463 -1.86169854249 -1.00827535523 0.02682877112 -1.87380345497 -1.00500344338 0.02282674220 -1.88789586908 -1.00152228464 0.01851295323 -1.90433113290 -0.99786206534 0.01383385954 -1.92346459446 </DataArray>
</Points>
</Piece>
</StructuredGrid>
</VTKFile>
