<?xml version="1.0"?>
<VTKFile type="StructuredGrid" version="0.1">
<StructuredGrid WholeExtent="0 9 0 9 0 9">
<Piece Extent="0 9 0 9 0 9">
<PointData>
<DataArray type="Float32" Name="Deformation" format="ascii" NumberOfComponents="3">
0.00001878309 -2.28878549085 -0.52624789054 0.00009105122 -2.28591353141 -0.52102680266 0.00016536402 -2.28068860174 -0.51575399060 0.00024071073 -2.27341440562 -0.51039884906 0.00031608056 -2.26439464680 -0.50493077273 0.00039046275 -2.25393302906 -0.49931915630 0.00046284652 -2.24233325615 -0.49353339450 0.00053222109 -2.22989903186 -0.48754288200 0.00059757569 -2.21693405993 -0.48131701351 0.00065789955 -2.20374204414 -0.47482518372 -0.00012798078 -2.28095402142 -0.53625275168 -0.00008894519 -2.27604103551 -0.53212960398 -0.00004103933 -2.26944889548 -0.52776378048 0.00001391710 -2.26140331249 -0.52322034469 0.00007410441 -2.25212999773 -0.51856436013 0.00013770292 -2.24185466237 -0.51386089031 0.00020289291 -2.23080301760 -0.50917499876 0.00026785472 -2.21920077459 -0.50457174897 0.00033076863 -2.20727364453 -0.50011620448 0.00038981497 -2.19524733859 -0.49587342880 -0.00026914468 -2.27094422686 -0.54773067905 -0.00026421597 -2.26448347956 -0.54465915548 -0.00024302760 -2.25679203930 -0.54129256593 -0.00020862180 -2.24804994553 -0.53774659282 -0.00016404080 -2.23843723770 -0.53413691861 -0.00011232682 -2.22813395527 -0.53057922572 -0.00005652208 -2.21732013771 -0.52718919659 0.00000033118 -2.20617582445 -0.52408251366 0.00005519073 -2.19488105497 -0.52137485936 0.00010501436 -2.18361586872 -0.51918191613 -0.00040055599 -2.25922383972 -0.56026596096 -0.00042807192 -2.25163021605 -0.55821991365 -0.00043228627 -2.24307498932 -0.55592434679 -0.00041762940 -2.23371707695 -0.55351140268 -0.00038853167 -2.22371539634 -0.55111322360 -0.00034942344 -2.21322886490 -0.54886195187 -0.00030473508 -2.20241640005 -0.54688972977 -0.00025889695 -2.19143691919 -0.54532869960 -0.00021633941 -2.18044933972 -0.54431100367 -0.00018149282 -2.16961257906 -0.54396878426 -0.00051806206 -2.24626059255 -0.57344288573 -0.00057382382 -2.23787059746 -0.57241633498 -0.00060050081 -2.22865470166 -0.57124312291 -0.00060382910 -2.21876747897 -0.57004858345 -0.00058954479 -2.20836350327 -0.56895805054 -0.00056338396 -2.19759734840 -0.56809685810 -0.00053108268 -2.18662358820 -0.56759034006 -0.00049837706 -2.17559679654 -0.56756383037 -0.00047100318 -2.16467154725 -0.56814266294 -0.00045469711 -2.15400241419 -0.56945217172 -0.00061751028 -2.23252221789 -0.58684574166 -0.00069478247 -2.22359397631 -0.58685287595 -0.00073935670 -2.21388813243 -0.58683289413 -0.00075794434 -2.20356392384 -0.58689194437 -0.00075725677 -2.19278058813 -0.58713617485 -0.00074400537 -2.18169736290 -0.58767173375 -0.00072490152 -2.17047348574 -0.58860476924 -0.00070665659 -2.15926819425 -0.59004142951 -0.00069598197 -2.14824072603 -0.59208786272 -0.00069958904 -2.13755031866 -0.59485021706 -0.00069474799 -2.21847644828 -0.60005881707 -0.00078425865 -2.20918970509 -0.60113399305 -0.00084053942 -2.19913223777 -0.60227766028 -0.00087069852 -2.18846918377 -0.60357529464 -0.00088184420 -2.17736568054 -0.60511237198 -0.00088108468 -2.16598686555 -0.60697436817 -0.00087552818 -2.15449787625 -0.60924675909 -0.00087228294 -2.14306385009 -0.61201502058 -0.00087845719 -2.13184992453 -0.61536462853 -0.00090115915 -2.12102123703 -0.61938105879 -0.00074562259 -2.20459101627 -0.61266640028 -0.00083556315 -2.19504713629 -0.61486414276 -0.00089573444 -2.18474397378 -0.61716142121 -0.00093281507 -2.17384603098 -0.61963244346 -0.00095348368 -2.16251781013 -0.62235141735 -0.00096441888 -2.15092381349 -0.62539255070 -0.00097229929 -2.13922854330 -0.62883005136 -0.00098380353 -2.12759650180 -0.63273812715 -0.00100561022 -2.11619219123 -0.63719098591 -0.00104439798 -2.10518011386 -0.64226283547 -0.00076598142 -2.19133365440 -0.62425277960 -0.00084200675 -2.18155562241 -0.62764778157 -0.00089662724 -2.17108029659 -0.63106817675 -0.00093501741 -2.16005723770 -0.63459720005 -0.00096235181 -2.14863600654 -0.63831808639 -0.00098380498 -2.13696616386 -0.64231407068 -0.00100455145 -2.12519727047 -0.64666838783 -0.00102976577 -2.11347888712 -0.65146427276 -0.00106462246 -2.10196057460 -0.65678496039 -0.00111429607 -2.09079189369 -0.66271368562 -0.00075167187 -2.17917209522 -0.63440224335 -0.00079690026 -2.16910451596 -0.63908936597 -0.00083490330 -2.15849816232 -0.64358192675 -0.00086802895 -2.14746557617 -0.64800337363 -0.00089862519 -2.13611929937 -0.65247715455 -0.00092903998 -2.12457187381 -0.65712671745 -0.00096162129 -2.11293584133 -0.66207551028 -0.00099871707 -2.10132374381 -0.66744698099 -0.00104267531 -2.08984812311 -0.67336457750 -0.00109584395 -2.07862152110 -0.67995174778 0.00006412952 -2.29600712021 -0.52272218870 0.00015975324 -2.29481190586 -0.51515634459 0.00025388230 -2.29069031146 -0.50815282363 0.00034567606 -2.28403965982 -0.50159773112 0.00043429386 -2.27525727373 -0.49537717234 0.00051889505 -2.26474047601 -0.48937725259 0.00059863898 -2.25288658947 -0.48348407714 0.00067268500 -2.24009293690 -0.47758375130 0.00074019247 -2.22675684112 -0.47156238035 0.00080032071 -2.21327562494 -0.46530606959 -0.00006884510 -2.28857758381 -0.53409225614 0.00000012779 -2.28455794621 -0.52821028967 0.00007088637 -2.27841502468 -0.52259709690 0.00014252995 -2.27045178574 -0.51721439555 0.00021415787 -2.26097119591 -0.51202390332 0.00028486944 -2.25027622171 -0.50698733793 0.00035376399 -2.23866982965 -0.50206641710 0.00041994086 -2.22645498627 -0.49722285854 0.00048249936 -2.21393465808 -0.49241837996 0.00054053882 -2.20141181159 -0.48761469908 -0.00019434637 -2.27871490482 -0.54657640462 -0.00015630842 -2.27243570892 -0.54230626746 -0.00011161140 -2.26463931090 -0.53811885870 -0.00006168550 -2.25556096826 -0.53402052640 -0.00000796092 -2.24543593848 -0.53001761864 0.00004813214 -2.23449947906 -0.52611648351 0.00010516349 -2.22298684750 -0.52232346908 0.00016170292 -2.21113330130 -0.51864492343 0.00021632026 -2.19917409795 -0.51508719464 0.00026758529 -2.18734449495 -0.51165663077 -0.00030961244 -2.26684994554 -0.55985620414 -0.00030369061 -2.25879613965 -0.55715140588 -0.00028558563 -2.24967034767 -0.55442070492 -0.00025754115 -2.23966065231 -0.55169310109 -0.00022180080 -2.22895513628 -0.54899759420 -0.00018060819 -2.21774188230 -0.54636318406 -0.00013620696 -2.20620897308 -0.54381887049 -0.00009084074 -2.19454449135 -0.54139365330 -0.00004675316 -2.18293651981 -0.53911653231 -0.00000618783 -2.17157314118 -0.53701650733 -0.00041188145 -2.25341356828 -0.57361322470 -0.00043615396 -2.24399018407 -0.57245283284 -0.00044301097 -2.23381531254 -0.57120523150 -0.00043560787 -2.22304428285 -0.56990909707 -0.00041710005 -2.21183242417 -0.56860310589 -0.00039064289 -2.20033506565 -0.56732593433 -0.00035939177 -2.18870753646 -0.56611625873 -0.00032650208 -2.17710516575 -0.56501275548 -0.00029512920 -2.16568328268 -0.56405410091 -0.00026842852 -2.15459721642 -0.56327897139 -0.00049839153 -2.23883663536 -0.58752903631 -0.00054783368 -2.22836878782 -0.58791767626 -0.00057586205 -2.21738138304 -0.58817503436 -0.00058645652 -2.20600530483 -0.58834549175 -0.00058359697 -2.19437143700 -0.58847342960 -0.00057126329 -2.18261066335 -0.58860322903 -0.00055343534 -2.17085386770 -0.58877927121 -0.00053409301 -2.15923193386 -0.58904593727 -0.00051721618 -2.14787574563 -0.58944760836 -0.00050678471 -2.13691618682 -0.59002866563 -0.00056638083 -2.22355000907 -0.60128520895 -0.00063286496 -2.21228289656 -0.60325306406 -0.00067611349 -2.20067573672 -0.60503270939 -0.00070065795 -2.18883716319 -0.60667926258 -0.00071102986 -2.17687580961 -0.60824784121 -0.00071176074 -2.16490030962 -0.60979356292 -0.00070738211 -2.15301929688 -0.61137154531 -0.00070242549 -2.14134140502 -0.61303690599 -0.00070142241 -2.12997526769 -0.61484476258 -0.00070890438 -2.11902951853 -0.61685023269 -0.00061308749 -2.20798455172 -0.61456331264 -0.00068538301 -2.19608345596 -0.61816612416 -0.00073573995 -2.18400555113 -0.62148085254 -0.00076878304 -2.17183330288 -0.62458738696 -0.00078913701 -2.15964917685 -0.62756561663 -0.00080142658 -2.14753563869 -0.63049543073 -0.00081027649 -2.13557515405 -0.63345671845 -0.00082031145 -2.12385018857 -0.63652936898 -0.00083615621 -2.11244320791 -0.63979327151 -0.00086243548 -2.10143667771 -0.64332831523 -0.00063574964 -2.19257112562 -0.62704491738 -0.00069952302 -2.18012141168 -0.63236398448 -0.00074671605 -2.16767800382 -0.63722205970 -0.00078140264 -2.15528716885 -0.64174684235 -0.00080765670 -2.14299517358 -0.64606603174 -0.00082955215 -2.13084828479 -0.65030732720 -0.00085116289 -2.11889276929 -0.65459842803 -0.00087656283 -2.10717489387 -0.65906703355 -0.00090982588 -2.09574092534 -0.66384084307 -0.00095502597 -2.08463713049 -0.66904755591 -0.00063160543 -2.17774059308 -0.63841159317 -0.00066942019 -2.16474770936 -0.64555377294 -0.00070101643 -2.15200027232 -0.65195892680 -0.00072908762 -2.13949220606 -0.65783460616 -0.00075632724 -2.12721743464 -0.66338836243 -0.00078542878 -2.11516988214 -0.66882774706 -0.00081908573 -2.10334347266 -0.67436031144 -0.00085999156 -2.09173213026 -0.68019360701 -0.00091083975 -2.08032977903 -0.68653518518 -0.00097432380 -2.06913034304 -0.69359259738 0.00007220768 -2.30142333932 -0.52007788600 0.00016162262 -2.30148568374 -0.51075347384 0.00024831857 -2.29819159065 -0.50245191965 0.00033166567 -2.29200859716 -0.49499686181 0.00041103408 -2.28340424037 -0.48821193875 0.00048579396 -2.27284605739 -0.48192078887 0.00055531546 -2.26080158530 -0.47594705058 0.00061896873 -2.24773836123 -0.47011436229 0.00067612393 -2.23412392228 -0.46424636240 0.00072615122 -2.22042580554 -0.45816668932 -0.00003285453 -2.29429525262 -0.53247185774 0.00003709534 -2.29094562610 -0.52527077558 0.00010558229 -2.28513961826 -0.51872205397 0.00017223855 -2.27723813713 -0.51270990135 0.00023669632 -2.26760209074 -0.50711852616 0.00029858781 -2.25659238712 -0.50183213687 0.00035754524 -2.24456993433 -0.49673494192 0.00041320081 -2.23189564038 -0.49171114975 0.00046518675 -2.21893041332 -0.48664496882 0.00051313524 -2.20603516118 -0.48142060758 -0.00013090761 -2.28454291022 -0.54571067173 -0.00008541382 -2.27839987765 -0.54054157221 -0.00003837042 -2.27052476107 -0.53573854690 0.00000970233 -2.26119423151 -0.53122594312 0.00005828416 -2.25068496000 -0.52692810819 0.00010685480 -2.23927361758 -0.52276938945 0.00015489397 -2.22723687527 -0.51867413422 0.00020188142 -2.21485140411 -0.51456668982 0.00024729686 -2.20239387512 -0.51037140358 0.00029062004 -2.19014095933 -0.50601262283 -0.00022022959 -2.27256952176 -0.55954885924 -0.00020136109 -2.26417057891 -0.55634999522 -0.00017697229 -2.25461686269 -0.55329294141 -0.00014802184 -2.24411832981 -0.55032934072 -0.00011546836 -2.23288493695 -0.54741083609 -0.00008027051 -2.22112664081 -0.54448907042 -0.00004338693 -2.20905339808 -0.54151568663 -0.00000577626 -2.19687516545 -0.53844232766 0.00003160287 -2.18480189963 -0.53522063641 0.00006779180 -2.17304355731 -0.53180225581 -0.00029909852 -2.25877829685 -0.57374095153 -0.00030620272 -2.24857987042 -0.57248017611 -0.00030365606 -2.23768576677 -0.57117678049 -0.00029301281 -2.22625188153 -0.56980444778 -0.00027582722 -2.21443411034 -0.56833686110 -0.00025365355 -2.20238834885 -0.56674770357 -0.00022804606 -2.19027049267 -0.56501065831 -0.00020055901 -2.17823643745 -0.56309940842 -0.00017274666 -2.16644207883 -0.56098763704 -0.00014616326 -2.15504331244 -0.55864902727 -0.00036579243 -2.24357244514 -0.58804147988 -0.00039539494 -2.23194989272 -0.58871624638 -0.00041185445 -2.22000131691 -0.58918160711 -0.00041734945 -2.20783633617 -0.58943561788 -0.00041405839 -2.19556456897 -0.58947633449 -0.00040415975 -2.18329563375 -0.58930181272 -0.00038983201 -2.17113914899 -0.58891010839 -0.00037325365 -2.15920473315 -0.58829927729 -0.00035660313 -2.14760200468 -0.58746737521 -0.00034205893 -2.13644058204 -0.58641245796 -0.00041858935 -2.22735517625 -0.60220497556 -0.00046439400 -2.21460278634 -0.60484233752 -0.00049500020 -2.20183335675 -0.60709896427 -0.00051311060 -2.18911314323 -0.60900720464 -0.00052142783 -2.17650840158 -0.61059940750 -0.00052265454 -2.16408538757 -0.61190792168 -0.00051949338 -2.15191035697 -0.61296509603 -0.00051464697 -2.14004956556 -0.61380327941 -0.00051081797 -2.12856926912 -0.61445482066 -0.00051070902 -2.11753572343 -0.61495206863 -0.00045576733 -2.21052969981 -0.61598596983 -0.00050865614 -2.19686069183 -0.62064258104 -0.00054652603 -2.18345172990 -0.62472039493 -0.00057237512 -2.17032375222 -0.62830356167 -0.00058920153 -2.15749769697 -0.63147623138 -0.00060000336 -2.14499450235 -0.63432255424 -0.00060777874 -2.13283510655 -0.63692668038 -0.00061552578 -2.12104044775 -0.63937275996 -0.00062624260 -2.10963146414 -0.64174494312 -0.00064292732 -2.09862909391 -0.64412738002 -0.00047560440 -2.19349922546 -0.62913899396 -0.00052363761 -2.17904574971 -0.63590110842 -0.00055986468 -2.16512627999 -0.64183744209 -0.00058722188 -2.15170961262 -0.64710904255 -0.00060864544 -2.13876454390 -0.65187695740 -0.00062707163 -2.12625987015 -0.65630223422 -0.00064543669 -2.11416438765 -0.66054592059 -0.00066667688 -2.10244689273 -0.66476906410 -0.00069372844 -2.09107618168 -0.66913271234 -0.00072952762 -2.08002105081 -0.67379791289 -0.00047637860 -2.17666696283 -0.64141857923 -0.00050479463 -2.16148010052 -0.65040205116 -0.00052844887 -2.14712685065 -0.65824164871 -0.00054972971 -2.13351217395 -0.66520800091 -0.00057102555 -2.12054103116 -0.67157173680 -0.00059472479 -2.10811838300 -0.67760348542 -0.00062321583 -2.09614919022 -0.68357387580 -0.00065888707 -2.08453841354 -0.68975353700 -0.00070412690 -2.07319101371 -0.69641309804 -0.00076132372 -2.06201195145 -0.70382318797 0.00005366660 -2.30503414846 -0.51831498531 0.00011575569 -2.30593486528 -0.50781819300 0.00017555492 -2.30319243953 -0.49865128123 0.00023267430 -2.29732121788 -0.49059624395 0.00028672386 -2.28883554697 -0.48343507509 0.00033731364 -2.27824977344 -0.47694976860 0.00038405367 -2.26607824395 -0.47092231842 0.00042655397 -2.25283530513 -0.46513471848 0.00046442459 -2.23903530364 -0.45936896272 0.00049727554 -2.22519258612 -0.45340704510 -0.00001339534 -2.29810702809 -0.53139155891 0.00003684576 -2.29520407538 -0.52331106379 0.00008511527 -2.28962267637 -0.51613865365 0.00013130250 -2.28176236680 -0.50970686412 0.00017529674 -2.27202268237 -0.50384823082 0.00021698730 -2.26080315880 -0.49839528938 0.00025626348 -2.24850333180 -0.49318057542 0.00029301458 -2.23552273709 -0.48803662459 0.00032712991 -2.22226091038 -0.48279597249 0.00035849876 -2.20911738739 -0.47729115477 -0.00007558204 -2.28842824328 -0.54513348248 -0.00004095620 -2.28237598588 -0.53936507144 -0.00000668229 -2.27444838991 -0.53415163206 0.00002712785 -2.26494973539 -0.52936284444 0.00006036237 -2.25418430239 -0.52486838868 0.00009290946 -2.24245637095 -0.52053794489 0.00012465728 -2.23007022111 -0.51624119317 0.00015549399 -2.21733013293 -0.51184781363 0.00018530775 -2.20454038646 -0.50722748637 0.00021398674 -2.19200526174 -0.50224989150 -0.00013196084 -2.27638256855 -0.55934392813 -0.00011478221 -2.26775353393 -0.55581568316 -0.00009556356 -2.25791453448 -0.55254105748 -0.00007462263 -2.24709010953 -0.54942012263 -0.00005227718 -2.23550479842 -0.54635295018 -0.00002884496 -2.22338314048 -0.54323961167 -0.00000464371 -2.21094967506 -0.53998017866 0.00002000880 -2.19842894149 -0.53647472270 0.00004479484 -2.18604547911 -0.53262331534 0.00006939665 -2.17402382725 -0.52832602813 -0.00018159906 -2.26235477842 -0.57382606799 -0.00018176433 -2.25163965665 -0.57249836617 -0.00017725434 -2.24026606445 -0.57115777094 -0.00016872192 -2.22839027510 -0.56973463644 -0.00015681989 -2.21616856187 -0.56815931684 -0.00014220107 -2.20375719803 -0.56636216628 -0.00012551829 -2.19131245685 -0.56427353891 -0.00010742436 -2.17899061160 -0.56182378889 -0.00008857212 -2.16694793556 -0.55894327037 -0.00006961437 -2.15534070201 -0.55556233749 -0.00022356403 -2.24672964741 -0.58838307417 -0.00023903458 -2.23433729117 -0.58924858769 -0.00024748042 -2.22174793418 -0.58985261347 -0.00024994299 -2.20905701799 -0.59016232360 -0.00024746369 -2.19635998414 -0.59014489017 -0.00024108396 -2.18375227418 -0.58976748525 -0.00023184522 -2.17132932965 -0.58899728094 -0.00022078890 -2.15918659209 -0.58780144930 -0.00020895641 -2.14741950306 -0.58614716244 -0.00019738918 -2.13612350410 -0.58400159243 -0.00025692306 -2.22989195003 -0.60281811878 -0.00028372501 -2.21614937462 -0.60590181492 -0.00030196762 -2.20260509802 -0.60847642610 -0.00031305882 -2.18929712408 -0.61055912184 -0.00031840655 -2.17626345664 -0.61216707168 -0.00031941873 -2.16354209955 -0.61331744513 -0.00031750330 -2.15117105666 -0.61402741174 -0.00031406819 -2.13918833180 -0.61431414103 -0.00031052132 -2.12763192884 -0.61419480253 -0.00030827063 -2.11653985161 -0.61368656577 -0.00028074349 -2.21222646081 -0.61693437394 -0.00031296765 -2.19737884414 -0.62229351510 -0.00033644171 -2.18308251033 -0.62688004987 -0.00035284240 -2.16931737925 -0.63078096890 -0.00036384642 -2.15606337077 -0.63408326288 -0.00037113049 -2.14330040475 -0.63687392247 -0.00037637132 -2.13100840106 -0.63923993834 -0.00038124564 -2.11916727956 -0.64126830117 -0.00038743015 -2.10775696013 -0.64304600161 -0.00039660157 -2.09675736262 -0.64466003035 -0.00029409263 -2.19411795426 -0.63053501178 -0.00032389454 -2.17832863684 -0.63825915544 -0.00034662851 -2.16342512545 -0.64491432579 -0.00036406669 -2.14932456938 -0.65068380251 -0.00037798125 -2.13594411793 -0.65575086528 -0.00039014432 -2.12320092038 -0.66029879380 -0.00040232806 -2.11101212604 -0.66451086775 -0.00041630463 -2.09929488421 -0.66857036681 -0.00043384617 -2.08796634417 -0.67266057067 -0.00045672485 -2.07694365522 -0.67696475902 -0.00029603780 -2.17595120490 -0.64342320440 -0.00031363772 -2.15930168988 -0.65363420315 -0.00032825381 -2.14387789775 -0.66243009490 -0.00034150469 -2.12952548036 -0.67012356040 -0.00035500899 -2.11609008952 -0.67702728040 -0.00037038532 -2.10341737706 -0.68345393567 -0.00038925230 -2.09135299480 -0.68971620697 -0.00041322854 -2.07974259457 -0.69612677505 -0.00044393268 -2.06843182820 -0.70299832067 -0.00048298332 -2.05726634750 -0.71064352460 0.00001915527 -2.30683954794 -0.51743348952 0.00004124877 -2.30815945070 -0.50635050462 0.00006247345 -2.30569285831 -0.49675091097 0.00008269667 -2.29997752219 -0.48839588034 0.00010178581 -2.29155119376 -0.48104658449 0.00011960823 -2.28095162445 -0.47446419521 0.00013603131 -2.26871656568 -0.46840988425 0.00015092241 -2.25538376888 -0.46264482340 0.00016414891 -2.24149098547 -0.45693018442 0.00017557817 -2.22757596687 -0.45102713909 -0.00000385380 -2.30001291045 -0.53085136208 0.00001426738 -2.29733329420 -0.52233115638 0.00003155213 -2.29186419917 -0.51484689794 0.00004798139 -2.28402447491 -0.50820528590 0.00006353608 -2.27423297098 -0.50221301943 0.00007819715 -2.26290853691 -0.49667679769 0.00009194553 -2.25047002226 -0.49140331983 0.00010476216 -2.23733627657 -0.48619928501 0.00011662796 -2.22392614940 -0.48087139238 0.00012752388 -2.21065849029 -0.47522634111 -0.00002512334 -2.29037090418 -0.54484483896 -0.00001235958 -2.28436403377 -0.53877676687 0.00000007536 -2.27641019753 -0.53335811571 0.00001217719 -2.26682748001 -0.52843123181 0.00002394164 -2.25593396573 -0.52383846152 0.00003536443 -2.24404773926 -0.51942215116 0.00004644130 -2.23148688511 -0.51502464710 0.00005716796 -2.21856948785 -0.51048829566 0.00006754014 -2.20561363200 -0.50565544318 0.00007755356 -2.19293740211 -0.50036843601 -0.00004435961 -2.27828908609 -0.55924141270 -0.00003765280 -2.26954500485 -0.55554847118 -0.00003047674 -2.25956336313 -0.55216505435 -0.00002289473 -2.24857599155 -0.54896544788 -0.00001497008 -2.23681472077 -0.54582393741 -0.00000676608 -2.22451138140 -0.54261480859 0.00000165396 -2.21189780408 -0.53921234706 0.00001022673 -2.19920581946 -0.53549083847 0.00001888894 -2.18666725815 -0.53132456848 0.00002757727 -2.17451395080 -0.52658782272 -0.00006126888 -2.26414301316 -0.57386857585 -0.00006063301 -2.25316954289 -0.57250740437 -0.00005862405 -2.24155620570 -0.57114820393 -0.00005541319 -2.22945946366 -0.56969966393 -0.00005117163 -2.21703577882 -0.56807047378 -0.00004607055 -2.20444161325 -0.56616932290 -0.00004028114 -2.19183342901 -0.56390490069 -0.00003397461 -2.17936768815 -0.56118589657 -0.00002732214 -2.16720085275 -0.55792099993 -0.00002049492 -2.15548938485 -0.55401890020 -0.00007555741 -2.24830824236 -0.58855382094 -0.00008032091 -2.23553098332 -0.58951470153 -0.00008288645 -2.22262123499 -0.59018805449 -0.00008355701 -2.20966735041 -0.59052560975 -0.00008263557 -2.19675768263 -0.59047909729 -0.00008042512 -2.18398058472 -0.59000024705 -0.00007722865 -2.17142440972 -0.58904078899 -0.00007334915 -2.15917751069 -0.58755245306 -0.00006908958 -2.14732824068 -0.58548696921 -0.00006475295 -2.13596495274 -0.58279606740 -0.00008693147 -2.23116033064 -0.60312464052 -0.00009573721 -2.21692266159 -0.60643149774 -0.00010178381 -2.20299096073 -0.60916509609 -0.00010550498 -2.18938910590 -0.61133501518 -0.00010733446 -2.17614097495 -0.61295083460 -0.00010770597 -2.16327044572 -0.61402213399 -0.00010705323 -2.15080139606 -0.61455849293 -0.00010580996 -2.13875770381 -0.61456949106 -0.00010440990 -2.12716324683 -0.61406470796 -0.00010328676 -2.11604190296 -0.61305372326 -0.00009509732 -2.21307483498 -0.61740852712 -0.00010590262 -2.19763791315 -0.62311892808 -0.00011383600 -2.18289789267 -0.62795981880 -0.00011943593 -2.16881418424 -0.63201961001 -0.00012324086 -2.15534619851 -0.63538671239 -0.00012578924 -2.14245334616 -0.63814953666 -0.00012761951 -2.13009503786 -0.64039649352 -0.00012927014 -2.11823068428 -0.64221599368 -0.00013127958 -2.10681969609 -0.64369644785 -0.00013418628 -2.09582148398 -0.64492626674 -0.00009976122 -2.19442731235 -0.63123297328 -0.00010983784 -2.17797007342 -0.63943812762 -0.00011756292 -2.16257454055 -0.64645271268 -0.00012352868 -2.14813203951 -0.65247112405 -0.00012832733 -2.13453389605 -0.65768775730 -0.00013255109 -2.12167143594 -0.66229700800 -0.00013679216 -2.10943598495 -0.66649327173 -0.00014164278 -2.09771886884 -0.67047094405 -0.00014769513 -2.08641141336 -0.67442442054 -0.00015554145 -2.07540494429 -0.67854809678 -0.00010062944 -2.17559331971 -0.64442547156 -0.00010656358 -2.15821247785 -0.65525023144 -0.00011148442 -2.14225341410 -0.66452426779 -0.00011596202 -2.12753212580 -0.67258128713 -0.00012056642 -2.11386461032 -0.67975499601 -0.00012586768 -2.10106686500 -0.68637910097 -0.00013243583 -2.08895488719 -0.69278730854 -0.00014084094 -2.07734467424 -0.69931332527 -0.00015165305 -2.06605222352 -0.70629085769 -0.00016544221 -2.05489353237 -0.71405361234 -0.00002067730 -2.30683953802 -0.51743340148 -0.00004280183 -2.30815944024 -0.50635041127 -0.00006404374 -2.30569284720 -0.49675081145 -0.00008427246 -2.29997751031 -0.48839577379 -0.00010335744 -2.29155118100 -0.48104647009 -0.00012116811 -2.28095161069 -0.47446407213 -0.00013757390 -2.26871655080 -0.46840975171 -0.00015244426 -2.25538375277 -0.46264468060 -0.00016564861 -2.24149096801 -0.45693003059 -0.00017705640 -2.22757594796 -0.45102697347 0.00000238379 -2.30001289993 -0.53085126967 -0.00001575149 -2.29733328275 -0.52233105543 -0.00003304029 -2.29186418680 -0.51484678880 -0.00004946518 -2.28402446162 -0.50820516872 -0.00006500868 -2.27423295672 -0.50221289416 -0.00007965337 -2.26290852163 -0.49667666404 -0.00009338178 -2.25047000588 -0.49140317733 -0.00010617646 -2.23733625899 -0.48619913297 -0.00011801997 -2.22392613049 -0.48087122991 -0.00012889485 -2.21065846990 -0.47522616709 0.00002371482 -2.29037089312 -0.54484474328 0.00001095201 -2.28436402144 -0.53877666023 -0.00000147510 -2.27641018406 -0.53335799938 -0.00001356348 -2.26682746546 -0.52843110669 -0.00002531012 -2.25593395015 -0.52383832813 -0.00003671200 -2.24404772262 -0.51942200963 -0.00004776608 -2.23148686737 -0.51502449717 -0.00005846935 -2.21856946891 -0.51048813670 -0.00006881878 -2.20561361173 -0.50565527418 -0.00007881136 -2.19293738032 -0.50036825556 0.00004302067 -2.27828907457 -0.55924131484 0.00003632830 -2.26954499179 -0.55554836075 0.00002917085 -2.25956334873 -0.55216493327 0.00002161067 -2.24857597596 -0.54896531754 0.00001371013 -2.23681470406 -0.54582379870 0.00000553157 -2.22451136361 -0.54261466191 -0.00000286265 -2.21189778517 -0.53921219230 -0.00001141019 -2.19920579933 -0.53549067501 -0.00002004868 -2.18666723667 -0.53132439520 -0.00002871577 -2.17451392774 -0.52658763801 0.00006000622 -2.26414300126 -0.57386847689 0.00005939700 -2.25316952926 -0.57250729207 0.00005741654 -2.24155619061 -0.57114808053 0.00005423536 -2.22945944728 -0.56969953109 0.00005002397 -2.21703576127 -0.56807033259 0.00004495290 -2.20444159457 -0.56616917388 0.00003919265 -2.19183340917 -0.56390474378 0.00003291375 -2.17936766707 -0.56118573113 0.00002628672 -2.16720083025 -0.55792082477 0.00001948206 -2.15548936070 -0.55401871353 0.00007437635 -2.24830823017 -0.58855372199 0.00007917774 -2.23553096933 -0.58951458928 0.00008178097 -2.22262121946 -0.59018793123 0.00008248863 -2.20966733354 -0.59052547718 0.00008160329 -2.19675766454 -0.59047895650 0.00007942755 -2.18398056545 -0.59000009855 0.00007626399 -2.17142438925 -0.58904063269 0.00007241521 -2.15917748891 -0.58755228828 0.00006818377 -2.14732821741 -0.58548679468 0.00006387228 -2.13596492773 -0.58279588124 0.00008583592 -2.23116031828 -0.60312454266 0.00009469015 -2.21692264745 -0.60643138745 0.00010078315 -2.20299094506 -0.60916497543 0.00010454855 -2.18938908888 -0.61133488564 0.00010641999 -2.17614095668 -0.61295069713 0.00010683111 -2.16327042623 -0.61402198894 0.00010621553 -2.15080137530 -0.61455834011 0.00010500690 -2.13875768166 -0.61456932969 0.00010363886 -2.12716322310 -0.61406453673 0.00010254504 -2.11604187737 -0.61305354026 0.00009408981 -2.21307482259 -0.61740843146 0.00010495385 -2.19763789911 -0.62311882167 0.00011294207 -2.18289787719 -0.62795970321 0.00011859319 -2.16881416744 -0.63201948631 0.00012244596 -2.15534618046 -0.63538658118 0.00012503912 -2.14245332685 -0.63814939804 0.00012691142 -2.13009501721 -0.64039634710 0.00012860158 -2.11823066214 -0.64221583859 0.00013064835 -2.10681967225 -0.64369628271 0.00013359048 -2.09582145814 -0.64492608969 0.00009884290 -2.19442730007 -0.63123288092 0.00010898848 -2.17797005976 -0.63943802701 0.00011677672 -2.16257452563 -0.64645260464 0.00012280060 -2.14813202337 -0.65247100903 0.00012765309 -2.13453387869 -0.65768763537 0.00013192717 -2.12167141728 -0.66229687888 0.00013621581 -2.10943596487 -0.66649313476 0.00014111197 -2.09771884714 -0.67047079821 0.00014720863 -2.08641138981 -0.67442426444 0.00015509875 -2.07540491857 -0.67854792866 0.00009980007 -2.17559330770 -0.64442538358 0.00010581364 -2.15821246489 -0.65525013855 0.00011080610 -2.14225340015 -0.66452416978 0.00011534885 -2.12753211080 -0.67258118362 0.00012001328 -2.11386459414 -0.67975488640 0.00012537082 -2.10106684749 -0.68637898445 0.00013199286 -2.08895486817 -0.69278718413 0.00014045080 -2.07734465347 -0.69931319177 0.00015131605 -2.06605220072 -0.70629071370 0.00016516001 -2.05489350721 -0.71405345626 -0.00005518211 -2.30503411899 -0.51831472407 -0.00011729979 -2.30593483414 -0.50781791551 -0.00017711454 -2.30319240642 -0.49865098523 -0.00023423837 -2.29732118247 -0.49059592711 -0.00028828327 -2.28883550892 -0.48343473501 -0.00033886123 -2.27824973242 -0.47694940281 -0.00038558426 -2.26607819959 -0.47092192437 -0.00042806435 -2.25283525709 -0.46513429358 -0.00046591349 -2.23903525153 -0.45936850431 -0.00049874369 -2.22519252957 -0.45340655042 0.00001193116 -2.29810699678 -0.53139128412 -0.00003832253 -2.29520404121 -0.52331076301 -0.00008659518 -2.28962263943 -0.51613832821 -0.00013277759 -2.28176232706 -0.50970651462 -0.00017676060 -2.27202263976 -0.50384785714 -0.00021843500 -2.26080311314 -0.49839489069 -0.00025769162 -2.24850328285 -0.49318015016 -0.00029442127 -2.23552268452 -0.48803617046 -0.00032851477 -2.22226085378 -0.48279548650 -0.00035986293 -2.20911732628 -0.47729063317 0.00007417878 -2.28842821031 -0.54513319753 0.00003955453 -2.28237594905 -0.53936475322 0.00000528871 -2.27444834959 -0.53415128460 -0.00002850803 -2.26494969185 -0.52936247054 -0.00006172499 -2.25418425573 -0.52486798993 -0.00009425153 -2.24245632114 -0.52053752164 -0.00012597695 -2.23007016799 -0.51624074457 -0.00015679060 -2.21733007619 -0.51184733758 -0.00018658179 -2.20454032566 -0.50722697956 -0.00021523986 -2.19200519629 -0.50224934939 0.00013062661 -2.27638253415 -0.55934363642 0.00011346226 -2.26775349488 -0.55581535336 0.00009426190 -2.25791449139 -0.55254069545 0.00007334239 -2.24709006284 -0.54941973266 0.00005102062 -2.23550474839 -0.54635253499 0.00002761344 -2.22338308718 -0.54323917239 0.00000343772 -2.21094961837 -0.53997971486 -0.00002118965 -2.19842888112 -0.53647423237 -0.00004595182 -2.18604541457 -0.53262279489 -0.00007053191 -2.17402375788 -0.52832547242 0.00018034046 -2.26235474287 -0.57382577290 0.00018053149 -2.25163961590 -0.57249803064 0.00017604918 -2.24026601928 -0.57115740182 0.00016754573 -2.22839022605 -0.56973423879 0.00015567332 -2.21616850929 -0.56815889395 0.00014108415 -2.20375714203 -0.56636171966 0.00012443039 -2.19131239735 -0.56427306831 0.00010636424 -2.17899054830 -0.56182329227 0.00008753789 -2.16694786793 -0.55894274391 0.00006860352 -2.15534062931 -0.55556177561 0.00022238618 -2.24672961102 -0.58838277909 0.00023789307 -2.23433724934 -0.58924825230 0.00024637535 -2.22174788772 -0.58985224476 0.00024887405 -2.20905696750 -0.59016192672 0.00024643021 -2.19635992997 -0.59014446844 0.00024008486 -2.18375221646 -0.58976704018 0.00023087903 -2.17132926828 -0.58899681219 0.00021985376 -2.15918652674 -0.58780095471 0.00020805008 -2.14741943315 -0.58614663801 0.00019650903 -2.13612342884 -0.58400103233 0.00025582960 -2.22989191318 -0.60281782711 0.00028267785 -2.21614933239 -0.60590148554 0.00030096519 -2.20260505119 -0.60847606532 0.00031209942 -2.18929707318 -0.61055873424 0.00031748836 -2.17626340199 -0.61216666010 0.00031853983 -2.16354204123 -0.61331701067 0.00031666164 -2.15117099451 -0.61402695376 0.00031326159 -2.13918826544 -0.61431365713 0.00030974751 -2.12763185764 -0.61419428859 0.00030752721 -2.11653977472 -0.61368601592 0.00027973654 -2.21222642390 -0.61693408909 0.00031201667 -2.19737880228 -0.62229319759 0.00033554348 -2.18308246414 -0.62687970456 0.00035199390 -2.16931732913 -0.63078059916 0.00036304487 -2.15606331690 -0.63408287054 0.00037037332 -2.14330034710 -0.63687350787 0.00037565619 -2.13100833939 -0.63923950029 0.00038057041 -2.11916721341 -0.64126783697 0.00038679292 -2.10775688881 -0.64304550707 0.00039600066 -2.09675728524 -0.64465949973 0.00029317283 -2.19411791776 -0.63053473713 0.00032304038 -2.17832859622 -0.63825885567 0.00034583501 -2.16342508104 -0.64491400353 0.00036332956 -2.14932452135 -0.65068345927 0.00037729681 -2.13594406624 -0.65575050141 0.00038950958 -2.12320086485 -0.66029840849 0.00040174067 -2.11101206628 -0.66451045906 0.00041576290 -2.09929481964 -0.66856993167 0.00043334906 -2.08796627406 -0.67266010484 0.00045627196 -2.07694357864 -0.67696425712 0.00029520432 -2.17595116931 -0.64342294335 0.00031287982 -2.15930165141 -0.65363392700 0.00032756458 -2.14387785636 -0.66242980329 0.00034087845 -2.12952543585 -0.67012325236 0.00035444127 -2.11609004157 -0.67702695431 0.00036987287 -2.10341732524 -0.68345358926 0.00038879307 -2.09135293853 -0.68971583734 0.00041282173 -2.07974253316 -0.69612637864 0.00044357866 -2.06843176081 -0.70299789330 0.00048268372 -2.05726627320 -0.71064306143 -0.00007371014 -2.30142329114 -0.52007746017 -0.00016314878 -2.30148563262 -0.51075301991 -0.00024985687 -2.29819153618 -0.50245143492 -0.00033320632 -2.29200853889 -0.49499634311 -0.00041256906 -2.28340417778 -0.48821138239 -0.00048731699 -2.27284598991 -0.48192019067 -0.00055682205 -2.26080151234 -0.47594640587 -0.00062045616 -2.24773828211 -0.47011366590 -0.00067759124 -2.23412383628 -0.46424560867 -0.00072759920 -2.22042571190 -0.45816587210 0.00003140202 -2.29429520122 -0.53247140786 -0.00003855744 -2.29094556975 -0.52527028122 -0.00010704569 -2.28513955719 -0.51872151816 -0.00017369627 -2.27723807140 -0.51270932562 -0.00023814269 -2.26760202025 -0.50711791055 -0.00030001849 -2.25659231161 -0.50183147986 -0.00035895717 -2.24456985334 -0.49673424051 -0.00041459227 -2.23189555332 -0.49171039943 -0.00046655731 -2.21893031940 -0.48664416356 -0.00051448581 -2.20603505946 -0.48141973982 0.00012951488 -2.28454285594 -0.54571020382 0.00008402397 -2.27839981673 -0.54054104757 0.00003698915 -2.27052469426 -0.53573797289 -0.00001107029 -2.26119415929 -0.53122532480 -0.00005963505 -2.25068488259 -0.52692744834 -0.00010818586 -2.23927353492 -0.52276868854 -0.00015620343 -2.22723678706 -0.51867339044 -0.00020316847 -2.21485130976 -0.51456589907 -0.00024856169 -2.20239377380 -0.51037055948 -0.00029186381 -2.19014084993 -0.50601171668 0.00021890477 -2.27256946502 -0.55954837932 0.00020005025 -2.26417051423 -0.55634945048 0.00017567910 -2.25461679120 -0.55329234212 0.00014674924 -2.24411825227 -0.55032869432 0.00011421856 -2.23288485381 -0.54741014718 0.00007904497 -2.22112655218 -0.54448834079 0.00004218635 -2.20905330372 -0.54151491522 0.00000460062 -2.19687506480 -0.53844151057 -0.00003275433 -2.18480179178 -0.53521976693 -0.00006892060 -2.17304344101 -0.53180132438 0.00029784804 -2.25877823817 -0.57374046564 0.00030497623 -2.24857980293 -0.57247962144 0.00030245563 -2.23768569182 -0.57117616887 0.00029183993 -2.22625180007 -0.56980378790 0.00027468285 -2.21443402295 -0.56833615852 0.00025253809 -2.20238825570 -0.56674696070 0.00022695936 -2.19027039357 -0.56500987442 0.00019950036 -2.17823633182 -0.56309857966 0.00017171481 -2.16644196568 -0.56098675639 0.00014515641 -2.15504319040 -0.55864808460 0.00036462102 -2.24357238511 -0.58804099403 0.00039425676 -2.23194982350 -0.58871569194 0.00041075018 -2.22000123991 -0.58918099614 0.00041627940 -2.20783625241 -0.58943495922 0.00041302250 -2.19556447903 -0.58947563377 0.00040315759 -2.18329553783 -0.58930107237 0.00038886277 -2.17113904686 -0.58890932762 0.00037231613 -2.15920462416 -0.58829845208 0.00035569578 -2.14760188780 -0.58746649836 0.00034117981 -2.13644045581 -0.58641151904 0.00041750006 -2.22735511554 -0.60220449577 0.00046334665 -2.21460271660 -0.60484179348 0.00049399423 -2.20183327930 -0.60709836695 0.00051214526 -2.18911305900 -0.60900656198 0.00052050221 -2.17650831107 -0.61059872437 0.00052176756 -2.16408529088 -0.61190719990 0.00051864377 -2.15191025381 -0.61296433438 0.00051383330 -2.14004945521 -0.61380247359 0.00051003862 -2.12856915046 -0.61445396333 0.00050996221 -2.11753559492 -0.61495114940 0.00045476149 -2.21052963919 -0.61598550212 0.00050770073 -2.19686062291 -0.62064205755 0.00054561921 -2.18345165377 -0.62471982431 0.00057151513 -2.17032366956 -0.62830294988 0.00058838668 -2.15749760810 -0.63147558174 0.00059923208 -2.14499440720 -0.63432186738 0.00060704953 -2.13283500467 -0.63692595427 0.00061483723 -2.12104033832 -0.63937198992 0.00062559339 -2.10963134597 -0.64174412179 0.00064231620 -2.09862896543 -0.64412649737 0.00047468166 -2.19349916575 -0.62913854435 0.00052277384 -2.17904568311 -0.63590061566 0.00055905659 -2.16512620713 -0.64183691124 0.00058646662 -2.15170953381 -0.64710847661 0.00060794060 -2.13876445913 -0.65187635732 0.00062641525 -2.12625977909 -0.65630159889 0.00064482725 -2.11416428967 -0.66054524688 0.00066611331 -2.10244678687 -0.66476834681 0.00069321011 -2.09107606667 -0.66913194421 0.00072905436 -2.08002092506 -0.67379708464 0.00047553690 -2.17666690496 -0.64141815374 0.00050402080 -2.16148003786 -0.65040159931 0.00052773783 -2.14712678320 -0.65824117074 0.00054907735 -2.13351210148 -0.66520749587 0.00057042867 -2.12054095321 -0.67157120253 0.00059418114 -2.10811829890 -0.67760291854 0.00062272411 -2.09614909906 -0.68357327176 0.00065844690 -2.08453831421 -0.68975289000 0.00070373885 -2.07319090485 -0.69641240111 0.00076098931 -2.06201183149 -0.70382243291 -0.00006561239 -2.29600705476 -0.52272161264 -0.00016125250 -2.29481183592 -0.51515572703 -0.00025538862 -2.29069023671 -0.50815216309 -0.00034718158 -2.28403957979 -0.50159702460 -0.00043579217 -2.27525718782 -0.49537641536 -0.00052038123 -2.26474038345 -0.48937643916 -0.00060010957 -2.25288648933 -0.48348319980 -0.00067413801 -2.24009282814 -0.47758280107 -0.00074162736 -2.22675672251 -0.47156134677 -0.00080173845 -2.21327549512 -0.46530494069 0.00006741011 -2.28857751349 -0.53409164330 -0.00000156788 -2.28455786855 -0.52820961212 -0.00007232500 -2.27841494024 -0.52259636062 -0.00014396160 -2.27045169478 -0.51721360377 -0.00021557801 -2.26097109837 -0.51202305652 -0.00028627457 -2.25027611722 -0.50698643381 -0.00035515161 -2.23866971755 -0.50206545061 -0.00042130947 -2.22645486556 -0.49722182185 -0.00048384848 -2.21393452747 -0.49241726251 -0.00054186898 -2.20141166949 -0.48761348752 0.00019296944 -2.27871483021 -0.54657576424 0.00015493628 -2.27243562463 -0.54230554500 0.00011024860 -2.26463921816 -0.53811806578 0.00006033589 -2.25556086788 -0.53401967093 0.00000662763 -2.24543583083 -0.53001670477 -0.00004944670 -2.23449936407 -0.52611551167 -0.00010645762 -2.22298672467 -0.52232243597 -0.00016297563 -2.21113316967 -0.51864382200 -0.00021757127 -2.19917395614 -0.51508601412 -0.00026881504 -2.18734434114 -0.51165535667 0.00030830174 -2.26684986735 -0.55985554544 0.00030239342 -2.25879604999 -0.55715065360 0.00028430515 -2.24967024826 -0.55441987451 0.00025628003 -2.23966054434 -0.55169220358 0.00022056115 -2.22895502041 -0.54899663622 0.00017939161 -2.21774175866 -0.54636216785 0.00013501450 -2.20620884125 -0.54381779386 0.00008967293 -2.19454435037 -0.54139250966 0.00004560997 -2.18293636821 -0.53911531068 0.00000506873 -2.17157297693 -0.53701519232 0.00041064315 -2.25341348734 -0.57361255689 0.00043493700 -2.24399009048 -0.57245206582 0.00044181762 -2.23381520833 -0.57120438275 0.00043443996 -2.22304416942 -0.56990817928 0.00041595897 -2.21183230234 -0.56860212698 0.00038952961 -2.20033493563 -0.56732489744 0.00035830685 -2.18870739785 -0.56611516225 0.00032544563 -2.17710501757 -0.56501159299 0.00029410092 -2.16568312334 -0.56405286125 0.00026742768 -2.15459704373 -0.56327763862 0.00049722979 -2.23883655261 -0.58752836858 0.00054670048 -2.22836869196 -0.58791690956 0.00057475898 -2.21738127616 -0.58817418644 0.00058538480 -2.20600518839 -0.58834457553 0.00058255748 -2.19437131182 -0.58847245313 0.00057025654 -2.18261052964 -0.58860219556 0.00055246151 -2.17085372503 -0.58877817913 0.00053315192 -2.15923178116 -0.58904478014 0.00051630728 -2.14787558123 -0.58944637491 0.00050590714 -2.13691600841 -0.59002733974 0.00056529780 -2.22354992559 -0.60128455051 0.00063181732 -2.21228280027 -0.60325231275 0.00067510220 -2.20067562957 -0.60503188152 0.00069968370 -2.18883704649 -0.60667836986 0.00071009310 -2.17687568407 -0.60824689079 0.00071086164 -2.16490017534 -0.60979255731 0.00070652059 -2.15301915333 -0.61137048246 0.00070160120 -2.14134125105 -0.61303577926 0.00070063475 -2.12997510154 -0.61484356071 0.00070815248 -2.11902933783 -0.61684893985 0.00061208332 -2.20798446870 -0.61456267267 0.00068442095 -2.19608336126 -0.61816540327 0.00073482024 -2.18400544633 -0.62148006394 0.00076790579 -2.17183318899 -0.62458653981 0.00078830222 -2.15964905432 -0.62756471605 0.00080063414 -2.14753550740 -0.63049447781 0.00080952617 -2.13557501331 -0.63345571024 0.00081960292 -2.12385003714 -0.63652829850 0.00083548900 -2.11244304397 -0.63979212774 0.00086180903 -2.10143649887 -0.64332708312 0.00063482247 -2.19257104439 -0.62704430504 0.00069864485 -2.18012132078 -0.63236330906 0.00074588608 -2.16767790425 -0.63722132963 0.00078062020 -2.15528706114 -0.64174606290 0.00080692126 -2.14299505777 -0.64606520502 0.00082886330 -2.13084816046 -0.65030645214 0.00085052037 -2.11889263554 -0.65459750042 0.00087596650 -2.10717474934 -0.65906604601 0.00090927575 -2.09574076818 -0.66383978505 0.00095452215 -2.08463695839 -0.66904641370 0.00063075139 -2.17774051508 -0.63841101762 0.00066862246 -2.16474762467 -0.64555315801 0.00070027268 -2.15200018113 -0.65195827454 0.00072839606 -2.13949210820 -0.65783391665 0.00075568662 -2.12721732963 -0.66338763380 0.00078483835 -2.11516976917 -0.66882697544 0.00081854526 -2.10334335056 -0.67435949100 0.00085950136 -2.09173199754 -0.68019272995 0.00091040067 -2.08032963386 -0.68653424173 0.00097393718 -2.06913018326 -0.69359157578 -0.00002023986 -2.28878541012 -0.52624718436 -0.00009251462 -2.28591344426 -0.52102603944 -0.00016682770 -2.28068850821 -0.51575317232 -0.00024216939 -2.27341430540 -0.51039797438 -0.00031753000 -2.26439453928 -0.50492983705 -0.00039189981 -2.25393291329 -0.49931815171 -0.00046426911 -2.24233313086 -0.49353230976 -0.00053362821 -2.22989889545 -0.48754170263 -0.00059896738 -2.21693391048 -0.48131572169 -0.00065927694 -2.20374187941 -0.47482375836 0.00012656913 -2.28095393382 -0.53625199289 0.00008753445 -2.27604093779 -0.53212875780 0.00003963371 -2.26944878875 -0.52776285758 -0.00001531400 -2.26140319736 -0.52321935109 -0.00007548959 -2.25212987427 -0.51856329721 -0.00013907399 -2.24185453015 -0.51385975477 -0.00020424811 -2.23080287564 -0.50917378265 -0.00026919286 -2.21920062141 -0.50457043969 -0.00033208916 -2.20727347812 -0.50011478477 -0.00039111792 -2.19524715641 -0.49587187674 0.00026778880 -2.27094413331 -0.54772988089 0.00026286744 -2.26448337287 -0.54465824723 0.00024168943 -2.25679192142 -0.54129156481 0.00020729664 -2.24804981772 -0.53774551037 0.00016273096 -2.23843710056 -0.53413576065 0.00011103425 -2.22813380870 -0.53057799239 0.00005524838 -2.21731998092 -0.52718788231 -0.00000158476 -2.20617565600 -0.52408110716 -0.00005642332 -2.19488087271 -0.52137334367 -0.00010622540 -2.18361566982 -0.51918026857 0.00039926411 -2.25922374132 -0.56026513665 0.00042679295 -2.25163010226 -0.55821896419 0.00043102273 -2.24307486266 -0.55592329385 0.00041638356 -2.23371693912 -0.55351026151 0.00038730555 -2.22371524826 -0.55111200303 0.00034821881 -2.21322870669 -0.54886065432 0.00030355345 -2.20241623100 -0.54688835125 0.00025773956 -2.19143673783 -0.54532722969 0.00021520726 -2.18044914376 -0.54430942554 0.00018038665 -2.16961236542 -0.54396707467 0.00051684000 -2.24626049054 -0.57344204843 0.00057261958 -2.23787047868 -0.57241536514 0.00059931690 -2.22865456891 -0.57124204454 0.00060266780 -2.21876733419 -0.57004741378 0.00058840809 -2.20836334752 -0.56895679999 0.00056227360 -2.19759718186 -0.56809553033 0.00053000015 -2.18662341020 -0.56758893193 0.00049732356 -2.17559660552 -0.56756233195 0.00046997967 -2.16467134080 -0.56814105753 0.00045370428 -2.15400218902 -0.56945043581 0.00061636142 -2.23252211371 -0.58684490454 0.00069365593 -2.22359385489 -0.58685190654 0.00073825524 -2.21388799660 -0.58683181672 0.00075687040 -2.20356377556 -0.58689077647 0.00075621246 -2.19278042845 -0.58713492716 0.00074299250 -2.18169719197 -0.58767041017 0.00072392157 -2.17047330283 -0.58860336686 0.00070571072 -2.15926799772 -0.59003993861 0.00069507103 -2.14824051334 -0.59208626680 0.00069871354 -2.13755008640 -0.59484849280 0.00069367331 -2.21847634353 -0.60005799325 0.00078321062 -2.20918958361 -0.60113304483 0.00083952103 -2.19913210218 -0.60227661023 0.00086971239 -2.18846903585 -0.60357415888 0.00088089257 -2.17736552118 -0.60511116020 0.00088016941 -2.16598669476 -0.60697308360 0.00087465077 -2.15449769319 -0.60924539851 0.00087144450 -2.14306365304 -0.61201357434 0.00087765845 -2.13184971090 -0.61536308051 0.00090040047 -2.12102100336 -0.61937938643 0.00074462064 -2.20459091273 -0.61266560286 0.00083459223 -2.19504701758 -0.61486323647 0.00089479755 -2.18474384209 -0.61716042490 0.00093191482 -2.17384588769 -0.61963137028 0.00095262231 -2.16251765584 -0.62235027474 0.00096359823 -2.15092364799 -0.62539134040 0.00097152083 -2.13922836560 -0.62882876937 0.00098306835 -2.12759631012 -0.63273676380 0.00100491904 -2.11619198300 -0.63718952580 0.00104375111 -2.10517988570 -0.64226125750 0.00076504835 -2.19133355401 -0.62425202163 0.00084110937 -2.18155550956 -0.62764693791 0.00089576808 -2.17108017275 -0.63106726058 0.00093419873 -2.16005710370 -0.63459621997 0.00096157556 -2.14863586255 -0.63831704643 0.00098307285 -2.13696600939 -0.64231297030 0.00100386483 -2.12519710436 -0.64666722193 0.00102912576 -2.11347870757 -0.65146303166 0.00106402990 -2.10196037915 -0.65678362983 0.00111375151 -2.09079167920 -0.66271224679 0.00075080138 -2.17917200010 -0.63440153787 0.00079607065 -2.16910441226 -0.63908860562 0.00083411593 -2.15849805061 -0.64358111709 0.00086728515 -2.14746545653 -0.64800251722 0.00089792625 -2.13611917144 -0.65247625091 0.00092838716 -2.12457173672 -0.65712576309 0.00096101582 -2.11293569379 -0.66207449867 0.00099816018 -2.10132358404 -0.66744590259 0.00104216816 -2.08984794887 -0.67336341976 0.00109538771 -2.07862132968 -0.67995049510 </DataArray>
</PointData>
<Points>
<DataArray type="Float32" NumberOfComponents="3">
-0.16664821691 -1.73059849085 2.63325810946 -0.17997309830 -1.72545063566 2.63420637018 -0.19281586918 -1.71908325057 2.63352146619 -0.20593199298 -1.71162088710 2.63144215094 -0.22007693315 -1.70318809673 2.62820717789 -0.23600615316 -1.69390943098 2.62405530049 -0.25447511644 -1.68390944134 2.61922527217 -0.27623928645 -1.67331267932 2.61395584640 -0.30205412664 -1.66224369642 2.60848577662 -0.33267510045 -1.65082704414 2.60305381628 -0.17914046226 -1.73368798026 2.62307445545 -0.19959436709 -1.72826562272 2.62221776114 -0.21750863000 -1.72183498620 2.62023481676 -0.23396764750 -1.71454948528 2.61727111987 -0.25005581611 -1.70656253452 2.61347216808 -0.26685753233 -1.69802754849 2.60898345894 -0.28545719269 -1.68909794175 2.60395049004 -0.30693919370 -1.67992712887 2.59851875896 -0.33238793186 -1.67066852443 2.59283376327 -0.36288780369 -1.66147554298 2.58704100056 -0.18854073727 -1.73675689764 2.61055379283 -0.21434789859 -1.73128635070 2.60819257506 -0.23606795031 -1.72500183347 2.60500426061 -0.25503761185 -1.71806974073 2.60108387128 -0.27259360264 -1.71065646729 2.59652642892 -0.29007264213 -1.70292840795 2.59142695533 -0.30881144973 -1.69505195750 2.58588047236 -0.33014674490 -1.68719351075 2.57998200183 -0.35541524705 -1.67951946250 2.57382656556 -0.38595367563 -1.67219620754 2.56750918538 -0.19484488932 -1.73974272861 2.59623729830 -0.22422319848 -1.73442405504 2.59261493820 -0.24846862245 -1.72846304287 2.58830743099 -0.26909083653 -1.72202710027 2.58339130103 -0.28759951602 -1.71528363543 2.57794307269 -0.30550433621 -1.70840005654 2.57203927036 -0.32431497239 -1.70154377179 2.56575641838 -0.34554109986 -1.69488218937 2.55917104114 -0.37069239392 -1.68858271746 2.55235966300 -0.40127852986 -1.68281276425 2.54539880833 -0.19804876577 -1.74258295881 2.58066614857 -0.22920977239 -1.73758997117 2.57596897679 -0.25468543876 -1.73209786490 2.57062196114 -0.27607627208 -1.72626701070 2.56470430498 -0.29498277951 -1.72025777931 2.55829521170 -0.31300546825 -1.71423054144 2.55147388469 -0.33174484548 -1.70834566781 2.54431952734 -0.35280141838 -1.70276352915 2.53691134302 -0.37777569415 -1.69764449616 2.52932853511 -0.40826817996 -1.69314893957 2.52165030701 -0.19814821398 -1.74521507386 2.56438152035 -0.22929712599 -1.74069533451 2.55873881710 -0.25469319160 -1.73578555005 2.55242548430 -0.27594286900 -1.73063491886 2.54553377899 -0.29465261637 -1.72539263933 2.53815595822 -0.31242889192 -1.72020790983 2.53038427903 -0.33087815381 -1.71522992876 2.52231099847 -0.35160686026 -1.71060789451 2.51402837359 -0.37622146943 -1.70649100544 2.50562866142 -0.40632843952 -1.70302845995 2.49720411902 -0.19513908133 -1.74757655939 2.54792459034 -0.22447476492 -1.74365138050 2.54140858537 -0.24846667329 -1.73940534883 2.53419563373 -0.26863957781 -1.73497627156 2.52639061894 -0.28651824988 -1.73050195586 2.51809842455 -0.30362746089 -1.72612020889 2.50942393407 -0.32149198223 -1.72196883784 2.50047203104 -0.34163658528 -1.71818564987 2.49134759899 -0.36558604145 -1.71490845215 2.48215552145 -0.39486512212 -1.71227505185 2.47300068195 -0.18901721518 -1.74960490104 2.53183653525 -0.21473219486 -1.74636934456 2.52446240785 -0.23598067618 -1.74283651172 2.51641004266 -0.25411534904 -1.73913651561 2.50778572069 -0.27048890330 -1.73539946928 2.49869572296 -0.28645402884 -1.73175548580 2.48924633048 -0.30336341553 -1.72833467824 2.47954382427 -0.32256975326 -1.72526715966 2.46969448534 -0.34542573190 -1.72268304312 2.45980459471 -0.37328404133 -1.72071244170 2.44998043340 -0.17977846290 -1.75123758444 2.51665853178 -0.20005892144 -1.74876046213 2.50838441079 -0.21720999263 -1.74595828924 2.49954634434 -0.23231913320 -1.74296109784 2.49022998010 -0.24647379989 -1.73989891998 2.48052096575 -0.26076144943 -1.73690178773 2.47050494896 -0.27626953855 -1.73409973315 2.46026757742 -0.29408552399 -1.73162278829 2.44989449878 -0.31529686248 -1.72960098521 2.43947136074 -0.34099101075 -1.72816435597 2.42908381096 -0.16741867187 -1.75241209522 2.50293175665 -0.18044445033 -1.75073596863 2.49365872045 -0.19212941496 -1.74864993186 2.48408217201 -0.20319988081 -1.74629546505 2.47423429304 -0.21438216292 -1.74381404835 2.46414726520 -0.22640257633 -1.74134716187 2.45385327020 -0.23998743610 -1.73903628577 2.44338448972 -0.25586305727 -1.73702290019 2.43277310543 -0.27475575487 -1.73544848525 2.42205129904 -0.29739184395 -1.73445452110 2.41125125222 -0.13596712014 -1.73180856465 2.63950944093 -0.14565751734 -1.72587097811 2.64267293616 -0.15567675757 -1.71886477557 2.64351617683 -0.16636484983 -1.71090233883 2.64237828123 -0.17806180308 -1.70209604968 2.63959836767 -0.19110762631 -1.69255828991 2.63551555446 -0.20584232850 -1.68240144132 2.63046895989 -0.22260591863 -1.67173788569 2.62479770229 -0.24173840568 -1.66068000482 2.61884089994 -0.26357979863 -1.64934018049 2.61293767115 -0.14475378617 -1.73606506194 2.62880241611 -0.15989199477 -1.72987985002 2.62927348697 -0.17359640804 -1.72282125539 2.62809491594 -0.18650911945 -1.71501027600 2.62550666064 -0.19927222243 -1.70656790977 2.62174867865 -0.21252781043 -1.69761515466 2.61706092760 -0.22691797690 -1.68827300860 2.61168336509 -0.24308481529 -1.67866246954 2.60585594871 -0.26167041905 -1.66890453541 2.59981863608 -0.28331688163 -1.65912020416 2.59381138480 -0.15136955600 -1.73991523602 2.61581834516 -0.17060127660 -1.73372319457 2.61398213515 -0.18707144649 -1.72683250588 2.61098385426 -0.20165404188 -1.71936280755 2.60699804190 -0.21522303897 -1.71143373720 2.60219923747 -0.22865241394 -1.70316493242 2.59676198036 -0.24281614301 -1.69467603081 2.59086080997 -0.25858820238 -1.68608666999 2.58467026569 -0.27684256824 -1.67751648756 2.57836488694 -0.29845321680 -1.66908512113 2.57211921310 -0.15581166777 -1.74334822538 2.60101463811 -0.17777548171 -1.73736789107 2.59719187625 -0.19607745782 -1.73083881277 2.59255208558 -0.21175258112 -1.72387303604 2.58722911590 -0.22583583661 -1.71658260642 2.58135681701 -0.23936220930 -1.70907956945 2.57506903872 -0.25336668419 -1.70147597070 2.56849963085 -0.26888424629 -1.69388385569 2.56178244320 -0.28694988060 -1.68641527000 2.55505132558 -0.30859857213 -1.67918225915 2.54844012779 -0.15807735963 -1.74635316850 2.58484870498 -0.18140472896 -1.74078081884 2.57929570585 -0.20059002692 -1.73478046183 2.57316870369 -0.21675770116 -1.72845406400 2.56657657348 -0.23103219929 -1.72190359190 2.55962819017 -0.24453796895 -1.71523101205 2.55243242872 -0.25839945778 -1.70853829100 2.54509816407 -0.27374111342 -1.70192739528 2.53773427120 -0.29168738349 -1.69550029143 2.53044962506 -0.31336271562 -1.68935894598 2.52335310060 -0.15816386971 -1.74891920387 2.56777795582 -0.18147913723 -1.74392885720 2.56068661948 -0.20058473870 -1.73859773879 2.55320280240 -0.21662236597 -1.73301899398 2.54541710554 -0.23073371090 -1.72728576810 2.53742012986 -0.24406046533 -1.72149120649 2.52930247635 -0.25774432114 -1.71572845447 2.52115474596 -0.27292697016 -1.71009065740 2.51306753967 -0.29075010427 -1.70467096059 2.50513145844 -0.31235541530 -1.69956250938 2.49743710326 -0.15606843616 -1.75103546997 2.55025980065 -0.17798882540 -1.74677888547 2.54175761273 -0.19603717805 -1.74223092941 2.53302347550 -0.21129953956 -1.73748092852 2.52412740292 -0.22486195536 -1.73261820949 2.51513940898 -0.23781047090 -1.72773209904 2.50612950762 -0.25123113161 -1.72291192387 2.49716771283 -0.26620998293 -1.71824701068 2.48832403857 -0.28383307030 -1.71382668619 2.47966849880 -0.30518643916 -1.70974027711 2.47127110750 -0.15178829711 -1.75269110530 2.53275164951 -0.17092391232 -1.74929778296 2.52290168113 -0.18692292987 -1.74562031944 2.51299981678 -0.20074218591 -1.74175297016 2.50308415651 -0.21333851660 -1.73778999053 2.49319280041 -0.22566875809 -1.73382563598 2.48336384855 -0.23868974654 -1.72995416192 2.47363540102 -0.25335831811 -1.72626982378 2.46404555787 -0.27063130894 -1.72286687697 2.45463241919 -0.29146555520 -1.71983957691 2.44543408506 -0.14532069071 -1.75387524832 2.51571091242 -0.16027451688 -1.75145242900 2.50451182026 -0.17321757906 -1.74870619463 2.49350092004 -0.18490326901 -1.74574822145 2.48266405717 -0.19608497852 -1.74269018569 2.47198707707 -0.20751609936 -1.73964376359 2.46145582516 -0.21995002329 -1.73672063139 2.45105614684 -0.23414014210 -1.73403246532 2.44077388755 -0.25083984756 -1.73169094163 2.43059489269 -0.27080253144 -1.72980773655 2.42050500767 -0.13666285509 -1.75457703753 2.49959499942 -0.14603075794 -1.75320970291 2.48698102566 -0.15489671051 -1.75142884073 2.47489587907 -0.16373575286 -1.74937978493 2.46324379576 -0.17302292505 -1.74720786943 2.45192901185 -0.18323326714 -1.74505842815 2.44085576343 -0.19484181920 -1.74307679502 2.42992828664 -0.20832362130 -1.74140830396 2.41905081757 -0.22415371350 -1.74019828891 2.40812759234 -0.24280713587 -1.73959208378 2.39706284706 -0.10052227106 -1.73271611709 2.64419796585 -0.10708323663 -1.72618623198 2.64902288784 -0.11425613411 -1.71870091621 2.65101223856 -0.12215119848 -1.71036342433 2.65058040979 -0.13087866471 -1.70127701084 2.64814179330 -0.14054876778 -1.69154493027 2.64411078086 -0.15127174266 -1.68127043716 2.63890176423 -0.16315782433 -1.67055678602 2.63292913520 -0.17631724778 -1.65950723138 2.62660728552 -0.19086024796 -1.64822502776 2.62035060698 -0.10630049691 -1.73784787021 2.63309841336 -0.11670079874 -1.73109051737 2.63456530970 -0.12636703961 -1.72356095397 2.63399002059 -0.13565000462 -1.71535586549 2.63168334855 -0.14490047883 -1.70657193741 2.62795609613 -0.15446924733 -1.69730585521 2.62311906588 -0.16470709521 -1.68765430438 2.61748306031 -0.17596480754 -1.67771397039 2.61135888198 -0.18859316940 -1.66758153873 2.60505733343 -0.20294296589 -1.65735369488 2.59888921719 -0.11065342272 -1.74228398674 2.61976678648 -0.12394008962 -1.73555082417 2.61832433445 -0.13547777983 -1.72820550665 2.61546858088 -0.14580199730 -1.72033260388 2.61143370333 -0.15544824596 -1.71201668558 2.60645387936 -0.16495202976 -1.70334232145 2.60076328653 -0.17484885263 -1.69439408122 2.59459610240 -0.18567421851 -1.68525653459 2.58818650453 -0.19796363135 -1.67601425129 2.58176867049 -0.21225259508 -1.66675180102 2.57557677782 -0.11357932653 -1.74605234480 2.60459767025 -0.12879313057 -1.73957576463 2.60062460962 -0.14156833912 -1.73262063646 2.59573560864 -0.15256965216 -1.72525748385 2.59010751123 -0.16246176965 -1.71755683037 2.58391716131 -0.17190939158 -1.70958919960 2.57734140280 -0.18157721792 -1.70142511509 2.57055707961 -0.19212994864 -1.69313510042 2.56374103567 -0.20423228372 -1.68478967916 2.55707011490 -0.21854892313 -1.67645937487 2.55072116120 -0.11507648637 -1.74918082253 2.58798564970 -0.13125194290 -1.74317395099 2.58179078275 -0.14461870186 -1.73679240560 2.57507879307 -0.15591544484 -1.73009434975 2.56798080937 -0.16588085347 -1.72313794684 2.56062796033 -0.17525360935 -1.71598136026 2.55315137466 -0.18477239409 -1.70868275341 2.54568218106 -0.19517588931 -1.70130028967 2.53835150823 -0.20720277661 -1.69389213246 2.53129048486 -0.22159173762 -1.68651644515 2.52463023966 -0.11514318027 -1.75169729806 2.57032530984 -0.13130854792 -1.74635399549 2.56214750138 -0.14460885240 -1.74070687627 2.55378582339 -0.15580185099 -1.73480704592 2.54532963485 -0.16564530095 -1.72870561000 2.53686829476 -0.17489695958 -1.72245367404 2.52849116210 -0.18431458413 -1.71610234357 2.52028759586 -0.19465593190 -1.70970272415 2.51234695503 -0.20667876014 -1.70330592130 2.50475859859 -0.22114082613 -1.69696304056 2.49761188553 -0.11377768629 -1.75362964950 2.55201123569 -0.12895496693 -1.74912451037 2.54201941304 -0.14151877512 -1.74435011066 2.53214438878 -0.15219134623 -1.73935941672 2.52243002479 -0.16169491567 -1.73420539490 2.51292018294 -0.17075171882 -1.72894101154 2.50365872509 -0.18008399106 -1.72361923301 2.49468951312 -0.19041396779 -1.71829302564 2.48605640890 -0.20246388439 -1.71301535580 2.47780327428 -0.21695597626 -1.70783918982 2.46997397115 -0.11097828245 -1.75500575499 2.53343801229 -0.12418322124 -1.75149410787 2.52173116527 -0.13532845437 -1.74770817098 2.51044217846 -0.14504640623 -1.74371530648 2.49955801630 -0.15396950118 -1.73958287656 2.48906564321 -0.16273016360 -1.73537824338 2.47895202362 -0.17196081788 -1.73116876912 2.46920412197 -0.18229388838 -1.72702181596 2.45980890266 -0.19436179949 -1.72300474607 2.45075333015 -0.20879697558 -1.71918492163 2.44202436885 -0.10674324678 -1.75585349265 2.51500022466 -0.11698533215 -1.75347140025 2.50160740560 -0.12601787453 -1.75076711943 2.48896688163 -0.13432950660 -1.74783855957 2.47698964648 -0.14240886102 -1.74478363002 2.46558669391 -0.15074457046 -1.74170024015 2.45466901767 -0.15982526758 -1.73868629932 2.44414761150 -0.17013958504 -1.73583971689 2.43393346916 -0.18217615552 -1.73325840223 2.42393758439 -0.19642361168 -1.73104026470 2.41407095096 -0.10107085734 -1.75620074061 2.49709245781 -0.10735332096 -1.75506499972 2.48197278159 -0.11356701995 -1.75351301820 2.46800618749 -0.12000312299 -1.75169302031 2.45500095245 -0.12695279876 -1.74975323031 2.44276535338 -0.13470721592 -1.74784187246 2.43110766720 -0.14355754317 -1.74610717102 2.41983617084 -0.15379494917 -1.74469735024 2.40875914120 -0.16571060260 -1.74376063440 2.39768485522 -0.17959567214 -1.74344524775 2.38642158981 -0.06167474081 -1.73332114846 2.64732368135 -0.06546702625 -1.72639639751 2.65325622264 -0.06977728637 -1.71859167273 2.65600964881 -0.07461861103 -1.71000414381 2.65604853383 -0.08000409009 -1.70073098044 2.65383745166 -0.08594681342 -1.69086935232 2.64984097625 -0.09245987089 -1.68051642913 2.64452368158 -0.09955635234 -1.66976938058 2.63835014161 -0.10724934765 -1.65872537634 2.63178493028 -0.11555194669 -1.64748158612 2.62529262157 -0.06494248313 -1.73903640532 2.63596244475 -0.07101758472 -1.73189762494 2.63809322725 -0.07676827966 -1.72405408208 2.63792012871 -0.08236189798 -1.71558625390 2.63580118159 -0.08796576976 -1.70657461758 2.63209441836 -0.09374722503 -1.69709965031 2.62715787151 -0.09987359386 -1.68724182925 2.62134957350 -0.10651220630 -1.67708163160 2.61502755681 -0.11383039241 -1.66669953452 2.60854985391 -0.12199548224 -1.65617601519 2.60227449727 -0.06740518012 -1.74386315000 2.62239911469 -0.07519706965 -1.73676923966 2.62121917125 -0.08202899596 -1.72912083589 2.61845843893 -0.08818675567 -1.72097912981 2.61439085410 -0.09395614545 -1.71240531253 2.60929035316 -0.09962296192 -1.70346057516 2.60343087250 -0.10547300175 -1.69420610881 2.59708634850 -0.11179206157 -1.68470310462 2.59053071755 -0.11886593803 -1.67501275368 2.58403791603 -0.12698042778 -1.66519624711 2.57788188033 -0.06906189911 -1.74785508707 2.60698639286 -0.07800032566 -1.74104767587 2.60291313682 -0.08554639548 -1.73380851402 2.59785799893 -0.09206909868 -1.72618044378 2.59202648596 -0.09793742538 -1.71820630737 2.58562410467 -0.10352036571 -1.70992894704 2.57885636182 -0.10918690978 -1.70139120501 2.57192876418 -0.11530604771 -1.69263592354 2.56504681851 -0.12224676962 -1.68370594486 2.55841603158 -0.13037806562 -1.67464411120 2.55224191014 -0.06991170743 -1.75106592108 2.59007698094 -0.07942219737 -1.74476936776 2.58345420615 -0.08730743843 -1.73813369631 2.57635222820 -0.09398484158 -1.73118786803 2.56891701176 -0.09987181778 -1.72396084421 2.56129452150 -0.10538577799 -1.71648158612 2.55363072208 -0.11094413316 -1.70877905504 2.54607157816 -0.11696429427 -1.70088221228 2.53876305441 -0.12386367228 -1.69282001910 2.53185111549 -0.13205967813 -1.68462143681 2.52548172606 -0.06995367240 -1.75354935660 2.57202358061 -0.07945752940 -1.74797074953 2.56312146142 -0.08729908504 -1.74211296261 2.55417454619 -0.09390989897 -1.73599907481 2.54527136610 -0.09972153085 -1.72965216513 2.53650045227 -0.10516554035 -1.72309531257 2.52795033587 -0.11067348711 -1.71635159610 2.51970954804 -0.11667693081 -1.70944409474 2.51186661993 -0.12360743110 -1.70239588746 2.50451008269 -0.13189654765 -1.69523005325 2.49772846747 -0.06918686134 -1.75535909818 2.55317889357 -0.07810116638 -1.75068825540 2.54219398482 -0.08550829551 -1.74576289275 2.53155837239 -0.09182018543 -1.74061173633 2.52129848355 -0.09744877282 -1.73526351224 2.51144074559 -0.10280599439 -1.72974694656 2.50201158579 -0.10830378685 -1.72409076539 2.49303743142 -0.11435408689 -1.71832369482 2.48454470977 -0.12136883120 -1.71247446096 2.47655984812 -0.12975995650 -1.70657178988 2.46910927374 -0.06761034157 -1.75654885038 2.53389562148 -0.07534795294 -1.75295831955 2.52095085854 -0.08192203007 -1.74910006659 2.50873712625 -0.08769161554 -1.74502352484 2.49720729872 -0.09301575190 -1.74077812762 2.48631425008 -0.09825348173 -1.73641330826 2.47601085445 -0.10376384759 -1.73197850009 2.46624998593 -0.10990589205 -1.72752313645 2.45698451864 -0.11703865768 -1.72309665064 2.44816732670 -0.12552118705 -1.71874847602 2.43975128423 -0.06522318042 -1.75717231777 2.51452646605 -0.07119273369 -1.75481737619 2.49967116477 -0.07652724893 -1.75214106397 2.48594422725 -0.08150010388 -1.74923211256 2.47320674621 -0.08638467630 -1.74617925337 2.46131981436 -0.09145434394 -1.74307121785 2.45014452444 -0.09698248454 -1.73999673742 2.43954196915 -0.10324247586 -1.73704454351 2.42937324123 -0.11050769563 -1.73430336756 2.41949943338 -0.11905152163 -1.73186194100 2.40978163833 -0.06202444521 -1.75728320490 2.49542412894 -0.06563035326 -1.75630185951 2.47863398569 -0.06931091230 -1.75490246474 2.46341309485 -0.07322156505 -1.75323517172 2.44950576059 -0.07751775425 -1.75145013159 2.43665628704 -0.08235492264 -1.74969749548 2.42460897836 -0.08788851293 -1.74812741455 2.41310813871 -0.09427396786 -1.74689003993 2.40189807223 -0.10166673017 -1.74613552276 2.39072308308 -0.11022224258 -1.74601401417 2.37932747540 -0.02078560056 -1.73362365905 2.64888658456 -0.02202565628 -1.72650147493 2.65537293799 -0.02346350193 -1.71853704532 2.65850840499 -0.02509465957 -1.70982449750 2.65878265053 -0.02691465129 -1.70045795873 2.65668533960 -0.02891899913 -1.69053155632 2.65270613721 -0.03110322516 -1.68013941754 2.64733470834 -0.03346285144 -1.66937566966 2.64106071798 -0.03599340004 -1.65833443997 2.63437383112 -0.03869039303 -1.64710985575 2.62776371276 -0.02184163346 -1.73963066750 2.63739450786 -0.02383915846 -1.73230117292 2.63985723755 -0.02574788314 -1.72430063987 2.63988523833 -0.02761639454 -1.71570144138 2.63786015771 -0.02949327965 -1.70657595045 2.63416364319 -0.03142712550 -1.69699654013 2.62917734227 -0.03346651909 -1.68703558341 2.62328290245 -0.03566004745 -1.67676545333 2.61686197122 -0.03805629758 -1.66625852290 2.61029619609 -0.04070385650 -1.65558716514 2.60396722455 -0.02263767087 -1.74465272600 2.62371532768 -0.02520494873 -1.73737844117 2.62266664383 -0.02746714053 -1.72957849372 2.61995342688 -0.02951359461 -1.72130238545 2.61586949278 -0.03143365926 -1.71259961815 2.61070865747 -0.03331668281 -1.70351969364 2.60476473693 -0.03525201356 -1.69411211370 2.59833154709 -0.03732899983 -1.68442638013 2.59170290393 -0.03963698993 -1.67451199473 2.58517262339 -0.04226533219 -1.66441845931 2.57903452142 -0.02317341906 -1.74875645235 2.60818080403 -0.02612124758 -1.74178362489 2.60405745637 -0.02861675602 -1.73440244556 2.59891925524 -0.03077796972 -1.72664191591 2.59298603903 -0.03272291405 -1.71853103748 2.58647764617 -0.03456961435 -1.71009881183 2.57961391505 -0.03643609598 -1.70137424050 2.57261468409 -0.03844038429 -1.69238632505 2.56569979168 -0.04070050464 -1.68316406701 2.55908907624 -0.04333448237 -1.67373646794 2.55300237618 -0.02344858428 -1.75200846432 2.59112269692 -0.02658627552 -1.74556706926 2.58428597467 -0.02919221152 -1.73880433407 2.57698900800 -0.03140122982 -1.73173461894 2.56938517981 -0.03334816795 -1.72437228408 2.56162787302 -0.03516786343 -1.71673168968 2.55387047052 -0.03699515378 -1.70882719594 2.54626635523 -0.03896487654 -1.70067316306 2.53896891006 -0.04121186922 -1.69228395124 2.53213151790 -0.04387096936 -1.68367392069 2.52590756167 -0.02346287281 -1.75447537968 2.57287276637 -0.02659825303 -1.74877911948 2.56360849824 -0.02918898896 -1.74281599795 2.55436896976 -0.03137508484 -1.73659508076 2.54524229843 -0.03329654489 -1.73012543360 2.53631660174 -0.03509337333 -1.72341612216 2.52767999722 -0.03690557439 -1.71647621211 2.51942060235 -0.03887315228 -1.70931476915 2.51162653464 -0.04113611123 -1.70194085896 2.50438591159 -0.04383445546 -1.69436354721 2.49778685070 -0.02321599091 -1.75622381624 2.55376277238 -0.02615540061 -1.75147012075 2.54228132659 -0.02860257026 -1.74646927587 2.53126542512 -0.03069124472 -1.74123788754 2.52073277820 -0.03255516881 -1.73579256169 2.51070109608 -0.03432808737 -1.73014990424 2.50118808901 -0.03614374523 -1.72432652114 2.49221146723 -0.03813588723 -1.71833901830 2.48378894099 -0.04043825820 -1.71220400167 2.47593822054 -0.04318460297 -1.70593807717 2.46867701611 -0.02270764485 -1.75732039176 2.53412447497 -0.02525593875 -1.75369041824 2.52056075924 -0.02742843735 -1.74979600653 2.50788465867 -0.02934141939 -1.74567762549 2.49603200245 -0.03111116364 -1.74137574399 2.48493861976 -0.03285394883 -1.73693083091 2.47454033979 -0.03468605373 -1.73238335512 2.46477299171 -0.03672375709 -1.72777378550 2.45557240471 -0.03908333766 -1.72314259090 2.44687440798 -0.04188107420 -1.71853024022 2.43861483070 -0.02193754088 -1.75783172402 2.51428963415 -0.02389808796 -1.75549035717 2.49870309569 -0.02566207214 -1.75282802861 2.48443295501 -0.02731731880 -1.74992888080 2.47131535450 -0.02895165330 -1.74687705616 2.45918643651 -0.03065290102 -1.74375669714 2.44788234341 -0.03250888732 -1.74065194618 2.43723921758 -0.03460743757 -1.73764694571 2.42709320137 -0.03703637716 -1.73482583818 2.41728043716 -0.03988353144 -1.73227276601 2.40763706732 -0.02090538527 -1.75782443082 2.49459000992 -0.02208006872 -1.75692028271 2.47696463545 -0.02329895656 -1.75559718080 2.46111659875 -0.02461065287 -1.75400623966 2.44675821767 -0.02606376173 -1.75229857384 2.43360181006 -0.02770688722 -1.75062529791 2.42135969377 -0.02958863342 -1.74913752642 2.40974418665 -0.03175760439 -1.74798637393 2.39846760655 -0.03426240422 -1.74732295502 2.38724227131 -0.03715163699 -1.74729838422 2.37578049877 0.02078407853 -1.73362364913 2.64888667260 0.02202410322 -1.72650146448 2.65537303134 0.02346193164 -1.71853703421 2.65850850451 0.02509308378 -1.70982448562 2.65878275708 0.02691307966 -1.70045794597 2.65668545401 0.02891743925 -1.69053154256 2.65270626029 0.03110168256 -1.68013940265 2.64733484089 0.03346132959 -1.66937565355 2.64106086079 0.03599190033 -1.65833442252 2.63437398496 0.03868891479 -1.64710983684 2.62776387838 0.02184016344 -1.73963065698 2.63739460027 0.02383767435 -1.73230116147 2.63985733850 0.02574639498 -1.72430062750 2.63988534747 0.02761491075 -1.71570142808 2.63786027489 0.02949180705 -1.70657593620 2.63416376847 0.03142566928 -1.69699652485 2.62917747592 0.03346508285 -1.68703556703 2.62328304494 0.03565863314 -1.67676543575 2.61686212325 0.03805490557 -1.66625850399 2.61029635856 0.04070248553 -1.65558714475 2.60396739857 0.02263626235 -1.74465271495 2.62371542336 0.02520354116 -1.73737842885 2.62266675048 0.02746574079 -1.72957848024 2.61995354321 0.02951220831 -1.72130237090 2.61586961789 0.03143229077 -1.71259960257 2.61070879086 0.03331533524 -1.70351967700 2.60476487846 0.03525068878 -1.69411209596 2.59833169702 0.03732769844 -1.68442636119 2.59170306288 0.03963571129 -1.67451197447 2.58517279238 0.04226407439 -1.66441843753 2.57903470186 0.02317208012 -1.74875644083 2.60818090190 0.02611992308 -1.74178361183 2.60405756680 0.02861545012 -1.73440243116 2.59891937632 0.03077668566 -1.72664190031 2.59298616938 0.03272165410 -1.71853102078 2.58647778488 0.03456837984 -1.71009879404 2.57961406173 0.03643488728 -1.70137422159 2.57261483885 0.03843920083 -1.69238630492 2.56569995514 0.04069934490 -1.68316404553 2.55908924952 0.04333334388 -1.67373644489 2.55300256090 0.02344732162 -1.75200845241 2.59112279588 0.02658503950 -1.74556705564 2.58428608697 0.02919100401 -1.73880431898 2.57698913140 0.03140005199 -1.73173460256 2.56938531265 0.03334702029 -1.72437226653 2.56162801421 0.03516674578 -1.71673167099 2.55387061954 0.03699406529 -1.70882717610 2.54626651215 0.03896381568 -1.70067314197 2.53896907549 0.04121083380 -1.69228392874 2.53213169307 0.04386995651 -1.68367389655 2.52590774834 0.02346169175 -1.75447536749 2.57287286532 0.02659710986 -1.74877910549 2.56360861049 0.02918788349 -1.74281598242 2.55436909302 0.03137401647 -1.73659506389 2.54524243100 0.03329551262 -1.73012541551 2.53631674254 0.03509237576 -1.72341610289 2.52768014572 0.03690460973 -1.71647619164 2.51942075864 0.03887221834 -1.70931474737 2.51162669941 0.04113520542 -1.70194083569 2.50438608612 0.04383357479 -1.69436352221 2.49778703686 0.02321489536 -1.75622380388 2.55376287023 0.02615435355 -1.75147010660 2.54228143688 0.02860156961 -1.74646926020 2.53126554578 0.03069028829 -1.74123787052 2.52073290773 0.03255425434 -1.73579254342 2.51070123356 0.03432721251 -1.73014988475 2.50118823406 0.03614290753 -1.72432650038 2.49221162006 0.03813508417 -1.71833899616 2.48378910236 0.04043748716 -1.71220397794 2.47593839177 0.04318386125 -1.70593805158 2.46867719911 0.02270663734 -1.75732037936 2.53412457063 0.02525498999 -1.75369040421 2.52056086565 0.02742754341 -1.74979599105 2.50788477426 0.02934057665 -1.74567760870 2.49603212614 0.03111036874 -1.74137572595 2.48493875096 0.03285319872 -1.73693081161 2.47454047840 0.03468534563 -1.73238333448 2.46477313812 0.03672308853 -1.72777376336 2.45557255980 0.03908270643 -1.72314256706 2.44687457312 0.04188047839 -1.71853021437 2.43861500775 0.02193662256 -1.75783171174 2.51428972651 0.02389723860 -1.75549034351 2.49870319630 0.02566128594 -1.75282801369 2.48443306306 0.02731659072 -1.74992886466 2.47131546953 0.02895097907 -1.74687703880 2.45918655844 0.03065227710 -1.74375667848 2.44788247254 0.03250831096 -1.74065192610 2.43723935455 0.03460690677 -1.73764692402 2.42709334721 0.03703589065 -1.73482581462 2.41728059327 0.03988308874 -1.73227274030 2.40763723544 0.02090455590 -1.75782441882 2.49459009790 0.02207931878 -1.75692026975 2.47696472834 0.02329827824 -1.75559716685 2.46111669675 0.02461003970 -1.75400622465 2.44675832118 0.02606320860 -1.75229855766 2.43360191968 0.02770639037 -1.75062528041 2.42135981029 0.02958819044 -1.74913750740 2.40974431107 0.03175721425 -1.74798635316 2.39846774005 0.03426206722 -1.74732293221 2.38724241530 0.03715135480 -1.74729835906 2.37578065485 0.06167322530 -1.73332111899 2.64732394260 0.06546548216 -1.72639636637 2.65325650013 0.06977572674 -1.71859163962 2.65600994481 0.07461704695 -1.71000410839 2.65604885067 0.08000253068 -1.70073094239 2.65383779174 0.08594526583 -1.69086931129 2.64984134205 0.09245834029 -1.68051638478 2.64452407563 0.09955484197 -1.66976933253 2.63835056650 0.10724785875 -1.65872532424 2.63178538870 0.11555047853 -1.64748152957 2.62529311625 0.06494101895 -1.73903637401 2.63596271954 0.07101610795 -1.73189759078 2.63809352803 0.07676679975 -1.72405404513 2.63792045415 0.08236042289 -1.71558621416 2.63580153109 0.08796430590 -1.70657457496 2.63209479204 0.09374577733 -1.69709960464 2.62715827020 0.09987216572 -1.68724178030 2.62134999877 0.10651079961 -1.67708157902 2.61502801094 0.11382900755 -1.66669947792 2.60855033990 0.12199411807 -1.65617595408 2.60227501886 0.06740377686 -1.74386311703 2.62239939963 0.07519566799 -1.73676920283 2.62121948947 0.08202760238 -1.72912079558 2.61845878639 0.08818537549 -1.72097908627 2.61439122800 0.09395478283 -1.71240526587 2.60929075191 0.09962161986 -1.70346052535 2.60343129575 0.10547168208 -1.69420605569 2.59708679710 0.11179076496 -1.68470304788 2.59053119360 0.11886466399 -1.67501269287 2.58403842284 0.12697917466 -1.66519618166 2.57788242245 0.06906056488 -1.74785505267 2.60698668457 0.07799900571 -1.74104763681 2.60291346662 0.08554509382 -1.73380847093 2.59785836096 0.09206781844 -1.72618039709 2.59202687593 0.09793616882 -1.71820625734 2.58562451987 0.10351913419 -1.70992889373 2.57885680111 0.10918570379 -1.70139114832 2.57192922799 0.11530486686 -1.69263586317 2.56504730885 0.12224561264 -1.68370588032 2.55841655202 0.13037693036 -1.67464404183 2.55224246586 0.06991044883 -1.75106588553 2.59007727603 0.07942096453 -1.74476932701 2.58345454167 0.08730623328 -1.73813365114 2.57635259732 0.09398366540 -1.73118781898 2.56891740941 0.09987067122 -1.72396079162 2.56129494439 0.10538466106 -1.71648153012 2.55363116870 0.11094304527 -1.70877899555 2.54607204876 0.11696323415 -1.70088214898 2.53876355103 0.12386263805 -1.69281995147 2.53185164195 0.13205866728 -1.68462136411 2.52548228794 0.06995249455 -1.75354932021 2.57202387569 0.07945638789 -1.74797070770 2.56312179680 0.08729797997 -1.74211291615 2.55417491491 0.09390883004 -1.73599902431 2.54527176298 0.09972049737 -1.72965211096 2.53650087400 0.10516454125 -1.72309525485 2.52795078094 0.11067252093 -1.71635153474 2.51971001679 0.11667599568 -1.70944402938 2.51186711452 0.12360652478 -1.70239581755 2.50451060712 0.13189566749 -1.69522997799 2.49772902757 0.06918576787 -1.75535906133 2.55317918523 0.07810011923 -1.75068821317 2.54219431420 0.08550729309 -1.74576284592 2.53155873317 0.09181922603 -1.74061168544 2.52129887115 0.09744785464 -1.73526345759 2.51144115717 0.10280511549 -1.72974688824 2.50201202025 0.10830294518 -1.72409070324 2.49303788941 0.11435328029 -1.71832362846 2.48454519367 0.12136805740 -1.71247438976 2.47656036205 0.12975921308 -1.70657171300 2.46910982359 0.06760933462 -1.75654881348 2.53389590634 0.07534700196 -1.75295827770 2.52095117606 0.08192113184 -1.74910002041 2.50873747155 0.08769076704 -1.74502347472 2.49720766846 0.09301495035 -1.74077807375 2.48631464242 0.09825272456 -1.73641325062 2.47601126905 0.10376313245 -1.73197843842 2.46625042397 0.10990521682 -1.72752307029 2.45698498283 0.11703802046 -1.72309657932 2.44816782125 0.12552058614 -1.71874839864 2.43975181485 0.06522226063 -1.75717228127 2.51452674070 0.07119187953 -1.75481733556 2.49967146454 0.07652645543 -1.75214101956 2.48594454950 0.08149936674 -1.74923206452 2.47320708945 0.08638399187 -1.74617920169 2.46132017824 0.09145370920 -1.74307116232 2.45014490975 0.09698189716 -1.73999667765 2.43954237783 0.10324193413 -1.73704447895 2.42937367637 0.11050719852 -1.73430329745 2.41949989921 0.11905106874 -1.73186186442 2.40978214023 0.06202361173 -1.75728316931 2.49542438998 0.06562959536 -1.75630182105 2.47863426185 0.06931022307 -1.75490242335 2.46341338646 0.07322093881 -1.75323512721 2.44950606863 0.07751718653 -1.75145008364 2.43665661313 0.08235441018 -1.74969744366 2.42460932477 0.08788805370 -1.74812735828 2.41310850834 0.09427356104 -1.74688997852 2.40189846864 0.10166637615 -1.74613545537 2.39072351045 0.11022194298 -1.74601393986 2.37932793857 0.10052076860 -1.73271606892 2.64419839168 0.10708171047 -1.72618618086 2.64902334177 0.11425459580 -1.71870086174 2.65101272329 0.12214965782 -1.71036336605 2.65058092850 0.13087712973 -1.70127694824 2.64814234967 0.14054724475 -1.69154486280 2.64411137906 0.15127023607 -1.68127036419 2.63890240895 0.16315633691 -1.67055670690 2.63292983159 0.17631578047 -1.65950714538 2.62660803925 0.19085879998 -1.64822493412 2.62035142420 0.10629904440 -1.73784781881 2.63309886324 0.11669933664 -1.73109046101 2.63456580407 0.12636557621 -1.72356089289 2.63399055640 0.13564854689 -1.71535579976 2.63168392427 0.14489903245 -1.70657186692 2.62795671175 0.15446781666 -1.69730577970 2.62311972288 0.16470568328 -1.68765422339 2.61748376172 0.17596341608 -1.67771388333 2.61135963231 0.18859179884 -1.66758144482 2.60505813870 0.20294161532 -1.65735359317 2.59889008495 0.11065202999 -1.74228393245 2.61976725439 0.12393869976 -1.73555076326 2.61832485909 0.13547639856 -1.72820543984 2.61546915489 0.14580062934 -1.72033253166 2.61143432164 0.15544689507 -1.71201660816 2.60645453921 0.16495069869 -1.70334223879 2.60076398744 0.17484754317 -1.69439399300 2.59459684618 0.18567293146 -1.68525644025 2.58818729528 0.19796236652 -1.67601414997 2.58176951459 0.21225135131 -1.66675169162 2.57557768397 0.11357800171 -1.74605228807 2.60459815017 0.12879181972 -1.73957569996 2.60062515436 0.14156704593 -1.73262056497 2.59573620793 0.15256837956 -1.72525740632 2.59010815763 0.16246051986 -1.71755674724 2.58391785021 0.17190816604 -1.70958911097 2.57734213243 0.18157601734 -1.70142502074 2.57055785103 0.19212877300 -1.69313499977 2.56374185276 0.20423113226 -1.68478957131 2.55707098438 0.21854779433 -1.67645925857 2.55072209263 0.11507523589 -1.74918076385 2.58798613559 0.13125071642 -1.74317388350 2.58179133742 0.14461750143 -1.73679233065 2.57507940470 0.15591427196 -1.73009426829 2.56798146925 0.16587970910 -1.72313785945 2.56062866291 0.17525249388 -1.71598126712 2.55315211753 0.18477130738 -1.70868265431 2.54568296495 0.19517483066 -1.70130018403 2.53835233699 0.20720174477 -1.69389201930 2.53129136551 0.22159073077 -1.68651632311 2.52463118233 0.11514200887 -1.75169723803 2.57032579569 0.13130740974 -1.74635392627 2.56214805582 0.14460774813 -1.74070679927 2.55378643436 0.15580078094 -1.73480696216 2.54533029351 0.16564426507 -1.72870552007 2.53686899548 0.17489595742 -1.72245357812 2.52849190245 0.18431361489 -1.71610224144 2.52028837663 0.19465499438 -1.70970261516 2.51234778023 0.20667785279 -1.70330580441 2.50475947543 0.22113994701 -1.69696291432 2.49761282445 0.11377659700 -1.75362958879 2.55201171548 0.12895391958 -1.74912444063 2.54201995708 0.14151776914 -1.74435003321 2.53214498610 0.15219038090 -1.73935933248 2.52243066745 0.16169399006 -1.73420530438 2.51292086607 0.17075083184 -1.72894091486 2.50365944687 0.18008314145 -1.72361912984 2.49469027478 0.19041315412 -1.71829291529 2.48605721472 0.20246310504 -1.71301523713 2.47780413161 0.21695522945 -1.70783906131 2.46997489038 0.11097727661 -1.75500569436 2.53343848000 0.12418226583 -1.75149403896 2.52173168875 0.13532754755 -1.74770809485 2.51044274908 0.14504554623 -1.74371522382 2.49955862808 0.15396868633 -1.73958278768 2.48906629285 0.16272939233 -1.73537814822 2.47895271049 0.17196008867 -1.73116866724 2.46920484807 0.18229319983 -1.72702170653 2.45980967271 0.19436115027 -1.72300462791 2.45075415149 0.20879636445 -1.71918479315 2.44202525150 0.10674232404 -1.75585343294 2.51500067426 0.11698446838 -1.75347133365 2.50160789836 0.12601706644 -1.75076704657 2.48896741248 0.13432875134 -1.74783848076 2.47699021242 0.14240815618 -1.74478354525 2.46558729399 0.15074391408 -1.74170014909 2.45466965299 0.15982465814 -1.73868620134 2.44414828521 0.17013902147 -1.73583961103 2.43393418645 0.18217563720 -1.73325828722 2.42393835252 0.19642313842 -1.73104013895 2.41407177920 0.10107001564 -1.75620068273 2.49709288330 0.10735254713 -1.75506493707 2.48197323344 0.11356630892 -1.75351295076 2.46800666546 0.12000247063 -1.75169294784 2.45500145749 0.12695220188 -1.74975315237 2.44276588765 0.13470667228 -1.74784178836 2.43110823407 0.14355705145 -1.74610707986 2.41983677488 0.15379450900 -1.74469725091 2.40875978820 0.16571021456 -1.74376052554 2.39768555215 0.17959533773 -1.74344512779 2.38642234487 0.13596563727 -1.73180849920 2.63951001699 0.14565601807 -1.72587090816 2.64267355372 0.15567525125 -1.71886470082 2.64351683737 0.16636334431 -1.71090225880 2.64237898775 0.17806030477 -1.70209596377 2.63959912465 0.19110614013 -1.69255819735 2.63551636788 0.20584085791 -1.68240134119 2.63046983724 0.22260446562 -1.67173777693 2.62479865252 0.24173697078 -1.66067988621 2.61884193352 0.26357838090 -1.64934005067 2.61293880005 0.14475235117 -1.73606499162 2.62880302895 0.15989055468 -1.72987977236 2.62927416453 0.17359496941 -1.72282117096 2.62809565222 0.18650768779 -1.71501018504 2.62550745241 0.19927080228 -1.70656781223 2.62174952546 0.21252640529 -1.69761505017 2.61706183172 0.22691658928 -1.68827289650 2.61168433158 0.24308344669 -1.67866234883 2.60585698540 0.26166906994 -1.66890440481 2.59981975353 0.28331555147 -1.65912006206 2.59381259636 0.15136817906 -1.73991516141 2.61581898554 0.17059990445 -1.73372311027 2.61398285761 0.18707008369 -1.72683241314 2.61098464717 0.20165269227 -1.71936270718 2.60699889737 0.21522170567 -1.71143362955 2.60220015134 0.22865109938 -1.70316481743 2.59676295220 0.24281484888 -1.69467590798 2.59086184308 0.25858692967 -1.68608653836 2.58467136712 0.27684131723 -1.67751634575 2.57836606745 0.29845198705 -1.66908496731 2.57212048720 0.15581035707 -1.74334814718 2.60101529681 0.17777418452 -1.73736780140 2.59719262853 0.19607617734 -1.73083871336 2.59255291599 0.21175132000 -1.72387292807 2.58723001341 0.22583459697 -1.71658249055 2.58135777499 0.23936099272 -1.70907944581 2.57507005494 0.25336549173 -1.70147583886 2.56850070749 0.26888307847 -1.69388371472 2.56178358684 0.28694873741 -1.68641511839 2.55505254721 0.30859745302 -1.67918209490 2.54844144280 0.15807612133 -1.74635308755 2.58484937280 0.18140351201 -1.74078072526 2.57929647286 0.20058883358 -1.73478035762 2.57316955245 0.21675653324 -1.72845395058 2.56657749128 0.23103105820 -1.72190347007 2.55962916909 0.24453685568 -1.71523088203 2.55243346560 0.25839837287 -1.70853815239 2.54509926056 0.27374005697 -1.70192724710 2.53773543369 0.29168635521 -1.69550013209 2.53045086471 0.31336171479 -1.68935877329 2.52335443337 0.15816270797 -1.74891912112 2.56777862354 0.18147800404 -1.74392876135 2.56068738618 0.20058363564 -1.73859763192 2.55320365032 0.21662129426 -1.73301887754 2.54541802177 0.23073267140 -1.72728564292 2.53742110633 0.24405945859 -1.72149107277 2.52930350982 0.25774334731 -1.71572831180 2.52115583804 0.27292602907 -1.71009050470 2.51306869679 0.29074919537 -1.70467079619 2.50513269189 0.31235453773 -1.69956233097 2.49743842915 0.15606735313 -1.75103538649 2.55026045909 0.17798777775 -1.74677878918 2.54175836404 0.19603616675 -1.74223082226 2.53302430337 0.21129856531 -1.73748081182 2.52412829564 0.22486101860 -1.73261808396 2.51514035940 0.23780957180 -1.72773196476 2.50613051323 0.25123027008 -1.72291178032 2.49716877568 0.26620915864 -1.71824685671 2.48832516531 0.28383228264 -1.71382652005 2.47966970067 0.30518568726 -1.70974009640 2.47127240034 0.15178729294 -1.75269102228 2.53275228948 0.17092295026 -1.74929768826 2.52290240202 0.18692201016 -1.74562021464 2.51300060537 0.20074130866 -1.74175285627 2.50308500366 0.21333768181 -1.73778986800 2.49319370100 0.22566796566 -1.73382550469 2.48336480148 0.23868899623 -1.72995402118 2.47363640923 0.25335760958 -1.72626967234 2.46404662836 0.27063064174 -1.72286671302 2.45463356297 0.29146492875 -1.71983939807 2.44543531718 0.14531976353 -1.75387516709 2.51571152476 0.16027363871 -1.75145233811 2.50451249568 0.17321674909 -1.74870609507 2.49350165011 0.18490248657 -1.74574811374 2.48266483662 0.19608424308 -1.74269006988 2.47198790379 0.20751541051 -1.73964363926 2.46145670021 0.21994938077 -1.73672049764 2.45105707445 0.23413954577 -1.73403232079 2.44077487508 0.25083929742 -1.73169078447 2.43059595070 0.27080202762 -1.72980756445 2.42050614988 0.13666200104 -1.75457695952 2.49959557498 0.14602996021 -1.75320961822 2.48698164060 0.15489596676 -1.75142874954 2.47489653134 0.16373506131 -1.74937968708 2.46324448527 0.17302228442 -1.74720776443 2.45192974048 0.18323267670 -1.74505831517 2.44085653505 0.19484127873 -1.74307667291 2.42992910708 0.20832313111 -1.74140817124 2.41905169463 0.22415327442 -1.74019814374 2.40812853580 0.24280674925 -1.73959192400 2.39706386867 0.16664676014 -1.73059841012 2.63325881564 0.17997163490 -1.72545054852 2.63420713340 0.19281440550 -1.71908315704 2.63352228447 0.20593053431 -1.71162078688 2.63144302562 0.22007548372 -1.70318798921 2.62820811357 0.23600471611 -1.69390931521 2.62405630508 0.25447369385 -1.68390931605 2.61922635690 0.27623787934 -1.67331254291 2.61395702577 0.30205273495 -1.66224354697 2.60848706843 0.33267372306 -1.65082687941 2.60305524164 0.17913905061 -1.73368789267 2.62307521424 0.19959295635 -1.72826552499 2.62221860732 0.21750722438 -1.72183487947 2.62023573966 0.23396625060 -1.71454937014 2.61727211347 0.25005443093 -1.70656241106 2.61347323100 0.26685616125 -1.69802741626 2.60898459448 0.28545583749 -1.68909779979 2.60395170615 0.30693785555 -1.67992697569 2.59852006824 0.33238661133 -1.67066835802 2.59283518298 0.36288650074 -1.66147536080 2.58704255262 0.18853938140 -1.73675680410 2.61055459098 0.21434655006 -1.73128624402 2.60819348332 0.23606661213 -1.72500171559 2.60500526172 0.25503628668 -1.71806961292 2.60108495373 0.27259229280 -1.71065633015 2.59652758687 0.29007134956 -1.70292826137 2.59142818866 0.30881017604 -1.69505180071 2.58588178664 0.33014549131 -1.68719334230 2.57998340833 0.35541401447 -1.67951928023 2.57382808125 0.38595246458 -1.67219600864 2.56751083294 0.19484359744 -1.73974263020 2.59623812261 0.22422191950 -1.73442394126 2.59261588766 0.24846735891 -1.72846291621 2.58830848392 0.26908959069 -1.72202696244 2.58339244220 0.28759828991 -1.71528348735 2.57794429326 0.30550313158 -1.70839989832 2.57204056790 0.32431379076 -1.70154360275 2.56575779690 0.34553994247 -1.69488200801 2.55917251105 0.37069126177 -1.68858252150 2.55236124113 0.40127742369 -1.68281255061 2.54540051793 0.19804754370 -1.74258285680 2.58066698586 0.22920856814 -1.73758985239 2.57596994663 0.25468425486 -1.73209773215 2.57062303950 0.27607511077 -1.72626686592 2.56470547465 0.29498164281 -1.72025762356 2.55829646225 0.31300435789 -1.71423037491 2.55147521246 0.33174376294 -1.70834548982 2.54432093547 0.35280036488 -1.70276333813 2.53691284143 0.37777467064 -1.69764428971 2.52933014053 0.40826718714 -1.69314871439 2.52165204293 0.19814706512 -1.74521496967 2.56438235746 0.22929599945 -1.74069521308 2.55873978651 0.25469209014 -1.73578541422 2.55242656171 0.27594179505 -1.73063477058 2.54553494689 0.29465157207 -1.72539247964 2.53815720591 0.31242787905 -1.72020773891 2.53038560262 0.33087717387 -1.71522974585 2.52231240086 0.35160591439 -1.71060769797 2.51402986448 0.37622055848 -1.70649079275 2.50563025734 0.40632756402 -1.70302822769 2.49720584327 0.19513800665 -1.74757645464 2.54792541415 0.22447371689 -1.74365125901 2.54140953359 0.24846565490 -1.73940521324 2.53419668378 0.26863859168 -1.73497612364 2.52639175470 0.28651729825 -1.73050179649 2.51809963633 0.30362654563 -1.72612003811 2.50942521864 0.32149110482 -1.72196865478 2.50047339161 0.34163574684 -1.71818545282 2.49134904523 0.36558524271 -1.71490823851 2.48215706947 0.39486436343 -1.71227481817 2.47300235431 0.18901621323 -1.74960479750 2.53183733267 0.21473122394 -1.74636922585 2.52446331414 0.23597973929 -1.74283638003 2.51641103897 0.25411444879 -1.73913637232 2.50778679387 0.27048804192 -1.73539931498 2.49869686557 0.28645320818 -1.73175532030 2.48924754079 0.30336263707 -1.72833450054 2.47954510626 0.32256901809 -1.72526696798 2.46969584869 0.34542504072 -1.72268283489 2.45980605482 0.37328339446 -1.72071221354 2.44998201137 0.17977752983 -1.75123748405 2.51665928975 0.20005802406 -1.74876034927 2.50838525445 0.21720913347 -1.74595816540 2.49954726052 0.23231831451 -1.74296096384 2.49023096019 0.24647302364 -1.73989877599 2.48052200571 0.26076071729 -1.73690163326 2.47050604934 0.27626885192 -1.73409956705 2.46026874332 0.29408488398 -1.73162260874 2.44989573988 0.31529626992 -1.72960078975 2.43947269129 0.34099046619 -1.72816414148 2.42908524979 0.16741780138 -1.75241200010 2.50293246213 0.18044362072 -1.75073586494 2.49365948080 0.19212862759 -1.74864982015 2.48408298167 0.20319913700 -1.74629534542 2.47423514945 0.21438146397 -1.74381392041 2.46414816885 0.22640192351 -1.74134702479 2.45385422457 0.23998683064 -1.73903613824 2.44338550133 0.25586250037 -1.73702274042 2.43277418383 0.27475524773 -1.73544831101 2.42205245678 0.29739138771 -1.73445432968 2.41125250490 </DataArray>
</Points>
</Piece>
</StructuredGrid>
</VTKFile>
