<?xml version="1.0"?>
<VTKFile type="StructuredGrid" version="0.1">
<StructuredGrid WholeExtent="0 9 0 9 0 9">
<Piece Extent="0 9 0 9 0 9">
<PointData>
<DataArray type="Float32" Name="Deformation" format="ascii" NumberOfComponents="3">
0.00000000000 0.00000000001 -0.00000000002 0.00000000000 0.00000000001 -0.00000000002 0.00000000000 0.00000000001 -0.00000000001 0.00000000000 0.00000000001 -0.00000000001 0.00000000000 0.00000000001 -0.00000000001 0.00000000000 0.00000000001 0.00000000000 0.00000000000 0.00000000001 0.00000000001 0.00000000000 0.00000000001 0.00000000001 0.00000000000 0.00000000000 0.00000000002 0.00000000000 0.00000000000 0.00000000003 0.00000000000 0.00000000002 -0.00000000004 0.00000000001 0.00000000002 -0.00000000003 0.00000000001 0.00000000002 -0.00000000003 0.00000000001 0.00000000002 -0.00000000002 0.00000000001 0.00000000001 -0.00000000001 0.00000000001 0.00000000001 -0.00000000000 0.00000000001 0.00000000001 0.00000000001 0.00000000001 0.00000000001 0.00000000002 0.00000000001 0.00000000001 0.00000000003 0.00000000000 0.00000000000 0.00000000005 0.00000000001 0.00000000002 -0.00000000005 0.00000000001 0.00000000002 -0.00000000005 0.00000000001 0.00000000002 -0.00000000004 0.00000000001 0.00000000002 -0.00000000003 0.00000000001 0.00000000002 -0.00000000002 0.00000000001 0.00000000002 -0.00000000001 0.00000000001 0.00000000002 0.00000000001 0.00000000001 0.00000000001 0.00000000002 0.00000000001 0.00000000001 0.00000000004 0.00000000001 0.00000000001 0.00000000005 0.00000000001 0.00000000003 -0.00000000007 0.00000000001 0.00000000003 -0.00000000006 0.00000000001 0.00000000003 -0.00000000005 0.00000000001 0.00000000003 -0.00000000004 0.00000000001 0.00000000003 -0.00000000003 0.00000000001 0.00000000002 -0.00000000001 0.00000000001 0.00000000002 0.00000000000 0.00000000001 0.00000000002 0.00000000002 0.00000000001 0.00000000001 0.00000000004 0.00000000001 0.00000000001 0.00000000006 0.00000000001 0.00000000004 -0.00000000010 0.00000000002 0.00000000004 -0.00000000008 0.00000000002 0.00000000004 -0.00000000007 0.00000000002 0.00000000004 -0.00000000006 0.00000000002 0.00000000003 -0.00000000004 0.00000000002 0.00000000003 -0.00000000002 0.00000000001 0.00000000003 -0.00000000001 0.00000000001 0.00000000002 0.00000000001 0.00000000001 0.00000000002 0.00000000004 0.00000000001 0.00000000001 0.00000000006 0.00000000002 0.00000000005 -0.00000000012 0.00000000002 0.00000000005 -0.00000000011 0.00000000002 0.00000000005 -0.00000000009 0.00000000002 0.00000000005 -0.00000000008 0.00000000002 0.00000000004 -0.00000000006 0.00000000002 0.00000000004 -0.00000000004 0.00000000002 0.00000000004 -0.00000000002 0.00000000002 0.00000000003 0.00000000000 0.00000000001 0.00000000003 0.00000000003 0.00000000001 0.00000000002 0.00000000006 0.00000000002 0.00000000006 -0.00000000016 0.00000000003 0.00000000006 -0.00000000015 0.00000000003 0.00000000006 -0.00000000013 0.00000000003 0.00000000006 -0.00000000011 0.00000000003 0.00000000006 -0.00000000009 0.00000000003 0.00000000005 -0.00000000007 0.00000000002 0.00000000005 -0.00000000004 0.00000000002 0.00000000004 -0.00000000001 0.00000000002 0.00000000004 0.00000000002 0.00000000001 0.00000000003 0.00000000005 0.00000000003 0.00000000008 -0.00000000021 0.00000000003 0.00000000008 -0.00000000019 0.00000000004 0.00000000008 -0.00000000017 0.00000000004 0.00000000007 -0.00000000015 0.00000000004 0.00000000007 -0.00000000013 0.00000000003 0.00000000007 -0.00000000010 0.00000000003 0.00000000006 -0.00000000007 0.00000000002 0.00000000006 -0.00000000004 0.00000000002 0.00000000005 -0.00000000000 0.00000000001 0.00000000004 0.00000000003 0.00000000004 0.00000000010 -0.00000000026 0.00000000004 0.00000000010 -0.00000000025 0.00000000005 0.00000000010 -0.00000000023 0.00000000005 0.00000000009 -0.00000000020 0.00000000005 0.00000000009 -0.00000000017 0.00000000004 0.00000000009 -0.00000000014 0.00000000004 0.00000000008 -0.00000000011 0.00000000003 0.00000000007 -0.00000000007 0.00000000002 0.00000000007 -0.00000000003 0.00000000001 0.00000000006 0.00000000001 0.00000000005 0.00000000012 -0.00000000033 0.00000000006 0.00000000012 -0.00000000032 0.00000000006 0.00000000012 -0.00000000029 0.00000000006 0.00000000012 -0.00000000027 0.00000000006 0.00000000011 -0.00000000023 0.00000000006 0.00000000011 -0.00000000020 0.00000000005 0.00000000010 -0.00000000016 0.00000000004 0.00000000010 -0.00000000011 0.00000000003 0.00000000009 -0.00000000007 0.00000000002 0.00000000008 -0.00000000002 0.00000000000 0.00000000001 -0.00000000002 0.00000000000 0.00000000001 -0.00000000001 0.00000000000 0.00000000001 -0.00000000001 0.00000000000 0.00000000001 -0.00000000001 0.00000000000 0.00000000001 -0.00000000000 0.00000000000 0.00000000001 0.00000000000 0.00000000000 0.00000000000 0.00000000001 0.00000000000 0.00000000000 0.00000000001 0.00000000000 0.00000000000 0.00000000002 0.00000000000 0.00000000000 0.00000000003 -0.00002453411 -0.00004561690 0.00004678228 -0.00002417415 -0.00004709906 0.00004215386 -0.00002228338 -0.00004666143 0.00003668870 -0.00001933974 -0.00004468743 0.00003065880 -0.00001582117 -0.00004156047 0.00002433616 -0.00001220562 -0.00003766395 0.00001799278 -0.00000897102 -0.00003338129 0.00001190068 -0.00000659532 -0.00002909590 0.00000633184 -0.00000555645 -0.00002519118 0.00000155829 -0.00000633236 -0.00002205056 -0.00000214799 -0.00003189239 -0.00007014588 0.00006233586 -0.00003094905 -0.00006861908 0.00005387409 -0.00002831736 -0.00006513458 0.00004521180 -0.00002455784 -0.00006022338 0.00003653588 -0.00002023102 -0.00005441644 0.00002803320 -0.00001589741 -0.00004824473 0.00001989066 -0.00001211754 -0.00004223923 0.00001229515 -0.00000945191 -0.00003693092 0.00000543355 -0.00000846107 -0.00003285077 -0.00000050725 -0.00000970551 -0.00003052976 -0.00000534036 -0.00002947784 -0.00008021421 0.00005852112 -0.00002739349 -0.00007307317 0.00004666009 -0.00002443109 -0.00006510140 0.00003618762 -0.00002096467 -0.00005682241 0.00002698436 -0.00001736824 -0.00004875973 0.00001893099 -0.00001401582 -0.00004143688 0.00001190815 -0.00001128143 -0.00003537739 0.00000579652 -0.00000953908 -0.00003110478 0.00000047674 -0.00000916279 -0.00002914257 -0.00000417052 -0.00001052657 -0.00003001429 -0.00000826461 -0.00002469346 -0.00008244915 0.00004719846 -0.00002057625 -0.00006897447 0.00003201125 -0.00001695371 -0.00005624383 0.00002023445 -0.00001387057 -0.00004469910 0.00001135739 -0.00001137153 -0.00003478219 0.00000486939 -0.00000950129 -0.00002693497 0.00000025978 -0.00000830458 -0.00002159934 -0.00000298211 -0.00000782610 -0.00001921719 -0.00000536696 -0.00000811057 -0.00002023039 -0.00000740545 -0.00000920268 -0.00002508085 -0.00000960823 -0.00002494224 -0.00008347796 0.00004022827 -0.00001756612 -0.00006483611 0.00002142699 -0.00001221438 -0.00004824383 0.00000797063 -0.00000858591 -0.00003406805 -0.00000099190 -0.00000637957 -0.00002267566 -0.00000631172 -0.00000529427 -0.00001443356 -0.00000883993 -0.00000502888 -0.00000970865 -0.00000942764 -0.00000528227 -0.00000886785 -0.00000892594 -0.00000575334 -0.00001227804 -0.00000818595 -0.00000614097 -0.00002030614 -0.00000805877 -0.00003762717 -0.00008992793 0.00004947094 -0.00002543189 -0.00006917121 0.00002640670 -0.00001654224 -0.00005078337 0.00001001447 -0.00001042103 -0.00003514382 -0.00000071039 -0.00000653108 -0.00002263197 -0.00000677249 -0.00000433519 -0.00001362719 -0.00000917647 -0.00000329619 -0.00000850889 -0.00000892696 -0.00000287688 -0.00000765647 -0.00000702858 -0.00000254007 -0.00001144933 -0.00000448595 -0.00000174858 -0.00002026686 -0.00000230372 -0.00007015126 -0.00010842631 0.00008678686 -0.00005124235 -0.00009049290 0.00005844979 -0.00003626644 -0.00007354440 0.00003698427 -0.00002468631 -0.00005814101 0.00002155507 -0.00001596474 -0.00004484296 0.00001132696 -0.00000956451 -0.00003421043 0.00000546469 -0.00000494840 -0.00002680363 0.00000313303 -0.00000157920 -0.00002318277 0.00000349675 0.00000108031 -0.00002390806 0.00000572062 0.00000356736 -0.00002953970 0.00000896939 -0.00012991750 -0.00014560038 0.00016403642 -0.00010206629 -0.00013731431 0.00012905567 -0.00007771613 -0.00012620887 0.00009949837 -0.00005669209 -0.00011327420 0.00007515762 -0.00003881924 -0.00009950047 0.00005582649 -0.00002392266 -0.00008587783 0.00004129806 -0.00001182740 -0.00007339644 0.00003136543 -0.00000235854 -0.00006304646 0.00002582166 0.00000465886 -0.00005581804 0.00002445984 0.00000939972 -0.00005270135 0.00002707305 -0.00022432888 -0.00020807740 0.00029308003 -0.00018497248 -0.00021814858 0.00024972373 -0.00014722045 -0.00021845874 0.00020817507 -0.00011174873 -0.00021075796 0.00016945037 -0.00007923329 -0.00019679634 0.00013456597 -0.00005035008 -0.00017832395 0.00010453818 -0.00002577506 -0.00015709089 0.00008038333 -0.00000618418 -0.00013484724 0.00006311776 0.00000774661 -0.00011334309 0.00005375779 0.00001534135 -0.00009432852 0.00005331974 0.00000000000 0.00000000001 -0.00000000001 0.00000000000 0.00000000001 -0.00000000001 0.00000000000 0.00000000001 -0.00000000001 0.00000000000 0.00000000001 -0.00000000000 0.00000000000 0.00000000000 0.00000000000 0.00000000000 0.00000000000 0.00000000000 0.00000000000 0.00000000000 0.00000000001 0.00000000000 0.00000000000 0.00000000001 0.00000000000 0.00000000000 0.00000000001 0.00000000000 0.00000000000 0.00000000002 -0.00003901821 -0.00007722604 0.00007446732 -0.00003756421 -0.00007844030 0.00006653056 -0.00003422148 -0.00007691513 0.00005747025 -0.00002962062 -0.00007318116 0.00004763924 -0.00002439222 -0.00006776899 0.00003739038 -0.00001916688 -0.00006120923 0.00002707651 -0.00001457516 -0.00005403250 0.00001705047 -0.00001124768 -0.00004676941 0.00000766511 -0.00000981501 -0.00003995056 -0.00000072673 -0.00001090775 -0.00003410658 -0.00000777220 -0.00005309938 -0.00011868256 0.00009964150 -0.00005007650 -0.00011495887 0.00008533603 -0.00004512943 -0.00010846388 0.00007093568 -0.00003897239 -0.00009994648 0.00005665625 -0.00003231963 -0.00009015552 0.00004271355 -0.00002588540 -0.00007983988 0.00002932338 -0.00002038393 -0.00006974843 0.00001670155 -0.00001652946 -0.00006063004 0.00000506387 -0.00001503624 -0.00005323357 -0.00000537385 -0.00001661851 -0.00004830791 -0.00001439581 -0.00005329082 -0.00013582461 0.00009462504 -0.00004800627 -0.00012367691 0.00007483498 -0.00004205319 -0.00011040217 0.00005737366 -0.00003586305 -0.00009675795 0.00004201755 -0.00002986730 -0.00008350181 0.00002854310 -0.00002449738 -0.00007139133 0.00001672679 -0.00002018475 -0.00006118407 0.00000634508 -0.00001736085 -0.00005363761 -0.00000282556 -0.00001645715 -0.00004950952 -0.00001100866 -0.00001790509 -0.00004955736 -0.00001842776 -0.00005063986 -0.00014010723 0.00007852050 -0.00004182287 -0.00011871565 0.00005344598 -0.00003432213 -0.00009848592 0.00003376157 -0.00002810037 -0.00008007757 0.00001868965 -0.00002312030 -0.00006415008 0.00000745263 -0.00001934463 -0.00005136296 -0.00000072709 -0.00001673608 -0.00004237572 -0.00000662711 -0.00001525737 -0.00003784786 -0.00001102505 -0.00001487122 -0.00003843887 -0.00001469849 -0.00001554033 -0.00004480828 -0.00001842504 -0.00005619380 -0.00014298549 0.00007043040 -0.00004199568 -0.00011419628 0.00003958760 -0.00003126561 -0.00008847107 0.00001707677 -0.00002349211 -0.00006636734 0.00000163909 -0.00001816372 -0.00004844255 -0.00000798425 -0.00001476897 -0.00003525417 -0.00001305207 -0.00001279640 -0.00002735966 -0.00001482320 -0.00001173453 -0.00002531650 -0.00001455646 -0.00001107191 -0.00002968213 -0.00001351066 -0.00001029705 -0.00004101404 -0.00001294462 -0.00008099999 -0.00015591444 0.00008945728 -0.00005899409 -0.00012424001 0.00005167840 -0.00004221297 -0.00009611354 0.00002429664 -0.00002984602 -0.00007208927 0.00000583240 -0.00002108264 -0.00005272145 -0.00000519394 -0.00001511222 -0.00003856434 -0.00001026199 -0.00001112416 -0.00003017219 -0.00001085136 -0.00000830785 -0.00002809926 -0.00000844165 -0.00000585269 -0.00003289978 -0.00000451248 -0.00000294807 -0.00004512801 -0.00000054346 -0.00013610573 -0.00019034914 0.00015470367 -0.00010328747 -0.00016296807 0.00010813695 -0.00007649358 -0.00013716925 0.00007239856 -0.00005496987 -0.00011370534 0.00004623608 -0.00003796213 -0.00009332900 0.00002839714 -0.00002471618 -0.00007679287 0.00001762933 -0.00001447781 -0.00006484961 0.00001268025 -0.00000649283 -0.00005825186 0.00001229751 -0.00000000703 -0.00005775229 0.00001522871 0.00000573377 -0.00006410355 0.00002022145 -0.00023255835 -0.00025774464 0.00028527212 -0.00018534519 -0.00024450165 0.00022738183 -0.00014343679 -0.00022739414 0.00017835989 -0.00010667140 -0.00020767758 0.00013781668 -0.00007488728 -0.00018660742 0.00010536260 -0.00004792267 -0.00016543913 0.00008060806 -0.00002561582 -0.00014542819 0.00006316344 -0.00000780499 -0.00012783004 0.00005263915 0.00000567159 -0.00011390016 0.00004864559 0.00001497567 -0.00010489401 0.00005079315 -0.00038140518 -0.00036955600 0.00050026515 -0.00031563662 -0.00038296198 0.00042783161 -0.00025237195 -0.00038254414 0.00035915801 -0.00019275839 -0.00037046796 0.00029554071 -0.00013794317 -0.00034889893 0.00023827604 -0.00008907351 -0.00032000253 0.00018866038 -0.00004729666 -0.00028594423 0.00014799005 -0.00001375984 -0.00024888952 0.00011756142 0.00001038972 -0.00021100387 0.00009867084 0.00002400479 -0.00017445277 0.00009261465 0.00000000000 0.00000000001 -0.00000000001 0.00000000000 0.00000000001 -0.00000000000 0.00000000000 0.00000000001 -0.00000000000 0.00000000000 0.00000000000 -0.00000000000 0.00000000000 0.00000000000 0.00000000000 0.00000000000 0.00000000000 0.00000000000 0.00000000000 0.00000000000 0.00000000001 0.00000000000 0.00000000000 0.00000000001 0.00000000000 0.00000000000 0.00000000001 0.00000000000 -0.00000000000 0.00000000001 -0.00004563393 -0.00009686828 0.00008667166 -0.00004266398 -0.00009661514 0.00007660030 -0.00003828781 -0.00009361681 0.00006549595 -0.00003305121 -0.00008837882 0.00005365820 -0.00002749997 -0.00008140672 0.00004138665 -0.00002217988 -0.00007320607 0.00002898087 -0.00001763673 -0.00006428240 0.00001674046 -0.00001441631 -0.00005514125 0.00000496501 -0.00001306441 -0.00004628818 -0.00000604588 -0.00001412683 -0.00003822873 -0.00001599264 -0.00006575705 -0.00014882096 0.00011660352 -0.00006002833 -0.00014260485 0.00009871909 -0.00005315868 -0.00013364288 0.00008101155 -0.00004572299 -0.00012267093 0.00006362037 -0.00003829619 -0.00011042485 0.00004668505 -0.00003145317 -0.00009764053 0.00003034508 -0.00002576885 -0.00008505382 0.00001473995 -0.00002181814 -0.00007340061 0.00000000913 -0.00002017594 -0.00006341675 -0.00001370787 -0.00002141716 -0.00005583812 -0.00002627158 -0.00007215388 -0.00017056125 0.00011238398 -0.00006313599 -0.00015528811 0.00008799097 -0.00005438178 -0.00013896825 0.00006644396 -0.00004615885 -0.00012237576 0.00004743991 -0.00003873482 -0.00010628472 0.00003067577 -0.00003237728 -0.00009146922 0.00001584850 -0.00002735386 -0.00007870334 0.00000265506 -0.00002393216 -0.00006876116 -0.00000920760 -0.00002237978 -0.00006241677 -0.00002004252 -0.00002296433 -0.00006044425 -0.00003015274 -0.00007660894 -0.00017679236 0.00009660141 -0.00006302988 -0.00015198391 0.00006605052 -0.00005172629 -0.00012848294 0.00004169037 -0.00004250229 -0.00010699276 0.00002267023 -0.00003516202 -0.00008821667 0.00000813934 -0.00002950964 -0.00007285798 -0.00000275302 -0.00002534927 -0.00006161998 -0.00001085760 -0.00002248506 -0.00005520599 -0.00001702514 -0.00002072114 -0.00005431931 -0.00002210638 -0.00001986166 -0.00005966324 -0.00002695207 -0.00009090677 -0.00018221751 0.00009184420 -0.00007075296 -0.00015001124 0.00005453232 -0.00005496139 -0.00012107698 0.00002664794 -0.00004289681 -0.00009602137 0.00000686472 -0.00003392398 -0.00007545104 -0.00000614369 -0.00002740765 -0.00005997264 -0.00001370363 -0.00002271258 -0.00005019281 -0.00001714143 -0.00001920352 -0.00004671820 -0.00001778345 -0.00001624524 -0.00005015544 -0.00001695603 -0.00001320248 -0.00006111117 -0.00001598550 -0.00012683187 -0.00020153991 0.00012070076 -0.00009734816 -0.00016668911 0.00007507098 -0.00007385628 -0.00013564041 0.00004121385 -0.00005548594 -0.00010896102 0.00001757679 -0.00004136685 -0.00008721817 0.00000260721 -0.00003062873 -0.00007097905 -0.00000524747 -0.00002240128 -0.00006081087 -0.00000753984 -0.00001581422 -0.00005728086 -0.00000582249 -0.00000999726 -0.00006095622 -0.00000164801 -0.00000408011 -0.00007240416 0.00000343103 -0.00019616879 -0.00024946279 0.00020575946 -0.00015385842 -0.00021933650 0.00014930106 -0.00011818013 -0.00019106325 0.00010528526 -0.00008841318 -0.00016531117 0.00007235984 -0.00006383682 -0.00014274839 0.00004917259 -0.00004373030 -0.00012404304 0.00003437131 -0.00002737290 -0.00010986322 0.00002660377 -0.00001404385 -0.00010087708 0.00002451778 -0.00000302243 -0.00009775273 0.00002676111 0.00000641212 -0.00010115830 0.00003198156 -0.00031070204 -0.00034068935 0.00036960870 -0.00025132668 -0.00032527240 0.00029885718 -0.00019770213 -0.00030623554 0.00023875936 -0.00014982203 -0.00028457126 0.00018876728 -0.00010768003 -0.00026127206 0.00014833300 -0.00007126978 -0.00023733045 0.00011690856 -0.00004058492 -0.00021373891 0.00009394601 -0.00001561909 -0.00019148994 0.00007889740 0.00000363406 -0.00017157604 0.00007121476 0.00001718088 -0.00015498970 0.00007035016 -0.00048221614 -0.00048992282 0.00063483687 -0.00040079587 -0.00050181581 0.00054537391 -0.00032219145 -0.00050004730 0.00046153330 -0.00024785601 -0.00048624072 0.00038435251 -0.00017924267 -0.00046201951 0.00031486898 -0.00011780458 -0.00042900712 0.00025412015 -0.00006499484 -0.00038882698 0.00020314348 -0.00002226661 -0.00034310253 0.00016297641 0.00000892700 -0.00029345720 0.00013465640 0.00002713285 -0.00024151444 0.00011922089 0.00000000000 0.00000000001 -0.00000000000 0.00000000000 0.00000000000 -0.00000000000 0.00000000000 0.00000000000 0.00000000000 0.00000000000 0.00000000000 0.00000000000 0.00000000000 0.00000000000 0.00000000000 0.00000000000 0.00000000000 0.00000000000 0.00000000000 0.00000000000 0.00000000001 0.00000000000 -0.00000000000 0.00000000001 0.00000000000 -0.00000000000 0.00000000001 0.00000000000 -0.00000000000 0.00000000001 -0.00004656287 -0.00010658448 0.00008701184 -0.00004196729 -0.00010421504 0.00007583332 -0.00003695590 -0.00009962219 0.00006391713 -0.00003184008 -0.00009317807 0.00005143257 -0.00002693124 -0.00008525486 0.00003854895 -0.00002254075 -0.00007622469 0.00002543558 -0.00001898002 -0.00006645974 0.00001226175 -0.00001656043 -0.00005633215 -0.00000080322 -0.00001559338 -0.00004621409 -0.00001359002 -0.00001639026 -0.00003647770 -0.00002592937 -0.00007200148 -0.00016377202 0.00011790861 -0.00006345052 -0.00015514252 0.00009835660 -0.00005512761 -0.00014432659 0.00007927935 -0.00004728904 -0.00013189838 0.00006068752 -0.00004019106 -0.00011843206 0.00004259176 -0.00003408996 -0.00010450177 0.00002500273 -0.00002924200 -0.00009068166 0.00000793108 -0.00002590345 -0.00007754591 -0.00000861253 -0.00002433058 -0.00006566865 -0.00002461744 -0.00002477966 -0.00005562404 -0.00004007300 -0.00008678197 -0.00018815421 0.00011587022 -0.00007408031 -0.00017138365 0.00008959440 -0.00006293232 -0.00015386558 0.00006628439 -0.00005331577 -0.00013624502 0.00004559187 -0.00004520846 -0.00011916698 0.00002716849 -0.00003858818 -0.00010327647 0.00001066592 -0.00003343271 -0.00008921851 -0.00000426417 -0.00002971984 -0.00007763811 -0.00001797011 -0.00002742736 -0.00006918028 -0.00003080024 -0.00002653307 -0.00006449004 -0.00004310288 -0.00010137050 -0.00019632267 0.00010407659 -0.00008348734 -0.00017153966 0.00007157127 -0.00006878721 -0.00014799155 0.00004512996 -0.00005688920 -0.00012630208 0.00002397261 -0.00004741242 -0.00010709501 0.00000731917 -0.00003997596 -0.00009099407 -0.00000561040 -0.00003419893 -0.00007862302 -0.00001559616 -0.00002970042 -0.00007060561 -0.00002341815 -0.00002609954 -0.00006756558 -0.00002985642 -0.00002301539 -0.00007012670 -0.00003569102 -0.00012623321 -0.00020486899 0.00010570764 -0.00010130225 -0.00017421179 0.00006631177 -0.00008110947 -0.00014645689 0.00003601377 -0.00006497824 -0.00012215367 0.00001365676 -0.00005223191 -0.00010185151 -0.00000191613 -0.00004219385 -0.00008609980 -0.00001186178 -0.00003418742 -0.00007544792 -0.00001733705 -0.00002753598 -0.00007044524 -0.00001949883 -0.00002156289 -0.00007164115 -0.00001950399 -0.00001559151 -0.00007958503 -0.00001850940 -0.00017183628 -0.00023038478 0.00014394329 -0.00013715569 -0.00019800124 0.00009584046 -0.00010831629 -0.00016901396 0.00005913354 -0.00008455179 -0.00014388386 0.00003247133 -0.00006509593 -0.00012307188 0.00001450263 -0.00004918241 -0.00010703893 0.00000387625 -0.00003604498 -0.00009624594 -0.00000075901 -0.00002491734 -0.00009115385 -0.00000075435 -0.00001503322 -0.00009222358 0.00000253904 -0.00000562634 -0.00009991606 0.00000776997 -0.00024864584 -0.00028946164 0.00024196346 -0.00020067831 -0.00026150925 0.00018218189 -0.00015882485 -0.00023541516 0.00013468698 -0.00012257878 -0.00021157677 0.00009824331 -0.00009143345 -0.00019039148 0.00007161549 -0.00006488219 -0.00017225670 0.00005356812 -0.00004241836 -0.00015756984 0.00004286580 -0.00002353528 -0.00014672829 0.00003827312 -0.00000772630 -0.00014012947 0.00003855468 0.00000551524 -0.00013817078 0.00004247509 -0.00036712806 -0.00039869118 0.00042294807 -0.00030150078 -0.00038333704 0.00034736063 -0.00024105234 -0.00036541286 0.00028287180 -0.00018602811 -0.00034531647 0.00022879972 -0.00013667346 -0.00032344570 0.00018446251 -0.00009323375 -0.00030019838 0.00014917830 -0.00005595434 -0.00027597234 0.00012226522 -0.00002508062 -0.00025116541 0.00010304138 -0.00000085793 -0.00022617542 0.00009082492 0.00001646834 -0.00020140021 0.00008493396 -0.00053774908 -0.00057466500 0.00071007705 -0.00044925373 -0.00058208584 0.00061340122 -0.00036341595 -0.00057875946 0.00052388572 -0.00028186870 -0.00056518707 0.00044196756 -0.00020624494 -0.00054186992 0.00036808374 -0.00013817762 -0.00050930921 0.00030267124 -0.00007929971 -0.00046800617 0.00024616708 -0.00003124415 -0.00041846204 0.00019900825 0.00000435609 -0.00036117803 0.00016163175 0.00002586807 -0.00029665536 0.00013447458 0.00000000000 0.00000000000 -0.00000000000 0.00000000000 0.00000000000 0.00000000000 0.00000000000 0.00000000000 0.00000000000 0.00000000000 0.00000000000 0.00000000000 0.00000000000 0.00000000000 0.00000000000 0.00000000000 -0.00000000000 0.00000000001 0.00000000000 -0.00000000000 0.00000000001 0.00000000000 -0.00000000000 0.00000000001 0.00000000000 -0.00000000000 0.00000000001 0.00000000000 -0.00000000000 0.00000000001 -0.00004398666 -0.00010841550 0.00007910443 -0.00003796795 -0.00010383143 0.00006769986 -0.00003269925 -0.00009778699 0.00005588511 -0.00002819580 -0.00009047657 0.00004367923 -0.00002447284 -0.00008209456 0.00003110129 -0.00002154560 -0.00007283534 0.00001817033 -0.00001942933 -0.00006289330 0.00000490543 -0.00001813928 -0.00005246283 -0.00000867437 -0.00001769066 -0.00004173832 -0.00002255001 -0.00001809874 -0.00003091415 -0.00003670243 -0.00007396876 -0.00016674667 0.00010824341 -0.00006298903 -0.00015615736 0.00008858187 -0.00005375871 -0.00014417000 0.00006957905 -0.00004614989 -0.00013113049 0.00005111698 -0.00004003462 -0.00011738475 0.00003307770 -0.00003528499 -0.00010327868 0.00001534326 -0.00003177306 -0.00008915819 -0.00000220431 -0.00002937090 -0.00007536920 -0.00001968296 -0.00002795058 -0.00006225762 -0.00003721066 -0.00002738417 -0.00005016934 -0.00005490537 -0.00009789005 -0.00019233358 0.00010915605 -0.00008213690 -0.00017544045 0.00008311161 -0.00006922030 -0.00015816012 0.00005978082 -0.00005879753 -0.00014093490 0.00003881381 -0.00005052590 -0.00012420710 0.00001986071 -0.00004406269 -0.00010841900 0.00000257165 -0.00003906521 -0.00009401292 -0.00001340323 -0.00003519075 -0.00008143115 -0.00002841381 -0.00003209661 -0.00007111600 -0.00004280995 -0.00002944008 -0.00006350977 -0.00005694152 -0.00012369428 -0.00020251630 0.00010358143 -0.00010248527 -0.00018014334 0.00007175465 -0.00008512594 -0.00015876845 0.00004518943 -0.00007107401 -0.00013886295 0.00002327030 -0.00005978720 -0.00012089813 0.00000538178 -0.00005072323 -0.00010534528 -0.00000909162 -0.00004333983 -0.00009267571 -0.00002076537 -0.00003709472 -0.00008336071 -0.00003025497 -0.00003144561 -0.00007787158 -0.00003817588 -0.00002585023 -0.00007667963 -0.00004514360 -0.00015932523 -0.00021463491 0.00011325863 -0.00013110783 -0.00018872869 0.00007497654 -0.00010751757 -0.00016500610 0.00004450388 -0.00008791460 -0.00014388778 0.00002098703 -0.00007165907 -0.00012579437 0.00000357238 -0.00005811114 -0.00011114649 -0.00000859369 -0.00004663096 -0.00010036479 -0.00001636478 -0.00003657867 -0.00009386991 -0.00002059451 -0.00002731444 -0.00009208247 -0.00002213648 -0.00001819841 -0.00009542312 -0.00002184433 -0.00021272664 -0.00024602948 0.00015992676 -0.00017507826 -0.00021965916 0.00011324287 -0.00014243710 -0.00019588416 0.00007642316 -0.00011425457 -0.00017498254 0.00004846455 -0.00008998205 -0.00015723235 0.00002836396 -0.00006907094 -0.00014291162 0.00001511831 -0.00005097263 -0.00013229842 0.00000772453 -0.00003513851 -0.00012567079 0.00000517953 -0.00002101997 -0.00012330677 0.00000648024 -0.00000806840 -0.00012548443 0.00001062358 -0.00029184229 -0.00031404008 0.00026532489 -0.00024147025 -0.00029139740 0.00020701920 -0.00019592648 -0.00027041374 0.00015964629 -0.00015502921 -0.00025112038 0.00012220345 -0.00011859669 -0.00023354859 0.00009368800 -0.00008644717 -0.00021772964 0.00007309725 -0.00005839890 -0.00020369481 0.00005942851 -0.00003427011 -0.00019147538 0.00005167907 -0.00001387906 -0.00018110261 0.00004884627 0.00000295602 -0.00017260777 0.00004992739 -0.00040461592 -0.00043600678 0.00045119212 -0.00033735750 -0.00042240607 0.00037677110 -0.00027402762 -0.00040760594 0.00031287225 -0.00021517378 -0.00039127444 0.00025870429 -0.00016134352 -0.00037307963 0.00021347596 -0.00011308435 -0.00035268954 0.00017639600 -0.00007094379 -0.00032977222 0.00014667312 -0.00003546935 -0.00030399571 0.00012351608 -0.00000720856 -0.00027502807 0.00010613360 0.00001329107 -0.00024253734 0.00009373441 -0.00055899131 -0.00062926966 0.00073926753 -0.00046981370 -0.00063114781 0.00064296413 -0.00038278245 -0.00062647185 0.00055480005 -0.00029962357 -0.00061441788 0.00047446764 -0.00022206309 -0.00059416199 0.00040165931 -0.00015182701 -0.00056488028 0.00033606741 -0.00009064134 -0.00052574886 0.00027738435 -0.00004023211 -0.00047594383 0.00022530248 -0.00000232534 -0.00041464128 0.00017951421 0.00002135298 -0.00034101733 0.00013971190 0.00000000000 0.00000000000 0.00000000000 0.00000000000 0.00000000000 0.00000000000 0.00000000000 0.00000000000 0.00000000000 0.00000000000 -0.00000000000 0.00000000000 0.00000000000 -0.00000000000 0.00000000001 0.00000000000 -0.00000000000 0.00000000001 0.00000000000 -0.00000000000 0.00000000001 0.00000000000 -0.00000000000 0.00000000001 0.00000000000 -0.00000000000 0.00000000001 0.00000000000 -0.00000000000 0.00000000001 -0.00004008691 -0.00010440220 0.00006656597 -0.00003315978 -0.00009805576 0.00005567015 -0.00002799140 -0.00009096696 0.00004455122 -0.00002432694 -0.00008317199 0.00003311508 -0.00002191160 -0.00007470702 0.00002126765 -0.00002049055 -0.00006560824 0.00000891485 -0.00001980898 -0.00005591185 -0.00000403742 -0.00001961206 -0.00004565401 -0.00001768324 -0.00001964499 -0.00003487093 -0.00003211670 -0.00001965293 -0.00002359877 -0.00004743189 -0.00007379497 -0.00016095585 0.00009229461 -0.00006128984 -0.00014923489 0.00007372823 -0.00005177447 -0.00013682813 0.00005575058 -0.00004478492 -0.00012386892 0.00003816802 -0.00003985724 -0.00011049055 0.00002078691 -0.00003652749 -0.00009682636 0.00000341362 -0.00003433172 -0.00008300966 -0.00001414548 -0.00003280600 -0.00006917377 -0.00003208402 -0.00003148637 -0.00005545201 -0.00005059565 -0.00002990890 -0.00004197769 -0.00006987400 -0.00010619306 -0.00018682943 0.00009631378 -0.00008860341 -0.00017093540 0.00007200896 -0.00007476120 -0.00015491782 0.00004981912 -0.00006406784 -0.00013901458 0.00002944615 -0.00005592478 -0.00012346358 0.00001059192 -0.00004973346 -0.00010850271 -0.00000704168 -0.00004489530 -0.00009436988 -0.00002375275 -0.00004081174 -0.00008130297 -0.00003983942 -0.00003688421 -0.00006953988 -0.00005559979 -0.00003251415 -0.00005931851 -0.00007133198 -0.00014235007 -0.00019919141 0.00009775134 -0.00011931372 -0.00018055534 0.00006834706 -0.00010036352 -0.00016257032 0.00004297788 -0.00008486960 -0.00014553276 0.00002123680 -0.00007220209 -0.00012973907 0.00000271682 -0.00006173110 -0.00011548566 -0.00001298906 -0.00005282677 -0.00010306893 -0.00002628784 -0.00004485921 -0.00009278531 -0.00003758651 -0.00003719855 -0.00008493119 -0.00004729207 -0.00002921491 -0.00007980300 -0.00005581152 -0.00018733490 -0.00021521026 0.00011573515 -0.00015763399 -0.00019549273 0.00008057725 -0.00013199342 -0.00017711994 0.00005144789 -0.00010988412 -0.00016034725 0.00002782731 -0.00009077702 -0.00014543000 0.00000919576 -0.00007414307 -0.00013262355 -0.00000496654 -0.00005945320 -0.00012218327 -0.00001517933 -0.00004617835 -0.00011436449 -0.00002196238 -0.00003378945 -0.00010942259 -0.00002583544 -0.00002175743 -0.00010761292 -0.00002731828 -0.00024621643 -0.00025205446 0.00016939308 -0.00020777746 -0.00023314561 0.00012653424 -0.00017306285 -0.00021590099 0.00009145018 -0.00014180528 -0.00020038183 0.00006350501 -0.00011373744 -0.00018664934 0.00004206287 -0.00008859201 -0.00017476476 0.00002648788 -0.00006610166 -0.00016478931 0.00001614418 -0.00004599908 -0.00015678422 0.00001039589 -0.00002801695 -0.00015081072 0.00000860714 -0.00001188795 -0.00014693003 0.00001014207 -0.00032406355 -0.00032689250 0.00027785298 -0.00027395734 -0.00031091201 0.00022405276 -0.00022698377 -0.00029624777 0.00017920578 -0.00018332700 -0.00028256028 0.00014255722 -0.00014317121 -0.00026951006 0.00011335229 -0.00010670055 -0.00025675763 0.00009083618 -0.00007409921 -0.00024396351 0.00007425409 -0.00004555134 -0.00023078820 0.00006285120 -0.00002124112 -0.00021689222 0.00005587272 -0.00000135271 -0.00020193609 0.00005256384 -0.00042594515 -0.00045689283 0.00046024272 -0.00036038687 -0.00044618996 0.00039096752 -0.00029716815 -0.00043549457 0.00033093572 -0.00023714318 -0.00042380640 0.00027927128 -0.00018116618 -0.00041012515 0.00023509818 -0.00013009136 -0.00039345054 0.00019754036 -0.00008477291 -0.00037278229 0.00016572181 -0.00004606506 -0.00034712011 0.00013876648 -0.00001482200 -0.00031546374 0.00011579835 0.00000810206 -0.00027681288 0.00009594136 -0.00055693012 -0.00065922394 0.00073569017 -0.00047127928 -0.00065637748 0.00064511325 -0.00038702795 -0.00065097572 0.00056286104 -0.00030594773 -0.00064104397 0.00048793453 -0.00022981023 -0.00062460756 0.00041933466 -0.00016038707 -0.00059969183 0.00035606241 -0.00009944984 -0.00056432209 0.00029711875 -0.00004877016 -0.00051652368 0.00024150465 -0.00001011964 -0.00045432192 0.00018822107 0.00001473012 -0.00037574214 0.00013626897 0.00000000000 -0.00000000000 0.00000000000 0.00000000000 -0.00000000000 0.00000000000 0.00000000000 -0.00000000000 0.00000000000 0.00000000000 -0.00000000000 0.00000000001 0.00000000000 -0.00000000000 0.00000000001 0.00000000000 -0.00000000000 0.00000000001 0.00000000000 -0.00000000000 0.00000000001 0.00000000000 -0.00000000000 0.00000000001 0.00000000000 -0.00000000000 0.00000000001 0.00000000000 -0.00000000000 0.00000000002 -0.00003704524 -0.00009658545 0.00005301303 -0.00003003659 -0.00008947948 0.00004321443 -0.00002530584 -0.00008201782 0.00003306678 -0.00002244207 -0.00007416197 0.00002245700 -0.00002103434 -0.00006587341 0.00001127204 -0.00002067171 -0.00005711364 -0.00000060118 -0.00002094325 -0.00004784415 -0.00001327571 -0.00002143802 -0.00003802643 -0.00002686461 -0.00002174508 -0.00002762196 -0.00004148096 -0.00002145350 -0.00001659224 -0.00005723780 -0.00007361620 -0.00014961051 0.00007474885 -0.00006099894 -0.00013796058 0.00005812900 -0.00005189739 -0.00012595599 0.00004163390 -0.00004567351 -0.00011361531 0.00002509992 -0.00004168928 -0.00010095709 0.00000836342 -0.00003930668 -0.00008799990 -0.00000873924 -0.00003788768 -0.00007476231 -0.00002637169 -0.00003679425 -0.00006126288 -0.00004469758 -0.00003538837 -0.00004752017 -0.00006388054 -0.00003303201 -0.00003355274 -0.00008408420 -0.00011240597 -0.00017537185 0.00008141568 -0.00009477751 -0.00016134542 0.00005975279 -0.00008107049 -0.00014720463 0.00003928517 -0.00007059041 -0.00013305322 0.00001982928 -0.00006264279 -0.00011899494 0.00000120158 -0.00005653311 -0.00010513353 -0.00001678146 -0.00005156690 -0.00009157271 -0.00003430336 -0.00004704965 -0.00007841625 -0.00005154767 -0.00004228686 -0.00006576787 -0.00006869791 -0.00003658405 -0.00005373131 -0.00008593761 -0.00015610764 -0.00019016612 0.00008922170 -0.00013326273 -0.00017553609 0.00006309492 -0.00011412100 -0.00016115384 0.00003960441 -0.00009808888 -0.00014716892 0.00001854560 -0.00008457281 -0.00013373088 -0.00000028605 -0.00007297922 -0.00012098925 -0.00001709511 -0.00006271452 -0.00010909358 -0.00003208613 -0.00005318516 -0.00009819342 -0.00004546366 -0.00004379756 -0.00008843830 -0.00005743226 -0.00003395815 -0.00007997778 -0.00006819648 -0.00020741431 -0.00021029000 0.00011437512 -0.00017834503 -0.00019643470 0.00008316449 -0.00015234476 -0.00018319373 0.00005617543 -0.00012906502 -0.00017065561 0.00003314941 -0.00010815733 -0.00015890880 0.00001382794 -0.00008927320 -0.00014804182 -0.00000204750 -0.00007206417 -0.00013814315 -0.00001473543 -0.00005618175 -0.00012930128 -0.00002449435 -0.00004127746 -0.00012160471 -0.00003158279 -0.00002700283 -0.00011514193 -0.00003625925 -0.00026901907 -0.00025204016 0.00017308414 -0.00023191487 -0.00023994335 0.00013497059 -0.00019703764 -0.00022871442 0.00010258203 -0.00016441493 -0.00021820647 0.00007554124 -0.00013407429 -0.00020827262 0.00005347100 -0.00010604328 -0.00019876597 0.00003599410 -0.00008034946 -0.00018953964 0.00002273334 -0.00005702037 -0.00018044672 0.00001331148 -0.00003608358 -0.00017134033 0.00000735133 -0.00001756663 -0.00016207358 0.00000447565 -0.00034361502 -0.00033171327 0.00028155696 -0.00029586268 -0.00032196415 0.00023352234 -0.00024949548 -0.00031310600 0.00019240803 -0.00020503470 -0.00030451472 0.00015762159 -0.00016300166 -0.00029556623 0.00012857054 -0.00012391766 -0.00028563645 0.00010466241 -0.00008830399 -0.00027410127 0.00008530474 -0.00005668197 -0.00026033662 0.00006990505 -0.00002957290 -0.00024371841 0.00005787089 -0.00000749807 -0.00022362254 0.00004860978 -0.00043389524 -0.00046560598 0.00045600179 -0.00037207891 -0.00045839920 0.00039382882 -0.00031101413 -0.00045175858 0.00033923725 -0.00025182045 -0.00044427356 0.00029129100 -0.00019561741 -0.00043453355 0.00024905399 -0.00014352455 -0.00042112799 0.00021159013 -0.00009666140 -0.00040264629 0.00017796336 -0.00005614752 -0.00037767787 0.00014723758 -0.00002310243 -0.00034481217 0.00011847672 0.00000135432 -0.00030263861 0.00009074470 -0.00054255284 -0.00067001498 0.00071262681 -0.00046245399 -0.00066515060 0.00063089914 -0.00038288945 -0.00066006228 0.00055665349 -0.00030566828 -0.00065217619 0.00048844999 -0.00023259950 -0.00063891848 0.00042484877 -0.00016549216 -0.00061771533 0.00036440999 -0.00010615530 -0.00058599290 0.00030569378 -0.00005639796 -0.00054117736 0.00024726027 -0.00001802917 -0.00048069487 0.00018766962 0.00000714202 -0.00040197159 0.00012548197 0.00000000000 -0.00000000000 0.00000000000 0.00000000000 -0.00000000000 0.00000000000 0.00000000000 -0.00000000000 0.00000000001 0.00000000000 -0.00000000000 0.00000000001 0.00000000000 -0.00000000000 0.00000000001 0.00000000000 -0.00000000000 0.00000000001 0.00000000000 -0.00000000000 0.00000000001 0.00000000000 -0.00000000001 0.00000000001 0.00000000000 -0.00000000001 0.00000000002 0.00000000000 -0.00000000001 0.00000000002 -0.00003704327 -0.00008700612 0.00004206216 -0.00003109219 -0.00008069402 0.00003380295 -0.00002711611 -0.00007379529 0.00002458313 -0.00002474976 -0.00006634417 0.00001442189 -0.00002362788 -0.00005837491 0.00000333843 -0.00002338520 -0.00004992177 -0.00000864804 -0.00002365646 -0.00004101898 -0.00002151834 -0.00002407638 -0.00003170079 -0.00003525327 -0.00002427969 -0.00002200146 -0.00004983363 -0.00002390114 -0.00001195522 -0.00006524022 -0.00007556854 -0.00013592159 0.00006029282 -0.00006476230 -0.00012591995 0.00004611750 -0.00005684994 -0.00011520858 0.00003106896 -0.00005129502 -0.00010387131 0.00001517196 -0.00004756112 -0.00009199197 -0.00000154874 -0.00004511179 -0.00007965439 -0.00001906838 -0.00004341062 -0.00006694239 -0.00003736221 -0.00004192117 -0.00005393980 -0.00005640548 -0.00004010700 -0.00004073045 -0.00007617342 -0.00003743169 -0.00002739815 -0.00009664128 -0.00011724373 -0.00016169091 0.00006853405 -0.00010195685 -0.00015014740 0.00004980946 -0.00008966365 -0.00013808650 0.00003106484 -0.00007982896 -0.00012562001 0.00001230361 -0.00007191756 -0.00011285970 -0.00000647083 -0.00006539429 -0.00009991735 -0.00002525507 -0.00005972394 -0.00008690475 -0.00004404569 -0.00005437133 -0.00007393368 -0.00006283928 -0.00004880127 -0.00006111592 -0.00008163244 -0.00004247857 -0.00004856325 -0.00010042175 -0.00016373676 -0.00017925859 0.00008062792 -0.00014362232 -0.00016784600 0.00005774465 -0.00012601940 -0.00015627570 0.00003617811 -0.00011054473 -0.00014462884 0.00001587020 -0.00009681508 -0.00013298659 -0.00000323719 -0.00008444721 -0.00012143011 -0.00002120217 -0.00007305788 -0.00011004054 -0.00003808285 -0.00006226383 -0.00009889905 -0.00005393734 -0.00005168184 -0.00008808680 -0.00006882376 -0.00004092866 -0.00007768494 -0.00008280020 -0.00021671555 -0.00020356912 0.00011041650 -0.00019070524 -0.00019348537 0.00008278887 -0.00016637933 -0.00018362279 0.00005801611 -0.00014363552 -0.00017393639 0.00003592513 -0.00012237154 -0.00016438117 0.00001634287 -0.00010248509 -0.00015491213 -0.00000090375 -0.00008387389 -0.00014548426 -0.00001598779 -0.00006643564 -0.00013605256 -0.00002908234 -0.00005006806 -0.00012657202 -0.00004036046 -0.00003466887 -0.00011699766 -0.00004999524 -0.00027784802 -0.00024956702 0.00017174186 -0.00024415209 -0.00024153512 0.00013780795 -0.00021120559 -0.00023397441 0.00010818617 -0.00017929450 -0.00022658124 0.00008252177 -0.00014870480 -0.00021905195 0.00006046001 -0.00011972245 -0.00021108289 0.00004164614 -0.00009263343 -0.00020237041 0.00002572540 -0.00006772371 -0.00019261084 0.00001234306 -0.00004527927 -0.00018150053 0.00000114436 -0.00002558609 -0.00016873584 -0.00000822545 -0.00034880210 -0.00033219678 0.00027844607 -0.00030490939 -0.00032646489 0.00023566769 -0.00026096035 -0.00032117720 0.00019829564 -0.00021771485 -0.00031560197 0.00016571351 -0.00017593272 -0.00030900744 0.00013730490 -0.00013637381 -0.00030066186 0.00011245341 -0.00009979795 -0.00028983347 0.00009054264 -0.00006696501 -0.00027579052 0.00007095618 -0.00003863481 -0.00025780125 0.00005307763 -0.00001556721 -0.00023513391 0.00003629059 -0.00043124571 -0.00046640291 0.00044437119 -0.00037392363 -0.00046274428 0.00038923391 -0.00031610576 -0.00045907778 0.00033995186 -0.00025908973 -0.00045403716 0.00029555373 -0.00020417317 -0.00044625615 0.00025506822 -0.00015265369 -0.00043436850 0.00021752402 -0.00010582893 -0.00041700796 0.00018194983 -0.00006499650 -0.00039280825 0.00014737435 -0.00003145404 -0.00036040312 0.00011282626 -0.00000649915 -0.00031842632 0.00007733428 -0.00052684677 -0.00066712991 0.00068335930 -0.00045214132 -0.00066484292 0.00061137242 -0.00037710396 -0.00066152279 0.00054476216 -0.00030361232 -0.00065492539 0.00048209580 -0.00023354401 -0.00064280659 0.00042194062 -0.00016877663 -0.00062292229 0.00036286390 -0.00011118781 -0.00059302835 0.00030343290 -0.00006265515 -0.00055088065 0.00024221490 -0.00002505628 -0.00049423508 0.00017777718 -0.00000026880 -0.00042084750 0.00010868703 0.00000000000 -0.00000000001 0.00000000000 0.00000000000 -0.00000000001 0.00000000000 0.00000000000 -0.00000000001 0.00000000001 0.00000000000 -0.00000000001 0.00000000001 0.00000000000 -0.00000000001 0.00000000001 0.00000000000 -0.00000000001 0.00000000001 0.00000000000 -0.00000000001 0.00000000002 0.00000000000 -0.00000000001 0.00000000002 0.00000000000 -0.00000000001 0.00000000002 0.00000000000 -0.00000000001 0.00000000003 -0.00004226261 -0.00007770507 0.00003732992 -0.00003882040 -0.00007429084 0.00003090593 -0.00003589571 -0.00006915510 0.00002225158 -0.00003345859 -0.00006261626 0.00001172663 -0.00003147905 -0.00005499271 -0.00000030916 -0.00002992714 -0.00004660286 -0.00001349604 -0.00002877290 -0.00003776510 -0.00002747424 -0.00002798635 -0.00002879783 -0.00004188400 -0.00002753754 -0.00002001946 -0.00005636558 -0.00002739650 -0.00001174839 -0.00007055921 -0.00008178806 -0.00012310002 0.00005361317 -0.00007522590 -0.00011669848 0.00004202705 -0.00006935463 -0.00010824090 0.00002789571 -0.00006412884 -0.00009813859 0.00001164343 -0.00005950312 -0.00008680283 -0.00000630552 -0.00005543205 -0.00007464492 -0.00002552685 -0.00005187023 -0.00006207615 -0.00004559630 -0.00004877225 -0.00004950782 -0.00006608958 -0.00004609268 -0.00003735120 -0.00008658243 -0.00004378613 -0.00002601760 -0.00010665056 -0.00012142128 -0.00014951671 0.00006174118 -0.00011143909 -0.00014081825 0.00004564530 -0.00010205617 -0.00013062939 0.00002804400 -0.00009324718 -0.00011928410 0.00000920953 -0.00008498678 -0.00010711635 -0.00001058585 -0.00007724962 -0.00009446010 -0.00003106989 -0.00007001035 -0.00008164931 -0.00005197035 -0.00006324363 -0.00006901794 -0.00007301498 -0.00005692413 -0.00005689998 -0.00009393151 -0.00005102648 -0.00004562937 -0.00011444771 -0.00016400719 -0.00017028695 0.00007460539 -0.00014968256 -0.00016024548 0.00005404264 -0.00013567977 -0.00014969257 0.00003380808 -0.00012205005 -0.00013876992 0.00001388410 -0.00010884462 -0.00012761925 -0.00000574692 -0.00009611473 -0.00011638227 -0.00002510261 -0.00008391161 -0.00010520069 -0.00004420058 -0.00007228649 -0.00009421621 -0.00006305845 -0.00006129059 -0.00008357056 -0.00008169384 -0.00005097517 -0.00007340545 -0.00010012438 -0.00021239070 -0.00019874260 0.00010509723 -0.00019217890 -0.00018857551 0.00007950100 -0.00017190484 -0.00017880243 0.00005629956 -0.00015177385 -0.00016931315 0.00003512626 -0.00013199122 -0.00015999751 0.00001561447 -0.00011276229 -0.00015074532 -0.00000260245 -0.00009429237 -0.00014144642 -0.00001989114 -0.00007678676 -0.00013199061 -0.00003661825 -0.00006045080 -0.00012226773 -0.00005315040 -0.00004548979 -0.00011216759 -0.00006985425 -0.00026941673 -0.00024821547 0.00016610813 -0.00024115070 -0.00023940367 0.00013430234 -0.00021241083 -0.00023133095 0.00010663006 -0.00018365502 -0.00022363090 0.00008239517 -0.00015534117 -0.00021593711 0.00006090156 -0.00012792719 -0.00020788316 0.00004145313 -0.00010187097 -0.00019910264 0.00002335377 -0.00007763043 -0.00018922913 0.00000590736 -0.00005566346 -0.00017789624 -0.00001158220 -0.00003642796 -0.00016473753 -0.00002981101 -0.00033793022 -0.00033203742 0.00027052952 -0.00029882055 -0.00032632528 0.00023072860 -0.00025887714 -0.00032065014 0.00019591119 -0.00021892998 -0.00031444028 0.00016514996 -0.00017980904 -0.00030712402 0.00013751756 -0.00014234431 -0.00029812965 0.00011208668 -0.00010736579 -0.00028688546 0.00008792998 -0.00007570345 -0.00027281977 0.00006412012 -0.00004818728 -0.00025536085 0.00003972978 -0.00002564728 -0.00023393703 0.00001383162 -0.00042077607 -0.00046354028 0.00043125283 -0.00036741105 -0.00046293568 0.00038106173 -0.00031298322 -0.00046013198 0.00033525458 -0.00025883515 -0.00045445841 0.00029284977 -0.00020630941 -0.00044524424 0.00025286570 -0.00015674856 -0.00043181870 0.00021432075 -0.00011149517 -0.00041351104 0.00017623331 -0.00007189179 -0.00038965051 0.00013762178 -0.00003928099 -0.00035956635 0.00009750453 -0.00001500535 -0.00032258782 0.00005489995 -0.00052079921 -0.00065605588 0.00066116950 -0.00044914477 -0.00066283020 0.00059758366 -0.00037640848 -0.00066314846 0.00053577183 -0.00030460697 -0.00065640240 0.00047495376 -0.00023575688 -0.00064198373 0.00041434919 -0.00017187483 -0.00061928418 0.00035317788 -0.00011497746 -0.00058769548 0.00029065959 -0.00006708141 -0.00054660934 0.00022601406 -0.00003020330 -0.00049541749 0.00015846105 -0.00000635978 -0.00043351166 0.00008722030 </DataArray>
</PointData>
<Points>
<DataArray type="Float32" NumberOfComponents="3">
0.29629600000 0.34416700001 -2.70625200002 0.33987671468 0.36262753774 -2.70684649659 0.37223964335 0.38446767216 -2.70729226888 0.39396396297 0.40874618520 -2.70743074075 0.40562885048 0.43452185872 -2.70710333608 0.40781348286 0.46085347463 -2.70615147874 0.40109703704 0.48679981482 -2.70441659259 0.38605868999 0.51141966119 -2.70174010150 0.36327761866 0.53377179561 -2.69796342933 0.33333300000 0.55291500000 -2.69292799997 0.32781255007 0.33256774350 -2.70275153502 0.37458402854 0.35150556326 -2.70316849713 0.40933690171 0.37399162946 -2.70343030167 0.43307504024 0.39902163432 -2.70337764286 0.44680231478 0.42559127010 -2.70285121486 0.45152259597 0.45269622904 -2.70169171189 0.44823975446 0.47933220339 -2.69973982812 0.43795766091 0.50449488538 -2.69683625775 0.42168018597 0.52717996727 -2.69282169497 0.40041120028 0.54638314129 -2.68753683397 0.37147373389 0.31887287382 -2.69972420582 0.42051770038 0.33822528104 -2.70004921665 0.45672675989 0.36139157463 -2.70019784371 0.48148991999 0.38729321025 -2.70001123602 0.49619618826 0.41485164355 -2.69933054260 0.50223457226 0.44298833017 -2.69799691248 0.50099407957 0.47062472577 -2.69585149469 0.49386371775 0.49668228599 -2.69273543823 0.48223249438 0.52008246649 -2.68848989214 0.46748941702 0.53974672291 -2.68295600543 0.42502085186 0.30351174077 -2.69678411118 0.47525045863 0.32336467960 -2.69714283357 0.51193674030 0.34732838722 -2.69727657623 0.53679166668 0.37424597808 -2.69703225793 0.55152720760 0.40296056666 -2.69625679742 0.55785533289 0.43231526741 -2.69479711346 0.55748801236 0.46115319481 -2.69250012483 0.55213721583 0.48831746331 -2.68921275027 0.54351491313 0.51265118738 -2.68478190856 0.53333307408 0.53299748149 -2.67905451846 0.48619520440 0.28691369414 -2.69354534989 0.53635503175 0.30750174749 -2.69410352632 0.57249436537 0.33246294672 -2.69434818051 0.59656334478 0.36056500288 -2.69414144628 0.61051210948 0.39057562701 -2.69334545742 0.61629079900 0.42126253015 -2.69182234775 0.61584955283 0.45139342334 -2.68943425109 0.61113851049 0.47973601762 -2.68604330123 0.60410781149 0.50505802405 -2.68151163198 0.59670759535 0.52612715365 -2.67570137717 0.55273809192 0.26950808372 -2.68962202070 0.60140414819 0.29121447324 -2.69058547331 0.63592715755 0.31745613267 -2.69109433781 0.65838801877 0.34693534974 -2.69103953877 0.67086763058 0.37835441219 -2.69031200074 0.67544689174 0.41041560776 -2.68880264830 0.67420670098 0.44182122419 -2.68640240601 0.66922795705 0.47127354922 -2.68300219843 0.66259155870 0.49747487058 -2.67849295013 0.65637840467 0.51912747601 -2.67276558568 0.62239081484 0.25172425932 -2.68462822238 0.66797053638 0.27508084541 -2.68624285296 0.69976263926 0.30296882458 -2.68719672939 0.71984875312 0.33404208373 -2.68742727309 0.73031050757 0.36695450978 -2.68687190549 0.73322953226 0.40035998964 -2.68546804803 0.73068745681 0.43291241020 -2.68315312213 0.72476591086 0.46326565838 -2.67986454922 0.71754652402 0.49007362108 -2.67553975073 0.71111092594 0.51199018521 -2.67011614810 0.69289467355 0.23399157072 -2.67817805370 0.73362692477 0.25967885253 -2.68072984369 0.76152833293 0.28966190197 -2.68233703650 0.77852861229 0.32257026995 -2.68300538693 0.78655747713 0.35703350738 -2.68274064979 0.78754464172 0.39168116516 -2.68154857987 0.78341982033 0.42514279420 -2.67943493199 0.77611272723 0.45604794539 -2.67640546094 0.76755307670 0.48302616965 -2.67246592153 0.75967058300 0.50470701787 -2.66762206855 0.76199096849 0.21673936772 -2.66988561343 0.79594604182 0.24558648313 -2.67370062392 0.81875176099 0.27819624435 -2.67619694041 0.83201066077 0.31320497347 -2.67747461799 0.83732527594 0.34924899257 -2.67763371175 0.83629814127 0.38496462372 -2.67677427678 0.83053179153 0.41898818902 -2.67499636814 0.82162876152 0.44995601055 -2.67240004094 0.81119158599 0.47650441039 -2.66908535025 0.80082279974 0.49726971062 -2.66515235115 0.82742100005 0.20039700012 -2.65936500033 0.85250061597 0.23338172577 -2.66480937206 0.86896044588 0.26923273126 -2.66845812238 0.87787796303 0.30663125938 -2.67053570397 0.88033064067 0.34425855293 -2.67126656951 0.87739595205 0.38079585471 -2.67087517167 0.87015137042 0.41492440751 -2.66958596312 0.85967436904 0.44532545414 -2.66762339655 0.84704242115 0.47068023740 -2.66521192462 0.83333300002 0.48967000008 -2.66257600002 0.30732073114 0.35337401510 -2.67421345681 0.33792885184 0.37088113761 -2.67889767192 0.36065831416 0.39157276442 -2.68254205060 0.37591584383 0.41468656979 -2.68516125591 0.38410816660 0.43946022795 -2.68676995094 0.38564200822 0.46513141317 -2.68738279875 0.38092409445 0.49093779968 -2.68701446242 0.37036115102 0.51611706173 -2.68567960504 0.35435990368 0.53990687358 -2.68339288967 0.33332707819 0.56154490947 -2.68016897940 0.35148084235 0.34306279862 -2.67171656070 0.38432754654 0.36105784222 -2.67627906391 0.40871817116 0.38238633479 -2.67979730360 0.42534072909 0.40623735984 -2.68228452548 0.43488323319 0.43180000083 -2.68375397526 0.43803369633 0.45826334126 -2.68421889864 0.43548013136 0.48481646460 -2.68369254134 0.42791055116 0.51064845435 -2.68218814906 0.41601296859 0.53494839397 -2.67971896750 0.40047539652 0.55690536696 -2.67629824238 0.40418775825 0.33086615663 -2.66963343959 0.43862860028 0.34932936078 -2.67412414188 0.46402528794 0.37135078861 -2.67755288680 0.48132132862 0.39606034602 -2.67993196329 0.49146022973 0.42258793895 -2.68127366029 0.49538549864 0.45006347329 -2.68159026670 0.49404064277 0.47761685499 -2.68089407147 0.48836916951 0.50437798994 -2.67919736352 0.47931458625 0.52947678407 -2.67651243178 0.46782040039 0.55204314330 -2.67285156518 0.46384780540 0.31706772909 -2.66773145022 0.49911986795 0.33607040113 -2.67221962869 0.52483362376 0.35889044374 -2.67560671797 0.54214379800 0.38459056223 -2.67790809328 0.55220511589 0.41223346190 -2.67913912982 0.55617230262 0.44088184807 -2.67931520282 0.55520008339 0.46959842603 -2.67845168749 0.55044318339 0.49744590110 -2.67656395905 0.54305632783 0.52348697859 -2.67366739270 0.53419424191 0.54678436380 -2.66977736368 0.52886731036 0.30195115598 -2.66577794932 0.56408920444 0.32165567111 -2.67035224722 0.58939713788 0.34542961810 -2.67375671488 0.60609429282 0.37226304237 -2.67601743935 0.61548385137 0.40114598932 -2.67716050768 0.61886899569 0.43106850438 -2.67721200691 0.61755290789 0.46102063294 -2.67619802408 0.61283877012 0.48999242043 -2.67414464625 0.60602976450 0.51697391224 -2.67107796045 0.59842907317 0.54095515380 -2.66702405374 0.59765259969 0.28580007725 -2.66354029361 0.63182446463 0.30645987852 -2.66830872031 0.65596978959 0.33139262955 -2.67180079529 0.67145896865 0.35951282032 -2.67406452543 0.67966239586 0.38973494082 -2.67514791765 0.68195046529 0.42097348102 -2.67509897884 0.67969357098 0.45214293092 -2.67396571590 0.67426210700 0.48215778049 -2.67179613572 0.66702646741 0.50993251972 -2.66863824521 0.65935704627 0.53438163860 -2.66454005125 0.66860999997 0.26889813288 -2.66078583984 0.70061350339 0.29085773122 -2.66587577083 0.72280553815 0.31720379600 -2.66953687695 0.73652398109 0.34677493000 -2.67185387544 0.74310670905 0.37840973601 -2.67291148355 0.74389159885 0.41094681680 -2.67279441853 0.74021652735 0.44322477517 -2.67158739763 0.73341937136 0.47408221389 -2.66937513809 0.72483800773 0.50235773575 -2.66624235716 0.71581031330 0.52688994352 -2.66227377209 0.74014583774 0.25152896284 -2.65728194473 0.76874417561 0.27522393703 -2.66284012164 0.78815834283 0.30328743533 -2.66676287764 0.79957548572 0.33448440530 -2.66919001330 0.80418275062 0.36757979450 -2.67026132918 0.80316728383 0.40133855052 -2.67011662587 0.79771623169 0.43452562089 -2.66889570394 0.78901674051 0.46590595321 -2.66673836396 0.77825595663 0.49424449502 -2.66378440650 0.76662102636 0.51830619389 -2.66017363214 0.81066643957 0.23397620708 -2.65279596501 0.83450433617 0.25993320377 -2.65898849560 0.85028216290 0.29006786542 -2.66327671512 0.85889963813 0.32307628011 -2.66587746292 0.86125648026 0.35765453592 -2.66700757835 0.85825240765 0.39249872096 -2.66688390076 0.85078713870 0.42630492330 -2.66572326950 0.83976039178 0.45776923103 -2.66374252394 0.82607188527 0.48558773225 -2.66115850340 0.81062133755 0.50845651503 -2.65818804726 0.87857813202 0.21652350559 -2.64709525742 0.89618183995 0.24536023929 -2.65410761557 0.90743095762 0.27796940416 -2.65887630715 0.91278259390 0.31298558832 -2.66172074823 0.91269385765 0.34904337988 -2.66296035485 0.90762185775 0.38477736693 -2.66291454309 0.89802370307 0.41882213759 -2.66190272900 0.88435650246 0.44981227995 -2.66024432864 0.86707736481 0.47638238214 -2.65825875807 0.84664339897 0.49716703224 -2.65626543335 0.31590681207 0.36323512072 -2.64726069137 0.33641180214 0.37979633197 -2.65478616562 0.35163834935 0.39935687135 -2.66064933365 0.36185857090 0.42129841696 -2.66498592928 0.36734458402 0.44500264689 -2.66793168632 0.36836850591 0.46985123921 -2.66962233857 0.36520245379 0.49522587202 -2.67019361987 0.35811854488 0.52050822341 -2.66978126401 0.34738889638 0.54507997145 -2.66852100482 0.33328562552 0.56832279424 -2.66654857611 0.36991846223 0.35393735763 -2.64555208144 0.39192145504 0.37099535911 -2.65299949007 0.40824272567 0.39118555385 -2.65878153239 0.41932520664 0.41385233297 -2.66303230899 0.42561183045 0.43834008763 -2.66588592050 0.42754552964 0.46399320898 -2.66747646752 0.42556923671 0.49015608815 -2.66793805069 0.42012588419 0.51617311629 -2.66740477060 0.41165840460 0.54138868454 -2.66601072788 0.40060973044 0.56514718406 -2.66389002314 0.42966982853 0.34293108798 -2.64419249424 0.45273959121 0.36049981798 -2.65158647035 0.46971947214 0.38139256596 -2.65730052779 0.48120941687 0.40490640545 -2.66146711960 0.48780937095 0.43033840997 -2.66421869878 0.49011927993 0.45698565307 -2.66568771836 0.48873908935 0.48414520826 -2.66600663134 0.48426874478 0.51111414908 -2.66530789076 0.47730819176 0.53718954906 -2.66372394963 0.46845737583 0.56166848174 -2.66138726096 0.49408780500 0.33040096323 -2.64305837343 0.51771354305 0.34854361347 -2.65042942092 0.53489002505 0.37023716278 -2.65608933799 0.54634464876 0.39472065214 -2.66017198275 0.55280481192 0.42123312256 -2.66281121332 0.55499791228 0.44901361503 -2.66414088781 0.55365134757 0.47730117052 -2.66429486435 0.54949251555 0.50533483005 -2.66340700105 0.54324881397 0.53235363459 -2.66161115603 0.53564764056 0.55759662514 -2.65904118740 0.56209928562 0.31653163480 -2.64202616264 0.58569064292 0.33536065046 -2.64941065628 0.60257582068 0.35797859938 -2.65503098109 0.61356434946 0.38355509082 -2.65902852008 0.61946575979 0.41125973407 -2.66154465626 0.62108958220 0.44026213840 -2.66272077263 0.61924534724 0.46973191310 -2.66269825221 0.61474258544 0.49883866743 -2.66161847801 0.60839082733 0.52675201069 -2.65962283302 0.60099960347 0.55264155214 -2.65685270026 0.63263116441 0.30150775412 -2.64097230551 0.65551822321 0.32118483385 -2.64841249090 0.67159829532 0.34487613084 -2.65400847521 0.68170196612 0.37166973922 -2.65791835324 0.68665982096 0.40065375314 -2.66030021976 0.68730244520 0.43091626673 -2.66131216956 0.68446042421 0.46154537414 -2.66111229743 0.67896434334 0.49162916949 -2.65985869816 0.67164478796 0.52025574694 -2.65770946654 0.66333234343 0.54651320061 -2.65482269734 0.70461033538 0.28551397262 -2.63977324566 0.72604361630 0.30625006852 -2.64731723926 0.74077888526 0.33118901224 -2.65290483847 0.74959094589 0.35932461511 -2.65672310385 0.75325460186 0.38965068844 -2.65895909596 0.75254465679 0.42116104357 -2.65979987533 0.74823591436 0.45284949180 -2.65943250252 0.74110317819 0.48370984448 -2.65804403807 0.73192125196 0.51273591291 -2.65582154254 0.72146493929 0.53892150843 -2.65295207646 0.77696369251 0.26873494174 -2.63830542676 0.79611415459 0.29079025937 -2.64600721583 0.80893902679 0.31717649867 -2.65160308898 0.81606473594 0.34677973623 -2.65532439357 0.81811770889 0.37848604863 -2.65740247701 0.81572437248 0.41118151244 -2.65806868668 0.80951115354 0.44375220425 -2.65755436997 0.80010447891 0.47508420064 -2.65609087427 0.78813077542 0.50406357818 -2.65390954695 0.77421646991 0.52957641347 -2.65124173542 0.84861812983 0.25135531290 -2.63644529242 0.86457717044 0.27503931128 -2.64436473511 0.87490015619 0.30309784521 -2.64998624485 0.87995678342 0.33429512034 -2.65360384404 0.88011674849 0.36739534236 -2.65551155507 0.87574974777 0.40116271690 -2.65600340036 0.86722547762 0.43436144964 -2.65537340230 0.85491363440 0.46575574623 -2.65391558329 0.83918391445 0.49410981233 -2.65192396574 0.82040601416 0.51818785361 -2.64969257204 0.91850054133 0.23355973755 -2.63406928630 0.93027999625 0.25923112915 -2.64227211157 0.93748370975 0.28921230693 -2.64793732421 0.94010053547 0.32213078520 -2.65144307688 0.93811932706 0.35661407828 -2.65316752229 0.93152893818 0.39128970049 -2.65348881310 0.92031822247 0.42478516612 -2.65278510201 0.90447603358 0.45572798949 -2.65143454169 0.88399122517 0.48274568492 -2.64981528483 0.85885265088 0.50446576671 -2.64830548411 0.32235907408 0.37351440742 -2.62486800001 0.33527165910 0.38914242621 -2.63410973236 0.34485913972 0.40759768537 -2.64130989453 0.35129180796 0.42837535940 -2.64667963786 0.35473995585 0.45097062282 -2.65043011370 0.35537387543 0.47487865016 -2.65277247340 0.35336385871 0.49959461591 -2.65391786831 0.34888019774 0.52461369461 -2.65407744977 0.34209318453 0.54943106076 -2.65346236914 0.33317311111 0.57354188889 -2.65228377776 0.38377841291 0.36499354598 -2.62375839891 0.39763334411 0.38112399239 -2.63295505884 0.40789109136 0.40020193983 -2.64010798322 0.41481103290 0.42169356085 -2.64542685252 0.41865254695 0.44506502799 -2.64912134723 0.41967501175 0.46978251380 -2.65140114781 0.41813780552 0.49531219081 -2.65247593476 0.41430030649 0.52112023157 -2.65255538855 0.40842189290 0.54667280862 -2.65184918965 0.40076194298 0.57143609449 -2.65056701855 0.44882389478 0.35491058782 -2.62293119834 0.46335014726 0.37158302487 -2.63209141233 0.47400851894 0.39136912041 -2.63919598258 0.48114392874 0.41369660993 -2.64445283517 0.48510129561 0.43799322893 -2.64806989619 0.48622553848 0.46368671290 -2.65025509173 0.48486157630 0.49020479733 -2.65121634787 0.48135432801 0.51697521771 -2.65116159072 0.47604871254 0.54342570953 -2.65029874636 0.46928964884 0.56898400830 -2.64883574087 0.51681676519 0.34338973505 -2.62233494113 0.53169288364 0.36066470403 -2.63146613018 0.54246157719 0.38125328860 -2.63851659533 0.54953558001 0.40453247360 -2.64369480776 0.55332762626 0.42987924390 -2.64720923865 0.55425045008 0.45667058434 -2.64926835916 0.55271678565 0.48428347977 -2.65008064047 0.54913936712 0.51209491503 -2.64985455377 0.54393092865 0.53948187500 -2.64879857021 0.53750420439 0.56582134450 -2.64712116097 0.58707826963 0.33055518981 -2.62191817012 0.60193236831 0.34851421024 -2.63102654970 0.61250042089 0.37000850588 -2.63801252417 0.61923107127 0.39434911882 -2.64308999225 0.62257296334 0.42084709116 -2.64647285267 0.62297474099 0.44881346501 -2.64837500414 0.62088504813 0.47755928245 -2.64901034540 0.61675252864 0.50639558557 -2.64859277517 0.61102582643 0.53463341648 -2.64733619217 0.60415358537 0.56158381728 -2.64545449512 0.65892965361 0.31653115424 -2.62162942816 0.67333941637 0.33527672387 -2.63072000824 0.68337520480 0.35778883373 -2.63762647181 0.68947548706 0.38329451254 -2.64257561059 0.69207873130 0.41102078899 -2.64579421631 0.69162340567 0.44019469180 -2.64750908070 0.68854797832 0.47004324968 -2.64794699550 0.68329091741 0.49979349134 -2.64733475242 0.67629069108 0.52867244548 -2.64589914321 0.66798576749 0.55590714082 -2.64386695959 0.73169216264 0.30144183046 -2.62141725809 0.74518484288 0.32109742530 -2.63049384314 0.75433608367 0.34474833366 -2.63730114095 0.75951391191 0.37151662171 -2.64208888473 0.76108635457 0.40052435564 -2.64510680764 0.75942143855 0.43089360160 -2.64660464287 0.75488719080 0.46174642578 -2.64683212360 0.74785163825 0.49220489434 -2.64603898301 0.73868280783 0.52139107346 -2.64447495429 0.72774872647 0.54842702931 -2.64238977062 0.80468704221 0.28541142061 -2.62123020274 0.81673946294 0.30612149489 -2.63029539171 0.82463321226 0.33104106713 -2.63697923431 0.82859143039 0.35916341330 -2.64156703662 0.82883725759 0.38948180937 -2.64434410471 0.82559383409 0.42098953130 -2.64559574465 0.81908430014 0.45267985505 -2.64560726253 0.80953179598 0.48354605660 -2.64466396441 0.79715946187 0.51258141190 -2.64305115637 0.78219043803 0.53877919693 -2.64105414449 0.87723553782 0.26856412683 -2.62101680496 0.88727409163 0.29049411302 -2.63007199130 0.89351674534 0.31682109564 -2.63660345459 0.89595312703 0.34638285426 -2.64094728822 0.89457286480 0.37801716845 -2.64343958559 0.88936558673 0.41056181778 -2.64441644010 0.88032092092 0.44285458182 -2.64421394514 0.86742849544 0.47373324013 -2.64316819411 0.85067793840 0.50203557229 -2.64161528042 0.83005887787 0.52659935786 -2.63989129745 0.94865889497 0.25102415125 -2.62072560758 0.95605954402 0.27436046006 -2.62977097924 0.96023683766 0.30224248067 -2.63611650450 0.96084408638 0.33332291155 -2.64016686148 0.95753460064 0.36625445115 -2.64232672834 0.94996169093 0.39968979794 -2.64300078322 0.93777866771 0.43228165039 -2.64259370426 0.92063884145 0.46268270695 -2.64151016961 0.89819552264 0.48954566610 -2.64015485740 0.87010202173 0.51152322630 -2.63893244578 0.32698234843 0.38397596571 -2.60650967902 0.33445451624 0.39868872574 -2.61646612682 0.34000007607 0.41607289888 -2.62421950972 0.34371521877 0.43571102977 -2.63001725865 0.34569613522 0.45718566306 -2.63410680456 0.34603901629 0.48007934339 -2.63673557840 0.34484005284 0.50397461540 -2.63815101112 0.34219543575 0.52845402374 -2.63860053366 0.33820135588 0.55310011306 -2.63833157697 0.33295400412 0.57749542798 -2.63759157200 0.39371369761 0.37603348917 -2.60583581480 0.40173080380 0.39124962047 -2.61577105342 0.40764379436 0.40924814596 -2.62350165127 0.41158076790 0.42958805061 -2.62927401520 0.41366982306 0.45182831941 -2.63333455210 0.41403905847 0.47552793735 -2.63592966880 0.41281657275 0.50024588941 -2.63730577218 0.41013046452 0.52554116057 -2.63770926909 0.40610883243 0.55097273581 -2.63738656639 0.40087977508 0.57609960011 -2.63658407096 0.46255390703 0.36664757607 -2.60537938043 0.47095974251 0.38242535366 -2.61529417811 0.47709163474 0.40113266566 -2.62299446707 0.48111460820 0.42229618088 -2.62872524026 0.48319368736 0.44544256812 -2.63273149062 0.48349389668 0.47009849620 -2.63525821109 0.48218026062 0.49579063392 -2.63655039463 0.47941780366 0.52204565010 -2.63685303416 0.47537155026 0.54839021354 -2.63641112264 0.47020652489 0.57435099304 -2.63546965300 0.53311060049 0.35591233642 -2.60513121361 0.54171928946 0.37231406023 -2.61502367637 0.54790391318 0.39182356548 -2.62268064905 0.55185795280 0.41392225239 -2.62834744975 0.55377488944 0.43809152117 -2.63226939657 0.55384820425 0.46381277204 -2.63469180760 0.55227137835 0.49056740523 -2.63586000093 0.54923789288 0.51783682096 -2.63601929467 0.54494122898 0.54510241944 -2.63541500690 0.53957486779 0.57184560090 -2.63429245572 0.60499140182 0.34392188023 -2.60508215203 0.61358740177 0.36101387512 -2.61494772368 0.61964094564 0.38141795292 -2.62254288915 0.62335201481 0.40455309695 -2.62811715965 0.62492059065 0.42983829053 -2.63192004641 0.62454665453 0.45669251698 -2.63420106064 0.62243018783 0.48453475962 -2.63520971357 0.61877117193 0.51278400176 -2.63519551641 0.61376958820 0.54085922673 -2.63440798039 0.60762541801 0.56817941785 -2.63309661673 0.67780393483 0.33077031754 -2.60522303337 0.68614203654 0.34862293325 -2.61505449553 0.69186304808 0.37001293546 -2.62256387930 0.69513800735 0.39427554638 -2.62801088591 0.69613795231 0.42074598820 -2.63165521658 0.69503392086 0.44875948313 -2.63375657253 0.69199695096 0.47765125337 -2.63457465499 0.68719808053 0.50675652113 -2.63436916517 0.68080834750 0.53541050861 -2.63339980431 0.67299878980 0.56294843802 -2.63192627362 0.75115582333 0.31655175834 -2.60554469534 0.75896115089 0.33523936955 -2.61533216738 0.76413053644 0.35770562060 -2.62272631142 0.76675714355 0.38317643248 -2.62800514447 0.76693413575 0.41087772614 -2.63144668353 0.76475467660 0.44003542258 -2.63332894559 0.76031192964 0.46987544276 -2.63392994767 0.75369905842 0.49962370767 -2.63352770675 0.74500922649 0.52850613828 -2.63240023986 0.73433559741 0.55574865555 -2.63082556398 0.82465469114 0.30136031267 -2.60603797562 0.83162270190 0.32096131895 -2.61576891472 0.83600372671 0.34459311583 -2.62301287746 0.83775063652 0.37134258705 -2.62807645130 0.83681630232 0.40029661635 -2.63126622371 0.83315359507 0.43054208745 -2.63288878214 0.82671538575 0.46116588409 -2.63325071406 0.81745454533 0.49125489001 -2.63265860694 0.80532394478 0.51989598893 -2.63141904823 0.79027645507 0.54617606460 -2.62983862540 0.89790816209 0.28529009053 -2.60669371190 0.90370464670 0.30588691637 -2.61635291302 0.90704293482 0.33077252864 -2.62340626933 0.90765969938 0.35886084193 -2.62820132234 0.90529161334 0.38906577080 -2.63108561356 0.89967534963 0.42030122984 -2.63240668449 0.89054758120 0.45148113363 -2.63251207664 0.87764498099 0.48151939676 -2.63174933152 0.86070422195 0.50932993378 -2.63046599063 0.83946197703 0.53382665930 -2.62900959549 0.97052385997 0.26843520195 -2.60750274188 0.97478494239 0.29011429675 -2.61707233777 0.97680847674 0.31634096653 -2.62388917898 0.97602554526 0.34581802890 -2.62835627356 0.97186723014 0.37724830147 -2.63087662954 0.96376461361 0.40933460186 -2.63185325497 0.95114877787 0.44077974768 -2.63168915787 0.93345080514 0.47028655653 -2.63078734629 0.91010177762 0.49655784603 -2.62955082827 0.88053277753 0.51829643380 -2.62838261184 0.33008146640 0.39438388615 -2.59166002469 0.33390646710 0.40820453596 -2.60145310368 0.33674054920 0.42456020431 -2.60907395571 0.33862846711 0.44309906076 -2.61477366864 0.33961497524 0.46346927491 -2.61880333037 0.33974482800 0.48531901631 -2.62141402876 0.33906277981 0.50829645455 -2.62285685169 0.33761358508 0.53204975921 -2.62338288704 0.33544199823 0.55622709987 -2.62324322268 0.33259277366 0.58047664609 -2.62268894649 0.40037731953 0.38685931266 -2.59128463079 0.40448142416 0.40117812180 -2.60107275702 0.40748136076 0.41813682545 -2.60868753171 0.40941697165 0.43736280939 -2.61437965617 0.41032809917 0.45848345939 -2.61839983175 0.41025458564 0.48112616125 -2.62099875976 0.40923627340 0.50491830074 -2.62242714153 0.40731300477 0.52948726365 -2.62293567838 0.40452462209 0.55446043574 -2.62277507165 0.40091096768 0.57946520282 -2.62219602266 0.47176381531 0.37798497267 -2.59106686911 0.47606785102 0.39287317658 -2.60084997794 0.47916802599 0.41053541543 -2.60845119715 0.48111119926 0.43057033969 -2.61412046510 0.48194422988 0.45257659985 -2.61810772017 0.48171397688 0.47615284639 -2.62066290073 0.48046729930 0.50089772980 -2.62203594517 0.47825105619 0.52640990055 -2.62247679185 0.47511210657 0.55228800913 -2.62223537915 0.47109730950 0.57813070603 -2.62156164544 0.54404522543 0.36784705920 -2.59101725120 0.54845416024 0.38337206951 -2.60079597942 0.55157266603 0.40183273772 -2.60837365821 0.55345312818 0.42278621428 -2.61400079015 0.55414793204 0.44578964963 -2.61792787784 0.55370946299 0.47040019419 -2.62040542386 0.55219010641 0.49617499840 -2.62168393080 0.54964224765 0.52267121271 -2.62201390125 0.54611827209 0.54944598756 -2.62164583778 0.54167056510 0.57605647336 -2.62083024300 0.61702582162 0.35653176528 -2.59114628862 0.62142876443 0.37275716979 -2.60092197442 0.62446740206 0.39210555583 -2.60846362106 0.62618473664 0.41407499580 -2.61402532608 0.62662377033 0.43816356209 -2.61786118699 0.62582750526 0.46386932711 -2.62022530132 0.62383894360 0.49069036326 -2.62137176661 0.62070108749 0.51812474293 -2.62155468039 0.61645693907 0.54567053853 -2.62102814017 0.61114950050 0.57282582247 -2.62004624349 0.69050987558 0.34412528393 -2.59146449292 0.69478007618 0.36111084665 -2.60123917592 0.69762435522 0.38143063324 -2.60872979190 0.69904800290 0.40450124685 -2.61419876761 0.69905630942 0.42973929060 -2.61790852983 0.69765456498 0.45656136762 -2.62012150530 0.69484805978 0.48438408104 -2.62110012080 0.69064208403 0.51262403399 -2.62110680308 0.68504192793 0.54069782959 -2.62040397892 0.67805288168 0.56802207098 -2.61925407508 0.76430165902 0.33071380820 -2.59198237563 0.76829650807 0.34851546928 -2.60175879689 0.77081564668 0.36988473344 -2.60918087690 0.77178490519 0.39412953006 -2.61452580950 0.77113011398 0.42055778851 -2.61807078857 0.76877710341 0.44847743818 -2.62009300796 0.76465170382 0.47719640844 -2.62086966153 0.75867974560 0.50602262867 -2.62067794315 0.75078705909 0.53426402825 -2.61979504666 0.74089947465 0.56122853655 -2.61849816594 0.83820544365 0.31638353109 -2.59271044833 0.84176647270 0.33505340689 -2.60249205030 0.84381339759 0.35754461991 -2.60982558223 0.84413742177 0.38302440804 -2.61501114648 0.84252974871 0.41066000919 -2.61834884544 0.83878158184 0.43961866126 -2.62013878149 0.83268412463 0.46906760216 -2.62068105701 0.82402858051 0.49817406978 -2.62027577439 0.81260615296 0.52610530203 -2.61922303600 0.79820804541 0.55202853682 -2.61782294423 0.91202550119 0.30122064564 -2.59365922255 0.91497838264 0.32080702870 -2.60345014913 0.91638972910 0.34448705614 -2.61067261407 0.91584753088 0.37125044341 -2.61565947328 0.91293977826 0.40008690598 -2.61874358264 0.90725446156 0.42998615932 -2.62025779806 0.89837957107 0.45993791887 -2.62053497542 0.88590309711 0.48893190009 -2.61990797062 0.86941302996 0.51595781846 -2.61870963955 0.84849735994 0.54000538943 -2.61727283811 0.98556610335 0.28531134488 -2.59483920984 0.98772065050 0.30585870391 -2.60464430633 0.98831676239 0.33078880562 -2.61173067861 0.98665721075 0.35887219880 -2.61647548465 0.98204476732 0.38887943226 -2.61925588241 0.97378220384 0.41958105481 -2.62044902985 0.96117229205 0.44974761526 -2.62043208494 0.94351780370 0.47814966241 -2.61958220565 0.92012151052 0.50355774506 -2.61827654993 0.89028618426 0.52474241203 -2.61689227576 0.33196125926 0.40450225926 -2.57979333333 0.33357360520 0.41745916227 -2.58866841762 0.33475994991 0.43283729406 -2.59556900899 0.33553121674 0.45033308505 -2.60072374485 0.33589832902 0.46964296565 -2.60436126261 0.33587221008 0.49046336630 -2.60671019966 0.33546378327 0.51249071742 -2.60799919341 0.33468397191 0.53542144942 -2.60845688126 0.33354369934 0.55895199273 -2.60831190061 0.33205388889 0.58277877777 -2.60779288888 0.40442228188 0.39727314192 -2.57960514856 0.40615279525 0.41071537481 -2.58848545286 0.40738431670 0.42668063152 -2.59539061971 0.40810220418 0.44484484431 -2.60054963456 0.40829181566 0.46488394543 -2.60419148283 0.40793850910 0.48647386711 -2.60654514997 0.40702764246 0.50929054161 -2.60783962142 0.40554457371 0.53300990118 -2.60830388262 0.40347466081 0.55730787805 -2.60816691899 0.40080326172 0.58186040448 -2.60765771599 0.47735756966 0.38876569755 -2.57952349293 0.47917394687 0.40277286585 -2.58841402211 0.48043689910 0.41942958341 -2.59532138872 0.48112344590 0.43838430776 -2.60047463993 0.48121060684 0.45928549641 -2.60410282294 0.48067540147 0.48178160687 -2.60643498493 0.47949484935 0.50552109668 -2.60770017307 0.47764597005 0.53015242335 -2.60812743456 0.47510578313 0.55532404439 -2.60794581657 0.47185130814 0.58068441732 -2.60738436630 0.55069655454 0.37907219526 -2.57956311421 0.55255889572 0.39371911927 -2.58847695924 0.55382346875 0.41116554960 -2.59538778185 0.55446246719 0.43102058507 -2.60052571038 0.55444808460 0.45289332454 -2.60412087321 0.55375251454 0.47639286682 -2.60640339868 0.55234795056 0.50112831076 -2.60760341515 0.55020658622 0.52670875519 -2.60795105098 0.54730061509 0.55274329896 -2.60767643451 0.54360223071 0.57884104089 -2.60700969412 0.62436866847 0.36828490416 -2.57973876017 0.62622947744 0.38364161894 -2.58869709812 0.62744979727 0.40196992994 -2.59561626494 0.62798679332 0.42282278595 -2.60072979531 0.62779763099 0.44575313576 -2.60427122391 0.62683947566 0.47031392818 -2.60647408540 0.62506949271 0.49605811199 -2.60757191446 0.62244484752 0.52253863600 -2.60779824576 0.61892270548 0.54930844898 -2.60738661398 0.61446023197 0.57592049975 -2.60657055378 0.69830334340 0.35649609335 -2.58006517858 0.70010752772 0.37262784872 -2.58909727261 0.70122165629 0.39192412429 -2.59603330384 0.70156394958 0.41386002007 -2.60111384412 0.70105262806 0.43791063604 -2.60457946531 0.69960591218 0.46355107219 -2.60667073926 0.69714202242 0.49025642852 -2.60762823781 0.69357917924 0.51750180502 -2.60769253282 0.68883560311 0.54476230168 -2.60710419613 0.68282951447 0.57151301849 -2.60610379961 0.77243001128 0.34379803196 -2.58055711721 0.77411488220 0.36076529247 -2.58970031659 0.77504481744 0.38110953252 -2.59666536439 0.77506146124 0.40420139712 -2.60170480622 0.77400645784 0.42941153130 -2.60507118770 0.77172145145 0.45611058008 -2.60701705442 0.76804808632 0.48366918849 -2.60779495200 0.76282800668 0.51145800154 -2.60765742603 0.75590285675 0.53884766427 -2.60685702214 0.74711428077 0.56520882169 -2.60564628592 0.84667810406 0.33028298908 -2.58122932382 0.84817337655 0.34814143407 -2.59052906392 0.84882505236 0.36960755448 -2.59753891243 0.84834685359 0.39391602680 -2.60252963102 0.84645250238 0.42030152750 -2.60577198134 0.84285572082 0.44799873309 -2.60753672505 0.83727023102 0.47624232003 -2.60809462382 0.82940975512 0.50426696483 -2.60771643930 0.81898801521 0.53130734396 -2.60667293316 0.80571873341 0.55659813392 -2.60523486704 0.92097705368 0.31604323383 -2.58209654618 0.92220484643 0.33484375739 -2.59160634847 0.92246813267 0.35749959005 -2.59868041380 0.92128765192 0.38307301879 -2.60361526791 0.91818414372 0.41062633059 -2.60670743650 0.91267834762 0.43922181244 -2.60825344532 0.90429100316 0.46792175130 -2.60854982008 0.89254284986 0.49578843415 -2.60789308652 0.87695462727 0.52188414798 -2.60657977035 0.85704707493 0.54527117976 -2.60490639730 0.99525629210 0.30117103532 -2.58317353206 0.99613112752 0.32095974628 -2.59295500411 0.99587983000 0.34486703907 -2.60011633435 0.99375138149 0.37174148278 -2.60498866630 0.98899476392 0.40043164652 -2.60790314347 0.98085895922 0.42978609936 -2.60919090939 0.96859294933 0.45865341042 -2.60918310759 0.95144571620 0.48588214878 -2.60821088157 0.92866624174 0.51032088354 -2.60660537488 0.89950350790 0.53081818379 -2.60469773103 0.33292655830 0.41409517558 -2.57038390123 0.33340202406 0.42622191008 -2.57770982331 0.33373766900 0.44068186055 -2.58340044605 0.33392313144 0.45720673530 -2.58764236427 0.33394804968 0.47552824261 -2.59062217274 0.33380206204 0.49537809077 -2.59252646627 0.33347480684 0.51648798806 -2.59354183965 0.33295592238 0.53858964277 -2.59385488767 0.33223504697 0.56141476319 -2.59365220513 0.33130181893 0.58469505761 -2.59312038682 0.40650158787 0.40707710243 -2.57029766978 0.40701250713 0.41966725792 -2.57763442415 0.40733318829 0.43469221739 -2.58333591046 0.40741902550 0.45186116253 -2.58758980949 0.40722541290 0.47088327502 -2.59058380199 0.40670774466 0.49146773656 -2.59250556873 0.40582141491 0.51332372883 -2.59354279047 0.40452181781 0.53616043353 -2.59388314796 0.40276434749 0.55968703235 -2.59371432197 0.40050439812 0.58361270697 -2.59322399327 0.48023912011 0.39883267066 -2.57027908045 0.48077750416 0.41197079370 -2.57764152089 0.48109746051 0.42766738333 -2.58336025768 0.48114109212 0.44560330650 -2.58762389501 0.48085050190 0.46545943010 -2.59062103705 0.48016779280 0.48691662107 -2.59254028795 0.47903506776 0.50965574632 -2.59357025190 0.47739442970 0.53335767278 -2.59389953305 0.47518798158 0.55770326736 -2.59371673559 0.47235782632 0.58237339698 -2.59321046367 0.55414050233 0.38946603647 -2.57033886294 0.55469489561 0.40323559695 -2.57776053575 0.55501195433 0.41970674539 -2.58351517903 0.55502733089 0.43852159054 -2.58779309188 0.55467667768 0.45932224115 -2.59078457343 0.55389564709 0.48175080598 -2.59267992278 0.55261989154 0.50544939378 -2.59366943905 0.55078506340 0.53006011329 -2.59394342134 0.54832681508 0.55522507328 -2.59369216877 0.54518079897 0.58058638249 -2.59310598044 0.62820708180 0.37908135609 -2.57048774694 0.62876256194 0.39356474724 -2.57802089096 0.62905813839 0.41090969055 -2.58384236580 0.62901574141 0.43070443798 -2.58814587115 0.62855730126 0.45253724147 -2.59112510668 0.62760474817 0.47599635298 -2.59297377208 0.62608001241 0.50067002447 -2.59388556703 0.62390502422 0.52614650788 -2.59405419121 0.62100171385 0.55201405519 -2.59367334432 0.61729201155 0.57786091832 -2.59293672602 0.70244020583 0.36778278571 -2.57073646216 0.70297838359 0.38306132412 -2.57845200876 0.70321748133 0.40137560582 -2.58438350933 0.70304432328 0.42224027213 -2.58873070385 0.70234573365 0.44516996434 -2.59169333231 0.70100853667 0.46967932374 -2.59347113467 0.69891955654 0.49528299165 -2.59426385093 0.69596561749 0.52149560935 -2.59427122106 0.69203354374 0.54783181814 -2.59369298503 0.68701015951 0.57380625933 -2.59272888284 0.77684122170 0.35567448156 -2.57109573829 0.77734024102 0.37182840713 -2.57908331136 0.77747145181 0.39120387820 -2.58518030092 0.77705107609 0.41321751633 -2.58959606105 0.77589533588 0.43728594306 -2.59253994585 0.77382045320 0.46282577995 -2.59422130943 0.77064265009 0.48925364857 -2.59484950587 0.76617814855 0.51598617047 -2.59463388927 0.76024317062 0.54243996721 -2.59378381372 0.75265393832 0.56803166035 -2.59250863332 0.85141147670 0.34286059983 -2.57157630504 0.85184601469 0.35996907584 -2.57994422100 0.85180151848 0.38049389469 -2.58627443188 0.85097399944 0.40372459389 -2.59079041378 0.84905946895 0.42895071092 -2.59371564284 0.84575393841 0.45546178329 -2.59527359519 0.84075341921 0.48254734851 -2.59568774694 0.83375392272 0.50949694407 -2.59518157423 0.82445146033 0.53560010747 -2.59397855318 0.81254204344 0.56014637622 -2.59230215991 0.92615231812 0.32944529674 -2.57218889209 0.92649358505 0.34758640980 -2.58106415991 0.92618914998 0.36934504229 -2.58770759352 0.92475109291 0.39384992813 -2.59236223309 0.92169149388 0.42022980122 -2.59527111880 0.91652243292 0.44761339544 -2.59667729080 0.90875599006 0.47512944471 -2.59682378925 0.89790424532 0.50190668292 -2.59595365433 0.88347927873 0.52707384398 -2.59430992621 0.86499317033 0.54975966179 -2.59213564503 1.00106509325 0.31553272850 -2.57294422916 1.00128083256 0.33478348855 -2.58247255030 1.00061581496 0.35785670800 -2.58952147716 0.99832035611 0.38368194239 -2.59435999004 0.99364477169 0.41118874724 -2.59725706925 0.98583937737 0.43930667808 -2.59848169510 0.97415448881 0.46696529044 -2.59830284791 0.95784042169 0.49309413984 -2.59698950797 0.93614749168 0.51662278182 -2.59481065561 0.90832601444 0.53648077189 -2.59203527112 0.33328219479 0.42292672565 -2.56290602469 0.33333781722 0.43426208477 -2.56817507543 0.33335309727 0.44787159620 -2.57226404339 0.33330387497 0.46351364421 -2.57530440389 0.33316599034 0.48094661308 -2.57742763225 0.33291528340 0.49992888709 -2.57876520378 0.33252759417 0.52021885053 -2.57944859380 0.33197876267 0.54157488766 -2.57960927762 0.33124462891 0.56375538278 -2.57937873057 0.33030103292 0.58651872016 -2.57888842796 0.40726824069 0.41607331966 -2.56286249615 0.40732814983 0.42783964958 -2.56814495410 0.40730850164 0.44198423627 -2.57224839913 0.40714999562 0.45823877116 -2.57530604010 0.40679333129 0.47633494566 -2.57745108588 0.40617920816 0.49600445120 -2.57881674531 0.40524832574 0.51697897920 -2.57953622726 0.40394138354 0.53899022108 -2.57974274059 0.40219908107 0.56176986827 -2.57956949415 0.39996211784 0.58504961218 -2.57914969682 0.48131241670 0.40802881192 -2.56286346026 0.48137799694 0.42031333234 -2.56818768454 0.48134891665 0.43510102890 -2.57232301994 0.48115388189 0.45209255730 -2.57540436058 0.48072159873 0.47098857323 -2.57756660059 0.47998077325 0.49148973238 -2.57894463409 0.47886011152 0.51329669045 -2.57967335522 0.47728831961 0.53611010313 -2.57988765811 0.47519410358 0.55963062611 -2.57972243687 0.47250616951 0.58355891508 -2.57931258565 0.55545298332 0.39890687470 -2.56291455770 0.55552355965 0.41180188996 -2.56834062886 0.55549375579 0.42734106938 -2.57254800880 0.55528908033 0.44518545646 -2.57567381608 0.55483504183 0.46499609474 -2.57785516926 0.55405714888 0.48643402772 -2.57922918691 0.55288091007 0.50916029894 -2.57993298758 0.55123183398 0.53283595191 -2.58010368982 0.54903542918 0.55712203015 -2.57987841221 0.54621720425 0.58167957718 -2.57939427329 0.62972820105 0.38882118028 -2.56302142920 0.62980103905 0.40242407938 -2.56864114916 0.62976243255 0.41882345300 -2.57298346869 0.62952913748 0.43762792247 -2.57618885737 0.62901790974 0.45844610912 -2.57839778480 0.62814550527 0.48088663429 -2.57975072055 0.62682867997 0.50455811932 -2.58038813422 0.62498418977 0.52906918552 -2.58045049539 0.62252879060 0.55402845424 -2.58007827366 0.61937923836 0.57904454680 -2.57941193860 0.70417633039 0.37788540093 -2.56318971543 0.70424663624 0.39229865751 -2.56912660755 0.70417436042 0.40966727506 -2.57368950260 0.70384759990 0.42953040915 -2.57702393522 0.70315445164 0.45142721534 -2.57927544007 0.70198301261 0.47489684919 -2.58058955180 0.70022137978 0.49947846624 -2.58111180504 0.69775765011 0.52471122207 -2.58098773446 0.69447992057 0.55013427223 -2.58036287470 0.69027628813 0.57528677228 -2.57938276041 0.77883563183 0.36621320893 -2.56342505710 0.77889655231 0.38154438126 -2.56983436613 0.77874895288 0.39999163085 -2.57472621350 0.77821801414 0.42100337033 -2.57825350039 0.77712891669 0.44402801233 -2.58056912797 0.77530684114 0.46851396947 -2.58182599743 0.77257696808 0.49390965438 -2.58217700994 0.76876447811 0.51966347967 -2.58177506668 0.76369455184 0.54522385798 -2.58077306883 0.75719236987 0.57003920193 -2.57932391757 0.85374436588 0.35391827654 -2.56373309492 0.85378698836 0.37028000755 -2.57080178701 0.85350562341 0.38991561566 -2.57615370438 0.85261392674 0.41215725984 -2.57995200363 0.85082555405 0.43633709905 -2.58235984138 0.84785416105 0.46178729224 -2.58354037424 0.84341340343 0.48783999838 -2.58365675881 0.83721693689 0.51382737642 -2.58287215171 0.82897841714 0.53908158533 -2.58134970954 0.81841149987 0.56293478407 -2.57925258891 0.92894079304 0.34111427603 -2.56411946957 0.92895414548 0.35862429330 -2.57206623229 0.92846378551 0.37955832480 -2.57803207821 0.92700888426 0.40310253151 -2.58219389572 0.92412861290 0.42844307443 -2.58472857319 0.91936214256 0.45476611456 -2.58581299900 0.91224864440 0.48125781289 -2.58562406154 0.90232728956 0.50710433042 -2.58433864918 0.88913724919 0.53149182813 -2.58213365030 0.87221769444 0.55360646703 -2.57918595328 1.00446317381 0.32791487969 -2.56458982177 1.00443422478 0.34669599544 -2.57366506408 1.00364285265 0.36903885355 -2.58042143798 1.00137643325 0.39394963916 -2.58505362741 0.99692234239 0.42043453744 -2.58775631628 0.98956795589 0.44749973353 -2.58872418851 0.97860064957 0.47415141259 -2.58815192802 0.96330779925 0.49939575977 -2.58623421875 0.94297678075 0.52223896024 -2.58316574461 0.91689496989 0.54168719914 -2.57914118952 0.33333300000 0.43076099999 -2.55683400000 0.33332707819 0.44134899176 -2.55966192866 0.33328562552 0.45418419341 -2.56185557750 0.33317311111 0.46904744444 -2.56348474073 0.33295400412 0.48571958436 -2.56461921261 0.33259277366 0.50398145267 -2.56532878737 0.33205388889 0.52361388888 -2.56568325924 0.33130181893 0.54439773250 -2.56575242248 0.33030103292 0.56611382304 -2.56560607131 0.32901600000 0.58854299999 -2.56531399997 0.40737524357 0.42406391907 -2.55679992934 0.40736731343 0.43503842821 -2.55964232593 0.40729078287 0.44836934138 -2.56185308089 0.40707767458 0.46380467735 -2.56350418553 0.40666001121 0.48109245485 -2.56466763113 0.40596981544 0.49998069266 -2.56541540899 0.40493910994 0.52021740952 -2.56581951041 0.40349991739 0.54155062419 -2.56595192668 0.40158426045 0.56372835543 -2.56588464909 0.39912416180 0.58649862198 -2.56568966895 0.48148140947 0.41619704127 -2.55680646091 0.48147489931 0.42764685400 -2.55970772335 0.48139047394 0.44158273382 -2.56196489138 0.48115155922 0.45771728157 -2.56365216687 0.48068158101 0.47576309810 -2.56484375166 0.47990396520 0.49543278423 -2.56561384762 0.47874213764 0.51643894082 -2.56603665661 0.47711952422 0.53849416869 -2.56618638048 0.47495955079 0.56131106869 -2.56613722110 0.47218564323 0.58460224166 -2.56596338032 0.55570991205 0.40727300181 -2.55686025882 0.55570628758 0.41929838574 -2.55991115849 0.55562450614 0.43395326585 -2.56227843022 0.55538907655 0.45090840863 -2.56403876440 0.55492450761 0.46983458054 -2.56526885146 0.55415530812 0.49040254808 -2.56604538179 0.55300598691 0.51228307772 -2.56644504580 0.55140105276 0.53514693592 -2.56654453390 0.54926501450 0.55866488918 -2.56642053650 0.54652238093 0.58250770397 -2.56614974401 0.63011916565 0.39740443596 -2.55696798720 0.63011792994 0.41011714005 -2.56030566891 0.63003268689 0.42560983260 -2.56288111863 0.62978453808 0.44350121001 -2.56477405778 0.62929458506 0.46340996865 -2.56606420778 0.62848392940 0.48495480491 -2.56683129003 0.62727367265 0.50775441518 -2.56715502596 0.62558491638 0.53142749582 -2.56711513697 0.62333876216 0.55559274324 -2.56679134449 0.62045631153 0.57986885381 -2.56626336992 0.70476758461 0.38670397894 -2.55713631018 0.70476627811 0.40022723354 -2.56094429216 0.70465482360 0.41668132921 -2.56386037786 0.70433225531 0.43561883723 -2.56596812665 0.70369760744 0.45659232888 -2.56735109787 0.70264991420 0.47915437542 -2.56809285089 0.70108820979 0.50285754815 -2.56827694505 0.69891152843 0.52725441832 -2.56798693971 0.69601890432 0.55189755722 -2.56730639423 0.69230937166 0.57633953612 -2.56631886796 0.77971358327 0.37528426601 -2.55737189187 0.77970778381 0.38975278284 -2.56188006579 0.77953072370 0.40729665081 -2.56530362915 0.77902653977 0.42738444180 -2.56773105065 0.77803936883 0.44948472768 -2.56925079899 0.77641334772 0.47306608032 -2.56995134288 0.77399261325 0.49759707158 -2.56992115103 0.77062130225 0.52254627333 -2.56924869214 0.76614355155 0.54738225745 -2.56802243491 0.76040349797 0.57157359580 -2.56633084805 0.85501557596 0.36325793240 -2.55768139641 0.85499889877 0.37881790454 -2.56316602738 0.85470019461 0.39758469253 -2.56729829374 0.85386170295 0.41892117522 -2.57017290944 0.85222566330 0.44219023152 -2.57188458840 0.84953431514 0.46675474029 -2.57252804457 0.84552989794 0.49197758042 -2.57219799188 0.83995465121 0.51722163079 -2.57098914428 0.83255081442 0.54184977029 -2.56899621571 0.82306062707 0.56522487779 -2.56631392010 0.93073197702 0.35073761336 -2.55807148791 0.93069607470 0.36754671528 -2.56485521447 0.93020304373 0.38767434949 -2.56993179287 0.92883205638 0.41035218900 -2.57340378265 0.92616228492 0.43481190684 -2.57537374334 0.92177290163 0.46028517604 -2.57594423446 0.91524307878 0.48600366963 -2.57521781556 0.90615198865 0.51119906063 -2.57329704616 0.89407880350 0.53510302208 -2.57028448580 0.87860269561 0.55694722700 -2.56628269401 1.00692120079 0.33783594412 -2.55854883050 1.00685576332 0.35606333167 -2.56700066462 1.00607907848 0.37769451683 -2.57329154778 1.00393191154 0.40180063464 -2.57753374995 0.99975502776 0.42745282011 -2.57983954107 0.99288919239 0.45372220827 -2.58032119111 0.98267517069 0.47967993415 -2.57909097004 0.96845372792 0.50439713277 -2.57626114780 0.94956562934 0.52694493916 -2.57194399437 0.92535164022 0.54639448834 -2.56625177970 </DataArray>
</Points>
</Piece>
</StructuredGrid>
</VTKFile>
