<?xml version="1.0"?>
<VTKFile type="StructuredGrid" version="0.1">
<StructuredGrid WholeExtent="0 9 0 9 0 9">
<Piece Extent="0 9 0 9 0 9">
<PointData>
<DataArray type="Float32" Name="Deformation" format="ascii" NumberOfComponents="3">
0.00030537226 0.01359907241 0.00265363381 0.00025394122 0.01335593215 0.00211833342 0.00019508921 0.01317655928 0.00146419029 0.00013122901 0.01305843855 0.00071888344 0.00006477339 0.01299905474 -0.00008990814 -0.00000186488 0.01299589264 -0.00093450543 -0.00006627304 0.01304643700 -0.00178722941 -0.00012603831 0.01314817262 -0.00262040108 -0.00017874793 0.01329858426 -0.00340634142 -0.00022198912 0.01349515670 -0.00411737143 0.00026693758 0.01382281115 0.00228392278 0.00022215624 0.01362491118 0.00179024844 0.00016994754 0.01347648213 0.00118373280 0.00011227567 0.01337684716 0.00048555719 0.00005110484 0.01332532941 -0.00028309704 -0.00001160072 0.01332125203 -0.00110104855 -0.00007387682 0.01336393817 -0.00194711600 -0.00013375925 0.01345271097 -0.00280011804 -0.00018928379 0.01358689358 -0.00363887334 -0.00023848623 0.01376580914 -0.00444220055 0.00023278679 0.01403312084 0.00193347946 0.00019388265 0.01387088048 0.00147612670 0.00014790825 0.01374725699 0.00091206155 0.00009630831 0.01366302255 0.00025721058 0.00004052756 0.01361894930 -0.00047249967 -0.00001798930 0.01361580940 -0.00126114262 -0.00007779754 0.01365437500 -0.00209279172 -0.00013745244 0.01373541827 -0.00295152041 -0.00019550929 0.01385971135 -0.00382140213 -0.00025052338 0.01402802640 -0.00468651032 0.00020244132 0.01422903487 0.00160437855 0.00016874346 0.01409401624 0.00117856683 0.00012859474 0.01398971174 0.00065218975 0.00008289605 0.01391792494 0.00003704520 0.00003254828 0.01388045940 -0.00065506891 -0.00002154768 0.01387911868 -0.00141235469 -0.00007849093 0.01391570637 -0.00222301424 -0.00013738060 0.01399202601 -0.00307524966 -0.00019731578 0.01410988119 -0.00395726307 -0.00025739558 0.01427107545 -0.00485725655 0.00017542256 0.01440958662 0.00129869473 0.00014636171 0.01429449465 0.00090016746 0.00011163041 0.01420467425 0.00040713059 0.00007160798 0.01414251455 -0.00017173730 0.00002667376 0.01411040471 -0.00082775762 -0.00002279294 0.01411073386 -0.00155225177 -0.00007641277 0.01414589114 -0.00233654118 -0.00013380642 0.01421826571 -0.00317194726 -0.00019459456 0.01433024670 -0.00404979141 -0.00025839785 0.01448422325 -0.00496139506 0.00015125193 0.01457380948 0.00101850269 0.00012636044 0.01447249190 0.00064352723 0.00009663866 0.01439297239 0.00017989728 0.00006201322 0.01433775163 -0.00036593530 0.00002241074 0.01430933024 -0.00098751866 -0.00002224214 0.01431020888 -0.00167840091 -0.00007201881 0.01434288820 -0.00243213021 -0.00012699262 0.01440986886 -0.00324225468 -0.00018723696 0.01451365149 -0.00410232245 -0.00025282519 0.01465673675 -0.00500588167 0.00012945084 0.01472073683 0.00076587709 0.00010836268 0.01462818416 0.00041124477 0.00008324289 0.01455543406 -0.00002649698 0.00005368086 0.01450459638 -0.00054234719 0.00001926597 0.01447778099 -0.00113130489 -0.00002041238 0.01447709771 -0.00178836913 -0.00006576480 0.01450465642 -0.00250853895 -0.00011720191 0.01456256695 -0.00328681338 -0.00017513431 0.01465293917 -0.00411819145 -0.00023997261 0.01477788291 -0.00499767221 0.00010954069 0.01484940207 0.00054289265 0.00009199146 0.01476174763 0.00020591871 0.00007106649 0.01469288712 -0.00020903899 0.00004618000 0.01464400906 -0.00069777132 0.00001674620 0.01461630195 -0.00125606919 -0.00001782070 0.01461095432 -0.00187972347 -0.00005810650 0.01462915466 -0.00256452506 -0.00010469698 0.01467209150 -0.00330626483 -0.00015817793 0.01474095334 -0.00410073369 -0.00021913514 0.01483692869 -0.00494372250 0.00009104290 0.01495883858 0.00035162402 0.00007686981 0.01487335849 0.00003014768 0.00005973287 0.01480615945 -0.00036471554 0.00003907976 0.01475694987 -0.00082900609 0.00001435817 0.01472543814 -0.00135876441 -0.00001498420 0.01471133266 -0.00195003096 -0.00004949967 0.01471434181 -0.00259884618 -0.00008974055 0.01473417400 -0.00330125052 -0.00013625914 0.01477053762 -0.00405328443 -0.00018960777 0.01482314106 -0.00485098836 0.00007347886 0.01504807975 0.00019414591 0.00006262076 0.01496319292 -0.00011346968 0.00004886541 0.01489607893 -0.00049051344 0.00003194922 0.01484437905 -0.00093284986 0.00001160863 0.01480573455 -0.00143634342 -0.00001241994 0.01477778669 -0.00199685862 -0.00004040006 0.01475817674 -0.00261025995 -0.00007259532 0.01474454595 -0.00327241190 -0.00010926928 0.01473453561 -0.00397917895 -0.00015068552 0.01472578697 -0.00472642560 0.00034835859 0.01390558083 0.00306443504 0.00027659319 0.01377284914 0.00233624177 0.00020467047 0.01367528730 0.00154773749 0.00013334791 0.01361164471 0.00071578573 0.00006338301 0.01358067076 -0.00014274999 -0.00000446676 0.01358111484 -0.00101100614 -0.00006944391 0.01361172633 -0.00187211922 -0.00013079096 0.01367125463 -0.00270922569 -0.00018775043 0.01375844913 -0.00350546203 -0.00023956483 0.01387205922 -0.00424396472 0.00029814071 0.01412368343 0.00259741968 0.00023786938 0.01401275085 0.00195043568 0.00017576840 0.01392974007 0.00123697674 0.00011255533 0.01387419681 0.00047063855 0.00004894773 0.01384566682 -0.00033498323 -0.00001433684 0.01384369583 -0.00116629293 -0.00007658081 0.01386782958 -0.00200969486 -0.00013706663 0.01391761380 -0.00285159337 -0.00019507674 0.01399259425 -0.00367839278 -0.00024989357 0.01409231665 -0.00447649741 0.00025447347 0.01432921567 0.00216948047 0.00020390825 0.01423593849 0.00158982112 0.00015046707 0.01416510326 0.00094024205 0.00009472669 0.01411689398 0.00023164371 0.00003726385 0.01409149462 -0.00052507340 -0.00002134466 0.01408908919 -0.00131900883 -0.00008052211 0.01410986165 -0.00213926208 -0.00013969173 0.01415399601 -0.00297493269 -0.00019827676 0.01422167625 -0.00381512019 -0.00025570044 0.01431308635 -0.00464892409 0.00021664036 0.01452110253 0.00178033591 0.00017422333 0.01444179382 0.00125573172 0.00012839586 0.01438092079 0.00066007366 0.00007952805 0.01433912196 0.00000207451 0.00002799000 0.01431703586 -0.00070955290 -0.00002584818 0.01431530102 -0.00146609576 -0.00008161638 0.01433455596 -0.00225884128 -0.00013894449 0.01437543920 -0.00307907664 -0.00019746241 0.01443858927 -0.00391808902 -0.00025680003 0.01452464471 -0.00476716563 0.00018392487 0.01469826898 0.00142970452 0.00014832816 0.01462969862 0.00094950111 0.00010918414 0.01457673655 0.00039901183 0.00006662547 0.01454026650 -0.00021479576 0.00002078477 0.01452117221 -0.00088495410 -0.00002820532 0.01452033743 -0.00160449566 -0.00008021217 0.01453864589 -0.00236645287 -0.00013510314 0.01457698132 -0.00316385819 -0.00019274560 0.01463622748 -0.00398974406 -0.00025300692 0.01471726809 -0.00483714293 0.00015561050 0.01485963998 0.00111730485 0.00012573625 0.01479903467 0.00067246291 0.00009246130 0.01475209445 0.00015959683 0.00005568502 0.01471971334 -0.00041569381 0.00001530678 0.01470278536 -0.00104780942 -0.00002877404 0.01470220451 -0.00173115044 -0.00007665806 0.01471886483 -0.00246011727 -0.00012844593 0.01475366032 -0.00322911035 -0.00018423826 0.01480748500 -0.00403253007 -0.00024413569 0.01488123289 -0.00486477688 0.00013098075 0.01500414050 0.00084285539 0.00010596115 0.01494918373 0.00042595075 0.00007785670 0.01490653839 -0.00005563109 0.00004637275 0.01487684822 -0.00059734634 0.00001121464 0.01486075697 -0.00119465125 -0.00002791226 0.01485890838 -0.00184300202 -0.00007130262 0.01487194619 -0.00253785489 -0.00011925109 0.01490051415 -0.00327466609 -0.00017205230 0.01494525600 -0.00404889183 -0.00023000092 0.01500681549 -0.00485598836 0.00010931909 0.01513069551 0.00060607469 0.00008851638 0.01507952758 0.00021129826 0.00006499973 0.01503961227 -0.00024413167 0.00003835472 0.01501105689 -0.00075648008 0.00000816696 0.01499396873 -0.00132201196 -0.00002597795 0.01498845512 -0.00193699232 -0.00006449442 0.01499462336 -0.00259768613 -0.00010779685 0.01501258076 -0.00330035840 -0.00015629964 0.01504243463 -0.00404127411 -0.00021041719 0.01508429229 -0.00481669826 0.00008990903 0.01523822997 0.00040668125 0.00007291548 0.01518944801 0.00002983906 0.00005351976 0.01515086001 -0.00040336465 0.00003129700 0.01512172508 -0.00088982172 0.00000582235 0.01510130232 -0.00142642397 -0.00002332903 0.01508885084 -0.00201006326 -0.00005658202 0.01508362973 -0.00263763142 -0.00009436145 0.01508489809 -0.00330602028 -0.00013709219 0.01509191503 -0.00401212169 -0.00018519909 0.01510393965 -0.00475282748 0.00007203407 0.01532566886 0.00024439360 0.00005867198 0.01527832677 -0.00011709322 0.00004304617 0.01523982550 -0.00053078978 0.00002486564 0.01520823855 -0.00099409797 0.00000383942 0.01518163943 -0.00150441967 -0.00002032346 0.01515810164 -0.00205915677 -0.00004791398 0.01513569870 -0.00265571115 -0.00007922313 0.01511250410 -0.00329148471 -0.00011454188 0.01508659135 -0.00396387933 -0.00015416120 0.01505603397 -0.00467029689 0.00038069936 0.01425857201 0.00337050148 0.00029371622 0.01420664637 0.00249749108 0.00021183095 0.01416864374 0.00160819292 0.00013462831 0.01414447439 0.00071131470 0.00006169304 0.01413404857 -0.00018443589 -0.00000739010 0.01413727654 -0.00107035114 -0.00007303637 0.01415406857 -0.00193772337 -0.00013566102 0.01418433491 -0.00277784487 -0.00019567929 0.01422798583 -0.00358200795 -0.00025350643 0.01428493157 -0.00434150491 0.00032148961 0.01447214975 0.00283086798 0.00024960141 0.01442380880 0.00206861035 0.00017993747 0.01438740076 0.00127480453 0.00011233433 0.01436290060 0.00045731400 0.00004662852 0.01435028330 -0.00037599778 -0.00001734342 0.01434952383 -0.00121726733 -0.00007974496 0.01436059717 -0.00205863119 -0.00014073955 0.01438347831 -0.00289222588 -0.00020049066 0.01441814221 -0.00371018795 -0.00025916175 0.01446456385 -0.00450465391 0.00027045854 0.01467380115 0.00234495540 0.00021113049 0.01462912546 0.00167323155 0.00015197504 0.01459487921 0.00095933031 0.00009295655 0.01457111929 0.00021034507 0.00003403934 0.01455790259 -0.00056663077 -0.00002481224 0.01455528599 -0.00136450384 -0.00008363385 0.01456332638 -0.00217618074 -0.00014246115 0.01458208064 -0.00299456808 -0.00020132980 0.01461160565 -0.00381257247 -0.00026027545 0.01465195831 -0.00462310052 0.00022674071 0.01486236887 0.00191077045 0.00017776186 0.01482134409 0.00131176699 0.00012760030 0.01478961280 0.00066396534 0.00007625161 0.01476729906 -0.00002626511 0.00002371138 0.01475452692 -0.00075255501 -0.00003002480 0.01475142045 -0.00150853496 -0.00008496137 0.01475810369 -0.00228783559 -0.00014110273 0.01477470070 -0.00308408754 -0.00019845331 0.01480133554 -0.00389092141 -0.00025701752 0.01483813227 -0.00470196785 0.00018947067 0.01503669554 0.00152631986 0.00014895393 0.01499921245 0.00098462897 0.00010646987 0.01497013526 0.00039090470 0.00006197618 0.01494960851 -0.00024918962 0.00001543054 0.01493777678 -0.00092999062 -0.00003320936 0.01493478463 -0.00164583498 -0.00008398585 0.01494077661 -0.00239105933 -0.00013694123 0.01495589730 -0.00316000035 -0.00019211782 0.01498029125 -0.00394699467 -0.00024955794 0.01501410303 -0.00474637896 0.00015778299 0.01519562380 0.00118961037 0.00012416512 0.01516147831 0.00069222980 0.00008824040 0.01513498030 0.00014234345 0.00004988690 0.01511621626 -0.00045510148 0.00000898269 0.01510527265 -0.00109515777 -0.00003459417 0.01510223596 -0.00177287819 -0.00008096561 0.01510719266 -0.00248331554 -0.00013025355 0.01512022923 -0.00322152260 -0.00018257993 0.01514143214 -0.00398255214 -0.00023806669 0.01517088788 -0.00476145696 0.00013081220 0.01533799629 0.00089864869 0.00010285384 0.01530688940 0.00043498179 0.00007256853 0.01528268165 -0.00007952333 0.00003974044 0.01526529089 -0.00064067376 0.00000415372 0.01525463501 -0.00124427658 -0.00003440747 0.01525063186 -0.00188613889 -0.00007615897 0.01525319934 -0.00256206779 -0.00012131662 0.01526225529 -0.00326787037 -0.00017009627 0.01527771760 -0.00399935371 -0.00022271376 0.01529950412 -0.00475232492 0.00010769287 0.01546265566 0.00065144156 0.00008447849 0.01543419350 0.00021329723 0.00005911089 0.01541177301 -0.00027250057 0.00003129344 0.01539500102 -0.00080257949 0.00000072952 0.01538348433 -0.00137356720 -0.00003287751 0.01537682977 -0.00198209137 -0.00006982427 0.01537464415 -0.00262477966 -0.00011040737 0.01537653428 -0.00329825974 -0.00015492345 0.01538210698 -0.00399915928 -0.00020366913 0.01539096907 -0.00472410593 0.00008755955 0.01556844455 0.00044599569 0.00006849750 0.01554213835 0.00002758843 0.00004752413 0.01552078813 -0.00043439319 0.00002430257 0.01550351525 -0.00093749173 -0.00000150404 0.01548944111 -0.00147924977 -0.00003023255 0.01547768710 -0.00205720992 -0.00006221982 0.01546737460 -0.00266891473 -0.00009780271 0.01545762500 -0.00331190681 -0.00013731808 0.01544755968 -0.00398372873 -0.00018110280 0.01543630002 -0.00468192308 0.00006954680 0.01565420560 0.00028031783 0.00005436928 0.01562947172 -0.00012173231 0.00003746487 0.01560826070 -0.00056300611 0.00001852447 0.01558900218 -0.00104208352 -0.00000276105 0.01557012583 -0.00155754444 -0.00002670082 0.01555006129 -0.00210796882 -0.00005360395 0.01552723821 -0.00269193658 -0.00008377957 0.01550008624 -0.00330802766 -0.00011753679 0.01546703505 -0.00395482197 -0.00015518473 0.01542651428 -0.00463089945 0.00040238588 0.01464480235 0.00357188247 0.00030528215 0.01465076228 0.00260208298 0.00021661285 0.01465513257 0.00164551084 0.00013523566 0.01465888202 0.00070538541 0.00006000828 0.01466297939 -0.00021507399 -0.00001021160 0.01466839348 -0.00111264800 -0.00007656629 0.01467609305 -0.00198411728 -0.00014019810 0.01468704689 -0.00282626250 -0.00020224933 0.01470222377 -0.00363586430 -0.00026386230 0.01472259248 -0.00440970335 0.00033699041 0.01485462739 0.00298425908 0.00025734099 0.01485031411 0.00214479386 0.00018249641 0.01484621210 0.00129724008 0.00011174760 0.01484285958 0.00044559490 0.00004438549 0.01484079477 -0.00040614447 -0.00002029899 0.01484055590 -0.00125398086 -0.00008301491 0.01484268120 -0.00209391709 -0.00014447136 0.01484770887 -0.00292195597 -0.00020537740 0.01485617715 -0.00373410031 -0.00026644210 0.01486862426 -0.00452635293 0.00028076887 0.01505303624 0.00245989218 0.00021556136 0.01504172905 0.00172640848 0.00015247670 0.01503197257 0.00096940134 0.00009110175 0.01502402217 0.00019339003 0.00003102337 0.01501813323 -0.00059710618 -0.00002817159 0.01501456115 -0.00139756803 -0.00008689627 0.01501356129 -0.00220347626 -0.00014556381 0.01501538905 -0.00301031159 -0.00020458735 0.01502029982 -0.00381355478 -0.00026438005 0.01502854897 -0.00460868655 0.00023279361 0.01523880315 0.00199570483 0.00017939785 0.01522325442 0.00134675702 0.00012625734 0.01521016720 0.00066397497 0.00007313990 0.01519961821 -0.00004786057 0.00001981332 0.01519168414 -0.00078396885 -0.00003395459 0.01518644170 -0.00153956910 -0.00008839603 0.01518396759 -0.00230988058 -0.00014374320 0.01518433852 -0.00309012253 -0.00020022829 0.01518763119 -0.00387551421 -0.00025808351 0.01519392230 -0.00466127485 0.00019213702 0.01541070242 0.00158862007 0.00014830504 0.01539313751 0.00100566968 0.00010354195 0.01537854920 0.00038294129 0.00005770383 0.01536689610 -0.00027478829 0.00001064677 0.01535813685 -0.00096274222 -0.00003777316 0.01535223006 -0.00167614368 -0.00008769987 0.01534913435 -0.00241021586 -0.00013927728 0.01534880836 -0.00316018194 -0.00019264931 0.01535121069 -0.00392126508 -0.00024795988 0.01535629998 -0.00468868848 0.00015787147 0.01556750830 0.00123556094 0.00012173751 0.01554962563 0.00070297665 0.00008403412 0.01553487175 0.00012828063 0.00004463532 0.01552310426 -0.00048402447 0.00000341510 0.01551418072 -0.00112943602 -0.00003975250 0.01550795871 -0.00180345138 -0.00008499348 0.01550429583 -0.00250156790 -0.00013243382 0.01550304965 -0.00321928295 -0.00018219951 0.01550407774 -0.00395209389 -0.00023441652 0.01550723770 -0.00469549809 0.00012906934 0.01570799506 0.00093345048 0.00009914986 0.01569096608 0.00043850812 0.00006743749 0.01567688808 -0.00009802667 0.00003377614 0.01566549108 -0.00067220050 -0.00000199026 0.01565650510 -0.00128006000 -0.00004001779 0.01564966016 -0.00191765179 -0.00008046253 0.01564468628 -0.00258102249 -0.00012348056 0.01564131348 -0.00326621874 -0.00016922796 0.01563927177 -0.00396928714 -0.00021786082 0.01563829118 -0.00468627432 0.00010480300 0.01583093697 0.00067921175 0.00007999666 0.01581540617 0.00021209428 0.00005345565 0.01580235138 -0.00029400028 0.00002496809 0.01579130499 -0.00083594774 -0.00000567790 0.01578179937 -0.00141062389 -0.00003869420 0.01577336690 -0.00201490453 -0.00007429270 0.01576553997 -0.00264566544 -0.00011268527 0.01575785094 -0.00329978244 -0.00015408379 0.01574983220 -0.00397413131 -0.00019870014 0.01574101612 -0.00466558784 0.00008414483 0.01593510831 0.00046976777 0.00006373250 0.01592119320 0.00002356533 0.00004179222 0.01590901485 -0.00045765988 0.00001805294 0.01589779438 -0.00097189757 -0.00000775643 0.01588675287 -0.00151713743 -0.00003590694 0.01587511143 -0.00209136919 -0.00006666967 0.01586209114 -0.00269258255 -0.00010031569 0.01584691312 -0.00331876721 -0.00013711606 0.01582879845 -0.00396791289 -0.00017734187 0.01580696824 -0.00463800929 0.00006616721 0.01601928334 0.00030204160 0.00004981196 0.01600657447 -0.00012724855 0.00003215082 0.01599463171 -0.00058702513 0.00001287247 0.01598220767 -0.00107668134 -0.00000833442 0.01596805497 -0.00159561036 -0.00003178117 0.01595092622 -0.00214320539 -0.00005777912 0.01592957406 -0.00271885961 -0.00008663958 0.01590275110 -0.00332196621 -0.00011867389 0.01586920996 -0.00395191838 -0.00015419338 0.01582770325 -0.00460810932 0.00041340942 0.01505102828 0.00366862736 0.00031126281 0.01509863531 0.00265001909 0.00021905834 0.01513325779 0.00165964553 0.00013533544 0.01515682206 0.00069791294 0.00005863355 0.01517125446 -0.00023477241 -0.00001250792 0.01517848136 -0.00113800427 -0.00007954951 0.01518042907 -0.00201137636 -0.00014395181 0.01517902397 -0.00285448241 -0.00020717538 0.01517619238 -0.00366691617 -0.00027068079 0.01517386067 -0.00444827137 0.00034464927 0.01525753363 0.00305758437 0.00026107674 0.01528449586 0.00217900764 0.00018348683 0.01530292197 0.00130430732 0.00011093005 0.01531397479 0.00043549265 0.00004245692 0.01531881715 -0.00042542708 -0.00002288205 0.01531861190 -0.00127644261 -0.00008603634 0.01531452186 -0.00211554468 -0.00014795542 0.01530770989 -0.00294072400 -0.00020958879 0.01529933881 -0.00374997133 -0.00027188593 0.01529057145 -0.00454127738 0.00028543131 0.01545307984 0.00251427875 0.00021721286 0.01546503696 0.00174940241 0.00015201657 0.01547177110 0.00097053013 0.00008926615 0.01547392631 0.00018085397 0.00002838530 0.01547214660 -0.00061643401 -0.00003120228 0.01546707599 -0.00141814176 -0.00009007289 0.01545935851 -0.00222107720 -0.00014880282 0.01544963817 -0.00302204827 -0.00020796838 0.01543855900 -0.00381786292 -0.00026814585 0.01542676502 -0.00460532908 0.00023485029 0.01563637464 0.00203516171 0.00017917012 0.01563811219 0.00136078621 0.00012441629 0.01563696343 0.00066021269 0.00007026607 0.01563324139 -0.00006259875 0.00001639670 0.01562725908 -0.00080368802 -0.00003751456 0.01561932951 -0.00155909502 -0.00009179046 0.01560976570 -0.00232485965 -0.00014675375 0.01559888066 -0.00309702180 -0.00020272717 0.01558698740 -0.00387162138 -0.00026003348 0.01557439895 -0.00464469828 0.00019200096 0.01580612573 0.00161668447 0.00014644748 0.01580157515 0.00101274187 0.00010045473 0.01579565719 0.00037525371 0.00005385215 0.01578848478 -0.00029146116 0.00000646916 0.01578017084 -0.00098308392 -0.00004186481 0.01577082831 -0.00169529573 -0.00009132031 0.01576057012 -0.00242377775 -0.00014206792 0.01574950920 -0.00316421116 -0.00019427821 0.01573775847 -0.00391227712 -0.00024812173 0.01572543087 -0.00466365680 0.00015597805 0.01596104082 0.00125529826 0.00011854390 0.01595327944 0.00070485218 0.00007990062 0.01594501061 0.00011755189 0.00003994670 0.01593622123 -0.00050232892 -0.00000141933 0.01592689815 -0.00115051651 -0.00004429898 0.01591702828 -0.00182273719 -0.00008879373 0.01590659848 -0.00251471724 -0.00013500508 0.01589559564 -0.00322218294 -0.00018303451 0.01588400664 -0.00394086058 -0.00023298352 0.01587181836 -0.00466647644 0.00012587630 0.01609982763 0.00094745427 0.00009495834 0.01609107865 0.00043669998 0.00006252268 0.01608218194 -0.00011099406 0.00002847208 0.01607301549 -0.00069179765 -0.00000729074 0.01606345727 -0.00130188061 -0.00004486301 0.01605338526 -0.00193741274 -0.00008434199 0.01604267746 -0.00259456384 -0.00012582495 0.01603121183 -0.00326950371 -0.00016940912 0.01601886637 -0.00395840217 -0.00021519176 0.01600551904 -0.00465742902 0.00010079046 0.01622119386 0.00068960374 0.00007518976 0.01621282637 0.00020786808 0.00004808966 0.01620432940 -0.00030848542 0.00001935059 0.01619543231 -0.00085646303 -0.00001116704 0.01618586445 -0.00143307103 -0.00004360284 0.01617535515 -0.00203531568 -0.00007809638 0.01616363375 -0.00266020327 -0.00011478726 0.01615042962 -0.00330474007 -0.00015381506 0.01613547209 -0.00396593234 -0.00019531938 0.01611849051 -0.00464078636 0.00007981526 0.01632384723 0.00047819788 0.00005873710 0.01631637619 0.00001793930 0.00003637029 0.01630861124 -0.00047302348 0.00001250458 0.01630003647 -0.00099292069 -0.00001307024 0.01629013595 -0.00153998257 -0.00004056441 0.01627839379 -0.00211243935 -0.00007018816 0.01626429406 -0.00270852128 -0.00010215174 0.01624732085 -0.00332645858 -0.00013666537 0.01622695826 -0.00396448149 -0.00017393928 0.01620269037 -0.00462082026 0.00006204545 0.01640649546 0.00030968791 0.00004509934 0.01639958172 -0.00013350355 0.00002713328 0.01639218569 -0.00060270953 0.00000785638 0.01638339269 -0.00109776628 -0.00001302229 0.01637228804 -0.00161851004 -0.00003579365 0.01635795705 -0.00216477706 -0.00006074863 0.01633948506 -0.00273640357 -0.00008817813 0.01631595738 -0.00333322582 -0.00011837308 0.01628645932 -0.00395508006 -0.00015162439 0.01625007622 -0.00460180254 0.00041376131 0.01546400619 0.00366078548 0.00031163005 0.01554370390 0.00264130104 0.00021920962 0.01560152336 0.00165055125 0.00013509312 0.01564024895 0.00068881237 0.00005787364 0.01566266501 -0.00024363931 -0.00001385574 0.01567155590 -0.00114652752 -0.00008150190 0.01566970598 -0.00201957600 -0.00014647178 0.01565989959 -0.00286250848 -0.00021017226 0.01564492109 -0.00367504867 -0.00027401026 0.01562755484 -0.00445692031 0.00034447231 0.01566728573 0.00305083526 0.00026079733 0.01571858314 0.00217127311 0.00018295040 0.01575427827 0.00129603017 0.00011001661 0.01577614727 0.00042701861 0.00004108108 0.01578596635 -0.00043384939 -0.00002477112 0.01578551167 -0.00128466168 -0.00008845488 0.01577655941 -0.00212350607 -0.00015088510 0.01576088575 -0.00294847039 -0.00021297669 0.01574026688 -0.00375764247 -0.00027564456 0.01571647896 -0.00454911015 0.00028447273 0.01586009092 0.00250810302 0.00021609699 0.01589033683 0.00174226385 0.00015063919 0.01590966255 0.00096279169 0.00008755360 0.01591915541 0.00017281226 0.00002629449 0.01591990274 -0.00062454868 -0.00003368388 0.01591299187 -0.00142616539 -0.00009292724 0.01589951014 -0.00222891213 -0.00015198131 0.01588054489 -0.00302966314 -0.00021139182 0.01585718344 -0.00382529270 -0.00027170451 0.01583051314 -0.00461267505 0.00023296200 0.01604105259 0.00202916373 0.00017711749 0.01605650477 0.00135393897 0.00012212645 0.01606438092 0.00065278869 0.00006770328 0.01606533059 -0.00007036654 0.00001356241 0.01606000331 -0.00081160615 -0.00004058174 0.01604904861 -0.00156700956 -0.00009501477 0.01603311604 -0.00233265620 -0.00015002225 0.01601285511 -0.00310462551 -0.00020588976 0.01598891537 -0.00387899690 -0.00026290290 0.01596194636 -0.00465184981 0.00018913955 0.01620880159 0.00161059239 0.00014344726 0.01621462674 0.00100596416 0.00009726258 0.01621513807 0.00036797407 0.00005046485 0.01621073006 -0.00029907766 0.00000293341 0.01620179721 -0.00099089078 -0.00004545240 0.01618873401 -0.00170316508 -0.00009481323 0.01617193495 -0.00243160030 -0.00014526975 0.01615179454 -0.00317189623 -0.00019694261 0.01612870726 -0.00391975263 -0.00024995248 0.01610306761 -0.00467086926 0.00015220482 0.01636196872 0.00124896400 0.00011467475 0.01636224256 0.00069800514 0.00007589803 0.01635863869 0.00011030072 0.00003583751 0.01635141105 -0.00050988096 -0.00000554397 0.01634081356 -0.00115827158 -0.00004828356 0.01632710015 -0.00183060285 -0.00009241840 0.01631052475 -0.00252260645 -0.00013798566 0.01629134128 -0.00323001408 -0.00018502248 0.01626980367 -0.00394855744 -0.00023356602 0.01624616585 -0.00467396820 0.00012135723 0.01649918484 0.00094085355 0.00009038840 0.01649689201 0.00042972762 0.00005788322 0.01649158748 -0.00011827845 0.00002382045 0.01648343079 -0.00069933629 -0.00001182118 0.01647258151 -0.00130961752 -0.00004906293 0.01645919916 -0.00194529377 -0.00008792606 0.01644344329 -0.00260253667 -0.00012843182 0.01642547346 -0.00327751782 -0.00017060147 0.01640544921 -0.00396640888 -0.00021445628 0.01638353009 -0.00466538145 0.00009579622 0.01661908076 0.00068283603 0.00007017665 0.01661611489 0.00020079729 0.00004306859 0.01661068913 -0.00031581057 0.00001441288 0.01660284654 -0.00086400354 -0.00001584967 0.01659263018 -0.00144079760 -0.00004777823 0.01658008313 -0.00204320875 -0.00008143196 0.01656524844 -0.00266825295 -0.00011687006 0.01654816920 -0.00331294621 -0.00015415169 0.01652888846 -0.00397430450 -0.00019333602 0.01650744929 -0.00464934381 0.00007472123 0.01672028731 0.00047148643 0.00005362795 0.01671745101 0.00001087988 0.00003130456 0.01671264835 -0.00048034272 0.00000761398 0.01670571551 -0.00100044255 -0.00001758089 0.01669648872 -0.00154768080 -0.00004441715 0.01668480416 -0.00212031866 -0.00007303190 0.01667049806 -0.00271661734 -0.00010356223 0.01665340660 -0.00333483801 -0.00013614524 0.01663336599 -0.00397324186 -0.00017091802 0.01661021245 -0.00463009010 0.00005733167 0.01680143533 0.00030337976 0.00004033073 0.01679844017 -0.00014035892 0.00002244157 0.01679416982 -0.00060992202 0.00000342297 0.01678809496 -0.00110521319 -0.00001696628 0.01677968626 -0.00162613610 -0.00003896741 0.01676841438 -0.00217259443 -0.00006282163 0.01675375000 -0.00274449183 -0.00008877016 0.01673516378 -0.00334173197 -0.00011705423 0.01671212641 -0.00396421852 -0.00014791503 0.01668410854 -0.00461185514 0.00040343282 0.01587049251 0.00354840617 0.00030635568 0.01597940647 0.00257593044 0.00021710886 0.01605843329 0.00161818225 0.00013467415 0.01611111715 0.00067799878 0.00005803335 0.01614100227 -0.00024178280 -0.00001383174 0.01615163284 -0.00113832533 -0.00008193932 0.01614655307 -0.00200879164 -0.00014730761 0.01612930716 -0.00285034455 -0.00021095479 0.01610343931 -0.00366014690 -0.00027389908 0.01607249372 -0.00443536152 0.00033646568 0.01607030096 0.00296400316 0.00025649138 0.01614480504 0.00212161168 0.00018092874 0.01619702888 0.00127243257 0.00010914221 0.01622927809 0.00042018416 0.00004049624 0.01624385828 -0.00043141519 -0.00002564471 0.01624307507 -0.00127864715 -0.00008991619 0.01622923405 -0.00211779337 -0.00015295375 0.01620464085 -0.00294513551 -0.00021539294 0.01617160108 -0.00375695521 -0.00027786930 0.01613242033 -0.00454953414 0.00027791998 0.01626022839 0.00244135291 0.00021222576 0.01630891636 0.00170504330 0.00014838910 0.01634103467 0.00094626100 0.00008606796 0.01635803315 0.00016934029 0.00002492029 0.01636136168 -0.00062138457 -0.00003539596 0.01635247011 -0.00142157929 -0.00009522283 0.01633280831 -0.00222690960 -0.00015490238 0.01630382612 -0.00303304124 -0.00021477664 0.01626697341 -0.00383563992 -0.00027518766 0.01622370004 -0.00463037137 0.00022717996 0.01643880627 0.00197773353 0.00017327878 0.01646901953 0.00132629967 0.00011943709 0.01648679910 0.00064181311 0.00006552469 0.01649304779 -0.00007105083 0.00001141134 0.01648866840 -0.00080761682 -0.00004303317 0.01647456375 -0.00156320953 -0.00009793907 0.01645163664 -0.00233315364 -0.00015343656 0.01642078988 -0.00311277382 -0.00020965588 0.01638292630 -0.00389739475 -0.00026672723 0.01633894869 -0.00468234109 0.00018362984 0.01660456610 0.00157042315 0.00013937038 0.01662239364 0.00098545520 0.00009401985 0.01663067065 0.00036123447 0.00004758567 0.01662998745 -0.00029750717 0.00000007524 0.01662093437 -0.00098603785 -0.00004850402 0.01660410173 -0.00169962569 -0.00009814470 0.01658007986 -0.00243353881 -0.00014883938 0.01654945908 -0.00318304535 -0.00020058065 0.01651282973 -0.00394341344 -0.00025336110 0.01647078212 -0.00470991119 0.00014665386 0.01675603936 0.00121669987 0.00011022052 0.01676631779 0.00068258426 0.00007208451 0.01676899778 0.00010667064 0.00003232417 0.01676451761 -0.00050654673 -0.00000898217 0.01675331553 -0.00115257355 -0.00005175619 0.01673582984 -0.00182691555 -0.00009591954 0.01671249878 -0.00252507843 -0.00014139391 0.01668376064 -0.00324256791 -0.00018810095 0.01665005368 -0.00397488971 -0.00023596234 0.01661181617 -0.00471754954 0.00011563626 0.01689175752 0.00091384181 0.00008554915 0.01689807105 0.00041776126 0.00005357822 0.01689812894 -0.00011973282 0.00001981348 0.01689230370 -0.00069468749 -0.00001565504 0.01688096782 -0.00130314984 -0.00005273735 0.01686449383 -0.00194116692 -0.00009134341 0.01684325421 -0.00260478581 -0.00013138322 0.01681762148 -0.00329005358 -0.00017276677 0.01678796814 -0.00399301730 -0.00021540403 0.01675466670 -0.00470972404 0.00008996126 0.01701025209 0.00065912709 0.00006507621 0.01701493253 0.00019106058 0.00003844810 0.01701441260 -0.00031583033 0.00001012687 0.01700901119 -0.00085844745 -0.00001983754 0.01699904718 -0.00143369260 -0.00005139518 0.01698483947 -0.00203846761 -0.00008449611 0.01696670696 -0.00266967428 -0.00011909040 0.01694496854 -0.00332421445 -0.00015512809 0.01691994311 -0.00399898993 -0.00019255925 0.01689194955 -0.00469090255 0.00006901310 0.01711005453 0.00044983383 0.00004852166 0.01711418132 0.00000255660 0.00002664130 0.01711419722 -0.00047947634 0.00000333761 0.01711030552 -0.00099434459 -0.00002142381 0.01710270953 -0.00154012774 -0.00004767737 0.01709161254 -0.00211490540 -0.00007545747 0.01707721785 -0.00271675715 -0.00010479852 0.01705972875 -0.00334376260 -0.00013573491 0.01703934855 -0.00399400134 -0.00016830107 0.01701628055 -0.00466555297 0.00005217602 0.01718969633 0.00028324015 0.00003560546 0.01719309651 -0.00014767627 0.00001810496 0.01719383126 -0.00060852527 -0.00000048101 0.01719185217 -0.00109889689 -0.00002030801 0.01718711082 -0.00161838116 -0.00004153159 0.01717955879 -0.00216656809 -0.00006430728 0.01716914767 -0.00274304773 -0.00008879065 0.01715582903 -0.00334741011 -0.00011513723 0.01713955447 -0.00397924524 -0.00014350257 0.01712027555 -0.00463814317 0.00038241527 0.01625724366 0.00333153876 0.00029541156 0.01639918148 0.00245390891 0.00021279825 0.01650249154 0.00156249282 0.00013424401 0.01657138110 0.00066538725 0.00005941750 0.01661005746 -0.00022931103 -0.00001201260 0.01662272789 -0.00111350525 -0.00008037762 0.01661359968 -0.00197909866 -0.00014600891 0.01658688011 -0.00281799449 -0.00020923780 0.01654677647 -0.00362209597 -0.00027039561 0.01649749603 -0.00438330634 0.00032063553 0.01645299661 0.00279707946 0.00024814755 0.01655539064 0.00203004478 0.00017746350 0.01662792170 0.00123353843 0.00010844175 0.01667326828 0.00041500068 0.00004094068 0.01669410886 -0.00041812826 -0.00002518134 0.01669312195 -0.00125840814 -0.00009006593 0.01667298602 -0.00209839871 -0.00015385474 0.01663637958 -0.00293065975 -0.00021668938 0.01658598112 -0.00374775100 -0.00027871148 0.01652446912 -0.00454223224 0.00026579994 0.01663965119 0.00231401636 0.00020561117 0.01671206322 0.00163779125 0.00014531083 0.01676127519 0.00092101307 0.00008491308 0.01678888323 0.00017051342 0.00002443206 0.01679648348 -0.00060687608 -0.00003611808 0.01678567206 -0.00140432382 -0.00009672320 0.01675804511 -0.00221499819 -0.00015736914 0.01671519877 -0.00303206758 -0.00021804177 0.01665872915 -0.00384870037 -0.00027872692 0.01659023240 -0.00465806497 0.00021755541 0.01681560494 0.00188089378 0.00016769280 0.01686624386 0.00127795273 0.00011639754 0.01689859741 0.00062739613 0.00006380345 0.01691355496 -0.00006453850 0.00001004437 0.01691200591 -0.00079161365 -0.00004474588 0.01689483964 -0.00154759178 -0.00010043347 0.01686294553 -0.00232623538 -0.00015688456 0.01681721298 -0.00312130693 -0.00021396533 0.01675853136 -0.00392656890 -0.00027154196 0.01668779007 -0.00473578377 0.00017554888 0.01697925539 0.00149625606 0.00013428284 0.01701497722 0.00095133361 0.00009078090 0.01703593377 0.00035516702 0.00004525832 0.01704261248 -0.00028661911 -0.00000206966 0.01703550077 -0.00096840015 -0.00005098778 0.01701508609 -0.00168455151 -0.00010128078 0.01698185587 -0.00242944858 -0.00015273342 0.01693629754 -0.00319746674 -0.00020513044 0.01687889855 -0.00398298138 -0.00025825659 0.01681014632 -0.00478036791 0.00013942728 0.01712900007 0.00115864754 0.00010527168 0.01715530794 0.00065873828 0.00006851821 0.01716932969 0.00010680514 0.00002942314 0.01717138478 -0.00049219238 -0.00001175729 0.01716179267 -0.00113329477 -0.00005476682 0.01714087283 -0.00181154250 -0.00009934919 0.01710894471 -0.00252197606 -0.00014524816 0.01706632778 -0.00325963595 -0.00019220746 0.01701334149 -0.00401956265 -0.00023997084 0.01695030532 -0.00479679664 0.00010883753 0.01726323653 0.00086661255 0.00008054971 0.01728428068 0.00040097115 0.00004966677 0.01729483058 -0.00011521011 0.00001644338 0.01729520088 -0.00067772234 -0.00001886578 0.01728570623 -0.00128235666 -0.00005600605 0.01726666127 -0.00192490422 -0.00009472275 0.01723838064 -0.00260115613 -0.00013476121 0.01720117900 -0.00330690351 -0.00017586675 0.01715537099 -0.00403793750 -0.00021778471 0.01710127126 -0.00479004922 0.00008342655 0.01738036228 0.00061869542 0.00006000731 0.01739894007 0.00017883659 0.00003428385 0.01740848185 -0.00030839931 0.00000646450 0.01740938979 -0.00083967296 -0.00002324240 0.01740206605 -0.00141164502 -0.00005462851 0.01738691282 -0.00202097616 -0.00008748549 0.01736433226 -0.00266432705 -0.00012160499 0.01733472654 -0.00333835836 -0.00015677869 0.01729849784 -0.00403973076 -0.00019279823 0.01725604833 -0.00476510492 0.00006284128 0.01747877487 0.00041344049 0.00004353489 0.01749633078 -0.00000686099 0.00002242675 0.01750632891 -0.00047028308 -0.00000036806 0.01750928050 -0.00097450827 -0.00002473442 0.01750569675 -0.00151721902 -0.00005055726 0.01749608889 -0.00209609781 -0.00007772147 0.01748096814 -0.00270882713 -0.00010611196 0.01746084571 -0.00335308945 -0.00013561364 0.01743623283 -0.00402656724 -0.00016611140 0.01740764072 -0.00472694298 0.00004672864 0.01755687183 0.00024939209 0.00003102282 0.01757349744 -0.00015531719 0.00001415275 0.01758441718 -0.00059838200 -0.00000390882 0.01759020202 -0.00107869224 -0.00002318910 0.01759142294 -0.00159513782 -0.00004371533 0.01758865090 -0.00214660865 -0.00006551473 0.01758245687 -0.00273199464 -0.00008861453 0.01757341184 -0.00335018570 -0.00011304196 0.01756208675 -0.00400007174 -0.00013882425 0.01754905260 -0.00468054266 0.00035069995 0.01661101604 0.00301023261 0.00027876951 0.01679646736 0.00227523809 0.00020631997 0.01693220210 0.00148343721 0.00013396815 0.01702299525 0.00065089286 0.00006233089 0.01707362181 -0.00020633212 -0.00000797499 0.01708885677 -0.00107217486 -0.00007633267 0.01707347512 -0.00193057249 -0.00014212531 0.01703225186 -0.00276546216 -0.00020473610 0.01696996198 -0.00356078099 -0.00026354820 0.01689138048 -0.00430046611 0.00029698800 0.01680178993 0.00255005557 0.00023575448 0.01694256903 0.00189659381 0.00017259632 0.01704370462 0.00117937169 0.00010805017 0.01710801889 0.00041147953 0.00004265268 0.01713833401 -0.00039399238 -0.00002305951 0.01713747217 -0.00122395372 -0.00008854976 0.01710825555 -0.00206531419 -0.00015328142 0.01705350634 -0.00290498350 -0.00021671785 0.01697604671 -0.00372987132 -0.00027832241 0.01687869886 -0.00452688736 0.00024813945 0.01698451826 0.00212608128 0.00019626521 0.01709106507 0.00154055821 0.00014144891 0.01716577187 0.00088712289 0.00008419281 0.01721002934 0.00017640705 0.00002499916 0.01722522817 -0.00058095760 -0.00003562981 0.01721275906 -0.00137433934 -0.00009719185 0.01717401268 -0.00219310644 -0.00015918472 0.01711037974 -0.00302662720 -0.00022110617 0.01702325092 -0.00386426988 -0.00028245395 0.01691401692 -0.00469540276 0.00020413960 0.01715741785 0.00173866711 0.00016039837 0.01723876513 0.00120898253 0.00011305706 0.01729415527 0.00060964791 0.00006261272 0.01732401410 -0.00005071646 0.00000956238 0.01732876741 -0.00076349024 -0.00004559690 0.01730884103 -0.00152005313 -0.00010236808 0.01726466075 -0.00231178482 -0.00016025411 0.01719665240 -0.00313006498 -0.00021875794 0.01710524177 -0.00396627332 -0.00027738254 0.01699085467 -0.00481178950 0.00016497373 0.01731870556 0.00138817046 0.00012825064 0.01738247884 0.00090371803 0.00008760008 0.01742460625 0.00034990382 0.00004352652 0.01744496064 -0.00026628287 -0.00000346559 0.01744341484 -0.00093785274 -0.00005287176 0.01741984169 -0.00165781651 -0.00010418755 0.01737411400 -0.00241918489 -0.00015690848 0.01730610463 -0.00321496858 -0.00021053009 0.01721568639 -0.00403817830 -0.00026454792 0.01710273213 -0.00488182474 0.00013062716 0.01746659823 0.00107494872 0.00009991869 0.01751901584 0.00062661594 0.00006525729 0.01755287623 0.00011084773 0.00002715085 0.01756785646 -0.00046668405 -0.00001389268 0.01756363358 -0.00110030755 -0.00005736541 0.01753988463 -0.00178435090 -0.00010275940 0.01749628668 -0.00251314224 -0.00014956675 0.01743251677 -0.00328100973 -0.00019727953 0.01734825195 -0.00408228149 -0.00024538983 0.01724316928 -0.00491128567 0.00010108517 0.01759931268 0.00079935927 0.00007549920 0.01764518578 0.00037952751 0.00004620799 0.01767471665 -0.00010456328 0.00001370236 0.01768768905 -0.00064831189 -0.00002152685 0.01768388673 -0.00124711710 -0.00005898883 0.01766309347 -0.00189637769 -0.00009819276 0.01762509302 -0.00259149244 -0.00013864781 0.01756966914 -0.00332786013 -0.00017986316 0.01749660559 -0.00410087954 -0.00022134799 0.01740568615 -0.00490594945 0.00007633307 0.01771506577 0.00056175951 0.00005508883 0.01775779830 0.00016430400 0.00003063150 0.01778587892 -0.00029337212 0.00000339769 0.01779944587 -0.00080755826 -0.00002617603 0.01779863741 -0.00137454386 -0.00005765304 0.01778359179 -0.00199061832 -0.00009059675 0.01775444726 -0.00265207107 -0.00012457057 0.01771134207 -0.00335519153 -0.00015913789 0.01765441447 -0.00409626912 -0.00019386214 0.01758380272 -0.00487159326 0.00005635614 0.01781207432 0.00036250681 0.00003878425 0.01785366305 -0.00001720336 0.00001870714 0.01788211448 -0.00045262169 -0.00000354654 0.01789811443 -0.00094081503 -0.00002764815 0.01790234873 -0.00147885025 -0.00005326902 0.01789550320 -0.00206379418 -0.00008008049 0.01787826364 -0.00269271370 -0.00010775392 0.01785131588 -0.00336267565 -0.00013596064 0.01781534573 -0.00407074689 -0.00016437201 0.01777103902 -0.00481399427 0.00004113968 0.01788855520 0.00020195858 0.00002668215 0.01792958965 -0.00016314331 0.00001061422 0.01795917474 -0.00057935490 -0.00000691369 0.01797868221 -0.00104447408 -0.00002575116 0.01798948381 -0.00155629872 -0.00004574777 0.01799295130 -0.00211262670 -0.00006675311 0.01799045641 -0.00271125591 -0.00008861677 0.01798337090 -0.00334998422 -0.00011118831 0.01797306653 -0.00402660951 -0.00013431734 0.01796091504 -0.00473892966 0.00030827816 0.01691856607 0.00258453704 0.00025640137 0.01716470254 0.00203991958 0.00019771620 0.01734606896 0.00138096970 0.00013401206 0.01746791406 0.00063443067 0.00006707832 0.01753548656 -0.00017295423 -0.00000129560 0.01755403520 -0.00101444172 -0.00006932031 0.01752880872 -0.00186328854 -0.00013520642 0.01746505583 -0.00269275140 -0.00019716452 0.01736802528 -0.00347608704 -0.00025340522 0.01724296579 -0.00418655218 0.00026552923 0.01710309821 0.00222292289 0.00021930081 0.01729856930 0.00172128020 0.00016636884 0.01744112553 0.00110995627 0.00010810239 0.01753343096 0.00040963210 0.00004587051 0.01757814963 -0.00035901133 -0.00001895775 0.01757794558 -0.00117529300 -0.00008501332 0.01753548286 -0.00201853194 -0.00015092716 0.01745342551 -0.00286804715 -0.00021533021 0.01733443757 -0.00370315762 -0.00027685342 0.01718118310 -0.00450318238 0.00022496539 0.01728098853 0.00187753560 0.00018419988 0.01743720960 0.00141339467 0.00013684788 0.01754991246 0.00084466547 0.00008401102 0.01761979517 0.00018709654 0.00002679094 0.01764755580 -0.00054356354 -0.00003371072 0.01763389243 -0.00133156622 -0.00009639232 0.01757950312 -0.00216116294 -0.00016015222 0.01748508595 -0.00301660512 -0.00022388878 0.01735133898 -0.00388214423 -0.00028650036 0.01717896028 -0.00474203168 0.00018698375 0.01745021428 0.00155107618 0.00015143431 0.01757717070 0.00111947348 0.00010946497 0.01766785212 0.00058867860 0.00006202565 0.01772158717 -0.00002947158 0.00001006627 0.01773770447 -0.00072314021 -0.00004546325 0.01771553265 -0.00148049042 -0.00010361300 0.01765440033 -0.00228968536 -0.00016343307 0.01755363613 -0.00313888817 -0.00022397352 0.01741256870 -0.00401626198 -0.00028428446 0.01723052664 -0.00490996994 0.00015198145 0.01760875274 0.00124624567 0.00012133979 0.01771499985 0.00084272708 0.00008453175 0.01779036691 0.00034557698 0.00004243400 0.01783338746 -0.00023636786 -0.00000407683 0.01784259502 -0.00089427066 -0.00005412407 0.01781652312 -0.00161929465 -0.00010683107 0.01775370529 -0.00240260306 -0.00016132117 0.01765267505 -0.00323535911 -0.00021671773 0.01751196593 -0.00410872602 -0.00027214409 0.01733011146 -0.00501386703 0.00012035560 0.01775458117 0.00096574509 0.00009425203 0.01784724428 0.00058636596 0.00006235988 0.01791287921 0.00011894191 0.00002552376 0.01794977653 -0.00042988788 -0.00001541171 0.01795622685 -0.00105348423 -0.00005960190 0.01793052075 -0.00174520795 -0.00010620221 0.01787094883 -0.00249841986 -0.00015436802 0.01777580168 -0.00330648076 -0.00020325470 0.01764336989 -0.00416275147 -0.00025201765 0.01747194407 -0.00506059281 0.00009250334 0.01788567682 0.00071227546 0.00007050674 0.01797045126 0.00035360060 0.00004326098 0.01803081139 -0.00008764529 0.00001158264 0.01806533487 -0.00060632724 -0.00002371171 0.01807259933 -0.00119731026 -0.00006180549 0.01805118241 -0.00185545938 -0.00010188214 0.01799966176 -0.00257563960 -0.00014312508 0.01791661500 -0.00335271596 -0.00018471774 0.01780061978 -0.00418155347 -0.00022584353 0.01765025374 -0.00505701716 0.00006882178 0.01800001697 0.00048853783 0.00005043962 0.01808116801 0.00014764147 0.00002754672 0.01813958585 -0.00027060333 0.00000089836 0.01817464298 -0.00076198153 -0.00002875016 0.01818571187 -0.00132227809 -0.00006064356 0.01817216501 -0.00194727797 -0.00009402655 0.01813337489 -0.00263276613 -0.00012814383 0.01806871399 -0.00337452754 -0.00016224013 0.01797755480 -0.00416834715 -0.00019556014 0.01785926979 -0.00501000992 0.00004970806 0.01809557888 0.00029723320 0.00003438639 0.01817594180 -0.00002830096 0.00001552873 0.01823462497 -0.00042635089 -0.00000624138 0.01827228133 -0.00089314633 -0.00003030041 0.01828956385 -0.00142491704 -0.00005602484 0.01828712544 -0.00201789278 -0.00008279113 0.01826561906 -0.00266830328 -0.00010997575 0.01822569765 -0.00337237832 -0.00013695517 0.01816801415 -0.00412634763 -0.00016310586 0.01809322151 -0.00492644098 0.00003555930 0.01817033981 0.00014106262 0.00002268275 0.01825131985 -0.00017101622 0.00000751867 0.01831135112 -0.00055130667 -0.00000954887 0.01835283044 -0.00099611724 -0.00002813581 0.01837815465 -0.00150175646 -0.00004785807 0.01838972058 -0.00206453284 -0.00006833159 0.01838992507 -0.00268075489 -0.00008917232 0.01838116495 -0.00334673112 -0.00010999617 0.01836583704 -0.00405877005 -0.00013041909 0.01834633820 -0.00481318020 </DataArray>
</PointData>
<Points>
<DataArray type="Float32" NumberOfComponents="3">
-1.00713662774 0.35209107241 -0.24685136619 -1.00705444424 0.37037382104 -0.25571733462 -1.00637843891 0.39268804076 -0.26245659846 -1.00460517839 0.41808210521 -0.26719615360 -1.00123122935 0.44560438807 -0.27006299593 -0.99575315843 0.47430326301 -0.27118412134 -0.98766753230 0.50322710367 -0.27068652571 -0.97647091760 0.53142428373 -0.26869720492 -0.96165988099 0.55794317685 -0.26534315486 -0.94273098912 0.58183215670 -0.26075137143 -0.93088581551 0.36502396479 -0.24651381796 -0.93084969642 0.38184740614 -0.25369347585 -0.93047638073 0.40248496388 -0.25917988142 -0.92948966951 0.42620089985 -0.26304109286 -0.92761336385 0.45225947589 -0.26534516833 -0.92457126483 0.47992495385 -0.26616016600 -0.92008717352 0.50846159559 -0.26555414404 -0.91388489102 0.53713366294 -0.26359516063 -0.90568821840 0.56520541776 -0.26035127393 -0.89522095674 0.59194112190 -0.25589054212 -0.85512071938 0.37762309067 -0.24631344646 -0.85511325241 0.39316642497 -0.25217609520 -0.85492893961 0.41230791808 -0.25668278452 -0.85442957550 0.43448573895 -0.25985704061 -0.85347695458 0.45913805658 -0.26172238966 -0.85193287138 0.48570303992 -0.26230235790 -0.84965912040 0.51361885796 -0.26162047150 -0.84651749616 0.54232367966 -0.25970025667 -0.84236979318 0.57125567399 -0.25656523962 -0.83707780596 0.59985300994 -0.25223894653 -0.77978055868 0.38976151635 -0.24622862145 -0.77978796258 0.40419106938 -0.25109775126 -0.77970344453 0.42200699696 -0.25486544278 -0.77945742631 0.44278406348 -0.25752453093 -0.77898032969 0.46609703334 -0.25906785065 -0.77820257643 0.49152067094 -0.25948823687 -0.77705458833 0.51862974066 -0.25877852453 -0.77546678714 0.54699900691 -0.25693154855 -0.77336959465 0.57620323408 -0.25394014388 -0.77069343262 0.60581718656 -0.24979714544 -0.70480455275 0.40131230816 -0.24623771267 -0.70481667732 0.41478153123 -0.25039100259 -0.70476722449 0.43143229415 -0.25362799123 -0.70460575192 0.45094331438 -0.25592409791 -0.70428181731 0.47299330938 -0.25725474198 -0.70374497834 0.49726099664 -0.25759534275 -0.70294479269 0.52342509360 -0.25692131957 -0.70183081806 0.55116431775 -0.25520809176 -0.70035261212 0.58015738656 -0.25243107866 -0.69845973255 0.61008301749 -0.24856569959 -0.63013192091 0.41214853239 -0.24631908991 -0.63014224702 0.42479800238 -0.24998840778 -0.63008760846 0.44043390327 -0.25287056491 -0.62990708229 0.45881093259 -0.25493627565 -0.62953974560 0.47968378791 -0.25615625436 -0.62892467545 0.50280716675 -0.25650121538 -0.62800094890 0.52793576668 -0.25594187308 -0.62670764303 0.55482428523 -0.25444894181 -0.62498383490 0.58322741997 -0.25199313591 -0.62276860159 0.61289986843 -0.24854516974 -0.55570188249 0.42214325535 -0.24645112291 -0.55570752204 0.43410067468 -0.24982252539 -0.55563192543 0.44886191793 -0.25249329884 -0.55539394740 0.46623435907 -0.25444159821 -0.55491244271 0.48602537210 -0.25564557848 -0.55410626611 0.50804233101 -0.25608339459 -0.55289427234 0.53209260978 -0.25573320150 -0.55119531617 0.55798358240 -0.25457315418 -0.54892825233 0.58552262285 -0.25258140758 -0.54601193557 0.61451710513 -0.24973611666 -0.48145365684 0.43116954336 -0.24661218143 -0.48145535278 0.44254973999 -0.24982591400 -0.48136750439 0.45656643175 -0.25239632806 -0.48109887720 0.47306103476 -0.25432059970 -0.48055823678 0.49187496519 -0.25559590505 -0.47965434867 0.51284963915 -0.25621942020 -0.47829597842 0.53582647281 -0.25618832128 -0.47639189158 0.56064688229 -0.25549978438 -0.47385085370 0.58715228374 -0.25415098562 -0.47058163033 0.61518409330 -0.25213910110 -0.40732646328 0.43910046272 -0.24678063524 -0.40732858962 0.45000539017 -0.24993113220 -0.40726167432 0.46339753834 -0.25247978759 -0.40705440167 0.47913840061 -0.25445381420 -0.40663545596 0.49708947035 -0.25588042477 -0.40593352149 0.51711224091 -0.25678683207 -0.40487728253 0.53906820565 -0.25720024886 -0.40339542339 0.56281885795 -0.25714788791 -0.40141662835 0.58822569117 -0.25665696198 -0.39886958171 0.61515019868 -0.25575468383 -0.33325952114 0.44580907975 -0.24693485409 -0.33327008294 0.45632781706 -0.25007073854 -0.33328176422 0.46920533133 -0.25264381248 -0.33329305078 0.48431389757 -0.25472177578 -0.33330242840 0.50152579079 -0.25637232833 -0.33330838290 0.52071328600 -0.25766317001 -0.33330940006 0.54174865822 -0.25866200069 -0.33330396569 0.56450418244 -0.25943652026 -0.33329056558 0.58885213369 -0.26005442861 -0.33326768552 0.61466478697 -0.26058342560 -1.00709364141 0.33797476602 -0.23595771860 -0.99727928178 0.36304234317 -0.24203886752 -0.98925563792 0.39003774435 -0.24672919592 -0.98244438734 0.41840425514 -0.25012149004 -0.97626720755 0.44758516113 -0.25230853611 -0.97014577606 0.47702374792 -0.25338312039 -0.96350177038 0.50616330109 -0.25343802909 -0.95575686803 0.53444710623 -0.25256604846 -0.94633274651 0.56131844893 -0.25085996474 -0.93465108334 0.58622061477 -0.24841256417 -0.93085461237 0.35431818848 -0.23592897335 -0.92398448004 0.37655424290 -0.24077605435 -0.91845137131 0.40091974481 -0.24454651681 -0.91392655379 0.42696546111 -0.24729054570 -0.91008129508 0.45424215873 -0.24905832601 -0.90658686277 0.48230060457 -0.24990004269 -0.90311452448 0.51069156556 -0.24986588072 -0.89933554780 0.53896580861 -0.24900602508 -0.89492120034 0.56667410063 -0.24737066073 -0.88954274969 0.59336720854 -0.24500997265 -0.85509903270 0.36962576640 -0.23597081329 -0.85051481272 0.38949762644 -0.23985285682 -0.84687620723 0.41161281898 -0.24290244104 -0.84401115805 0.43561134588 -0.24513753699 -0.84174760700 0.46113320903 -0.24657611570 -0.83991349590 0.48781841031 -0.24723614822 -0.83833676658 0.51530695161 -0.24713560557 -0.83684536084 0.54323883479 -0.24629245881 -0.83526722050 0.57125406174 -0.24472467897 -0.83343028740 0.59899263434 -0.24245023708 -0.77976635964 0.38385481309 -0.23606981224 -0.77689381759 0.40178198813 -0.23922248759 -0.77464080073 0.42199252092 -0.24172652702 -0.77292138752 0.44419936872 -0.24357765309 -0.77164965637 0.46811548877 -0.24477158835 -0.77073968573 0.49345383831 -0.24530405537 -0.77010555404 0.51992737458 -0.24517077669 -0.76966133972 0.54724905484 -0.24436747487 -0.76932112123 0.57513183631 -0.24288987246 -0.76899897699 0.60328867626 -0.24073369203 -0.70479605044 0.39696264189 -0.23621254401 -0.70314503242 0.41331682229 -0.23883815928 -0.70185580690 0.43193440471 -0.24094833313 -0.70088042959 0.45258698891 -0.24252608319 -0.70017095623 0.47504617466 -0.24355442711 -0.69967944253 0.49908356172 -0.24401638253 -0.69935794423 0.52447074986 -0.24389496709 -0.69915851706 0.55097933883 -0.24317319844 -0.69903321673 0.57838092841 -0.24183409421 -0.69893409898 0.60644711837 -0.23986067206 -0.63012756234 0.40890656611 -0.23638558242 -0.62929199500 0.42401162327 -0.23865308455 -0.62863188079 0.44131402440 -0.24049741776 -0.62811147168 0.46063166572 -0.24189801648 -0.62769501962 0.48178244343 -0.24283431512 -0.62734677659 0.50458425371 -0.24328574810 -0.62703099454 0.52885499279 -0.24323174983 -0.62671192543 0.55441255685 -0.24265175473 -0.62635382122 0.58107484210 -0.24152519723 -0.62592093389 0.60865974475 -0.23983151174 -0.55570035259 0.41964389907 -0.23657550126 -0.55535824308 0.43377588539 -0.23862047603 -0.55507967747 0.45000693407 -0.24030333933 -0.55483770117 0.46819085843 -0.24160864216 -0.55460535960 0.48818147179 -0.24252093554 -0.55435569818 0.50983258745 -0.24302477046 -0.55406176231 0.53299801874 -0.24310469792 -0.55369659742 0.55753157897 -0.24274526894 -0.55323324892 0.58328708145 -0.24193103451 -0.55264476223 0.61011833950 -0.24064654564 -0.48145387844 0.42913195411 -0.23676887436 -0.48136731446 0.44251910299 -0.23869354636 -0.48130985202 0.45788868778 -0.24029565621 -0.48128230548 0.47512202631 -0.24157314942 -0.48128548921 0.49410043647 -0.24252397151 -0.48132021758 0.51470523610 -0.24314606800 -0.48138730493 0.53681774308 -0.24343738441 -0.48148756563 0.56031927526 -0.24339586626 -0.48162181404 0.58509115051 -0.24301945906 -0.48179086453 0.61101468669 -0.24230610833 -0.40732759714 0.43732804453 -0.23695227552 -0.40734274689 0.45015077042 -0.23882550819 -0.40743305949 0.46483483959 -0.24040392680 -0.40766847200 0.48128262864 -0.24170672744 -0.40811892150 0.49939651419 -0.24275310619 -0.40885434506 0.51907887282 -0.24356225913 -0.40994467975 0.54023208116 -0.24415338234 -0.41145986264 0.56275851580 -0.24454567189 -0.41346983080 0.58656055334 -0.24475832388 -0.41604452130 0.61154057040 -0.24481053438 -0.33326096593 0.44418948367 -0.23711227855 -0.33330807816 0.45658038199 -0.23896957415 -0.33355995495 0.47072094357 -0.24055770951 -0.33421938813 0.48653012469 -0.24192456543 -0.33548916952 0.50392688167 -0.24311802273 -0.33757209092 0.52283017079 -0.24418596223 -0.34067094416 0.54315894835 -0.24517626473 -0.34498852105 0.56483217066 -0.24613681104 -0.35072761341 0.58776879402 -0.24711548197 -0.35809101305 0.61188777471 -0.24816015834 -1.00706130064 0.32751064608 -0.22352602390 -0.98994777588 0.35766484425 -0.22761911708 -0.97641356264 0.38816933246 -0.23085022772 -0.96582410283 0.41876379263 -0.23328326184 -0.95754483838 0.44918790672 -0.23498212547 -0.95094121122 0.47918135666 -0.23601072462 -0.94537866326 0.50848382440 -0.23643296531 -0.94022263643 0.53683499188 -0.23631275356 -0.93483857265 0.56397454103 -0.23571399539 -0.92859191384 0.58964215379 -0.23470059682 -0.93083126348 0.34641166837 -0.22374064800 -0.91883562057 0.37270454866 -0.22696720030 -0.90943281082 0.39986354774 -0.22954897234 -0.90225464774 0.42765457361 -0.23152064273 -0.89693294487 0.45584353429 -0.23291689005 -0.89309951573 0.48419633777 -0.23377239291 -0.89038617385 0.51247889209 -0.23412182990 -0.88842473276 0.54045710524 -0.23399987963 -0.88684700600 0.56789688523 -0.23344122067 -0.88528480708 0.59456414008 -0.23248053165 -0.85508304763 0.36375028756 -0.22397344266 -0.84706627992 0.38686542101 -0.22652093999 -0.84083706909 0.41120788590 -0.22859208689 -0.83619792888 0.43656937281 -0.23019944010 -0.83295137305 0.46274157234 -0.23135555638 -0.83089991535 0.48951617507 -0.23207299247 -0.82984606951 0.51668487158 -0.23236430513 -0.82959234929 0.54403935245 -0.23224205110 -0.82994126843 0.57137130828 -0.23171878713 -0.83069534069 0.59847242963 -0.23080706998 -0.77975625929 0.37954700124 -0.22421741474 -0.77472378022 0.40009389427 -0.22625012452 -0.77084446429 0.42209694912 -0.22793285450 -0.76802010885 0.44537312698 -0.22926284858 -0.76615251128 0.46973938905 -0.23023735064 -0.76514346896 0.49501269651 -0.23085360460 -0.76489477923 0.52101001056 -0.23110885433 -0.76530823949 0.54754829239 -0.23100034373 -0.76628564709 0.57444450319 -0.23052531670 -0.76772879941 0.60151560415 -0.22968101713 -0.70479050463 0.39382230698 -0.22446557106 -0.70189214780 0.41233640144 -0.22612454224 -0.69967312328 0.43242533961 -0.22752455833 -0.69808735025 0.45393077286 -0.22865406279 -0.69708874791 0.47669435256 -0.22950149906 -0.69663123543 0.50055773005 -0.23005531060 -0.69666873202 0.52536255672 -0.23030394085 -0.69715515685 0.55095048391 -0.23023583327 -0.69804442912 0.57716316299 -0.22983943132 -0.69929046801 0.60384224533 -0.22910317843 -0.63012538985 0.40659670234 -0.22471091846 -0.62865540897 0.42353937549 -0.22611398151 -0.62754117291 0.44208765957 -0.22732048153 -0.62676581568 0.46210724720 -0.22831627735 -0.62631247126 0.48346383102 -0.22908722782 -0.62616427366 0.50602310365 -0.22961919177 -0.62630435686 0.52965075773 -0.22989802805 -0.62671585486 0.55421248587 -0.22990959548 -0.62738190166 0.57957398071 -0.22963975293 -0.62828563124 0.60560093487 -0.22907435921 -0.55570052113 0.41789068491 -0.22494646379 -0.55509759003 0.43364924941 -0.22618823071 -0.55466674003 0.45097851119 -0.22727390725 -0.55442166773 0.46976748674 -0.22819268690 -0.55437606970 0.48990519260 -0.22893376313 -0.55454364252 0.51128064527 -0.22948632943 -0.55493808276 0.53378286128 -0.22983957926 -0.55557308701 0.55730085713 -0.22998270611 -0.55646235185 0.58172364936 -0.22990490347 -0.55761957384 0.60694025447 -0.22959536480 -0.48145550466 0.42772475224 -0.22516521388 -0.48130271729 0.44261245620 -0.22631707819 -0.48126795150 0.45899249667 -0.22733811865 -0.48142106901 0.47677642824 -0.22822648606 -0.48183193156 0.49587580545 -0.22898033120 -0.48257040088 0.51620218286 -0.22959780487 -0.48370633871 0.53766711505 -0.23007705784 -0.48530960679 0.56018215656 -0.23041624092 -0.48745006683 0.58365886197 -0.23061350488 -0.49019758058 0.60800878582 -0.23066700052 -0.40732994662 0.43611940193 -0.22536017557 -0.40735481708 0.45037542881 -0.22647031231 -0.40756293416 0.46602421822 -0.22746639887 -0.40813018211 0.48299900842 -0.22836086945 -0.40923244519 0.50123303772 -0.22916615823 -0.41104560764 0.52065954439 -0.22989469940 -0.41374555372 0.54121176673 -0.23055892714 -0.41750816767 0.56282294302 -0.23117127565 -0.42250933375 0.58542631156 -0.23174417911 -0.42892493621 0.60895511062 -0.23229007170 -0.33326345320 0.44309513152 -0.22552435570 -0.33333791569 0.45688460026 -0.22661772143 -0.33376981486 0.47196827802 -0.22761203107 -0.33491516963 0.48830016405 -0.22853903170 -0.33712999892 0.50583425757 -0.22943047041 -0.34077032166 0.52452455781 -0.23031809432 -0.34619215676 0.54432506400 -0.23123365050 -0.35375152315 0.56518977537 -0.23220888606 -0.36380443975 0.58707269115 -0.23327554808 -0.37670692547 0.60992781058 -0.23446538367 -1.00703961412 0.32068546902 -0.21002559901 -0.98505995470 0.35423476274 -0.21268606522 -0.96785217087 0.38708130907 -0.21486964183 -0.95474415940 0.41916267214 -0.21661439374 -0.94506381705 0.45041641606 -0.21795838588 -0.93813904059 0.48078010495 -0.21893968315 -0.93329772678 0.51019130292 -0.21959635048 -0.92986777240 0.53858757409 -0.21996645276 -0.92717707421 0.56590648257 -0.22008805492 -0.92455352897 0.59208559248 -0.21999922186 -0.93081576267 0.34129082172 -0.21042985889 -0.91540312938 0.37029055251 -0.21253359090 -0.90342065761 0.39931312057 -0.21429568022 -0.89447381644 0.42826813840 -0.21573644773 -0.88816807495 0.45706521848 -0.21687621431 -0.88410890221 0.48561397331 -0.21773530086 -0.88190176729 0.51382401539 -0.21833402825 -0.88115213927 0.54160495722 -0.21869271737 -0.88146548723 0.56886641127 -0.21883168910 -0.88244728023 0.59551799006 -0.21877126433 -0.85507273731 0.35998281310 -0.21081142194 -0.84476764201 0.38526109634 -0.21247714063 -0.83681148065 0.41108850658 -0.21390567656 -0.83098978414 0.43735814344 -0.21510391066 -0.82708808338 0.46396310655 -0.21607872385 -0.82489190927 0.49079649553 -0.21683699704 -0.82418679273 0.51775140999 -0.21738561116 -0.82475826464 0.54472094956 -0.21773144713 -0.82639185592 0.57159821386 -0.21788138587 -0.82887309747 0.59827630251 -0.21784230830 -0.77975020639 0.37682405007 -0.21116829517 -0.77327781168 0.39911737518 -0.21250007167 -0.76831438590 0.42231466098 -0.21367252915 -0.76475351716 0.44630250024 -0.21468323196 -0.76248879355 0.47096748574 -0.21552974443 -0.76141380314 0.49619621028 -0.21620963089 -0.76142213402 0.52187526663 -0.21672045570 -0.76240737430 0.54789124758 -0.21705978317 -0.76426311205 0.57413074591 -0.21722517767 -0.76688293537 0.60048035440 -0.21721420352 -0.70478783829 0.39187713955 -0.21149848555 -0.70105795747 0.41183037004 -0.21258574127 -0.69821911927 0.43289877768 -0.21356913627 -0.69622647018 0.45497102174 -0.21444086103 -0.69503515664 0.47793576151 -0.21519310598 -0.69460032513 0.50168165624 -0.21581806159 -0.69487712211 0.52609736521 -0.21630791831 -0.69582069405 0.55107154770 -0.21665486660 -0.69738618740 0.57649286297 -0.21685109690 -0.69952874863 0.60224997030 -0.21688879969 -0.63012530137 0.40520468845 -0.21180000010 -0.62823239846 0.42337106187 -0.21271750668 -0.62681542667 0.44274805056 -0.21356839621 -0.62587009785 0.46323352091 -0.21434324727 -0.62539212388 0.48472533929 -0.21503263844 -0.62537721662 0.50712137207 -0.21562714831 -0.62582108793 0.53031948564 -0.21611735547 -0.62671944968 0.55421754636 -0.21649383850 -0.62806801374 0.57871342062 -0.21674717600 -0.62986249197 0.60370497478 -0.21686794654 -0.55570226399 0.41686930370 -0.21207084581 -0.55492545376 0.43371043166 -0.21287872518 -0.55439305400 0.45176967353 -0.21364320725 -0.55414585486 0.47095981070 -0.21435684009 -0.55422464646 0.49119362455 -0.21501217173 -0.55467021892 0.51238389646 -0.21560175024 -0.55552336239 0.53444340782 -0.21611812365 -0.55682486699 0.55728494001 -0.21655384001 -0.55861552284 0.58082127441 -0.21690144738 -0.56093612008 0.60496519241 -0.21715349380 -0.48145839453 0.42693359221 -0.21230902968 -0.48126144242 0.44281946038 -0.21305275400 -0.48124174717 0.45987084047 -0.21376646768 -0.48151519586 0.47801970406 -0.21444808890 -0.48219767557 0.49719802273 -0.21509553580 -0.48340507341 0.51733776807 -0.21570672655 -0.48525327644 0.53837091166 -0.21627957931 -0.48785817177 0.56022942508 -0.21681201223 -0.49133564648 0.58284527992 -0.21730194347 -0.49580158766 0.60615044777 -0.21774729119 -0.40733336134 0.43546016089 -0.21251255871 -0.40736468355 0.45066912902 -0.21322295041 -0.40765125209 0.46695874529 -0.21391107580 -0.40843957552 0.48428301396 -0.21458344311 -0.40997616244 0.50259593930 -0.21524656058 -0.41250752140 0.52185152558 -0.21590693644 -0.41628016101 0.54200377706 -0.21657107892 -0.42154058982 0.56300669802 -0.21724549626 -0.42853531643 0.58481429271 -0.21793669668 -0.43751084941 0.60738056541 -0.21865118843 -0.33326683279 0.44251161667 -0.21267943988 -0.33335949623 0.45723041855 -0.21337267166 -0.33391131466 0.47294058187 -0.21404992987 -0.33538044852 0.48961955335 -0.21472935212 -0.33822505824 0.50724477970 -0.21542907599 -0.34290330426 0.52579370766 -0.21616723907 -0.34987334702 0.54524378394 -0.21696197895 -0.35959334694 0.56557245526 -0.21783143321 -0.37252146447 0.58675716835 -0.21879373945 -0.38911586004 0.60877536992 -0.21986703524 -1.00702859058 0.31748599124 -0.19592576084 -0.98261584642 0.35274553705 -0.19746769388 -0.96357142044 0.38677217818 -0.19883738622 -0.94920439158 0.41960284812 -0.20004781048 -0.93882383874 0.45127448040 -0.20111193924 -0.93173884084 0.48182400851 -0.20204274513 -0.92725847681 0.51128836597 -0.20285320072 -0.92469182556 0.53970448630 -0.20355627863 -0.92334796601 0.56710930299 -0.20416495146 -0.92253597709 0.59353974955 -0.20469219181 -0.93080810382 0.33894206581 -0.19647762302 -0.91368701781 0.36930448353 -0.19774190336 -0.90041487004 0.39926521119 -0.19889507263 -0.89058392497 0.42880605651 -0.19994302449 -0.88378644705 0.45790882722 -0.20089165263 -0.87961470072 0.48655533104 -0.20174685072 -0.87766095045 0.51472737570 -0.20251451241 -0.87751746068 0.54240676894 -0.20320053139 -0.87877649587 0.56957531847 -0.20381080133 -0.88103032047 0.59621483203 -0.20435121589 -0.85506807487 0.35830950193 -0.19697483851 -0.84361888699 0.38467594010 -0.19801825468 -0.83479939739 0.41125006877 -0.19899716460 -0.82838661997 0.43797598146 -0.19991210942 -0.82415756863 0.46479777170 -0.20076363028 -0.82188925726 0.49165953303 -0.20155226833 -0.82135869975 0.51850535896 -0.20227856469 -0.82234291000 0.54527934303 -0.20294306052 -0.82461890191 0.57192557875 -0.20354629695 -0.82796368937 0.59838815967 -0.20408881513 -0.77974814971 0.37567192883 -0.19741931977 -0.77255587312 0.39884301824 -0.19829173867 -0.76705051628 0.42264003594 -0.19913365493 -0.76312153929 0.44698465048 -0.19994191781 -0.76065840226 0.47179853042 -0.20071337661 -0.75955056530 0.49700334435 -0.20144488059 -0.75968748852 0.52252076082 -0.20213327904 -0.76095863202 0.54827244840 -0.20277542123 -0.76325345592 0.57418007566 -0.20336815645 -0.76646142031 0.60016531116 -0.20390833396 -0.70478797435 0.39111297570 -0.19781297925 -0.70064239541 0.41178882945 -0.19855734619 -0.69749374052 0.43334839774 -0.19929453640 -0.69529774565 0.45570409107 -0.20001930223 -0.69401014674 0.47876831994 -0.20072639603 -0.69358667973 0.50245349487 -0.20141057014 -0.69398308059 0.52667202636 -0.20206657693 -0.69515508526 0.55133632491 -0.20268916873 -0.69705842968 0.57635880102 -0.20327309791 -0.69964884982 0.60165186520 -0.20381311681 -0.63012719479 0.40471627178 -0.19815772938 -0.62802287302 0.42349648521 -0.19881006807 -0.62645458392 0.44328843919 -0.19946980181 -0.62542430176 0.46400633073 -0.20013111523 -0.62493400083 0.48556435683 -0.20078819296 -0.62498565541 0.50787671447 -0.20143521961 -0.62558123977 0.53085760066 -0.20206637983 -0.62672272821 0.55442121239 -0.20267585823 -0.62841209500 0.57848174667 -0.20325783946 -0.63065131442 0.60295340049 -0.20380650812 -0.55570545703 0.41656544628 -0.19845548263 -0.55484172515 0.43394909701 -0.19904489516 -0.55425856027 0.45237344534 -0.19964944395 -0.55401027034 0.47176339698 -0.20026420938 -0.55415116333 0.49204385764 -0.20088427181 -0.55473554719 0.51313973300 -0.20150471163 -0.55581772989 0.53497592879 -0.20212060921 -0.55745201939 0.55747735071 -0.20272704494 -0.55969272364 0.58056890445 -0.20331909919 -0.56259415061 0.60417549572 -0.20389185233 -0.48146240707 0.42674412842 -0.19870815143 -0.48124337098 0.44312977635 -0.19925681830 -0.48123118338 0.46051670122 -0.19982345561 -0.48156471411 0.47884731732 -0.20040543722 -0.48238283302 0.49806403894 -0.20100013700 -0.48382440995 0.51810928035 -0.20160492882 -0.48602831477 0.53892545584 -0.20221718655 -0.48913341730 0.56045497969 -0.20283428406 -0.49327858741 0.58264026618 -0.20345359521 -0.49860269493 0.60542372960 -0.20407249388 -0.40733769091 0.43533594742 -0.19891764823 -0.40737222969 0.45102163470 -0.19944082833 -0.40769796704 0.46763149185 -0.19998182958 -0.40859669577 0.48513011925 -0.20054165133 -0.41035020868 0.50348211730 -0.20112129296 -0.41324029856 0.52265208637 -0.20172175383 -0.41754875822 0.54260462688 -0.20234403332 -0.42355738046 0.56330433919 -0.20298913080 -0.43154795809 0.58471582371 -0.20365804563 -0.44180228389 0.60680368082 -0.20435177719 -0.33327095455 0.44242453250 -0.19908588548 -0.33337272046 0.45760778357 -0.19959191610 -0.33398442507 0.47363110227 -0.20011455864 -0.33561527805 0.49048383028 -0.20065970425 -0.33877448909 0.50815530928 -0.20123324408 -0.34397126787 0.52663488095 -0.20184106928 -0.35171482407 0.54591188698 -0.20248907100 -0.36251436738 0.56597566906 -0.20318314037 -0.37687910747 0.58681556886 -0.20392916856 -0.39531825402 0.60842092807 -0.20473304671 -1.00702823869 0.31789896915 -0.18169582632 -0.98261547918 0.35319060564 -0.18219198498 -0.96357126917 0.38724044375 -0.18280340887 -0.94920463390 0.42008627501 -0.18351643678 -0.93882459865 0.45176589094 -0.18431740745 -0.93174018866 0.48231708306 -0.18519265965 -0.92726042920 0.51177764288 -0.18612853216 -0.92469434553 0.54018536191 -0.18711136373 -0.92335096289 0.56757803169 -0.18812749313 -0.92253930656 0.59399344373 -0.18916325913 -0.93080828078 0.33935181791 -0.18236495735 -0.91368729723 0.36973857082 -0.18285881487 -0.90041540648 0.39971656749 -0.18345558177 -0.89058483841 0.42926822900 -0.18414543683 -0.88378782289 0.45837597641 -0.18491855887 -0.87961658979 0.48702223081 -0.18576512668 -0.87766336899 0.51518941325 -0.18667531905 -0.87752039036 0.54285994480 -0.18763931479 -0.87877988377 0.57001624654 -0.18864729269 -0.88103407909 0.59664073954 -0.18968943156 -0.85506903345 0.35871651301 -0.18295377972 -0.84362000285 0.38510123998 -0.18344107805 -0.83480077477 0.41168796022 -0.18402050551 -0.82838833252 0.43842121056 -0.18468519711 -0.82415965944 0.46524552784 -0.18542828784 -0.82189173886 0.49210544890 -0.18624291271 -0.82136155410 0.51894551059 -0.18712220672 -0.82234608849 0.54571024974 -0.18805930486 -0.82462232535 0.57234420320 -0.18904734213 -0.82796724803 0.59879190780 -0.19007945354 -0.77975003800 0.37607660678 -0.18346735479 -0.77255792575 0.39926141082 -0.18394453515 -0.76705280613 0.42306745343 -0.18450433576 -0.76312410208 0.44741673968 -0.18514202071 -0.76066123655 0.47223127466 -0.18585285410 -0.75955363249 0.49743306345 -0.18663210003 -0.75969071283 0.52294411116 -0.18747502261 -0.76096190052 0.54868642285 -0.18837688594 -0.76325661851 0.57458200363 -0.18933295411 -0.76646428973 0.60055285857 -0.19033849123 -0.70479083576 0.39151565156 -0.18391074389 -0.70064539563 0.41220188104 -0.18437494682 -0.69749693268 0.43376787861 -0.18491322816 -0.69530113295 0.45612633635 -0.18552221072 -0.69401368248 0.47918994631 -0.18619851736 -0.69359026732 0.50287140056 -0.18693877090 -0.69398657351 0.52708339119 -0.18773959417 -0.69515828708 0.55173861025 -0.18859761002 -0.69706109409 0.57674974981 -0.18950944128 -0.69965068057 0.60202950194 -0.19047171078 -0.63013096802 0.40511719968 -0.18428900836 -0.62802674218 0.42390544832 -0.18473807370 -0.62645858651 0.44370206727 -0.18525333835 -0.62542841096 0.46442152056 -0.18583207026 -0.62493812547 0.48597827223 -0.18647153736 -0.62498963998 0.50828678634 -0.18716900758 -0.62558486444 0.53126152693 -0.18792174885 -0.62672570879 0.55481695804 -0.18872702911 -0.62841408297 0.57886754370 -0.18958211630 -0.63065189691 0.60332774798 -0.19048427834 -0.55570997610 0.41696480349 -0.18460720955 -0.55484629510 0.43435491037 -0.18503967641 -0.55426319973 0.45278285088 -0.18553082199 -0.55401492197 0.47217381229 -0.18607790242 -0.55415569377 0.49245298187 -0.18667817382 -0.55473974711 0.51354554690 -0.18732889233 -0.55582131395 0.53537669463 -0.18802731408 -0.55745462626 0.55787161234 -0.18877069520 -0.55969391600 0.58095548729 -0.18955629182 -0.56259341513 0.60455350677 -0.19038136006 -0.48146740131 0.42714201532 -0.18487040880 -0.48124838409 0.44353306487 -0.18528551562 -0.48123620445 0.46092306094 -0.18575183473 -0.48156965182 0.47925473154 -0.18626601030 -0.48238751564 0.49847080467 -0.18682468648 -0.48382858534 0.51851400833 -0.18742450744 -0.48603165035 0.53932707053 -0.18806211732 -0.48913550011 0.56085271927 -0.18873416029 -0.49327892404 0.58303368255 -0.18943728049 -0.49860071158 0.60581268838 -0.19016812209 -0.40734278495 0.43573238750 -0.18508366746 -0.40737733884 0.45142270952 -0.18548135194 -0.40770303276 0.46803552895 -0.18592253220 -0.40860158637 0.48553579830 -0.18640269700 -0.41035471933 0.50388847006 -0.18691733507 -0.41324415130 0.52305849675 -0.18746193515 -0.41755160196 0.54301083088 -0.18803198600 -0.42355879095 0.56371042494 -0.18862297636 -0.43154743796 0.58512223144 -0.18923039498 -0.44179926263 0.60721120290 -0.18984973059 -0.33327566833 0.44281947237 -0.18525204686 -0.33337748906 0.45800664202 -0.18563294602 -0.33398911678 0.47403308640 -0.18604907007 -0.33561971146 0.49088853255 -0.18649426562 -0.33877843308 0.50856270749 -0.18696237930 -0.34397444163 0.52704533827 -0.18744725775 -0.35171689708 0.54632615192 -0.18794274758 -0.36251495941 0.56639487546 -0.18844269543 -0.37687778862 0.58724123594 -0.18894094793 -0.39531454466 0.60885496039 -0.18943135171 -1.00703856718 0.32191115918 -0.16780511235 -0.98505888117 0.35556340693 -0.16708692045 -0.96785167486 0.38848460978 -0.16681765776 -0.95474472091 0.42061490727 -0.16695319737 -0.94506579198 0.45189443894 -0.16744941238 -0.93814266073 0.48226334432 -0.16826217586 -0.93330309982 0.51166176295 -0.16934736091 -0.92987488191 0.54002983437 -0.17066084061 -0.92718577967 0.56730769811 -0.17215848806 -0.92456356575 0.59343549372 -0.17379617634 -0.93081628740 0.34250649529 -0.16857287887 -0.91540397899 0.37158504344 -0.16815100264 -0.90342222528 0.40066393736 -0.16808563983 -0.89447642183 0.42965455691 -0.16834874853 -0.88817196420 0.45846828199 -0.16891228687 -0.88411424793 0.48701649247 -0.16974821293 -0.88190866857 0.51521056825 -0.17082848482 -0.88116062166 0.54296188920 -0.17212506065 -0.88147550277 0.57018183520 -0.17360989852 -0.88245870743 0.59678178613 -0.17525495654 -0.85507558619 0.36119000525 -0.16923833296 -0.84477097760 0.38652828364 -0.16904240668 -0.83681556825 0.41239756867 -0.16912965382 -0.83099481793 0.43869215442 -0.16948433446 -0.82709418646 0.46530633500 -0.17009070869 -0.82489913365 0.49213440450 -0.17093303659 -0.82419511929 0.51907065701 -0.17199557825 -0.82476760321 0.54600938663 -0.17326259374 -0.82640204520 0.57284488745 -0.17471834317 -0.82888390508 0.59947145358 -0.17634708661 -0.77975582004 0.37802405319 -0.16980926647 -0.77328393074 0.40036314030 -0.16977787074 -0.76832120615 0.42359129288 -0.16997267559 -0.76476113238 0.44759592982 -0.17038665521 -0.76249719553 0.47226447000 -0.17101278379 -0.76142288172 0.49748433233 -0.17184403554 -0.76143167706 0.52314293568 -0.17287338465 -0.76241706766 0.54912769894 -0.17409380532 -0.76427253963 0.57532604102 -0.17549827174 -0.76689157908 0.60162538078 -0.17707975810 -0.70479634547 0.39307100323 -0.17029347123 -0.70106689212 0.41305962617 -0.17037413298 -0.69822864137 0.43415089913 -0.17063768098 -0.69623658834 0.45623411310 -0.17108241082 -0.69504572817 0.47919855903 -0.17170661813 -0.69461105599 0.50293352791 -0.17250859849 -0.69488756694 0.52732831072 -0.17348664751 -0.69583025614 0.55227219842 -0.17463906079 -0.69739411874 0.57765448201 -0.17596413395 -0.69953414985 0.60336445244 -0.17746016257 -0.63013651898 0.40639321951 -0.17069873909 -0.62824391546 0.42458775403 -0.17084793157 -0.62682737628 0.44398217659 -0.17114764583 -0.62588240900 0.46447493426 -0.17159830136 -0.62540452115 0.48596447411 -0.17220031763 -0.62538922030 0.50834924319 -0.17295411411 -0.62583201399 0.53152768859 -0.17386011027 -0.62672840977 0.55539825735 -0.17491872558 -0.62807391518 0.57985939655 -0.17613037953 -0.62986403779 0.60480955326 -0.17749549157 -0.55571569708 0.41805306617 -0.17103286190 -0.55493905447 0.43491753663 -0.17121600467 -0.55440691327 0.45299091439 -0.17152554600 -0.55415981752 0.47218662331 -0.17196102687 -0.55423831124 0.49241808727 -0.17252198825 -0.55468293848 0.51359873012 -0.17320797110 -0.55553424327 0.53564197575 -0.17401851639 -0.55683276965 0.55846124801 -0.17495316511 -0.55861906164 0.58196997079 -0.17601145820 -0.56093366329 0.60608156794 -0.17719293666 -0.48147323627 0.42811290732 -0.17130363148 -0.48127636287 0.44401898675 -0.17149509045 -0.48125675472 0.46108290170 -0.17179435734 -0.48153003708 0.47923741026 -0.17219728741 -0.48221183521 0.49841527054 -0.17269973593 -0.48341777438 0.51854924064 -0.17329755816 -0.48526347986 0.53957207866 -0.17398660936 -0.48786457690 0.56141654269 -0.17476274478 -0.49133669079 0.58401539083 -0.17562181970 -0.49579544677 0.60730138119 -0.17655968937 -0.40734849307 0.43663510711 -0.17151883969 -0.40737989439 0.45186211715 -0.17170192707 -0.40766640301 0.46816392766 -0.17197705568 -0.40845429085 0.48549552510 -0.17233378302 -0.40998982982 0.50381189596 -0.17276166662 -0.41251929183 0.52306802669 -0.17325026398 -0.41628894881 0.54321890377 -0.17378913261 -0.42154507265 0.56421951365 -0.17436783003 -0.42853393528 0.58602484281 -0.17497591375 -0.43750180861 0.60858987771 -0.17560294127 -0.33328082398 0.44368202966 -0.17168627837 -0.33337370273 0.45841694059 -0.17185325270 -0.33392536052 0.47413978142 -0.17209661687 -0.33539380200 0.49082919785 -0.17239721376 -0.33823703184 0.50846383556 -0.17273588626 -0.34291305468 0.52702234023 -0.17309347725 -0.34987987518 0.54648335755 -0.17345082963 -0.35959549801 0.56682553319 -0.17378878627 -0.37251792781 0.58802751286 -0.17408819007 -0.38910516923 0.61006794222 -0.17432988391 -1.00705958473 0.32950931773 -0.15472293586 -0.98994608054 0.35985737937 -0.15238048222 -0.97641259534 0.39050318025 -0.15093008085 -0.96582448713 0.42119069934 -0.15029101700 -0.95754711392 0.45166391561 -0.15038257593 -0.95094583371 0.48166680801 -0.15112404287 -0.94538600451 0.51094335551 -0.15243470309 -0.94023298432 0.53923753707 -0.15423384184 -0.93485213116 0.56629333167 -0.15644074437 -0.92860880301 0.59185471826 -0.15897469592 -0.93083211755 0.34839251523 -0.15558240456 -0.91883707444 0.37483613050 -0.15388514387 -0.90943528480 0.40210406868 -0.15289367901 -0.90225854032 0.42996494129 -0.15255802340 -0.89693863270 0.45818735985 -0.15282819047 -0.89310735364 0.48653993589 -0.15365419366 -0.89039649483 0.51479128094 -0.15498604638 -0.88843784795 0.54271000651 -0.15677376206 -0.88686320472 0.57006472414 -0.15896735414 -0.88530435681 0.59662404535 -0.16151683603 -0.85508770624 0.36571613760 -0.15631858558 -0.84707179924 0.38894835877 -0.15511903650 -0.84084373330 0.41337428188 -0.15447856405 -0.83620597235 0.43878713676 -0.15437068221 -0.83296098033 0.46498015323 -0.15476890499 -0.83091122119 0.49174656114 -0.15564674635 -0.82985915886 0.51887959032 -0.15697772028 -0.82960725728 0.54617247058 -0.15873534078 -0.82995798040 0.57341843177 -0.16089312182 -0.83071379216 0.60041070372 -0.16342457740 -0.77976544459 0.38150023731 -0.15694192104 -0.77473384928 0.40213879404 -0.15611115505 -0.77085566705 0.42420593373 -0.15572677835 -0.76803255702 0.44751938288 -0.15577893589 -0.76616617830 0.47189686804 -0.15625777261 -0.76515819003 0.49715611570 -0.15715343347 -0.76491025133 0.52311485241 -0.15845606342 -0.76532402132 0.54959080467 -0.16015580741 -0.76630115911 0.57640169901 -0.16224281040 -0.76774332385 0.60336526195 -0.16470721734 -0.70480442643 0.39576486683 -0.15746285302 -0.70190681889 0.41435216621 -0.15689049447 -0.69968881225 0.43449113813 -0.15668036430 -0.69810406811 0.45602377683 -0.15683272685 -0.69710624811 0.47879207655 -0.15734784648 -0.69664901385 0.50263803152 -0.15822598754 -0.69668602695 0.52740363597 -0.15946741439 -0.69717094905 0.55293088415 -0.16107239137 -0.69805744174 0.57906177029 -0.16304118285 -0.69929916666 0.60563828862 -0.16537405317 -0.63014374556 0.40853007862 -0.15789182363 -0.62867430241 0.42553320513 -0.15748604970 -0.62756089510 0.44412200896 -0.15738136426 -0.62678627944 0.46416241573 -0.15758199754 -0.62633321124 0.48552035105 -0.15809217975 -0.62618444631 0.50806174052 -0.15891614110 -0.62632274045 0.53165250978 -0.16005811181 -0.62673084947 0.55615858442 -0.16152232208 -0.62739152918 0.58144589006 -0.16331300215 -0.62828753538 0.60738035231 -0.16543438222 -0.55572249581 0.41981592514 -0.15823927497 -0.55511989416 0.43562664069 -0.15792681566 -0.55468964179 0.45299066013 -0.15787182062 -0.55444496479 0.47179739674 -0.15807669039 -0.55439908920 0.49193626382 -0.15854382555 -0.55456524110 0.51329667468 -0.15927562666 -0.55495664654 0.53576804259 -0.16027449427 -0.55558653159 0.55923978085 -0.16154282896 -0.55646812232 0.58360130276 -0.16308303128 -0.55761464479 0.60874202161 -0.16489750180 -0.48147977098 0.42964245886 -0.15851564914 -0.48132718847 0.44457720277 -0.15824178731 -0.48129277854 0.46098920551 -0.15819377573 -0.48144589795 0.47879081700 -0.15836674783 -0.48185590348 0.49789438716 -0.15875583703 -0.48259215188 0.51821226591 -0.15935617675 -0.48372399994 0.53965680316 -0.16016290040 -0.48532080441 0.56214034883 -0.16117114142 -0.48745192207 0.58557525283 -0.16237603322 -0.49018670968 0.60987386508 -0.16377270923 -0.40735466489 0.43802973224 -0.15873138824 -0.40737977969 0.45232962124 -0.15845995958 -0.40758803154 0.46800975900 -0.15838927199 -0.40815485273 0.48500477367 -0.15850211230 -0.40925567557 0.50324929335 -0.15878126733 -0.41106593235 0.52267794618 -0.15920952389 -0.41376105537 0.54322536026 -0.15976966880 -0.41751647692 0.56482616374 -0.16044448888 -0.42250762930 0.58741498471 -0.16121677096 -0.42890994481 0.61092645132 -0.16206930185 -0.33328627136 0.44499779775 -0.15889693438 -0.33336126214 0.45882862597 -0.15861032741 -0.33379312699 0.47394443450 -0.15850035177 -0.33493760292 0.49030136389 -0.15853272623 -0.33715042697 0.50785555468 -0.15867316958 -0.34078733617 0.52656314742 -0.15888740060 -0.34620406754 0.54638028266 -0.15914113807 -0.35375635811 0.56726310096 -0.15940010076 -0.36379994492 0.58916774285 -0.15963000746 -0.37669056499 0.61205034890 -0.15979657696 -1.00709130005 0.34068020122 -0.14291861376 -0.99727710546 0.36606596139 -0.13830065222 -0.98925398842 0.39329465915 -0.13519062612 -0.98244376710 0.42181560568 -0.13346282040 -0.97626825967 0.45107811218 -0.13299151998 -0.97014928429 0.48053148985 -0.13365100982 -0.96350865914 0.50962504988 -0.13531557483 -0.95576820238 0.53780810346 -0.13785949997 -0.94634973219 0.56452996178 -0.14115707017 -0.93467506672 0.58923993604 -0.14508257037 -0.93085576508 0.35699629499 -0.14387455140 -0.92398659494 0.37948406108 -0.14032791576 -0.91845454339 0.40403370936 -0.13798813150 -0.91393105895 0.43019928319 -0.13677832522 -0.91008759012 0.45753482592 -0.13662162354 -0.90659558545 0.48559438092 -0.13744115306 -0.90312649343 0.51393199154 -0.13916004038 -0.89935176259 0.54210170114 -0.14170141212 -0.89494284145 0.56965755309 -0.14498839488 -0.88957117853 0.59615359074 -0.14894411527 -0.85510536672 0.37228106899 -0.14468462497 -0.85052245576 0.39235275303 -0.14196776343 -0.84688522539 0.41461348759 -0.14022119071 -0.84402169192 0.43870448124 -0.13940540111 -0.84175987170 0.46426694258 -0.13948088890 -0.83992778105 0.49094208018 -0.14040814838 -0.83835343632 0.51837110264 -0.14214767384 -0.83686485383 0.54619521852 -0.14465995957 -0.83529004991 0.57405563641 -0.14790549986 -0.83345704090 0.60159356490 -0.15184478900 -0.77977886040 0.38649112842 -0.14536218474 -0.77690764255 0.40457895943 -0.14326379773 -0.77465613953 0.42490575541 -0.14195474800 -0.77293830284 0.44718426086 -0.14142197732 -0.77166808399 0.47112722032 -0.14165242745 -0.77075943445 0.49644737832 -0.14263304014 -0.77012630574 0.52285747938 -0.14435075715 -0.76968264934 0.55007026803 -0.14679252025 -0.76934241676 0.57779848880 -0.14994527118 -0.76901955950 0.60575488622 -0.15379595172 -0.70481500157 0.39958307848 -0.14592058100 -0.70316510994 0.41606960250 -0.14425962112 -0.70187739096 0.43478227441 -0.14325374757 -0.70090352854 0.45549168305 -0.14290598313 -0.70019520658 0.47796841729 -0.14321935059 -0.69970410897 0.50198306598 -0.14419687271 -0.69938191961 0.52730621798 -0.14584157229 -0.69918032240 0.55370846214 -0.14815647210 -0.69905100122 0.58096038733 -0.15114459493 -0.69894563998 0.60883258240 -0.15480896356 -0.63015254568 0.41151352436 -0.14637316402 -0.62931781255 0.42673160444 -0.14499883610 -0.62865908480 0.44411480619 -0.14418313366 -0.62814000584 0.46347980885 -0.14393534782 -0.62772421909 0.48464329165 -0.14426476971 -0.62737536796 0.50742193383 -0.14518069046 -0.62705709587 0.53163241463 -0.14669240120 -0.62673304625 0.55709141330 -0.14880919306 -0.62636686249 0.58361560905 -0.15154035717 -0.62592218803 0.61102168115 -0.15489518466 -0.55573024816 0.42223907125 -0.14673328408 -0.55538870503 0.43647188744 -0.14552504514 -0.55511132618 0.45277511233 -0.14480785047 -0.55487037156 0.47100169926 -0.14458800063 -0.55463810110 0.49100460155 -0.14487179620 -0.55438677474 0.51263677254 -0.14566553775 -0.55408865245 0.53575116557 -0.14697552585 -0.55371599414 0.56020073395 -0.14880806107 -0.55324105978 0.58583843104 -0.15116944399 -0.55263610930 0.61251721015 -0.15406597516 -0.48148686446 0.43171632437 -0.14701429145 -0.48140074201 0.44519737371 -0.14588185072 -0.48134422024 0.46063495442 -0.14519284222 -0.48131726252 0.47791041530 -0.14494187085 -0.48131983220 0.49690510515 -0.14512354147 -0.48135189266 0.51750037277 -0.14573245896 -0.48141340726 0.53957756698 -0.14676322820 -0.48150433935 0.56301803657 -0.14821045407 -0.48162465230 0.58770313035 -0.15006874145 -0.48177430948 0.61351419713 -0.15233269521 -0.40736115004 0.43990188889 -0.14722953642 -0.40737687812 0.45281498546 -0.14611285531 -0.40746787210 0.46756609406 -0.14540305315 -0.40770331554 0.48405901799 -0.14507488773 -0.40815239201 0.50219756060 -0.14510311689 -0.40888428505 0.52188552518 -0.14546249845 -0.40996817823 0.54302671507 -0.14612779021 -0.41147325511 0.56552493359 -0.14707375000 -0.41346869925 0.58928398404 -0.14827513564 -0.41602369422 0.61420766977 -0.14970670494 -0.33329186032 0.44675237001 -0.14739236926 -0.33334006799 0.45923164488 -0.14626166141 -0.33359238690 0.47344029281 -0.14550342746 -0.33425116746 0.48930056836 -0.14506498056 -0.33551876010 0.50673472605 -0.14489363388 -0.33759751524 0.52566502044 -0.14493670058 -0.34068978329 0.54601370607 -0.14514149383 -0.34499791469 0.56770303747 -0.14545532679 -0.35072425985 0.59065526919 -0.14582551263 -0.35807116919 0.61479265578 -0.14619936450 -1.00713372184 0.35541056607 -0.13286146296 -1.00705198409 0.37418259143 -0.12507541238 -1.00637581192 0.39685755044 -0.11964924155 -1.00460239535 0.42249158072 -0.11640153229 -1.00122892442 0.45014081989 -0.11515086643 -0.99575258915 0.47886140557 -0.11571582581 -0.98767057957 0.50770947538 -0.11791499224 -0.97648008570 0.53574116694 -0.12156694756 -0.96167829758 0.56201261787 -0.12649027360 -0.94276240522 0.58557996579 -0.13250355218 -0.93088722385 0.36830425184 -0.13393033637 -0.93085255186 0.38552106426 -0.12774599551 -0.93047995943 0.40644960728 -0.12347742949 -0.92949384279 0.43035748365 -0.12101471780 -0.92761859819 0.45651229611 -0.12024793991 -0.92457862186 0.48418164740 -0.12106717532 -0.92009831003 0.51263314028 -0.12336250349 -0.91390205894 0.54113437748 -0.12702400391 -0.90571426483 0.56895296176 -0.13194175607 -0.89525932392 0.59535649586 -0.13800583944 -0.85512854079 0.38087095835 -0.13482653848 -0.85512293517 0.39673275409 -0.12988538341 -0.85493999998 0.41611057354 -0.12651148834 -0.85444187279 0.43844251157 -0.12464965187 -0.85349069120 0.46316666308 -0.12424467258 -0.85194859280 0.48972112296 -0.12524134907 -0.84967771519 0.51754398608 -0.12758447991 -0.84654019595 0.54607334734 -0.13121886370 -0.84239817267 0.57474730162 -0.13608929903 -0.83711378294 0.60300394382 -0.14214058449 -0.77979601625 0.39298269576 -0.13556692382 -0.77980527173 0.40767422385 -0.13155520838 -0.77972257430 0.42568513735 -0.12884468847 -0.77947829671 0.44658772572 -0.12741889407 -0.77900281169 0.46995427842 -0.12726135521 -0.77822649201 0.49535708490 -0.12835560189 -0.77707971040 0.52236843462 -0.13068516410 -0.77549283961 0.55056061703 -0.13423357186 -0.77339625239 0.57950592159 -0.13898435516 -0.77072032149 0.60877663775 -0.14492104402 -0.70482799386 0.40451147428 -0.13616834692 -0.70484169925 0.41820203643 -0.13281710274 -0.70479432314 0.43501798682 -0.13057030024 -0.70463492591 0.45463418729 -0.12943500399 -0.70431256790 0.47672549970 -0.12941827859 -0.70377630947 0.50096678590 -0.13052718862 -0.70297521099 0.52703290775 -0.13276879866 -0.70185833281 0.55459872710 -0.13615017330 -0.70037473529 0.58333910580 -0.14067837712 -0.69847347879 0.61292890570 -0.14636047471 -0.63016281724 0.41532930407 -0.13664766232 -0.63017435543 0.42817275477 -0.13373269879 -0.63012188724 0.44395381008 -0.13178159402 -0.62994357176 0.46242295750 -0.13081054119 -0.62957756805 0.48333068451 -0.13083573348 -0.62896203521 0.50642747862 -0.13187336408 -0.62803513231 0.53146382730 -0.13393962618 -0.62673501843 0.55819021806 -0.13705071295 -0.62499985265 0.58635713838 -0.14122281759 -0.62276779405 0.61571507575 -0.14647213328 -0.55573883000 0.42530819534 -0.13702172454 -0.55574537798 0.43744294178 -0.13436362884 -0.55567190733 0.45233729526 -0.13257184018 -0.55543604561 0.46979509756 -0.13165806524 -0.55495542039 0.48962019045 -0.13163401067 -0.55414765922 0.51161641571 -0.13251138312 -0.55293038969 0.53558761512 -0.13430188926 -0.55122123934 0.56133763044 -0.13701723575 -0.54893783576 0.58867030347 -0.14066912925 -0.54599780650 0.61738947596 -0.14526927641 -0.48149437575 0.43432015826 -0.13730738810 -0.48149690462 0.44586916038 -0.13477152518 -0.48141102416 0.46001313048 -0.13303430910 -0.48114415884 0.47659166868 -0.13209013572 -0.48060373314 0.49544437510 -0.13193340092 -0.47969717153 0.51641084985 -0.13255850056 -0.47833189847 0.53933069304 -0.13395983050 -0.47641533844 0.56404350478 -0.13613178662 -0.47385491590 0.59038888520 -0.13906876476 -0.47055805534 0.61820643440 -0.14276516082 -0.40736779811 0.44223720302 -0.13752150754 -0.40737107304 0.45330797348 -0.13501802013 -0.40730587845 0.46682600386 -0.13326227113 -0.40709972281 0.48265373208 -0.13221931221 -0.40668011455 0.50065359605 -0.13185419503 -0.40597456213 0.52068803369 -0.13213197124 -0.40491057399 0.54261948290 -0.13301769250 -0.40341565859 0.56631038160 -0.13447641047 -0.40141732438 0.59162316770 -0.13647317681 -0.39884307980 0.61842027912 -0.13897304318 -0.33329744070 0.44893133981 -0.13768093738 -0.33331002096 0.45961594400 -0.13516474598 -0.33332311096 0.47262060352 -0.13334899665 -0.33333454887 0.48782234896 -0.13215815428 -0.33334217284 0.50509821089 -0.13151668376 -0.33334382103 0.52432521990 -0.13134904999 -0.33333733159 0.54538040655 -0.13157971785 -0.33332054269 0.56814080143 -0.13213315224 -0.33329129247 0.59248343512 -0.13293381806 -0.33324741909 0.61828533820 -0.13390618020 </DataArray>
</Points>
</Piece>
</StructuredGrid>
</VTKFile>
