<?xml version="1.0"?>
<VTKFile type="StructuredGrid" version="0.1">
<StructuredGrid WholeExtent="0 9 0 9 0 9">
<Piece Extent="0 9 0 9 0 9">
<PointData>
<DataArray type="Float32" Name="Deformation" format="ascii" NumberOfComponents="3">
-0.00030897101 0.01472177938 0.00610876760 -0.00032212221 0.01451987818 0.00588894359 -0.00033643797 0.01425835404 0.00572218105 -0.00035181874 0.01394821085 0.00560262424 -0.00036816496 0.01360045251 0.00552441742 -0.00038537709 0.01322608289 0.00548170484 -0.00040335557 0.01283610590 0.00546863077 -0.00042200086 0.01244152541 0.00547933947 -0.00044121339 0.01205334533 0.00550797520 -0.00046089363 0.01168256953 0.00554868221 -0.00042339935 0.01444578412 0.00577508950 -0.00042815452 0.01430025783 0.00560480250 -0.00043623230 0.01408506597 0.00547801749 -0.00044743868 0.01381347347 0.00539002676 -0.00046157959 0.01349874528 0.00533612261 -0.00047846102 0.01315414634 0.00531159735 -0.00049788891 0.01279294159 0.00531174328 -0.00051966924 0.01242839599 0.00533185268 -0.00054360796 0.01207377446 0.00536721786 -0.00056951104 0.01174234196 0.00541313111 -0.00054025705 0.01419587498 0.00544967286 -0.00053781450 0.01409685279 0.00531599189 -0.00054141283 0.01392299374 0.00521840535 -0.00055041258 0.01368833531 0.00515319682 -0.00056417429 0.01340691496 0.00511664982 -0.00058205848 0.01309277016 0.00510504792 -0.00060342570 0.01275993840 0.00511467467 -0.00062763648 0.01242245713 0.00514181362 -0.00065405136 0.01209436383 0.00518274831 -0.00068203086 0.01178969597 0.00523376231 -0.00065858774 0.01397313689 0.00513396747 -0.00065025507 0.01391169137 0.00502636494 -0.00065087201 0.01377426446 0.00494918769 -0.00065913710 0.01357446283 0.00489956759 -0.00067374893 0.01332589317 0.00487463650 -0.00069340604 0.01304216215 0.00487152631 -0.00071680702 0.01273687643 0.00488736889 -0.00074265043 0.01242364269 0.00491929610 -0.00076963483 0.01211606762 0.00496443982 -0.00079645878 0.01182775787 0.00501993193 -0.00077743501 0.01377865478 0.00482942316 -0.00076462914 0.01374680189 0.00473977488 -0.00076350228 0.01364100522 0.00467620754 -0.00077200887 0.01347352252 0.00463657225 -0.00078810338 0.01325661155 0.00461872013 -0.00080974025 0.01300253006 0.00462050229 -0.00083487394 0.01272353580 0.00463976985 -0.00086145891 0.01243188653 0.00467437393 -0.00088744962 0.01213984001 0.00472216562 -0.00091080051 0.01185965397 0.00478099606 -0.00089584247 0.01361351358 0.00453748974 -0.00088008961 0.01360421268 0.00446007489 -0.00087819610 0.01352534313 0.00440530793 -0.00088742453 0.01338718084 0.00437164397 -0.00090503751 0.01320000172 0.00435753816 -0.00092829764 0.01297408168 0.00436144563 -0.00095446753 0.01271969664 0.00438182149 -0.00098080977 0.01244712250 0.00441712090 -0.00100458698 0.01216663518 0.00446579897 -0.00102306176 0.01188851058 0.00452631083 -0.00101285373 0.01347879820 0.00425961702 -0.00099578940 0.01348595205 0.00419111818 -0.00099384592 0.01342940528 0.00414233189 -0.00100378072 0.01331710426 0.00411221593 -0.00102235120 0.01315699531 0.00409972807 -0.00104631477 0.01295702480 0.00410382608 -0.00107242885 0.01272513906 0.00412346774 -0.00109745085 0.01246928445 0.00415761082 -0.00111813817 0.01219740732 0.00420521309 -0.00113124823 0.01191745402 0.00426523234 -0.00112751240 0.01337559359 0.00399725481 -0.00111088140 0.01339404833 0.00393675794 -0.00110934420 0.01335531879 0.00389312247 -0.00111947408 0.01326495924 0.00386572130 -0.00113784432 0.01312852395 0.00385392732 -0.00116102820 0.01295156717 0.00385711342 -0.00118559899 0.01273964318 0.00387465252 -0.00120812998 0.01249830624 0.00390591749 -0.00122519443 0.01223311062 0.00395028125 -0.00123336563 0.01194961058 0.00400711670 -0.00123886209 0.01330498466 0.00375185292 -0.00122451852 0.01333052984 0.00370084738 -0.00122358338 0.01330521075 0.00366352271 -0.00123290125 0.01323241228 0.00363959325 -0.00124931674 0.01311551927 0.00362877337 -0.00126967446 0.01295791660 0.00363077742 -0.00129081901 0.01276298913 0.00364531975 -0.00130959499 0.01253412172 0.00367211472 -0.00132284701 0.01227469925 0.00371087669 -0.00132741967 0.01198810658 0.00376132001 -0.00134594639 0.01326805634 0.00352486117 -0.00133585368 0.01329742489 0.00348723970 -0.00133545591 0.01328120827 0.00345937562 -0.00134245887 0.01322112982 0.00344126496 -0.00135456834 0.01311891289 0.00343290369 -0.00136949011 0.01297628084 0.00343428783 -0.00138492998 0.01279495701 0.00344541337 -0.00139859374 0.01257666474 0.00346627631 -0.00140818716 0.01232312740 0.00349687265 -0.00141141605 0.01203606833 0.00353719839 -0.00037640989 0.01444833520 0.00631236437 -0.00039421043 0.01420677065 0.00615342850 -0.00041312190 0.01392964521 0.00602777496 -0.00043307438 0.01362190315 0.00593009185 -0.00045399793 0.01328848873 0.00585506728 -0.00047582264 0.01293434621 0.00579738935 -0.00049847857 0.01256441988 0.00575174617 -0.00052189579 0.01218365398 0.00571282585 -0.00054600437 0.01179699280 0.00567531648 -0.00057073439 0.01140938060 0.00563390617 -0.00048335791 0.01422011284 0.00594342059 -0.00049615525 0.01401903634 0.00581995257 -0.00051057007 0.01377602589 0.00572339558 -0.00052661067 0.01349790563 0.00565007153 -0.00054428537 0.01319149968 0.00559630232 -0.00056360245 0.01286363216 0.00555840984 -0.00058457023 0.01252112719 0.00553271599 -0.00060719702 0.01217080890 0.00551554267 -0.00063149110 0.01181950141 0.00550321176 -0.00065746080 0.01147402884 0.00549204517 -0.00059431209 0.01400986483 0.00558947551 -0.00060211894 0.01384399957 0.00549279801 -0.00061261874 0.01363239216 0.00541824580 -0.00062567383 0.01338280063 0.00536334613 -0.00064114651 0.01310298299 0.00532562624 -0.00065889910 0.01280069726 0.00530261339 -0.00067879393 0.01248370146 0.00529183482 -0.00070069332 0.01215975362 0.00529081778 -0.00072445957 0.01183661175 0.00529708952 -0.00074995502 0.01152203387 0.00530817728 -0.00070785170 0.01381935917 0.00525092174 -0.00071092474 0.01368372433 0.00517386929 -0.00071809151 0.01350068993 0.00511542805 -0.00072891882 0.01327817303 0.00507397402 -0.00074297346 0.01302409070 0.00504788322 -0.00075982220 0.01274635999 0.00503553165 -0.00077903183 0.01245289797 0.00503529533 -0.00080016916 0.01215162168 0.00504555027 -0.00082280096 0.01185044820 0.00506467249 -0.00084649403 0.01155729457 0.00509103798 -0.00082255602 0.01365036391 0.00492815188 -0.00082139589 0.01354027461 0.00486507089 -0.00082581197 0.01338286510 0.00481804479 -0.00083500065 0.01318560775 0.00478601362 -0.00084815830 0.01295597488 0.00476791744 -0.00086448132 0.01270143884 0.00476269628 -0.00088316610 0.01242947198 0.00476929019 -0.00090340900 0.01214754663 0.00478663922 -0.00092440643 0.01186313513 0.00481368340 -0.00094535477 0.01158370983 0.00484936279 -0.00093700433 0.01350464708 0.00462155854 -0.00093235565 0.01341571439 0.00456830726 -0.00093460371 0.01328086359 0.00452919845 -0.00094257428 0.01310668967 0.00450352333 -0.00095509314 0.01289978758 0.00449057309 -0.00097098609 0.01266675230 0.00448963893 -0.00098907889 0.01241417878 0.00450001207 -0.00100819732 0.01214866200 0.00452098369 -0.00102716717 0.01187679692 0.00455184500 -0.00104481421 0.01160517852 0.00459188720 -0.00104977590 0.01338397670 0.00433153434 -0.00104262725 0.01331210766 0.00428548287 -0.00104329031 0.01319663131 0.00425199149 -0.00105029470 0.01304300370 0.00423056154 -0.00106217008 0.01285668086 0.00422069436 -0.00107744609 0.01264311883 0.00422189128 -0.00109465237 0.01240777365 0.00423365363 -0.00111231857 0.01215610134 0.00425548277 -0.00112897434 0.01189355796 0.00428688001 -0.00114314931 0.01162559952 0.00432734670 -0.00115945000 0.01329012081 0.00405847188 -0.00115103395 0.01323151840 0.00401850219 -0.00115069536 0.01313211416 0.00398952635 -0.00115681690 0.01299613473 0.00397118666 -0.00116778120 0.01282780678 0.00396312543 -0.00118197092 0.01263135694 0.00396498496 -0.00119776871 0.01241101186 0.00397640756 -0.00121355723 0.01217099820 0.00399703553 -0.00122771912 0.01191554260 0.00402651117 -0.00123863703 0.01164887172 0.00406447679 -0.00126460592 0.01322484743 0.00380276376 -0.00125639898 0.01317601060 0.00376926968 -0.00125564247 0.01308925805 0.00374490547 -0.00126079585 0.01296766767 0.00372945709 -0.00127031860 0.01281431738 0.00372271049 -0.00128267019 0.01263228509 0.00372445165 -0.00129631008 0.01242464870 0.00373446652 -0.00130969776 0.01219448611 0.00375254105 -0.00132129268 0.01194487524 0.00377846122 -0.00132955432 0.01167889399 0.00381201297 -0.00136382292 0.01318992460 0.00356480261 -0.00135754560 0.01314764825 0.00353968982 -0.00135695522 0.01307000889 0.00352123130 -0.00136088655 0.01295918741 0.00350943122 -0.00136817439 0.01281736474 0.00350429373 -0.00137765349 0.01264672178 0.00350582300 -0.00138815864 0.01244943944 0.00351402317 -0.00139852462 0.01222769862 0.00352889841 -0.00140758620 0.01198368025 0.00355045288 -0.00141417815 0.01171956523 0.00357869074 -0.00043875333 0.01412650459 0.00648650917 -0.00045903519 0.01385353581 0.00637245179 -0.00047999608 0.01356221813 0.00627667831 -0.00050181032 0.01325326083 0.00619424509 -0.00052465225 0.01292737318 0.00612020848 -0.00054869621 0.01258526446 0.00604962486 -0.00057411652 0.01222764395 0.00597755059 -0.00060108753 0.01185522092 0.00589904204 -0.00062978355 0.01146870465 0.00580915556 -0.00066037893 0.01106880441 0.00570294752 -0.00054421225 0.01393918892 0.00608124586 -0.00056136880 0.01369566196 0.00599259586 -0.00057880168 0.01342978941 0.00591852511 -0.00059677119 0.01314395072 0.00585602967 -0.00061553764 0.01284052535 0.00580210560 -0.00063536136 0.01252189278 0.00575374897 -0.00065650266 0.01219043245 0.00570795585 -0.00067922184 0.01184852383 0.00566172229 -0.00070377923 0.01149854638 0.00561204435 -0.00073043513 0.01114287956 0.00555591812 -0.00065284793 0.01376415354 0.00569902808 -0.00066632041 0.01354771194 0.00563007090 -0.00068018850 0.01330605510 0.00557305249 -0.00069468137 0.01304263188 0.00552630430 -0.00071002823 0.01276089113 0.00548815780 -0.00072645824 0.01246428172 0.00545694443 -0.00074420060 0.01215625250 0.00543099567 -0.00076348449 0.01184025234 0.00540864297 -0.00078453910 0.01151973008 0.00538821779 -0.00080759361 0.01119813459 0.00536805158 -0.00076330907 0.01360344585 0.00533895149 -0.00077282285 0.01341163954 0.00528487978 -0.00078321923 0.01319272499 0.00524094262 -0.00079461266 0.01295071779 0.00520631284 -0.00080711761 0.01268963351 0.00518016328 -0.00082084854 0.01241348773 0.00516166674 -0.00083591990 0.01212629603 0.00514999608 -0.00085244616 0.01183207398 0.00514432411 -0.00087054177 0.01153483717 0.00514382366 -0.00089032119 0.01123860117 0.00514766757 -0.00087424435 0.01345911328 0.00500011174 -0.00087980894 0.01328939858 0.00495702537 -0.00088695654 0.01309150890 0.00492287769 -0.00089563681 0.01286962195 0.00489729917 -0.00090579940 0.01262791549 0.00487992026 -0.00091739395 0.01237056723 0.00487037141 -0.00093037010 0.01210175492 0.00486828308 -0.00094467752 0.01182565627 0.00487328572 -0.00096026584 0.01154644904 0.00488500978 -0.00097708472 0.01126831094 0.00490308571 -0.00098430246 0.01333320325 0.00468160452 -0.00098621150 0.01318294288 0.00464651053 -0.00099046313 0.01300411660 0.00461953987 -0.00099682560 0.01280075785 0.00460050714 -0.00100506719 0.01257690006 0.00458922696 -0.00101495615 0.01233657666 0.00458551394 -0.00102626075 0.01208382108 0.00458918269 -0.00103874925 0.01182266674 0.00460004782 -0.00105218992 0.01155714709 0.00461792394 -0.00106635102 0.01129129555 0.00464262566 -0.00109213209 0.01322776317 0.00438252548 -0.00109096337 0.01309422623 0.00435333815 -0.00109280167 0.01293225791 0.00433161134 -0.00109725080 0.01274553898 0.00431718063 -0.00110391458 0.01253775023 0.00430988160 -0.00111239684 0.01231257245 0.00430954984 -0.00112230138 0.01207368641 0.00431602092 -0.00113323203 0.01182477291 0.00432913043 -0.00114479261 0.01156951273 0.00434871394 -0.00115658693 0.01131158665 0.00437460705 -0.00119638193 0.01314484047 0.00410197030 -0.00119299737 0.01302520246 0.00407751110 -0.00119303485 0.01287764261 0.00405977428 -0.00119598418 0.01270537882 0.00404856350 -0.00120133519 0.01251162899 0.00404368240 -0.00120857771 0.01229961103 0.00404493461 -0.00121720155 0.01207254283 0.00405212379 -0.00122669654 0.01183364230 0.00406505357 -0.00123655251 0.01158612736 0.00408352760 -0.00124625927 0.01133321589 0.00410734953 -0.00129570066 0.01308648255 0.00383903463 -0.00129124633 0.01297782538 0.00381903223 -0.00129022534 0.01284198051 0.00380471087 -0.00129209751 0.01268169087 0.00379589962 -0.00129632261 0.01249969934 0.00379242756 -0.00130236044 0.01229874882 0.00379412376 -0.00130967079 0.01208158223 0.00380081730 -0.00131771345 0.01185094244 0.00381233726 -0.00132594822 0.01160957237 0.00382851271 -0.00133383488 0.01136021491 0.00384917274 -0.00138873698 0.01305473685 0.00359281414 -0.00138464306 0.01295404878 0.00357790443 -0.00138343584 0.01282698141 0.00356710328 -0.00138466256 0.01267588861 0.00356043285 -0.00138787044 0.01250312427 0.00355791530 -0.00139260672 0.01231104228 0.00355957279 -0.00139841864 0.01210199651 0.00356542747 -0.00140485344 0.01187834084 0.00357550152 -0.00141145834 0.01164242917 0.00358981708 -0.00141778060 0.01139661536 0.00360839633 -0.00049560457 0.01376691860 0.00663128648 -0.00051653313 0.01346988974 0.00654856248 -0.00053745188 0.01316592906 0.00647322526 -0.00055891393 0.01285313077 0.00640063486 -0.00058147237 0.01252958908 0.00632615136 -0.00060568029 0.01219339822 0.00624513480 -0.00063209078 0.01184265240 0.00615294525 -0.00066125694 0.01147544584 0.00604494277 -0.00069373186 0.01108987276 0.00591648742 -0.00073006862 0.01068402737 0.00576293926 -0.00060395416 0.01361438917 0.00618999127 -0.00062247225 0.01333961023 0.00612584725 -0.00064022245 0.01305529904 0.00606762171 -0.00065774363 0.01276113690 0.00601273858 -0.00067557466 0.01245680509 0.00595862177 -0.00069425442 0.01214198490 0.00590269519 -0.00071432179 0.01181635762 0.00584238274 -0.00073631564 0.01147960453 0.00577510836 -0.00076077485 0.01113140693 0.00569829593 -0.00078823829 0.01077144609 0.00560936939 -0.00071294897 0.01347038565 0.00578051764 -0.00072840173 0.01321710686 0.00573114518 -0.00074276631 0.01295206839 0.00568680089 -0.00075653727 0.01267612446 0.00564628252 -0.00077020916 0.01239012927 0.00560838785 -0.00078427655 0.01209493705 0.00557191463 -0.00079923398 0.01179140199 0.00553566061 -0.00081557601 0.01148037833 0.00549842357 -0.00083379721 0.01116272027 0.00545900126 -0.00085439212 0.01083928202 0.00541619144 -0.00082168805 0.01333693223 0.00540052924 -0.00083367284 0.01310412067 0.00536265672 -0.00084459243 0.01285767628 0.00532934848 -0.00085487427 0.01259927046 0.00530021650 -0.00086494583 0.01233057459 0.00527487273 -0.00087523460 0.01205326008 0.00525292917 -0.00088616805 0.01176899830 0.00523399777 -0.00089817363 0.01147946064 0.00521769052 -0.00091167884 0.01118631849 0.00520361937 -0.00092711113 0.01089124325 0.00519139632 -0.00092927040 0.01321605313 0.00504768975 -0.00093763687 0.01300239267 0.00501858233 -0.00094520975 0.01277356186 0.00499385022 -0.00095233402 0.01253175191 0.00497349032 -0.00095935463 0.01227915403 0.00495749957 -0.00096661654 0.01201795942 0.00494587486 -0.00097446471 0.01175035929 0.00493861313 -0.00098324409 0.01147854485 0.00493571129 -0.00099329965 0.01120470731 0.00493716625 -0.00100497635 0.01093103787 0.00494297494 -0.00103479506 0.01310977255 0.00471966281 -0.00103964507 0.01291366390 0.00469712245 -0.00104412724 0.01270116431 0.00467889180 -0.00104849594 0.01247474583 0.00466505382 -0.00105300550 0.01223688054 0.00465569149 -0.00105791029 0.01199004049 0.00465088776 -0.00106346467 0.01173669774 0.00465072561 -0.00106992298 0.01147932437 0.00465528798 -0.00107753957 0.01122039243 0.00466465786 -0.00108656881 0.01096237398 0.00467891819 -0.00113736105 0.01302011469 0.00441411210 -0.00113904873 0.01283967539 0.00439647752 -0.00114085386 0.01264192278 0.00438305893 -0.00114293942 0.01242942924 0.00437385682 -0.00114546840 0.01220476709 0.00436887165 -0.00114860381 0.01197050870 0.00436810392 -0.00115250864 0.01172922641 0.00437155411 -0.00115734587 0.01148349258 0.00437922270 -0.00116327850 0.01123587955 0.00439111017 -0.00117046953 0.01098895967 0.00440721700 -0.00123606739 0.01294910377 0.00412870127 -0.00123519913 0.01278216815 0.00411484800 -0.00123489855 0.01259727645 0.00410493734 -0.00123524387 0.01239697914 0.00409884912 -0.00123631329 0.01218382666 0.00409646319 -0.00123818504 0.01196036948 0.00409765938 -0.00124093732 0.01172915807 0.00410231755 -0.00124464836 0.01149274288 0.00411031752 -0.00124939636 0.01125367438 0.00412153915 -0.00125525954 0.01101450302 0.00413586227 -0.00133001310 0.01289876397 0.00386109398 -0.00132744754 0.01274288322 0.00385043433 -0.00132577029 0.01256866448 0.00384311271 -0.00132498870 0.01237857255 0.00383898055 -0.00132511012 0.01217507220 0.00383788924 -0.00132614192 0.01196062825 0.00383969020 -0.00132809144 0.01173770547 0.00384423484 -0.00133096603 0.01150876867 0.00385137456 -0.00133477306 0.01127628263 0.00386096078 -0.00133951987 0.01104271214 0.00387284490 -0.00141829721 0.01287111952 0.00360895390 -0.00141514524 0.01272356163 0.00360143695 -0.00141297802 0.01255752604 0.00359617077 -0.00141175330 0.01237538648 0.00359320093 -0.00141142885 0.01217951670 0.00359257296 -0.00141196239 0.01197229042 0.00359433243 -0.00141331168 0.01175608139 0.00359852490 -0.00141543447 0.01153326334 0.00360519591 -0.00141828851 0.01130621000 0.00361439103 -0.00142183153 0.01107729512 0.00362615580 -0.00054656686 0.01338020828 0.00674678079 -0.00056664086 0.01306554856 0.00668430956 -0.00058588069 0.01275063428 0.00662174991 -0.00060527258 0.01243235985 0.00655481206 -0.00062580273 0.01210761965 0.00647920621 -0.00064845736 0.01177330808 0.00639064258 -0.00067422268 0.01142631952 0.00628483137 -0.00070408489 0.01106354837 0.00615748279 -0.00073903020 0.01068188902 0.00600430706 -0.00078004484 0.01027823586 0.00582101439 -0.00066057543 0.01325709039 0.00627108276 -0.00067814268 0.01296035664 0.00622282155 -0.00069412771 0.01266149732 0.00617490101 -0.00070935142 0.01235899235 0.00612503569 -0.00072463466 0.01205132168 0.00607094014 -0.00074079832 0.01173696524 0.00601032892 -0.00075866326 0.01141440296 0.00594091659 -0.00077905036 0.01108211478 0.00586041769 -0.00080278048 0.01073858063 0.00576654679 -0.00083067451 0.01038228043 0.00565701844 -0.00077169961 0.01314020567 0.00583613125 -0.00078634570 0.01286130129 0.00579935544 -0.00079899640 0.01257851789 0.00576346644 -0.00081034356 0.01229157378 0.00572749198 -0.00082107903 0.01200018729 0.00569045977 -0.00083189467 0.01170407672 0.00565139755 -0.00084348234 0.01140296040 0.00560933304 -0.00085653388 0.01109655664 0.00556329397 -0.00087174117 0.01078458375 0.00551230807 -0.00088979605 0.01046676005 0.00545540305 -0.00087971684 0.01303135361 0.00543812754 -0.00089119816 0.01276985135 0.00541046045 -0.00090054841 0.01250285039 0.00538426271 -0.00090835930 0.01223100438 0.00535931742 -0.00091522256 0.01195496695 0.00533540765 -0.00092172991 0.01167539176 0.00531231650 -0.00092847307 0.01139293246 0.00528982706 -0.00093604378 0.01110824271 0.00526772241 -0.00094503374 0.01082197614 0.00524578566 -0.00095603468 0.01053478640 0.00522379988 -0.00098440459 0.01293233370 0.00507327288 -0.00099264827 0.01268747571 0.00505268580 -0.00099884537 0.01243564925 0.00503410634 -0.00100350892 0.01217818438 0.00501764851 -0.00100715196 0.01191641115 0.00500342633 -0.00101028752 0.01165165960 0.00499155381 -0.00101342864 0.01138525978 0.00498214496 -0.00101708834 0.01111854174 0.00497531379 -0.00102177967 0.01085283553 0.00497117433 -0.00102801565 0.01058947119 0.00496984057 -0.00108554032 0.01284494545 0.00473776857 -0.00109064425 0.01261564321 0.00472258073 -0.00109394893 0.01237806886 0.00470981385 -0.00109590271 0.01213401405 0.00469962177 -0.00109695394 0.01188527038 0.00469215837 -0.00109755098 0.01163362948 0.00468757751 -0.00109814218 0.01138088298 0.00468603306 -0.00109917588 0.01112882250 0.00468767888 -0.00110110044 0.01087923967 0.00469266883 -0.00110436421 0.01063392610 0.00470115678 -0.00118290150 0.01277098836 0.00442781585 -0.00118513432 0.01255582272 0.00441669447 -0.00118592072 0.01233126363 0.00440820175 -0.00118565095 0.01209939360 0.00440237370 -0.00118471522 0.01186229511 0.00439924633 -0.00118350379 0.01162205065 0.00439885567 -0.00118240687 0.01138074270 0.00440123770 -0.00118181471 0.01114045376 0.00440642846 -0.00118211754 0.01090326630 0.00441446394 -0.00118370559 0.01067126283 0.00442538016 -0.00127626558 0.01271226192 0.00413961600 -0.00127606670 0.01250948310 0.00413157623 -0.00127482240 0.01229638797 0.00412608656 -0.00127286392 0.01207522330 0.00412304080 -0.00127052251 0.01184823584 0.00412233277 -0.00126812941 0.01161767235 0.00412385630 -0.00126601588 0.01138577957 0.00412750520 -0.00126451314 0.01115480426 0.00413317330 -0.00126395244 0.01092699317 0.00414075441 -0.00126466504 0.01070459307 0.00415014235 -0.00136541003 0.01267056564 0.00386937030 -0.00136338961 0.01247809321 0.00386377526 -0.00136071559 0.01227459629 0.00386028480 -0.00135765191 0.01206240339 0.00385875957 -0.00135446252 0.01184384305 0.00385906024 -0.00135141135 0.01162124381 0.00386104746 -0.00134876235 0.01139693421 0.00386458188 -0.00134677946 0.01117324277 0.00386952418 -0.00134572663 0.01095249803 0.00387573501 -0.00134586780 0.01073702852 0.00388307502 -0.00145011231 0.01264769901 0.00361328001 -0.00144705128 0.01246312193 0.00360984078 -0.00144366195 0.01226704298 0.00360761299 -0.00144012522 0.01206183409 0.00360666653 -0.00143662196 0.01184986722 0.00360707129 -0.00143333307 0.01163351429 0.00360889718 -0.00143043945 0.01141514725 0.00361221407 -0.00142812199 0.01119713804 0.00361709188 -0.00142656158 0.01098185860 0.00362360049 -0.00142593910 0.01077168087 0.00363180979 -0.00059124344 0.01297700467 0.00683307659 -0.00060929501 0.01265022834 0.00678224202 -0.00062567388 0.01232619007 0.00672658641 -0.00064177363 0.01200179496 0.00666232758 -0.00065898778 0.01167394811 0.00658568337 -0.00067870990 0.01133955462 0.00649287161 -0.00070233353 0.01099551959 0.00638011016 -0.00073125222 0.01063874812 0.00624361683 -0.00076685951 0.01026614531 0.00607960946 -0.00081054896 0.00987461627 0.00588430590 -0.00071206788 0.01287866940 0.00632594628 -0.00072705715 0.01256737671 0.00628663364 -0.00073981279 0.01225732675 0.00624457865 -0.00075141797 0.01194704525 0.00619775841 -0.00076295588 0.01163505793 0.00614415004 -0.00077550972 0.01131989052 0.00608173063 -0.00079016266 0.01100006875 0.00600847728 -0.00080799791 0.01067411835 0.00592236711 -0.00083009864 0.01034056504 0.00582137722 -0.00085754804 0.00999793456 0.00570348470 -0.00082618422 0.01278525813 0.00586805599 -0.00083813513 0.01248941217 0.00583803631 -0.00084752299 0.01219348941 0.00580702461 -0.00085520229 0.01189727525 0.00577414384 -0.00086202755 0.01160055506 0.00573851692 -0.00086885327 0.01130311425 0.00569926679 -0.00087653395 0.01100473820 0.00565551636 -0.00088592411 0.01070521231 0.00560638857 -0.00089787826 0.01040432197 0.00555100635 -0.00091325089 0.01010185256 0.00548849262 -0.00093412364 0.01269824527 0.00545421889 -0.00094312224 0.01241751526 0.00543155127 -0.00094942446 0.01213555397 0.00540930238 -0.00095372342 0.01185309289 0.00538724803 -0.00095671223 0.01157086357 0.00536516407 -0.00095908399 0.01128959750 0.00534282631 -0.00096153181 0.01101002622 0.00532001058 -0.00096474879 0.01073288123 0.00529649272 -0.00096942805 0.01045889406 0.00527204854 -0.00097626269 0.01018879622 0.00524645389 -0.00103641732 0.01261910522 0.00507924814 -0.00104261174 0.01235286653 0.00506227979 -0.00104613716 0.01208439633 0.00504679002 -0.00104757817 0.01181510614 0.00503283516 -0.00104751936 0.01154640751 0.00502047152 -0.00104654532 0.01127971198 0.00500975541 -0.00104524063 0.01101643106 0.00500074316 -0.00104418989 0.01075797631 0.00499349109 -0.00104397769 0.01050575926 0.00498805551 -0.00104518862 0.01026119145 0.00498449274 -0.00113359645 0.01254931241 0.00473795691 -0.00113719694 0.01229664654 0.00472532310 -0.00113828105 0.01204089242 0.00471486562 -0.00113736335 0.01178392294 0.00470666939 -0.00113495838 0.01152761096 0.00470081931 -0.00113158069 0.01127382936 0.00469740031 -0.00112774484 0.01102445101 0.00469649730 -0.00112396538 0.01078134879 0.00469819521 -0.00112075687 0.01054639556 0.00470257894 -0.00111863385 0.01032146419 0.00470973341 -0.00122619219 0.01249034125 0.00442515838 -0.00122747111 0.01225003582 0.00441578247 -0.00122647611 0.01200591816 0.00440890726 -0.00122367578 0.01176015123 0.00440451489 -0.00121953872 0.01151489798 0.00440258750 -0.00121453354 0.01127232136 0.00440310723 -0.00120912884 0.01103458434 0.00440605621 -0.00120379321 0.01080384987 0.00441141660 -0.00119899525 0.01058228090 0.00441917053 -0.00119520358 0.01037204039 0.00442930013 -0.00131473573 0.01244366614 0.00413566570 -0.00131402755 0.01221421493 0.00412875913 -0.00131134229 0.01198034946 0.00412429300 -0.00130711227 0.01174439895 0.00412213583 -0.00130176984 0.01150869262 0.00412215612 -0.00129574731 0.01127555966 0.00412422238 -0.00128947703 0.01104732931 0.00412820310 -0.00128339133 0.01082633077 0.00413396680 -0.00127792252 0.01061489325 0.00414138198 -0.00127350296 0.01041534597 0.00415031714 -0.00139975824 0.01241076151 0.00386429205 -0.00139745954 0.01219036442 0.00385935433 -0.00139349955 0.01196506225 0.00385640094 -0.00138826965 0.01173727407 0.00385529639 -0.00138216116 0.01150941895 0.00385590523 -0.00137556544 0.01128391597 0.00385809198 -0.00136887384 0.01106318420 0.00386172117 -0.00136247770 0.01084964271 0.00386665733 -0.00135676836 0.01064571057 0.00387276498 -0.00135213719 0.01045380687 0.00387990867 -0.00148179092 0.01239310176 0.00360585060 -0.00147836036 0.01217966484 0.00360266933 -0.00147356787 0.01196093243 0.00360060914 -0.00146774471 0.01173938451 0.00359976074 -0.00146122213 0.01151750104 0.00360021486 -0.00145433136 0.01129776197 0.00360206225 -0.00144740366 0.01108264727 0.00360539362 -0.00144077027 0.01087463691 0.00361029971 -0.00143476245 0.01067621083 0.00361687125 -0.00142971144 0.01048984902 0.00362519896 -0.00062923756 0.01256793881 0.00689025836 -0.00064443219 0.01223364519 0.00684490888 -0.00065722283 0.01190245270 0.00679206887 -0.00066930444 0.01157228298 0.00672873231 -0.00068237197 0.01124105767 0.00665189314 -0.00069812040 0.01090669842 0.00655854533 -0.00071824468 0.01056712689 0.00644568284 -0.00074443980 0.01022026470 0.00631029961 -0.00077840071 0.00986403352 0.00614938962 -0.00082182237 0.00949635499 0.00595994681 -0.00075642329 0.01249050300 0.00635600779 -0.00076789276 0.01217014596 0.00632039834 -0.00077657299 0.01185172988 0.00628087025 -0.00078376669 0.01153482376 0.00623574416 -0.00079077656 0.01121899662 0.00618334077 -0.00079890531 0.01090381744 0.00612198074 -0.00080945563 0.01058885523 0.00604998474 -0.00082373024 0.01027367900 0.00596567344 -0.00084303183 0.00995785774 0.00586736752 -0.00086866311 0.00964096045 0.00575338764 -0.00087348721 0.01241718755 0.00587847893 -0.00088175283 0.01211055647 0.00585052238 -0.00088699029 0.01180506882 0.00582145085 -0.00089021551 0.01150152426 0.00579044930 -0.00089244443 0.01120072247 0.00575670268 -0.00089469299 0.01090346311 0.00571939591 -0.00089797710 0.01061054586 0.00567771395 -0.00090331271 0.01032277039 0.00563084174 -0.00091171575 0.01004093636 0.00557796423 -0.00092420214 0.00976584345 0.00551826635 -0.00098163667 0.01234914252 0.00545127583 -0.00098716850 0.01205579605 0.00542918952 -0.00098955787 0.01176309361 0.00540808456 -0.00098962228 0.01147270936 0.00538764079 -0.00098817928 0.01118631744 0.00536753805 -0.00098604636 0.01090559202 0.00534745617 -0.00098404105 0.01063220724 0.00532707499 -0.00098298088 0.01036783725 0.00530607434 -0.00098368336 0.01011415621 0.00528413406 -0.00098696601 0.00987283827 0.00526093398 -0.00108207902 0.01228751795 0.00506800250 -0.00108529587 0.01200678400 0.00505030831 -0.00108535889 0.01172642835 0.00503504523 -0.00108295841 0.01144870396 0.00502211169 -0.00107878479 0.01117586377 0.00501140609 -0.00107352834 0.01091016074 0.00500282685 -0.00106787943 0.01065384781 0.00499627236 -0.00106252838 0.01040917795 0.00499164104 -0.00105816553 0.01017840410 0.00498883129 -0.00105548123 0.00996377922 0.00498774154 -0.00117602162 0.01223346391 0.00472226300 -0.00117729104 0.01196443965 0.00470778729 -0.00117547650 0.01169569714 0.00469660674 -0.00117119529 0.01142983295 0.00468865507 -0.00116506466 0.01116944366 0.00468386600 -0.00115770187 0.01091712584 0.00468217326 -0.00114972418 0.01067547604 0.00468351057 -0.00114174886 0.01044709085 0.00468781166 -0.00113439317 0.01023456684 0.00469501024 -0.00112827437 0.01004050057 0.00470504004 -0.00126467184 0.01218813045 0.00440766134 -0.00126431010 0.01192968230 0.00439553501 -0.00126099387 0.01167152406 0.00438704295 -0.00125530432 0.01141642124 0.00438206399 -0.00124782259 0.01116713935 0.00438047698 -0.00123912986 0.01092644389 0.00438216075 -0.00122980727 0.01069710038 0.00438699415 -0.00122043598 0.01048187433 0.00439485602 -0.00121159715 0.01028353124 0.00440562519 -0.00120387194 0.01010483662 0.00441918051 -0.00134923702 0.01215266764 0.00411780157 -0.00134750915 0.01190343129 0.00410746001 -0.00134299414 0.01165453322 0.00410062772 -0.00133625688 0.01140879372 0.00409713151 -0.00132786228 0.01116903304 0.00409679821 -0.00131837523 0.01093807148 0.00409945463 -0.00130836063 0.01071872929 0.00410492760 -0.00129838338 0.01051382674 0.00411304393 -0.00128900836 0.01032618411 0.00412363045 -0.00128080049 0.01015862167 0.00413651398 -0.00143092453 0.01212822553 0.00384628771 -0.00142804429 0.01188660591 0.00383747083 -0.00142256046 0.01164534870 0.00383163492 -0.00141502438 0.01140727527 0.00382865070 -0.00140598742 0.01117520698 0.00382838890 -0.00139600091 0.01095196517 0.00383072023 -0.00138561622 0.01074037121 0.00383551543 -0.00137538470 0.01054324646 0.00384264521 -0.00136585770 0.01036341228 0.00385198031 -0.00135758656 0.01020369001 0.00386339145 -0.00151094172 0.01211595418 0.00358672380 -0.00150707162 0.01188012549 0.00357947602 -0.00150077599 0.01164459461 0.00357433843 -0.00149257822 0.01141219081 0.00357141463 -0.00148300170 0.01118574336 0.00357080824 -0.00147256983 0.01096808154 0.00357262288 -0.00146180600 0.01076203462 0.00357696215 -0.00145123360 0.01057043186 0.00358392968 -0.00144137603 0.01039610254 0.00359362908 -0.00143275669 0.01024187593 0.00360616395 -0.00066015244 0.01216364175 0.00691841060 -0.00067198905 0.01182551521 0.00687485912 -0.00068091892 0.01148927844 0.00682253144 -0.00068875237 0.01115467078 0.00675957716 -0.00069729973 0.01082143155 0.00668414586 -0.00070837132 0.01048930008 0.00659438715 -0.00072377747 0.01015801571 0.00648845063 -0.00074532849 0.00982731775 0.00636448588 -0.00077483470 0.00949694555 0.00622064250 -0.00081410644 0.00916663842 0.00605507010 -0.00079163346 0.01210396801 0.00636269323 -0.00079932658 0.01177813988 0.00632723052 -0.00080370366 0.01145364921 0.00628799144 -0.00080622101 0.01113185607 0.00624383036 -0.00080833495 0.01081412054 0.00619360166 -0.00081150176 0.01050180272 0.00613615970 -0.00081717777 0.01019626268 0.00607035885 -0.00082681927 0.00989886050 0.00599505349 -0.00084188256 0.00961095628 0.00590909797 -0.00086382396 0.00933391010 0.00581134668 -0.00091069296 0.01204763846 0.00586958715 -0.00091518160 0.01173385114 0.00584014826 -0.00091604251 0.01142134193 0.00581072061 -0.00091448526 0.01111261622 0.00578061954 -0.00091171940 0.01081017939 0.00574916039 -0.00090895448 0.01051653681 0.00571565850 -0.00090740006 0.01023419386 0.00567942922 -0.00090826568 0.00996565593 0.00563978789 -0.00091276091 0.00971342838 0.00559604985 -0.00092209530 0.00948001660 0.00554753046 -0.00101898411 0.01199558064 0.00543177088 -0.00102106039 0.01169337736 0.00540663550 -0.00101928592 0.01139277594 0.00538422633 -0.00101471155 0.01109702711 0.00536412812 -0.00100838814 0.01080938157 0.00534592565 -0.00100136655 0.01053309004 0.00532920366 -0.00099469763 0.01027140322 0.00531354692 -0.00098943224 0.01002757183 0.00529854019 -0.00098662123 0.00980484657 0.00528376823 -0.00098731547 0.00960647817 0.00526881580 -0.00111816009 0.01194872211 0.00504192297 -0.00111846925 0.01165744694 0.00501971537 -0.00111478432 0.01136837058 0.00500201594 -0.00110806631 0.01108516460 0.00498853954 -0.00109927621 0.01081150057 0.00497900104 -0.00108937503 0.01055105008 0.00497311529 -0.00107932376 0.01030748471 0.00497059715 -0.00107008342 0.01008447603 0.00497116150 -0.00106261499 0.00988569562 0.00497452319 -0.00105787949 0.00971481505 0.00498039708 -0.00120987405 0.01190799040 0.00469272196 -0.00120891444 0.01162678828 0.00467241102 -0.00120388815 0.01134854517 0.00465759681 -0.00119571596 0.01107710453 0.00464803723 -0.00118531865 0.01081630986 0.00464349016 -0.00117361699 0.01057000461 0.00464371349 -0.00116153176 0.01034203228 0.00464846512 -0.00114998373 0.01013623633 0.00465750293 -0.00113989368 0.00995646025 0.00467058482 -0.00113218238 0.00980654751 0.00468746866 -0.00129577919 0.01187431306 0.00437684639 -0.00129390225 0.01160212977 0.00435774559 -0.00128794785 0.01133371904 0.00434447630 -0.00127882695 0.01107292279 0.00433680462 -0.00126745051 0.01082358290 0.00433449662 -0.00125472951 0.01058954130 0.00433731839 -0.00124157491 0.01037463988 0.00434503602 -0.00122889767 0.01018272055 0.00435741560 -0.00121760876 0.01001762522 0.00437422320 -0.00120861915 0.00988319578 0.00439522492 -0.00137752868 0.01184861763 0.00408697480 -0.00137493897 0.01158419979 0.00406874222 -0.00136831385 0.01132431153 0.00405616177 -0.00135856569 0.01107269522 0.00404902513 -0.00134660683 0.01083309319 0.00404712401 -0.00133334965 0.01060924783 0.00405025008 -0.00131970650 0.01040490148 0.00405819505 -0.00130658974 0.01022379650 0.00407075060 -0.00129491173 0.01006967526 0.00408770843 -0.00128558483 0.00994628012 0.00410886022 -0.00145677568 0.01183183166 0.00381578574 -0.00145353087 0.01157372675 0.00379842406 -0.00144633660 0.01132074198 0.00378616057 -0.00143609862 0.01107649768 0.00377888221 -0.00142372266 0.01084461420 0.00377647594 -0.00141011448 0.01062871186 0.00377882869 -0.00139617982 0.01043241102 0.00378582741 -0.00138282443 0.01025933200 0.00379735906 -0.00137095405 0.01011309514 0.00381331058 -0.00136147444 0.00999732078 0.00383356892 -0.00153517337 0.01182488270 0.00355595774 -0.00153118424 0.01157143904 0.00353981425 -0.00152336653 0.01132342971 0.00352798007 -0.00151259216 0.01108440605 0.00352055929 -0.00149973304 0.01085791940 0.00351765600 -0.00148566107 0.01064752109 0.00351937431 -0.00147124817 0.01045676246 0.00352581831 -0.00145736624 0.01028919484 0.00353709209 -0.00144488721 0.01014836958 0.00355329975 -0.00143468299 0.01003783800 0.00357454540 -0.00068359134 0.01177474453 0.00691761778 -0.00069190218 0.01143555448 0.00687464175 -0.00069715351 0.01109652357 0.00682230824 -0.00070100479 0.01075980525 0.00676041302 -0.00070511552 0.01042755297 0.00668875184 -0.00071114517 0.01010192019 0.00660712050 -0.00072075321 0.00978506034 0.00651531474 -0.00073559914 0.00947912688 0.00641313036 -0.00075734242 0.00918627326 0.00630036311 -0.00078764254 0.00890865294 0.00617680878 -0.00081569019 0.01173044123 0.00634742856 -0.00082003568 0.01140083400 0.00631024501 -0.00082050010 0.01107202727 0.00627015786 -0.00081860434 0.01074767033 0.00622685443 -0.00081586927 0.01043141250 0.00618002202 -0.00081381576 0.01012690306 0.00612934796 -0.00081396469 0.00983779134 0.00607451954 -0.00081783693 0.00956772663 0.00601522408 -0.00082695336 0.00932035824 0.00595114889 -0.00084283484 0.00909933548 0.00588198127 -0.00093488587 0.01168825537 0.00584356770 -0.00093640424 0.01136841312 0.00581024858 -0.00093332389 0.01105039460 0.00577880935 -0.00092711360 0.01073884655 0.00574886574 -0.00091924217 0.01043841571 0.00572003343 -0.00091117840 0.01015374883 0.00569192814 -0.00090439109 0.00988949267 0.00566416556 -0.00090034904 0.00965029396 0.00563636139 -0.00090052103 0.00944079945 0.00560813135 -0.00090637586 0.00926565590 0.00557909113 -0.00104289418 0.01164909495 0.00539817657 -0.00104252135 0.01133894285 0.00536714955 -0.00103694591 0.01103190759 0.00534134476 -0.00102764688 0.01073321950 0.00532034247 -0.00101610326 0.01044810895 0.00530372291 -0.00100379408 0.01018180628 0.00529106635 -0.00099219834 0.00993954185 0.00528195302 -0.00098279506 0.00972654600 0.00527596319 -0.00097706326 0.00954804910 0.00527267709 -0.00097648194 0.00940928149 0.00527167498 -0.00114143094 0.01161386794 0.00500339652 -0.00113990046 0.01131307421 0.00497344500 -0.00113268722 0.01101684827 0.00495084611 -0.00112131851 0.01073067482 0.00493518013 -0.00110732160 0.01046003857 0.00492602731 -0.00109222379 0.01021042421 0.00492296790 -0.00107755237 0.00998731643 0.00492558216 -0.00106483464 0.00979619992 0.00493345034 -0.00105559788 0.00964255939 0.00494615269 -0.00105136938 0.00953187953 0.00496326948 -0.00123221193 0.01158348235 0.00465136894 -0.00123005505 0.01129145819 0.00462163201 -0.00122186887 0.01100549866 0.00460039545 -0.00120924280 0.01073109812 0.00458727426 -0.00119376622 0.01047375091 0.00458188348 -0.00117702853 0.01023895140 0.00458383811 -0.00116061912 0.01003219393 0.00459275319 -0.00114612738 0.00985897286 0.00460824372 -0.00113514272 0.00972478253 0.00462992474 -0.00112925452 0.00963511731 0.00465741126 -0.00131695299 0.01155884614 0.00433423518 -0.00131449856 0.01127474581 0.00430420768 -0.00130581190 0.01099814080 0.00428307480 -0.00129253407 0.01073437500 0.00427052037 -0.00127630617 0.01048879232 0.00426622825 -0.00125876928 0.01026673665 0.00426988229 -0.00124156451 0.01007355190 0.00428116633 -0.00122633292 0.00991458197 0.00429976422 -0.00121471561 0.00979517074 0.00432535981 -0.00120835367 0.00972066212 0.00435763695 -0.00139736990 0.01154086732 0.00404413662 -0.00139474448 0.01126358808 0.00401366909 -0.00138583735 0.01099505670 0.00399196620 -0.00137230664 0.01074039108 0.00397881398 -0.00135581050 0.01050470913 0.00397399849 -0.00133800706 0.01029312876 0.00397730575 -0.00132055447 0.01011076788 0.00398852182 -0.00130511087 0.00996274439 0.00400743272 -0.00129333439 0.00985417621 0.00403382450 -0.00128688317 0.00979018125 0.00406748321 -0.00147517848 0.01153045385 0.00377321461 -0.00147230626 0.01125863602 0.00374251331 -0.00146326627 0.01099652841 0.00372015168 -0.00144967483 0.01074903198 0.00370605062 -0.00143314825 0.01052104769 0.00370013103 -0.00141530285 0.01031747651 0.00370231381 -0.00139775495 0.01014321938 0.00371251986 -0.00138212085 0.01000317728 0.00373067009 -0.00137001687 0.00990225116 0.00375668539 -0.00136305933 0.00984534199 0.00379048666 -0.00155209454 0.01152851374 0.00351361054 -0.00154869737 0.01126054062 0.00348323744 -0.00153941971 0.01100283793 0.00346071328 -0.00152575296 0.01076018330 0.00344612579 -0.00150918848 0.01053735434 0.00343956271 -0.00149121766 0.01033912869 0.00344111177 -0.00147333186 0.01017028397 0.00345086069 -0.00145702248 0.01003559779 0.00346889721 -0.00144378089 0.00993984780 0.00349530906 -0.00143509847 0.00988781161 0.00353018395 -0.00069915749 0.01141187820 0.00688796439 -0.00070410823 0.01107347911 0.00684680577 -0.00070631798 0.01073404437 0.00679573340 -0.00070694907 0.01039853328 0.00673679078 -0.00070716378 0.01007190516 0.00667202140 -0.00070812440 0.00975911931 0.00660346878 -0.00071099325 0.00946513506 0.00653317641 -0.00071693261 0.00919491170 0.00646318779 -0.00072710478 0.00895340856 0.00639554644 -0.00074267206 0.00874558494 0.00633229584 -0.00082658528 0.01138129946 0.00631163973 -0.00082869714 0.01104770383 0.00627255666 -0.00082625764 0.01071580658 0.00623158514 -0.00082074009 0.01039179474 0.00618965378 -0.00081361778 0.01008185527 0.00614769118 -0.00080636399 0.00979217519 0.00610662595 -0.00080045202 0.00952894149 0.00606738669 -0.00079735517 0.00929834115 0.00603090203 -0.00079854672 0.00910656118 0.00599810055 -0.00080549998 0.00895978857 0.00596991087 -0.00094315033 0.01135068281 0.00580260768 -0.00094340357 0.01102335938 0.00576415793 -0.00093747862 0.01070031266 0.00572969253 -0.00092720256 0.01038851063 0.00569939908 -0.00091440246 0.01009492130 0.00567346517 -0.00090090541 0.00982651267 0.00565207840 -0.00088853848 0.00959025275 0.00563542636 -0.00087912878 0.00939310953 0.00562369665 -0.00087450336 0.00924205103 0.00561707686 -0.00087648932 0.00914404523 0.00561575458 -0.00105009508 0.01132122072 0.00535296542 -0.00104927481 0.01100117619 0.00531399197 -0.00104087513 0.01068779516 0.00528305693 -0.00102708392 0.01038845988 0.00525991626 -0.00101008908 0.01011055257 0.00524432590 -0.00099207848 0.00986145547 0.00523604181 -0.00097524002 0.00964855081 0.00523481994 -0.00096176156 0.00947922082 0.00524041624 -0.00095383101 0.00936084775 0.00525258667 -0.00095363624 0.00930081381 0.00527108717 -0.00114866198 0.01129410570 0.00495481016 -0.00114735811 0.01098188463 0.00491444120 -0.00113734136 0.01067848668 0.00488467972 -0.00112113166 0.01039142141 0.00486509490 -0.00110124891 0.01012819843 0.00485525589 -0.00108021305 0.00989632731 0.00485473186 -0.00106054400 0.00970331764 0.00486309198 -0.00104476167 0.00955667901 0.00487990541 -0.00103538599 0.00946392100 0.00490474131 -0.00103493689 0.00943255320 0.00493716885 -0.00124009346 0.01127053023 0.00460023907 -0.00123870076 0.01096621512 0.00455788800 -0.00122777154 0.01067261977 0.00452756226 -0.00121009322 0.01039717415 0.00450882457 -0.00118845321 0.01014730821 0.00450123766 -0.00116563893 0.00993045192 0.00450436423 -0.00114443780 0.00975403521 0.00451776702 -0.00112763722 0.00962548807 0.00454100873 -0.00111802462 0.00955224043 0.00457365208 -0.00111838741 0.00954172227 0.00461525979 -0.00132563195 0.01125168680 0.00428134936 -0.00132435001 0.01095489804 0.00423671478 -0.00131305986 0.01067042703 0.00420470592 -0.00129471607 0.01040549702 0.00418499486 -0.00127227324 0.01016733127 0.00417725373 -0.00124868596 0.00996315301 0.00418115460 -0.00122690880 0.00980018550 0.00419636959 -0.00120989636 0.00968565198 0.00422257079 -0.00120060322 0.00962677570 0.00425943030 -0.00120198397 0.00963077991 0.00430662021 -0.00140651989 0.01123876791 0.00399023821 -0.00140535315 0.01094866379 0.00394330394 -0.00139410053 0.01067214102 0.00390911206 -0.00137574769 0.01041616894 0.00388749535 -0.00135328028 0.01018771692 0.00387828662 -0.00132968396 0.00999375431 0.00388131865 -0.00130794438 0.00984125046 0.00389642424 -0.00129104721 0.00973717473 0.00392343619 -0.00128197810 0.00968849646 0.00396218727 -0.00128372270 0.00970218502 0.00401251030 -0.00148399973 0.01123296605 0.00371900281 -0.00148275744 0.01094824278 0.00367003788 -0.00147178776 0.01067799431 0.00363378205 -0.00145393552 0.01042896884 0.00361021561 -0.00143204557 0.01020791452 0.00359931885 -0.00140896275 0.01002157955 0.00360107206 -0.00138753192 0.00987671208 0.00361545551 -0.00137059791 0.00978006029 0.00364244951 -0.00136100558 0.00973837236 0.00368203432 -0.00136159976 0.00975839647 0.00373419025 -0.00155931389 0.01123547371 0.00345974035 -0.00155761016 0.01095436539 0.00340929899 -0.00154701575 0.01068821949 0.00337171726 -0.00153002703 0.01044367563 0.00334704523 -0.00150914038 0.01022737341 0.00333533295 -0.00148685218 0.01004595243 0.00333663050 -0.00146565879 0.00990605231 0.00335098794 -0.00144805660 0.00981431265 0.00337845534 -0.00143654197 0.00977737306 0.00341908276 -0.00143361129 0.00980187314 0.00347292027 </DataArray>
</PointData>
<Points>
<DataArray type="Float32" NumberOfComponents="3">
-0.33669697101 0.58766977938 -0.76510123240 -0.31066622784 0.59593364361 -0.77739787534 -0.29111957926 0.60225284787 -0.79107814817 -0.27803000393 0.60686054418 -0.80575948687 -0.27137048046 0.60998988460 -0.82105932744 -0.27111398752 0.61187402116 -0.83659510586 -0.27723350372 0.61274610590 -0.85198425811 -0.28970200772 0.61283929084 -0.86684422020 -0.30849247814 0.61238672804 -0.88079242809 -0.33357789363 0.61162156953 -0.89344631779 -0.36682203309 0.60367062637 -0.77038722600 -0.34062078939 0.60947087773 -0.78121400318 -0.32095467214 0.61387754174 -0.79366808374 -0.30780457925 0.61705990511 -0.80729229829 -0.30115140866 0.61918725452 -0.82162947750 -0.30097605826 0.62042887665 -0.83622245198 -0.30725942597 0.62095405819 -0.85061405239 -0.31998240972 0.62093208584 -0.86434710935 -0.33912590740 0.62053224627 -0.87696445352 -0.36467081694 0.61992382618 -0.88800891553 -0.39239858627 0.62018076113 -0.77482307337 -0.36575858838 0.62406494544 -0.78454811721 -0.34577082550 0.62698736875 -0.79601717017 -0.33242199125 0.62906659091 -0.80873572870 -0.32569877927 0.63042117176 -0.82220928930 -0.32558788316 0.63116967116 -0.83594334842 -0.33207599655 0.63143064896 -0.84944340255 -0.34514981306 0.63132266501 -0.86221494816 -0.36479602630 0.63096427915 -0.87376348171 -0.39100132990 0.63047405125 -0.88359449969 -0.41358436552 0.63706054430 -0.77847655105 -0.38631609158 0.63950747372 -0.78741536386 -0.36586344336 0.64131989226 -0.79811431076 -0.35221714259 0.64257722827 -0.81007120882 -0.34536791099 0.64335891009 -0.82278387510 -0.34530647031 0.64374436608 -0.83575012669 -0.35202354228 0.64381302458 -0.84846778063 -0.36550984862 0.64364431393 -0.86043465401 -0.38575611108 0.64331766250 -0.87114856389 -0.41275305137 0.64291249861 -0.88010732733 -0.43053710579 0.65417033654 -0.78141543555 -0.40252976578 0.65559008952 -0.78983088955 -0.38152792975 0.65661267563 -0.79994840882 -0.36752493591 0.65728844387 -0.81128016935 -0.36051412252 0.65766774325 -0.82333834717 -0.36048882779 0.65780092277 -0.83563511826 -0.36744238997 0.65773833141 -0.84768265864 -0.38136814728 0.65753031819 -0.85899314430 -0.40225943796 0.65722723210 -0.86907875126 -0.43010960024 0.65687942215 -0.87745165551 -0.44341454206 0.67137049849 -0.78370750340 -0.41463607775 0.67210441979 -0.79180984072 -0.39305968866 0.67260328223 -0.80150836765 -0.37868027389 0.67289686442 -0.81234404103 -0.37149273253 0.67301494500 -0.82385781775 -0.37149196369 0.67298730260 -0.83559065464 -0.37867286645 0.67284371585 -0.84708350859 -0.39303033992 0.67261396336 -0.85787733644 -0.41455928319 0.67232782379 -0.86751309505 -0.44325459537 0.67201507574 -0.87553174129 -0.45237440928 0.68852139079 -0.78542053113 -0.42287149427 0.68884209151 -0.79336736381 -0.40075412413 0.68902927543 -0.80278309055 -0.38601805918 0.68909911660 -0.81324425458 -0.37865905973 0.68906778909 -0.82432739910 -0.37867288608 0.68895146695 -0.83560906733 -0.38605529854 0.68876632425 -0.84666580249 -0.40080205741 0.68852853503 -0.85707414781 -0.42290892301 0.68825427335 -0.86641064648 -0.45237165564 0.68795971327 -0.87425184173 -0.45757444244 0.70548337411 -0.78662229526 -0.42747248211 0.70559473162 -0.79451860525 -0.40490664016 0.70562821859 -0.80376148084 -0.38987319445 0.70559182710 -0.81396224070 -0.38236842280 0.70549354927 -0.82473220347 -0.38238860305 0.70534137720 -0.83568268781 -0.38993001305 0.70514330299 -0.84642501237 -0.40498893064 0.70490731876 -0.85657049581 -0.42756163365 0.70464141660 -0.86573045676 -0.45764439993 0.70435358863 -0.87351621389 -0.45917237649 0.72211680907 -0.78738057232 -0.42867550805 0.72215396710 -0.79527871146 -0.40581264078 0.72213767508 -0.80443244181 -0.39058058234 0.72207162261 -0.81447943012 -0.38297614042 0.72195949929 -0.82505734313 -0.38299612269 0.72180499470 -0.83580384759 -0.39063733682 0.72161179845 -0.84635661024 -0.40589659048 0.72138360014 -0.85635329783 -0.42877069135 0.72112408935 -0.86543157712 -0.45925644711 0.72083695568 -0.87322911483 -0.45732594639 0.73828205634 -0.78776313883 -0.42671703887 0.73831142489 -0.79566282889 -0.40376752999 0.73829520827 -0.80478487678 -0.38847512553 0.73823512982 -0.81477725356 -0.38083753130 0.73813291289 -0.82528793033 -0.38085245307 0.73799028084 -0.83596487815 -0.38851759665 0.73780895701 -0.84645606811 -0.40383066781 0.73759066474 -0.85640947129 -0.42678937235 0.73733712740 -0.86547305876 -0.45739141605 0.73705006833 -0.87329480161 -0.39994823705 0.58231421997 -0.76453762191 -0.38492740851 0.58836240832 -0.77742117688 -0.37365975319 0.59321310732 -0.79132561374 -0.36613783884 0.59708177100 -0.80602561145 -0.36235423324 0.60018385342 -0.82129584900 -0.36230150416 0.60273480863 -0.83691100535 -0.36597221936 0.60495009066 -0.85264575949 -0.37335894661 0.60704515357 -0.86827479039 -0.38445425367 0.60923545140 -0.88357277702 -0.39925070833 0.61173643821 -0.89831439836 -0.42181524726 0.59995397614 -0.76838473515 -0.40657931188 0.60434848009 -0.78023314091 -0.39515493525 0.60783961679 -0.79326044526 -0.38753988603 0.61058149062 -0.80717534873 -0.38373193290 0.61272820595 -0.82168655186 -0.38372884451 0.61443386717 -0.83650275518 -0.38752838953 0.61585257864 -0.85133265924 -0.39512833664 0.61713844474 -0.86588496457 -0.40652645449 0.61844556985 -0.87986837171 -0.42172051176 0.61992805833 -0.89299158120 -0.44115662042 0.61772355546 -0.77162556711 -0.42532487550 0.62078976051 -0.78269742009 -0.41345687306 0.62319404867 -0.79501973047 -0.40555349970 0.62504235541 -0.80826455072 -0.40161564204 0.62644061622 -0.82210393330 -0.40164418670 0.62749476658 -0.83620993070 -0.40564002028 0.62831074198 -0.85025459537 -0.41360402940 0.62899447789 -0.86390997979 -0.42553710067 0.62965190980 -0.87684813643 -0.44144012071 0.63038897319 -0.88874111776 -0.45784712940 0.63553317536 -0.77430834504 -0.44114848247 0.63756169106 -0.78482540109 -0.42863232715 0.63912196380 -0.79659622786 -0.42030099511 0.64028332627 -0.80927979230 -0.41615681803 0.64111511114 -0.82253506136 -0.41620212757 0.64168665109 -0.83602100198 -0.42043925540 0.64206727881 -0.84939658112 -0.42887053319 0.64232632698 -0.86232076571 -0.44149829262 0.64253312826 -0.87445252270 -0.45832486536 0.64275701535 -0.88545081905 -0.47176154709 0.65329305331 -0.77648129621 -0.45403451587 0.65453971317 -0.78662847059 -0.44074805805 0.65546892300 -0.79798269593 -0.43190468752 0.65612336405 -0.81020764837 -0.42750691818 0.65654571760 -0.82296700405 -0.42755726394 0.65677866492 -0.83592443912 -0.43205823868 0.65686488729 -0.84874362971 -0.44101235632 0.65684706597 -0.86108825197 -0.45442213075 0.65676788225 -0.87262198204 -0.47229007587 0.65667001738 -0.88300849606 -0.48277464635 0.67091340675 -0.77819264789 -0.46396735879 0.67159926832 -0.78811801528 -0.44987082628 0.67208048709 -0.79917189317 -0.44048689218 0.67238142963 -0.81103469380 -0.43581739985 0.67252646251 -0.82338682940 -0.43586419264 0.67253995230 -0.83590871219 -0.44062911394 0.67244626556 -0.84828075439 -0.45011400709 0.67226976886 -0.86018336824 -0.46432071545 0.67203482876 -0.87129696596 -0.48325108240 0.67176581183 -0.88130195979 -0.49076120007 0.68830445315 -0.77949062732 -0.47093139433 0.68861579795 -0.78930542182 -0.45606739238 0.68880221690 -0.80015657809 -0.44616992435 0.68887648389 -0.81174750350 -0.44123972036 0.68885137278 -0.82378160543 -0.44127751052 0.68873965745 -0.83596229127 -0.44628402496 0.68855411176 -0.84799296838 -0.45625999379 0.68830750959 -0.85957704417 -0.47120614713 0.68801262481 -0.87041792599 -0.49112321511 0.68768223128 -0.88021902124 -0.49559598113 0.70537640996 -0.78042346178 -0.47491100556 0.70546474351 -0.79020207691 -0.45940451687 0.70547967325 -0.80092950918 -0.44907609929 0.70542748769 -0.81233265234 -0.44392533705 0.70531447531 -0.82413840017 -0.44395181439 0.70514692460 -0.83607364644 -0.44915511554 0.70493112405 -0.84786528493 -0.45953482473 0.70467336215 -0.85924020940 -0.47509052619 0.70437992740 -0.86992531364 -0.49582180417 0.70405710829 -0.87964749140 -0.49715376239 0.72203949462 -0.78103937852 -0.47589057558 0.72202154646 -0.79081936722 -0.45994896028 0.72195841697 -0.80148344493 -0.44932773225 0.72185340191 -0.81277671521 -0.44402570727 0.72170979699 -0.82444428164 -0.44404170109 0.72153089796 -0.83623124780 -0.44937452948 0.72132000056 -0.84788271726 -0.46002300821 0.72108040051 -0.85914379361 -0.47598595304 0.72081539355 -0.86975958042 -0.49726217973 0.72052827542 -0.87947518127 -0.49530931675 0.73820392460 -0.78138660480 -0.47385448748 0.73816164825 -0.79116867943 -0.45776748313 0.73808400889 -0.80181114384 -0.44704713850 0.73797318741 -0.81306626700 -0.44169228834 0.73783136474 -0.82468631786 -0.44170176745 0.73766072178 -0.83642356541 -0.44707441059 0.73746343944 -0.84803027861 -0.45780905254 0.73724169862 -0.85925872644 -0.47390452807 0.73699768025 -0.86986117786 -0.49535967198 0.73673356523 -0.87958990185 -0.46707944468 0.57717869389 -0.76426560332 -0.46011854119 0.58158879424 -0.77755644180 -0.45493593123 0.58536736883 -0.79159931300 -0.45156224567 0.58872014743 -0.80628704247 -0.45002811540 0.59185285978 -0.82151245576 -0.45036417129 0.59497123562 -0.83716837842 -0.45260104423 0.59828100472 -0.85314763601 -0.45676936510 0.60198789682 -0.86934305409 -0.46289976477 0.60629764167 -0.88564745819 -0.47102287413 0.61141596902 -0.90195367388 -0.48234595776 0.59650222610 -0.76700096843 -0.47515629026 0.59981956399 -0.77959424264 -0.46980253794 0.60261203707 -0.79303055121 -0.46631683744 0.60502426317 -0.80714357914 -0.46473132538 0.60720086011 -0.82176701146 -0.46507813840 0.60928644568 -0.83673453318 -0.46738941315 0.61142563773 -0.85187982932 -0.47169728624 0.61376305406 -0.86703658490 -0.47803389432 0.61644331249 -0.88203848493 -0.48643137403 0.61961103083 -0.89671921445 -0.49648718320 0.61553450528 -0.76931717488 -0.48864774765 0.61793767024 -0.78138639591 -0.48280434389 0.61991707156 -0.79433461988 -0.47898758739 0.62156993587 -0.80795958029 -0.47722809362 0.62299348976 -0.82205901063 -0.47755647805 0.62428495985 -0.83643064440 -0.48000335615 0.62554157275 -0.85087221512 -0.48459934339 0.62686055507 -0.86518145628 -0.49137505524 0.62833913342 -0.87915610139 -0.50036110717 0.63007453440 -0.89259388393 -0.50920885579 0.63424533337 -0.77124769852 -0.50041901300 0.63589975838 -0.78294178081 -0.49385842637 0.63722412008 -0.79550769771 -0.48955392916 0.63828022086 -0.80872607633 -0.48753235465 0.63912986310 -0.82237754382 -0.48782053609 0.63983484918 -0.83624272731 -0.49044530675 0.64045698148 -0.85010225394 -0.49543349989 0.64105806239 -0.86373675085 -0.50281194877 0.64169989430 -0.87692684516 -0.51260748667 0.64244427957 -0.88945316401 -0.52021671028 0.65260451229 -0.77282601519 -0.51029618591 0.65366247380 -0.78426927656 -0.50288186264 0.65447483041 -0.79654596338 -0.49799529636 0.65507817350 -0.80943409772 -0.49565804298 0.65550909447 -0.82271170162 -0.49589165838 0.65580418471 -0.83615679713 -0.49871769845 0.65600003561 -0.84954740631 -0.50415771910 0.65613323856 -0.86266155121 -0.51223327620 0.65624038496 -0.87527725387 -0.52296592565 0.65635806619 -0.88717253636 -0.52921648146 0.67058184397 -0.77408560076 -0.51810536600 0.67118246190 -0.78537776236 -0.50979172998 0.67161085032 -0.79744559561 -0.50429112261 0.67188684913 -0.81007467489 -0.50161909314 0.67203029823 -0.82305057458 -0.50179119078 0.67206103750 -0.83615886907 -0.50482296478 0.67199890683 -0.84918513274 -0.51072996437 0.67186374611 -0.86191493997 -0.51952773877 0.67167539523 -0.87413386514 -0.53123183723 0.67145369409 -0.88562748265 -0.53591390408 0.68814713034 -0.77505993105 -0.52367265291 0.68841636805 -0.78627611743 -0.51450510567 0.68857382760 -0.79820277308 -0.50842084153 0.68862930311 -0.81063883828 -0.50542943963 0.68859258874 -0.82338325328 -0.50554047915 0.68847347860 -0.83623495835 -0.50876353924 0.68828176683 -0.84899289375 -0.51510819906 0.68802724758 -0.86145599974 -0.52458403777 0.68771971496 -0.87342321659 -0.53720063453 0.68736896312 -0.88469348455 -0.54001471292 0.70527017333 -0.77578248193 -0.52682414624 0.70532083766 -0.78697322097 -0.51693906699 0.70530541002 -0.79881367449 -0.51036388672 0.70522859079 -0.81111761832 -0.50710301699 0.70509508034 -0.82369882828 -0.50716086935 0.70490957906 -0.83637108019 -0.51054185535 0.70467678732 -0.84894814987 -0.51725038653 0.70440140550 -0.86124381315 -0.52729087445 0.70408813397 -0.87307184583 -0.54066773067 0.70374167311 -0.88424602375 -0.54122464275 0.72192077485 -0.77628672924 -0.52738594562 0.72185251610 -0.78747795219 -0.51701069121 0.72174724536 -0.79927447854 -0.51009969183 0.72160776750 -0.81150204546 -0.50665375974 0.72143688740 -0.82398639016 -0.50667370724 0.72123740994 -0.83655324982 -0.51016034661 0.72101213998 -0.84902836163 -0.51711449013 0.72076388241 -0.86123746279 -0.52753695009 0.72049544209 -0.87300629048 -0.54142853877 0.72020962391 -0.88416058191 -0.53924942833 0.73806873685 -0.77660614882 -0.52518415066 0.73796804878 -0.78779919032 -0.51463705562 0.73784098141 -0.79958136392 -0.50760769045 0.73768988861 -0.81178315014 -0.50409560239 0.73751712427 -0.82423502948 -0.50410033867 0.73732504228 -0.83676748244 -0.50762144654 0.73711599651 -0.84921098954 -0.51465847321 0.73689234084 -0.86139603128 -0.52521096594 0.73665642917 -0.87315308816 -0.53927847195 0.73641061536 -0.88431264071 -0.53621227124 0.57236180749 -0.76445034315 -0.53514252119 0.57560439317 -0.77793403153 -0.53443302166 0.57863102920 -0.79199840752 -0.53416649281 0.58163995793 -0.80661540355 -0.53442565476 0.58482942173 -0.82175695203 -0.53529322767 0.58839766297 -0.83739498541 -0.53685193166 0.59254292401 -0.85350143609 -0.53918448689 0.59746344722 -0.87004823652 -0.54237361348 0.60335747496 -0.88700731911 -0.54650203159 0.61042324959 -0.90435061630 -0.54634538366 0.59335093147 -0.76635899110 -0.54505518131 0.59585941406 -0.77939790155 -0.54417563471 0.59812729149 -0.79305763950 -0.54378579672 0.60029202960 -0.80725634458 -0.54396472015 0.60249109425 -0.82191215642 -0.54479145786 0.60486195127 -0.83694321467 -0.54634506269 0.60754206651 -0.85226765896 -0.54870458747 0.61066890582 -0.86780362891 -0.55194908505 0.61437993503 -0.88346926418 -0.55615760825 0.61881262000 -0.89918270438 -0.55623283222 0.61360905871 -0.76798637013 -0.55431699051 0.61547640085 -0.78069011036 -0.55295889521 0.61710459579 -0.79402304267 -0.55222955939 0.61858440307 -0.80786821510 -0.55219999613 0.62000658224 -0.82210867571 -0.55294121849 0.62146189284 -0.83662747254 -0.55452423954 0.62304109441 -0.85130765364 -0.55702007237 0.62483494649 -0.86603226707 -0.56049973004 0.62693420862 -0.88068436086 -0.56503422563 0.62942964035 -0.89514698308 -0.56550411192 0.63317115445 -0.76935532810 -0.56267297208 0.63448877269 -0.78181810738 -0.56061585079 0.63558861619 -0.79489393490 -0.55939263045 0.63652695831 -0.80844615367 -0.55906319347 0.63736007242 -0.82233810672 -0.55968742226 0.63814423189 -0.83643313706 -0.56132519924 0.63893571008 -0.85059458771 -0.56403640681 0.63979078035 -0.86468580169 -0.56788092738 0.64076571606 -0.87857012203 -0.57291864337 0.64191679058 -0.89211089175 -0.57378871774 0.65207218390 -0.77048871283 -0.56986814932 0.65292994872 -0.78278934199 -0.56697954910 0.65360502678 -0.79566963402 -0.56516985951 0.65412957532 -0.80898529881 -0.56448602298 0.65453575154 -0.82259204625 -0.56497498193 0.65485571267 -0.83634558626 -0.56668367879 0.65512161592 -0.85010162871 -0.56965905599 0.65536561851 -0.86371588351 -0.57394805596 0.65561987767 -0.87704406056 -0.57959762112 0.65591655060 -0.88994186975 -0.58071614470 0.67034711229 -0.77140937219 -0.57564754552 0.67083334808 -0.78361126361 -0.57188303778 0.67117950167 -0.79634945789 -0.56945609619 0.67140213408 -0.80948078906 -0.56840019542 0.67151780632 -0.82286209115 -0.56874881019 0.67154307939 -0.83635019818 -0.57053541520 0.67149451432 -0.84980194420 -0.57379348513 0.67138867212 -0.86307416323 -0.57855649468 0.67124211379 -0.87602368931 -0.58485791855 0.67107140035 -0.88850735646 -0.58591588780 0.68803090482 -0.77214015402 -0.57975618398 0.68823238991 -0.78429132163 -0.57515936448 0.68833771495 -0.79693272436 -0.57214619009 0.68835451459 -0.80992776296 -0.57073742160 0.68829042349 -0.82313983821 -0.57095381980 0.68815307630 -0.83643235088 -0.57281614548 0.68795010768 -0.84966870175 -0.57634515944 0.68768915228 -0.86271229158 -0.58156162245 0.68737784475 -0.87542652115 -0.58848629532 0.68702381975 -0.88767479123 -0.58901744203 0.70515852672 -0.77270390616 -0.58193908799 0.70516049335 -0.78483696546 -0.57664157683 0.70510534070 -0.79741875126 -0.57313499084 0.70499659683 -0.81032135904 -0.57142941229 0.70483778979 -0.82341688426 -0.57153492347 0.70463244762 -0.83657742239 -0.57346160665 0.70438409838 -0.84967506890 -0.57721954413 0.70409627012 -0.86258191926 -0.58281881818 0.70377249088 -0.87517006895 -0.59026951108 0.70341628873 -0.88731161342 -0.58965030239 0.72176494321 -0.77312347646 -0.58194128084 0.72165107754 -0.78525564449 -0.57616272248 0.72150805303 -0.79780685646 -0.57231734805 0.72133826080 -0.81065671585 -0.57040787828 0.72114409195 -0.82368482612 -0.57043703392 0.72092793759 -0.83677079075 -0.57240753572 0.72069218882 -0.84979421322 -0.57632210442 0.72043923676 -0.86263469700 -0.58218346076 0.72017147252 -0.87517184557 -0.58999432549 0.71989128721 -0.88728526240 -0.58744396388 0.73788511952 -0.77342171277 -0.57950778584 0.73773756163 -0.78555480813 -0.57355584907 0.73757152604 -0.79809635780 -0.56958811133 0.73738938648 -0.81092897191 -0.56760453035 0.73719351670 -0.82393526060 -0.56760506390 0.73698629042 -0.83699783400 -0.56958966971 0.73677008139 -0.84999930226 -0.57355830553 0.73654726334 -0.86282227551 -0.57951092911 0.73632021000 -0.87534936389 -0.58744749820 0.73609129512 -0.88746317753 -0.60546839402 0.56796216713 -0.76525700796 -0.60890224380 0.57040079696 -0.77868430753 -0.61163593277 0.57291948520 -0.79262205887 -0.61381384866 0.57570548697 -0.80708231831 -0.61558037919 0.57894605736 -0.82207714213 -0.61707991205 0.58282845148 -0.83761858664 -0.61845683498 0.58753992446 -0.85371870813 -0.61985553568 0.59326773139 -0.87038956292 -0.62142040186 0.60019912738 -0.88764320729 -0.62329582125 0.60852136755 -0.90549169755 -0.61174474406 0.59053564749 -0.76658186846 -0.61497944183 0.59244331492 -0.77974471080 -0.61755238008 0.59431786891 -0.79342094802 -0.61959712712 0.59628859673 -0.80757300007 -0.62124725126 0.59848478567 -0.82216328686 -0.62263632080 0.60103572302 -0.83715422836 -0.62389790403 0.60407069606 -0.85250824449 -0.62516556926 0.60771899207 -0.86818775520 -0.62657288480 0.61210989833 -0.88415518042 -0.62825341893 0.61737270214 -0.90037294009 -0.61823612509 0.61194266387 -0.76772162633 -0.62092238977 0.61337367857 -0.78068362913 -0.62306618422 0.61470477969 -0.79414620311 -0.62478472076 0.61602082781 -0.80803785287 -0.62619521168 0.61740668353 -0.82228708301 -0.62741486927 0.61894720742 -0.83682239811 -0.62856090585 0.62072726007 -0.85157230278 -0.62975053371 0.62283170208 -0.86646530159 -0.63110096515 0.62534539402 -0.88142989916 -0.63272941247 0.62835319650 -0.89639460006 -0.62456746505 0.63228477473 -0.76869195040 -0.62645564867 0.63329583098 -0.78150798513 -0.62797871021 0.63417770719 -0.79480015403 -0.62923378469 0.63498258488 -0.80847611708 -0.63031800711 0.63576264558 -0.82244353427 -0.63132851247 0.63657007082 -0.83661006558 -0.63236243579 0.63745704211 -0.85088337101 -0.63351691207 0.63847574100 -0.86517111052 -0.63488907631 0.63967834900 -0.87938094412 -0.63657606354 0.64111704764 -0.89342053178 -0.63036369185 0.65166353856 -0.76950850947 -0.63130377956 0.65231371524 -0.78222470144 -0.63209132305 0.65283414105 -0.79538513068 -0.63280147403 0.65325427260 -0.80888703304 -0.63350938423 0.65360356650 -0.82262764435 -0.63429020538 0.65391147936 -0.83650420046 -0.63521908919 0.65420746780 -0.85041393720 -0.63637118738 0.65452098841 -0.86425409040 -0.63782165169 0.65488149781 -0.87792189592 -0.63964563384 0.65531845262 -0.89131458958 -0.63524973343 0.67018051384 -0.77018697237 -0.63519134349 0.67053127442 -0.78284070067 -0.63520538773 0.67077157090 -0.79590346295 -0.63534494390 0.67091629562 -0.80926984109 -0.63566308973 0.67098034094 -0.82283441695 -0.63621290298 0.67097859920 -0.83649177242 -0.63704746139 0.67092596273 -0.85013648936 -0.63821984271 0.67083732389 -0.86366314966 -0.63978312469 0.67072757501 -0.87696633519 -0.64179038506 0.67061160844 -0.88994062781 -0.63885051772 0.68793725905 -0.77074300791 -0.63784290151 0.68805245160 -0.78336290547 -0.63712226928 0.68808748638 -0.79635748076 -0.63672134942 0.68804905862 -0.80962378159 -0.63667287030 0.68794386357 -0.82305885578 -0.63700956029 0.68777859647 -0.83655975116 -0.63776414776 0.68755995253 -0.85002351553 -0.63896936111 0.68729462701 -0.86334719672 -0.64065792869 0.68698931514 -0.87642784253 -0.64286257889 0.68665071215 -0.88916250080 -0.64079097265 0.70503533266 -0.77119228490 -0.63898301464 0.70498118986 -0.78379823845 -0.63764333269 0.70487937712 -0.79674951398 -0.63678784571 0.70473296626 -0.80994809488 -0.63643247260 0.70454502906 -0.82329596454 -0.63659313227 0.70431863731 -0.83669510635 -0.63728574364 0.70405686281 -0.85004750370 -0.63852622561 0.70376277736 -0.86325513998 -0.64033049710 0.70343945275 -0.87621999858 -0.64271447701 0.70308996077 -0.88884406289 -0.64069602614 0.72157629315 -0.77155047216 -0.63833624395 0.72142143227 -0.78415362224 -0.63656994298 0.72124473278 -0.79708189252 -0.63540158789 0.72104842319 -0.81024202131 -0.63483564332 0.72083473205 -0.82354074693 -0.63487657393 0.72060588787 -0.83688480770 -0.63552884437 0.72036411918 -0.85018094191 -0.63679691928 0.72011165451 -0.86333588789 -0.63868526332 0.71985072239 -0.87625638395 -0.64119834113 0.71958355133 -0.88884916840 -0.63819060613 0.73766169901 -0.77183323851 -0.63562715045 0.73747712193 -0.78443597947 -0.63370346513 0.73728104298 -0.79735694628 -0.63241973107 0.73707583409 -0.81050480124 -0.63177612915 0.73686386722 -0.82378820666 -0.63177284026 0.73664751429 -0.83711582487 -0.63241004531 0.73642914725 -0.85039631816 -0.63368792517 0.73621113804 -0.86353834886 -0.63560666075 0.73599585860 -0.87645057926 -0.63816643293 0.73578568087 -0.88904167169 -0.67296949036 0.56407837915 -0.76685076429 -0.68030060433 0.56596959742 -0.77993763122 -0.68602957283 0.56814813364 -0.79356942862 -0.69036758164 0.57078101901 -0.80775941037 -0.69352581651 0.57403528473 -0.82252083036 -0.69571546321 0.57807796199 -0.83786694246 -0.69714770751 0.58307608200 -0.85381100055 -0.69803373518 0.58919667596 -0.87036625851 -0.69858473197 0.59660677506 -0.88754597023 -0.69901188367 0.60547341051 -0.90536338957 -0.67647525804 0.58809192941 -0.76779266578 -0.68363252859 0.58954655121 -0.78073526357 -0.68921092854 0.59111625821 -0.79419971470 -0.69340119192 0.59291777137 -0.80815290065 -0.69639405277 0.59506781165 -0.82256170290 -0.69838024513 0.59768310001 -0.83739300294 -0.69955050305 0.60088035742 -0.85261368226 -0.70009556057 0.60477630484 -0.86819062233 -0.70020615172 0.60948766323 -0.88409070465 -0.70007301055 0.61513115356 -0.90028081069 -0.68033961942 0.61053076884 -0.76861141693 -0.68705373111 0.61159722963 -0.78144201788 -0.69227186815 0.61266578163 -0.79476530547 -0.69615837657 0.61381428090 -0.80851589129 -0.69887760240 0.61512058349 -0.82262838697 -0.70059389169 0.61666254546 -0.83703740412 -0.70147159046 0.61851802287 -0.85167755436 -0.70167504475 0.62076487177 -0.86648344930 -0.70136860060 0.62348094823 -0.88138970056 -0.70071660404 0.62674410829 -0.89633091975 -0.68423348243 0.63156033032 -0.76931828205 -0.69031233167 0.63228803027 -0.78206501841 -0.69502111441 0.63295364818 -0.79527156970 -0.69849407759 0.63360614684 -0.80885205933 -0.70086546816 0.63429448903 -0.82272061071 -0.70226953308 0.63506763752 -0.83679134728 -0.70284051930 0.63597455509 -0.85097839243 -0.70271267377 0.63706420452 -0.86519586960 -0.70202024344 0.63838554858 -0.87935790219 -0.70089747526 0.63998755006 -0.89337861363 -0.68782775497 0.65134604668 -0.76992452547 -0.69315645006 0.65178535069 -0.78261138943 -0.69726739006 0.65213680213 -0.79572387619 -0.70026323698 0.65242896844 -0.80916508180 -0.70224665281 0.65269041704 -0.82283810229 -0.70332029953 0.65294971535 -0.83664603370 -0.70358683916 0.65323543080 -0.85049197205 -0.70314893367 0.65357613082 -0.86427901339 -0.70210924507 0.65400038282 -0.87791025376 -0.70057043534 0.65453675425 -0.89128878919 -0.69079334497 0.67005335079 -0.77044141148 -0.69533420606 0.67025558847 -0.78308825518 -0.69881941786 0.67037218775 -0.79612759373 -0.70132079675 0.67041834492 -0.80945863575 -0.70291015909 0.67040925628 -0.82298058986 -0.70365932124 0.67036011812 -0.83659266467 -0.70364009959 0.67028612673 -0.85019406880 -0.70292431049 0.67020247842 -0.86368401087 -0.70158377031 0.67012436948 -0.87696169949 -0.69969029543 0.67006699620 -0.88992634330 -0.69280116033 0.68784767550 -0.77088020442 -0.69659371946 0.68786514120 -0.78350273995 -0.69948592055 0.68781674932 -0.79648809111 -0.70152169889 0.68770987553 -0.80973639821 -0.70274498976 0.68755189553 -0.82314780156 -0.70319972843 0.68735018499 -0.83662244147 -0.70292985017 0.68711211962 -0.85006045825 -0.70197929027 0.68684507508 -0.86336199219 -0.70039198400 0.68655642708 -0.87642718361 -0.69821186664 0.68625355129 -0.88915617282 -0.69352210899 0.70489445366 -0.77125216860 -0.69668311004 0.70478040645 -0.78386196798 -0.69907562088 0.70462743110 -0.79681073711 -0.70072088541 0.70443915951 -0.81000204622 -0.70164014758 0.70421922356 -0.82333946557 -0.70185465129 0.70397125515 -0.83672656541 -0.70138564048 0.70369888618 -0.85006691598 -0.70025435906 0.70340574855 -0.86326408754 -0.69848205096 0.70309547415 -0.87622165034 -0.69608996011 0.70277169488 -0.88884317461 -0.69262709885 0.72135911813 -0.77156856833 -0.69535049760 0.72116778181 -0.78417306355 -0.69739724159 0.72096117738 -0.79710090052 -0.69877329832 0.72074179609 -0.81025925681 -0.69948463530 0.72051212914 -0.82355531003 -0.69953722005 0.72027466775 -0.83689623775 -0.69893702008 0.72003190316 -0.85018921758 -0.69769000290 0.71978632658 -0.86334142709 -0.69580213603 0.71954042923 -0.87626004389 -0.69327938697 0.71929670233 -0.88885224556 -0.68978703783 0.73740710176 -0.77184066792 -0.69234400193 0.73719366484 -0.78444315092 -0.69425950543 0.73697493243 -0.79736395013 -0.69553387960 0.73675338451 -0.81051170703 -0.69616745568 0.73653150104 -0.82379506309 -0.69616056491 0.73631176197 -0.83712265980 -0.69551353855 0.73609664727 -0.85040313862 -0.69422670783 0.73588863691 -0.86354514103 -0.69230040402 0.73569021083 -0.87645730850 -0.68973495835 0.73550384902 -0.88904828252 -0.73683723756 0.56080904992 -0.76939677867 -0.74824049809 0.56230238639 -0.78182436405 -0.75709885013 0.56423237131 -0.79493967832 -0.76369096013 0.56673083853 -0.80871830335 -0.76829549456 0.56992962191 -0.82313582103 -0.77119111989 0.57396055530 -0.83816781320 -0.77265650257 0.57895547257 -0.85378986175 -0.77297030908 0.58504620755 -0.86997754853 -0.77241120587 0.59236459411 -0.88670645543 -0.77125785941 0.60104246610 -0.90395216430 -0.73846814468 0.58605533245 -0.77011444834 -0.74971789841 0.58714440755 -0.78247015303 -0.75842943460 0.58845494828 -0.79547317743 -0.76484835434 0.59008336035 -0.80905540137 -0.76922025871 0.59212604946 -0.82314870466 -0.77179074877 0.59467942132 -0.83768496713 -0.77280542562 0.59783988166 -0.85259606860 -0.77250989032 0.60170383617 -0.86781388890 -0.77114974396 0.60636769057 -0.88327030784 -0.76897058761 0.61192785056 -0.89889720526 -0.74038587282 0.60936882176 -0.77074421537 -0.75130080023 0.61011478026 -0.78304034231 -0.75972160420 0.61093575997 -0.79594155401 -0.76585583188 0.61189983313 -0.80934972805 -0.76991103042 0.61307507200 -0.82316674204 -0.77209474699 0.61452954885 -0.83729447357 -0.77261452875 0.61633133593 -0.85163480024 -0.77167792285 0.61854850551 -0.86608959964 -0.76949247645 0.62124912984 -0.88056074937 -0.76626573672 0.62450128119 -0.89495012703 -0.74233673132 0.63097195733 -0.77129503967 -0.75278831003 0.63143246753 -0.78354281158 -0.76081717317 0.63187869423 -0.79635339651 -0.76659019486 0.63235669046 -0.80961007317 -0.77027424925 0.63291250923 -0.82319612027 -0.77203621049 0.63359220357 -0.83699481651 -0.77204295270 0.63444182651 -0.85088944059 -0.77046135003 0.63550743106 -0.86476327120 -0.76745827662 0.63683507026 -0.87849958705 -0.76320060661 0.63847079712 -0.89198166684 -0.74406702948 0.65108717867 -0.77177588115 -0.75397953425 0.65131643237 -0.78398544050 -0.76155795575 0.65148763895 -0.79671729340 -0.76692824543 0.65163036593 -0.80984522651 -0.77021635476 0.65177418083 -0.82324302647 -0.77154823520 0.65194865118 -0.83678447993 -0.77104983820 0.65218334449 -0.85034337356 -0.76884711523 0.65250782830 -0.86379349400 -0.76506601774 0.65295167013 -0.87700862790 -0.75983249719 0.65354443750 -0.88986256192 -0.74532307665 0.66993692527 -0.77219569971 -0.75467357935 0.66998563779 -0.78437610878 -0.76178576620 0.66996648198 -0.79704183316 -0.76674678573 0.66989729312 -0.81006397782 -0.76964378650 0.66979590648 -0.82331364771 -0.77056391707 0.66968015735 -0.83666194781 -0.76959432599 0.66956788101 -0.84997998307 -0.76682216181 0.66947691272 -0.86313885847 -0.76233457307 0.66942508778 -0.87600967896 -0.75621870835 0.66943024146 -0.88846354950 -0.74585118213 0.68774363663 -0.77256345526 -0.75466955179 0.68765904680 -0.78472269609 -0.76134241876 0.68751911120 -0.79733560425 -0.76592261789 0.68733390562 -0.81027511688 -0.76846298403 0.68711350588 -0.82341417112 -0.76901635205 0.68686798779 -0.83662570413 -0.76763555680 0.68660742716 -0.84978265306 -0.76437343313 0.68634189980 -0.86275795505 -0.75928281591 0.68608148153 -0.87542454725 -0.75241653998 0.68583624815 -0.88765536681 -0.74539765525 0.70472975223 -0.77288810770 -0.75376655802 0.70455562242 -0.78503308212 -0.76006972768 0.70434941446 -0.79760719513 -0.76433254404 0.70411663701 -0.81048743345 -0.76658038689 0.70386279870 -0.82355078379 -0.76683863606 0.70359340817 -0.83667423288 -0.76513267135 0.70331397407 -0.84973476743 -0.76148787256 0.70303000503 -0.86260937416 -0.75592961950 0.70274700969 -0.87517503981 -0.74848329198 0.70247049669 -0.88730875107 -0.74370880534 0.72111771159 -0.77317861693 -0.75176370450 0.72089432764 -0.78531514655 -0.75780950721 0.72066127964 -0.79786519428 -0.76185336632 0.72042192088 -0.81070971730 -0.76390243465 0.72017960463 -0.82372967282 -0.76396386506 0.71993768420 -0.83680601802 -0.76204481039 0.71969951285 -0.84981971010 -0.75815242347 0.71946844389 -0.86265170625 -0.75229385714 0.71924783059 -0.87518296366 -0.74447626426 0.71904102624 -0.88729443952 -0.74053094172 0.73712995418 -0.77344394287 -0.74846009769 0.73689412549 -0.78557676906 -0.75440357160 0.73665859461 -0.79811819015 -0.75836188686 0.73642619081 -0.81095075821 -0.76033556686 0.73619974336 -0.82395702532 -0.76032513499 0.73598208154 -0.83701954356 -0.75833111464 0.73577603462 -0.85002086501 -0.75435402921 0.73558443186 -0.86284354174 -0.74839440210 0.73541010254 -0.87537012584 -0.74045275669 0.73525587593 -0.88748316938 -0.79519331293 0.55825278578 -0.77306021766 -0.81162482039 0.55939075569 -0.78447486746 -0.82432867294 0.56108759499 -0.79683196954 -0.83364725255 0.56341922999 -0.81003062088 -0.83992294120 0.56646158698 -0.82396991844 -0.84349812086 0.57029059225 -0.83854895920 -0.84471517349 0.57498217209 -0.85366684013 -0.84391648109 0.58061225279 -0.86922265821 -0.84144442560 0.58725676065 -0.88511551040 -0.83764138901 0.59499162196 -0.90124449369 -0.79565462305 0.58446141186 -0.77367028142 -0.81193900805 0.58521216857 -0.78504997235 -0.82448605278 0.58626642799 -0.79732057413 -0.83358897766 0.58768917048 -0.81033985726 -0.83954100314 0.58954537638 -0.82396559225 -0.84263534964 0.59190002605 -0.83805554961 -0.84316523760 0.59481809983 -0.85246749985 -0.84142388747 0.59836457810 -0.86705921347 -0.83770451966 0.60260444119 -0.88168846099 -0.83230035461 0.60760266946 -0.89621301291 -0.79621744289 0.60845227071 -0.77420849512 -0.81225338282 0.60889405669 -0.78555366809 -0.82456104959 0.60946287304 -0.79773615300 -0.83338239175 0.61021255529 -0.81058676085 -0.83895935786 0.61119693892 -0.82393630267 -0.84153389646 0.61246985945 -0.83761558946 -0.84134795611 0.61408515238 -0.85145543225 -0.83864348536 0.61609665322 -0.86528664205 -0.83366243276 0.61855819748 -0.87894002988 -0.82664674686 0.62152362065 -0.89224640676 -0.79671177896 0.63049379189 -0.77468293989 -0.81242887267 0.63069623979 -0.78599496896 -0.82444099627 0.63091510043 -0.79809084905 -0.83293882222 0.63119326199 -0.81078625138 -0.83811302299 0.63157361264 -0.82389684718 -0.84015427106 0.63209904054 -0.83723830767 -0.83925323889 0.63281243387 -0.85062630406 -0.83560059896 0.63375668079 -0.86387650759 -0.82938702372 0.63497466948 -0.87680458947 -0.82080318566 0.63650928811 -0.88922622093 -0.79696763776 0.65085440495 -0.77510169688 -0.81232640558 0.65087853762 -0.78638288921 -0.82401322570 0.65086128044 -0.79839680515 -0.83216959645 0.65083516816 -0.81095324855 -0.83693701617 0.65083273557 -0.82386202326 -0.83845698318 0.65088651740 -0.83693293312 -0.83687099583 0.65102904844 -0.84997578199 -0.83232055245 0.65129286344 -0.86280037372 -0.82494715137 0.65171049717 -0.87521651214 -0.81489229091 0.65231448439 -0.88703400112 -0.79681502580 0.66980253943 -0.77547284724 -0.81180690952 0.66970076993 -0.78672644311 -0.82316507077 0.66953958335 -0.79866616418 -0.83098604184 0.66934215138 -0.81110267206 -0.83536635501 0.66913164573 -0.82384662838 -0.83640254257 0.66893123811 -0.83670869474 -0.83419113682 0.66876410023 -0.84949953277 -0.82882867003 0.66865340379 -0.86202980408 -0.82041167449 0.66862232050 -0.87411017029 -0.80903668250 0.66869402206 -0.88555129302 -0.79608394959 0.68760662490 -0.77580447211 -0.81073131248 0.68742275648 -0.78703464493 -0.82178386438 0.68718817945 -0.79891106901 -0.82929948578 0.68691808920 -0.81124944163 -0.83333605715 0.68662768117 -0.82386546001 -0.83395145897 0.68633215076 -0.83657482143 -0.83120357172 0.68604669339 -0.84919322311 -0.82515027588 0.68578650448 -0.86153636232 -0.81584945192 0.68556677944 -0.87341993631 -0.80335898033 0.68540271369 -0.88465964233 -0.79460441564 0.70453509090 -0.77610465263 -0.80896054242 0.70430431702 -0.78731650892 -0.81975693940 0.70404523902 -0.79914366253 -0.82702125565 0.70376685921 -0.81140847695 -0.83078114021 0.70347817990 -0.82393331564 -0.83106424212 0.70318820341 -0.83654054208 -0.82789821043 0.70290593205 -0.84905251974 -0.82131069420 0.70264036813 -0.86129161208 -0.81132934246 0.70240051395 -0.87308018259 -0.79798180428 0.70219537185 -0.88424059473 -0.79220643045 0.72085636698 -0.77638146996 -0.80635552732 0.72060527128 -0.78758104936 -0.81697162874 0.72034893234 -0.79937608761 -0.82406267886 0.72009233897 -0.81159469774 -0.82763662182 0.71984047997 -0.82406499274 -0.82770140176 0.71959834416 -0.83661508561 -0.82426496283 0.71937092036 -0.84907308936 -0.81733524917 0.71916319737 -0.86126711700 -0.80692020493 0.71898016401 -0.87302528152 -0.79302777425 0.71882680909 -0.88417569594 -0.78872000053 0.73683888270 -0.77664300523 -0.80277719516 0.73658543904 -0.78783728050 -0.81331526528 0.73633742971 -0.79962048714 -0.82033508279 0.73609840605 -0.81182302370 -0.82383751960 0.73587191940 -0.82427528877 -0.82382344763 0.73566152109 -0.83680768092 -0.82029373879 0.73547076246 -0.84925059870 -0.81324926499 0.73530319484 -0.86143444071 -0.80269089814 0.73516236958 -0.87318960550 -0.78861951015 0.73505183800 -0.88434649164 -0.84615939381 0.55650819309 -0.77800624779 -0.86935646653 0.55722629714 -0.78801950290 -0.88720394954 0.55862920149 -0.79934546386 -0.90009972729 0.56071047787 -0.81176798657 -0.90844168425 0.56346369801 -0.82507092691 -0.91262770487 0.56688243364 -0.83903814080 -0.91305567360 0.57096025650 -0.85345348412 -0.91012347490 0.57569073830 -0.86810081277 -0.90422899323 0.58106745079 -0.88276398265 -0.89577011305 0.58708396569 -0.89722684966 -0.84596591226 0.58334572287 -0.77858323031 -0.86899931432 0.58372511890 -0.78857531470 -0.88665893756 0.58448318623 -0.79982114269 -0.89927342511 0.58563900859 -0.81206562335 -0.90717142010 0.58721166969 -0.82505366579 -0.91068156565 0.58922025326 -0.83853017909 -0.91013250488 0.59168384301 -0.85224007234 -0.90585288094 0.59462152267 -0.86592825464 -0.89817133695 0.59805237594 -0.87933963507 -0.88741651603 0.60199548655 -0.89221912274 -0.84567688725 0.60777656382 -0.77909272962 -0.86850126456 0.60790278514 -0.78905706091 -0.88593586153 0.60819527922 -0.80021030672 -0.89824336126 0.60868751818 -0.81227438740 -0.90568644684 0.60941297412 -0.82497122331 -0.90852780136 0.61040511914 -0.83802273480 -0.90703010792 0.61169742535 -0.85115084224 -0.90145604963 0.61332336485 -0.86407746598 -0.89206830957 0.61531640974 -0.87652452639 -0.87912957084 0.61771003213 -0.88821394381 -0.84519319261 0.63009997012 -0.77954269931 -0.86777930853 0.63004644403 -0.78947509491 -0.88496669350 0.63002512185 -0.80052914193 -0.89695664537 0.63007490771 -0.81241668672 -0.90395046199 0.63023470572 -0.82484957566 -0.90614944118 0.63054342000 -0.83753965512 -0.90375488079 0.63103995468 -0.85019877145 -0.89696807865 0.63176321388 -0.86253877104 -0.88599033261 0.63275210171 -0.87427150024 -0.87102294050 0.63404552230 -0.88510880543 -0.84441570218 0.65061519592 -0.77994109299 -0.86675043748 0.65044324374 -0.78983977009 -0.88368340551 0.65023235551 -0.80079383427 -0.89536038710 0.65002007824 -0.81251492933 -0.90192716308 0.64984395893 -0.82471469906 -0.90352951428 0.64974154458 -0.83710478724 -0.90031322155 0.64975038220 -0.84939683765 -0.89242406571 0.64990801879 -0.86130249407 -0.88000782761 0.65025200136 -0.87253340030 -0.86321028807 0.65081987691 -0.88280120012 -0.84324528977 0.66962149542 -0.78029586425 -0.86533164271 0.66938033245 -0.79016143981 -0.88201796962 0.66907662160 -0.80102056972 -0.89340169607 0.66874193085 -0.81259152326 -0.89958024762 0.66840782819 -0.82459256971 -0.90065104983 0.66810588160 -0.83674197835 -0.89671152827 0.66786765909 -0.84875801847 -0.88785910850 0.66772472863 -0.86035895933 -0.87419121609 0.66770865821 -0.87126307023 -0.85580527659 0.66785101582 -0.88118862044 -0.84158282922 0.68741812278 -0.78061496667 -0.86343991548 0.68714485832 -0.79045045746 -0.87990235789 0.68681756149 -0.80122553424 -0.89102768194 0.68645936659 -0.81266887651 -0.89687341315 0.68609340792 -0.82450916381 -0.89749707701 0.68574281980 -0.83647507566 -0.89295619903 0.68543073652 -0.84829529157 -0.88330830472 0.68518029241 -0.85969849106 -0.86861091957 0.68501462176 -0.87041335367 -0.84892156909 0.68495685889 -0.88016855890 -0.83932919436 0.70430433217 -0.78090635385 -0.86099224707 0.70402396953 -0.79071717643 -0.87726854235 0.70371481659 -0.80142491379 -0.88818545434 0.70339128653 -0.81276939711 -0.89377035717 0.70306779257 -0.82449045757 -0.89405062498 0.70275874789 -0.83632792634 -0.88905363190 0.70247856569 -0.84802163460 -0.87880675205 0.70224165918 -0.85931141353 -0.86333735958 0.70206244154 -0.86993709429 -0.84267282862 0.70195532597 -0.87963850807 -0.83638525901 0.72057937776 -0.78117797938 -0.85790562874 0.72030481424 -0.79097195008 -0.87404849507 0.72002802827 -0.80163489434 -0.88482212292 0.71975659175 -0.81291549308 -0.89023477722 0.71949807657 -0.82456242719 -0.89029472292 0.71926005461 -0.83632437760 -0.88501022493 0.71905009778 -0.84795002523 -0.87438954820 0.71887577796 -0.85918805097 -0.85844095766 0.71874466705 -0.86978713574 -0.83717271822 0.71866433693 -0.87949596047 -0.83265189701 0.73654251374 -0.78143779686 -0.85409705178 0.73627454062 -0.79122513181 -0.87017418809 0.73601683793 -0.80187166187 -0.88088479731 0.73577418330 -0.81312957242 -0.88623037082 0.73555135434 -0.82475104888 -0.88621240000 0.73535312869 -0.83648827663 -0.88083237622 0.73518428397 -0.84809344109 -0.87009179086 0.73504959779 -0.85931872764 -0.85399213531 0.73495384780 -0.86991632169 -0.83253490094 0.73490181161 -0.87963840864 -0.88785715749 0.55567387820 -0.78440003561 -0.92033833182 0.55580060257 -0.79258863181 -0.94520958822 0.55677258758 -0.80257932284 -0.96291165277 0.55846886661 -0.81400202404 -0.97388525157 0.56076847306 -0.82648665075 -0.97857111069 0.56355044030 -0.83966311833 -0.97740995621 0.56669380172 -0.85316134211 -0.97084251423 0.57007759071 -0.86661123745 -0.95930951082 0.57358084066 -0.87964271968 -0.94325167206 0.57708258494 -0.89188570416 -0.88733323137 0.58274382073 -0.78497636027 -0.91960227401 0.58265854315 -0.79314677326 -0.94422624348 0.58303771186 -0.80305412103 -0.96155205996 0.58383668149 -0.81429205470 -0.97192664365 0.58501080668 -0.82645422541 -0.97569691471 0.58651544205 -0.83913428427 -0.97320979333 0.58830594225 -0.85192588242 -0.96481219970 0.59033766191 -0.86442267098 -0.95085105399 0.59256595566 -0.87621830108 -0.93167327638 0.59494617814 -0.88690642384 -0.88660676350 0.60733714920 -0.78548539232 -0.91863423115 0.60710869183 -0.79362558645 -0.94299169725 0.60708113684 -0.80342521943 -0.95994404547 0.60725979260 -0.81446000538 -0.96975615948 0.60764996746 -0.82630565840 -0.97269292296 0.60825696979 -0.83853789258 -0.96901921958 0.60908610795 -0.85073242204 -0.95899993301 0.61014269032 -0.86246496087 -0.94289994693 0.61143202524 -0.87331122317 -0.92098414501 0.61295942109 -0.88284692306 -0.88561553953 0.62976462813 -0.78593503458 -0.91738490652 0.62945017725 -0.79403679378 -0.94146837464 0.62917101358 -0.80371348973 -0.95806035004 0.62896067387 -0.81453747195 -0.96735523885 0.62885269493 -0.82608108994 -0.96954744723 0.62888061352 -0.83791669324 -0.96483138131 0.62907796645 -0.84961663136 -0.95340144723 0.62947829048 -0.86075325383 -0.93545205115 0.63011512240 -0.87089891015 -0.91117759920 0.63102199900 -0.87962594986 -0.88429734511 0.65033702202 -0.78633318984 -0.91580500340 0.64998212806 -0.79439211767 -0.93961870078 0.64957549311 -0.80393980360 -0.95587371444 0.64916179925 -0.81455605025 -0.96470532155 0.64878572861 -0.82582066026 -0.96624879930 0.64849196327 -0.83731343623 -0.96063942486 0.64832518534 -0.84861418079 -0.94801247541 0.64833007694 -0.85930269658 -0.92850322813 0.64855132015 -0.86895878620 -0.90224696021 0.64903359709 -0.87716225228 -0.88258996589 0.66936509538 -0.78668776093 -0.91384522506 0.66900367290 -0.79470328051 -0.93740510078 0.66856272649 -0.80412503271 -0.95335687943 0.66808564268 -0.81454733618 -0.96178784737 0.66761580801 -0.82556450956 -0.96278529096 0.66719660903 -0.83677087153 -0.95643649658 0.66687143226 -0.84776074073 -0.94282875059 0.66668366424 -0.85812843583 -0.92204933937 0.66667669150 -0.86746827548 -0.89418554928 0.66689390060 -0.87537457834 -0.88043118750 0.68715961273 -0.78700665064 -0.91145627477 0.68681394041 -0.79498200472 -0.93478999976 0.68640086477 -0.80429004875 -0.95048258576 0.68595467809 -0.81454292557 -0.95858425607 0.68550967268 -0.82535277808 -0.95914523399 0.68510014082 -0.83633174912 -0.95221574282 0.68476037480 -0.84709198158 -0.93784600584 0.68452466692 -0.85724561831 -0.91608624636 0.68442730946 -0.86640480219 -0.88698668767 0.68450259473 -0.87418167609 -0.87775879561 0.70403133856 -0.78729776179 -0.90858885581 0.70371205923 -0.79524001270 -0.93173582282 0.70335805899 -0.80445572338 -0.94722357419 0.70299137943 -0.81457441432 -0.95507598746 0.70263406212 -0.82522560602 -0.95531694019 0.70230814864 -0.83603881899 -0.94797030993 0.70203568058 -0.84664357372 -0.93305997421 0.70183869952 -0.85666939073 -0.91060981060 0.70173924704 -0.86574579050 -0.88064369664 0.70175936472 -0.87350229354 -0.87451057586 0.72029103739 -0.78756899719 -0.90519367146 0.71999715801 -0.79548902686 -0.92820499509 0.71970246022 -0.80464292828 -0.94355258547 0.71941822063 -0.81467339827 -0.95124448131 0.71915571585 -0.82522313361 -0.95128872134 0.71892622251 -0.83593483112 -0.94369334424 0.71874101721 -0.84645118758 -0.92846638875 0.71861137658 -0.85641489981 -0.90561589358 0.71854857723 -0.86546866460 -0.87514989743 0.71856389578 -0.87325517875 -0.87062431389 0.73624947371 -0.78782825965 -0.90122142498 0.73596836539 -0.79574076960 -0.92415994168 0.73570221949 -0.80487253514 -0.93944236037 0.73545767563 -0.81487147329 -0.94707117742 0.73524137341 -0.82538550107 -0.94704888921 0.73505995243 -0.83606253548 -0.93937799212 0.73492005231 -0.84655049354 -0.92406098252 0.73482831265 -0.85649729226 -0.90110035679 0.73479137306 -0.86555084865 -0.87049861129 0.73481587314 -0.87335907973 </DataArray>
</Points>
</Piece>
</StructuredGrid>
</VTKFile>
