<?xml version="1.0"?>
<VTKFile type="StructuredGrid" version="0.1">
<StructuredGrid WholeExtent="0 9 0 9 0 9">
<Piece Extent="0 9 0 9 0 9">
<PointData>
<DataArray type="Float32" Name="Deformation" format="ascii" NumberOfComponents="3">
0.00193685597 0.06326627639 0.02145722271 0.00174836603 0.06344819313 0.02104631426 0.00158797869 0.06354702013 0.02032902128 0.00145161705 0.06358197717 0.01937766516 0.00133520417 0.06357228406 0.01826456728 0.00123466314 0.06353716057 0.01706204902 0.00114591704 0.06349582651 0.01584243177 0.00106488893 0.06346750165 0.01467803690 0.00098750191 0.06347140579 0.01364118582 0.00090967905 0.06352675871 0.01280419989 0.00170062206 0.06343822365 0.02132083085 0.00161545565 0.06353512653 0.02087244531 0.00152488486 0.06357496574 0.02015638643 0.00143117860 0.06357175819 0.01923464950 0.00133660579 0.06353952078 0.01816922976 0.00124343533 0.06349227042 0.01702212248 0.00115393614 0.06344402401 0.01585532292 0.00107037713 0.06340879848 0.01473082635 0.00099502720 0.06340061071 0.01371062803 0.00093015527 0.06343347762 0.01285672321 0.00148853113 0.06358154979 0.02112711784 0.00147603596 0.06361326163 0.02065287747 0.00143706581 0.06360885730 0.01994350462 0.00137771928 0.06357822230 0.01905291037 0.00130409499 0.06353124215 0.01803500582 0.00122229154 0.06347780233 0.01694370203 0.00113840756 0.06342778837 0.01583291012 0.00105854164 0.06339108575 0.01475654115 0.00098879239 0.06337757999 0.01376850622 0.00093525844 0.06339715660 0.01292271642 0.00129885861 0.06369492645 0.02088819235 0.00133348277 0.06367867653 0.02039785111 0.00133059766 0.06364276746 0.01969953098 0.00129811094 0.06359393262 0.01884093114 0.00124393024 0.06353890535 0.01786975077 0.00117596322 0.06348441901 0.01683368905 0.00110211750 0.06343720696 0.01578044517 0.00103030074 0.06340400256 0.01475771829 0.00096842057 0.06339153916 0.01381320761 0.00092438464 0.06340655012 0.01299461230 0.00112987995 0.06377702530 0.02061616302 0.00119117185 0.06372744933 0.02011760656 0.00121155651 0.06367076890 0.01943362065 0.00119922541 0.06361145223 0.01860719516 0.00116237001 0.06355396757 0.01768131996 0.00110918178 0.06350278315 0.01669898491 0.00104785219 0.06346236721 0.01570317989 0.00098657272 0.06343718799 0.01473689476 0.00093353482 0.06343171372 0.01384311939 0.00089692996 0.06345041265 0.01306484364 0.00097987059 0.06382651799 0.02032313851 0.00105247902 0.06375565815 0.01982238416 0.00108601848 0.06368693425 0.01915492876 0.00108793454 0.06362334422 0.01836018578 0.00106567275 0.06356788597 0.01747756870 0.00102667867 0.06352355743 0.01654649099 0.00097839785 0.06349335651 0.01560636611 0.00092827584 0.06348028113 0.01469660755 0.00088375821 0.06348732921 0.01385662876 0.00085229051 0.06351749867 0.01312584323 0.00084710597 0.06384207617 0.02002122748 0.00092078006 0.06375938108 0.01952242425 0.00096005967 0.06368533620 0.01887261044 0.00097111017 0.06362217170 0.01810838636 0.00096009693 0.06357211775 0.01726635233 0.00093318531 0.06353740455 0.01638310865 0.00089654068 0.06352026226 0.01549525565 0.00085632840 0.06352292106 0.01463939365 0.00081871384 0.06354761113 0.01385212295 0.00078986237 0.06359656265 0.01317004386 0.00072986153 0.06382237151 0.01972253859 0.00079945076 0.06373469624 0.01922796719 0.00083975618 0.06366004739 0.01859582084 0.00085562413 0.06360049774 0.01786028025 0.00085190100 0.06355812008 0.01705552616 0.00083343314 0.06353498720 0.01621573928 0.00080506691 0.06353317187 0.01537510033 0.00077164867 0.06355474688 0.01456779004 0.00073802479 0.06360178502 0.01382798914 0.00070904163 0.06367635908 0.01318987833 0.00062641272 0.06376607566 0.01943918048 0.00069186693 0.06367768173 0.01894925331 0.00073118412 0.06360514048 0.01833371508 0.00074834828 0.06355088545 0.01762435082 0.00074734343 0.06351735014 0.01685294553 0.00073215358 0.06350696806 0.01605128424 0.00070676274 0.06352217274 0.01525115197 0.00067515492 0.06356539768 0.01448433373 0.00064131413 0.06363907640 0.01378261454 0.00060922438 0.06374564241 0.01317777942 0.00053503496 0.06367186028 0.01918326183 0.00060140436 0.06358441565 0.01869652296 0.00064041960 0.06351468814 0.01809544831 0.00065615445 0.06346589792 0.01740908140 0.00065268268 0.06344126510 0.01666646576 0.00063407808 0.06344400984 0.01589664491 0.00060441441 0.06347735227 0.01512866238 0.00056776544 0.06354451253 0.01439156169 0.00052820496 0.06364871077 0.01371438636 0.00048980673 0.06379316713 0.01312617993 0.00184788346 0.06377519257 0.02133996027 0.00169604618 0.06378423402 0.02087561049 0.00155822137 0.06377140150 0.02013820595 0.00143332712 0.06374377793 0.01919189065 0.00132028155 0.06370844624 0.01810080862 0.00121800278 0.06367248937 0.01692910386 0.00112540889 0.06364299024 0.01574092038 0.00104141802 0.06362703180 0.01460040220 0.00096494826 0.06363169697 0.01357169332 0.00089491772 0.06366406869 0.01271893776 0.00166083028 0.06397116230 0.02106091182 0.00158322127 0.06392891554 0.02058221118 0.00149725886 0.06387699660 0.01986512837 0.00140588746 0.06382025745 0.01896440857 0.00131205153 0.06376355001 0.01793479694 0.00121869549 0.06371172626 0.01683103862 0.00112876377 0.06366963815 0.01570787879 0.00104520082 0.06364213761 0.01462006261 0.00097095106 0.06363407662 0.01362233523 0.00090895893 0.06365030711 0.01276944182 0.00148257559 0.06413783225 0.02078233425 0.00145818522 0.06405459028 0.02029304963 0.00141169273 0.06397256837 0.01959545028 0.00134836734 0.06389464580 0.01873664538 0.00127347831 0.06382370188 0.01776374406 0.00119229488 0.06376261591 0.01672385550 0.00111008629 0.06371426719 0.01566408885 0.00103212179 0.06368153502 0.01463155327 0.00096367062 0.06366729869 0.01367335790 0.00091000203 0.06367443751 0.01283661192 0.00131384008 0.06427448842 0.02050585646 0.00132504386 0.06415967448 0.02000968696 0.00130729696 0.06405553281 0.01933092440 0.00126684117 0.06396327591 0.01851056227 0.00120991828 0.06388411627 0.01758959406 0.00114277008 0.06381926641 0.01660901327 0.00107163838 0.06376993882 0.01560981339 0.00100276497 0.06373734600 0.01463298792 0.00094239164 0.06372270046 0.01371953033 0.00089676018 0.06372721469 0.01291043414 0.00115534447 0.06438041684 0.02023310734 0.00118790300 0.06424258437 0.01973368430 0.00118984551 0.06412330596 0.01907330346 0.00116738332 0.06402248067 0.01828812047 0.00112672778 0.06394000761 0.01741429100 0.00107409023 0.06387578585 0.01648797071 0.00101568199 0.06382971447 0.01554531526 0.00095771440 0.06380169256 0.01462248031 0.00090639881 0.06379161920 0.01375562152 0.00086794655 0.06379939347 0.01298089456 0.00100780946 0.06445490354 0.01996571580 0.00105086847 0.06430173619 0.01946660278 0.00106511234 0.06417330382 0.01882434019 0.00105606821 0.06406859300 0.01807128119 0.00102926320 0.06398659031 0.01723977894 0.00099022443 0.06392628231 0.01636218659 0.00094447904 0.06388665558 0.01547085729 0.00089755413 0.06386669667 0.01459814420 0.00085497685 0.06386539217 0.01377640047 0.00082227430 0.06388172865 0.01303797926 0.00087195575 0.06449723454 0.01970531072 0.00091804607 0.06433554616 0.01921000350 0.00093887143 0.06420294242 0.01858578732 0.00093897023 0.06409794581 0.01786200564 0.00092288090 0.06401907881 0.01706800194 0.00089514184 0.06396486391 0.01623311968 0.00086029147 0.06393382359 0.01538670232 0.00082286819 0.06392448035 0.01455809333 0.00078741044 0.06393535666 0.01377663618 0.00075845661 0.06396497501 0.01307167434 0.00074850405 0.06450669587 0.01945352102 0.00079354164 0.06434243053 0.01896544760 0.00081689673 0.06420963778 0.01835939758 0.00082216378 0.06410687199 0.01766225504 0.00081293724 0.06403268752 0.01690090407 0.00079281157 0.06398563872 0.01610222876 0.00076538121 0.06396427995 0.01529311319 0.00073424064 0.06396716556 0.01450044147 0.00070298429 0.06399284992 0.01375109766 0.00067520664 0.06403988738 0.01307196587 0.00063817506 0.06448257354 0.01921197558 0.00068146099 0.06432080552 0.01873449620 0.00070496222 0.06419080592 0.01814692370 0.00071172326 0.06409170447 0.01747399059 0.00070478860 0.06402263088 0.01674042939 0.00068720275 0.06398271484 0.01597097260 0.00066201021 0.06397108608 0.01519035275 0.00063225550 0.06398687431 0.01442330235 0.00060098311 0.06402920923 0.01369455390 0.00057123756 0.06409722055 0.01302883994 0.00054168948 0.06442415359 0.01898230331 0.00058590994 0.06426908737 0.01851871043 0.00060884186 0.06414386287 0.01795011842 0.00061372305 0.06404877616 0.01729917351 0.00060379133 0.06398412330 0.01658852196 0.00058228451 0.06395020038 0.01584080998 0.00055244040 0.06394730345 0.01507868383 0.00051749683 0.06397572858 0.01432478972 0.00048069159 0.06403577185 0.01360177391 0.00044526252 0.06412772932 0.01293228262 0.00176006922 0.06425190896 0.02109474204 0.00163680594 0.06413805524 0.02059293274 0.00151745554 0.06404501623 0.01984835767 0.00140302115 0.06397161235 0.01891800814 0.00129450595 0.06391666402 0.01785887552 0.00119291308 0.06387899168 0.01672795113 0.00109924570 0.06385741573 0.01558222633 0.00101450697 0.06385075663 0.01447869246 0.00093970003 0.06385783478 0.01347434085 0.00087582805 0.06387747061 0.01262616284 0.00161217120 0.06446517816 0.02073240906 0.00154079303 0.06432274936 0.02023271638 0.00145935328 0.06420440145 0.01952134550 0.00137114382 0.06410859524 0.01864663795 0.00127945653 0.06403379155 0.01765693523 0.00118758326 0.06397845117 0.01660057888 0.00109881590 0.06394103492 0.01552591041 0.00101644631 0.06392000360 0.01448127135 0.00094376635 0.06391381803 0.01351500321 0.00088406791 0.06392093902 0.01267544752 0.00146172406 0.06464714756 0.02040707517 0.00142866793 0.06448066759 0.01990859149 0.00137724840 0.06434241577 0.01922583640 0.00131196889 0.06423029110 0.01839996887 0.00123733282 0.06414219261 0.01747214789 0.00115784361 0.06407601928 0.01648353246 0.00107800468 0.06402967014 0.01547528155 0.00100231943 0.06400104418 0.01448855415 0.00093529131 0.06398804041 0.01356450926 0.00088142371 0.06398855784 0.01274430584 0.00131116163 0.06479809619 0.02011384400 0.00130491165 0.06461213369 0.01961654782 0.00127649280 0.06445892749 0.01895869443 0.00123077784 0.06433572753 0.01817555494 0.00117263954 0.06423978376 0.01730240046 0.00110695068 0.06416834610 0.01637450211 0.00103858404 0.06411866451 0.01542713099 0.00097241237 0.06408798891 0.01449555823 0.00091330845 0.06407356926 0.01361505494 0.00086614505 0.06407265548 0.01282089223 0.00116291774 0.06491830312 0.01984781917 0.00117400519 0.06471747144 0.01935257511 0.00116243835 0.06455380493 0.01871678369 0.00113285211 0.06442393212 0.01797095019 0.00108988137 0.06432448154 0.01714557989 0.00103816103 0.06425208170 0.01627117806 0.00098232598 0.06420336114 0.01537824999 0.00092701112 0.06417494838 0.01449730095 0.00087685134 0.06416347194 0.01365883622 0.00083648155 0.06416556034 0.01289336108 0.00101942620 0.06500804741 0.01960410433 0.00104042955 0.06479700460 0.01911266311 0.00104043695 0.06462691640 0.01849696826 0.00102347318 0.06449393247 0.01778370865 0.00099356301 0.06439420250 0.01699957313 0.00095473120 0.06432387617 0.01617125056 0.00091100250 0.06427910316 0.01532542978 0.00086640170 0.06425603314 0.01448879966 0.00082495354 0.06425081581 0.01368804905 0.00079068281 0.06425960083 0.01294986680 0.00088312085 0.06506760811 0.01937780311 0.00090866571 0.06485105696 0.01889280155 0.00091584049 0.06467813020 0.01829611223 0.00090792252 0.06454475617 0.01761138436 0.00088818915 0.06444686318 0.01686226716 0.00085991773 0.06438037957 0.01607240984 0.00082638561 0.06434123366 0.01526546163 0.00079087012 0.06432535377 0.01446507173 0.00075664861 0.06432866822 0.01369488938 0.00072699843 0.06434710535 0.01297856379 0.00075643551 0.06509726427 0.01916401913 0.00078319469 0.06487995226 0.01868898019 0.00079400085 0.06470731465 0.01811107968 0.00079148158 0.06457543082 0.01745153134 0.00077826450 0.06448038014 0.01673154891 0.00075697720 0.06441824200 0.01597234614 0.00073024729 0.06438509576 0.01519513677 0.00070070239 0.06437702082 0.01442113453 0.00067097010 0.06439009653 0.01367155318 0.00064367802 0.06442040229 0.01296760645 0.00064180400 0.06509729496 0.01895785604 0.00066849749 0.06488401430 0.01849718877 0.00068026993 0.06471433806 0.01793873469 0.00067943184 0.06458498402 0.01730170362 0.00066829373 0.06449266992 0.01660530536 0.00064916613 0.06443411352 0.01586874970 0.00062435956 0.06440603258 0.01511124645 0.00059618453 0.06440514486 0.01435200541 0.00056695156 0.06442816810 0.01361023639 0.00053897118 0.06447182007 0.01290514919 0.00054166014 0.06506797923 0.01875441747 0.00056905509 0.06486356682 0.01831341703 0.00057999961 0.06469906874 0.01777594136 0.00057705475 0.06457244336 0.01715945524 0.00056278156 0.06448164906 0.01648142345 0.00053974109 0.06442464423 0.01575931075 0.00051049440 0.06439938723 0.01501058193 0.00047760255 0.06440383646 0.01425270174 0.00044362657 0.06443595028 0.01350313498 0.00041112753 0.06449368708 0.01277934641 0.00167477950 0.06469396315 0.02075221452 0.00157314031 0.06449927962 0.02022659459 0.00146866365 0.06435270278 0.01948543405 0.00136367260 0.06424804161 0.01857951626 0.00126049027 0.06417910513 0.01755962457 0.00116143976 0.06413970231 0.01647654234 0.00106884415 0.06412364216 0.01538105294 0.00098502655 0.06412473367 0.01432393972 0.00091231006 0.06413678583 0.01335598605 0.00085301776 0.06415360764 0.01252797529 0.00155720205 0.06491854584 0.02035444800 0.00149093441 0.06470968367 0.01984206990 0.00141388032 0.06454705889 0.01914197294 0.00132941320 0.06442512335 0.01829687714 0.00124090644 0.06433832891 0.01734950247 0.00115173348 0.06428112741 0.01634256895 0.00106526771 0.06424797072 0.01531879655 0.00098488255 0.06423331068 0.01432090528 0.00091395142 0.06423159914 0.01339161512 0.00085584773 0.06423728796 0.01257364609 0.00142917230 0.06510902515 0.02001297619 0.00139023638 0.06488755166 0.01951071690 0.00133606198 0.06471231527 0.01884533759 0.00127045369 0.06457801911 0.01805281615 0.00119721608 0.06447936633 0.01716913044 0.00112015373 0.06441106004 0.01623025835 0.00104307123 0.06436780338 0.01527217775 0.00096977315 0.06434429949 0.01433086651 0.00090406407 0.06433525150 0.01344230251 0.00084974858 0.06433536253 0.01264246363 0.00129421325 0.06526689648 0.01971955882 0.00127561514 0.06503473639 0.01922548571 0.00124005938 0.06485007407 0.01858957711 0.00119131186 0.06470759992 0.01784224233 0.00113313843 0.06460200431 0.01701389067 0.00106930498 0.06452797761 0.01613493145 0.00100357737 0.06448021022 0.01523577396 0.00093972147 0.06445339250 0.01434682752 0.00088150316 0.06444221484 0.01349850144 0.00083268831 0.06444136761 0.01272120503 0.00115584785 0.06539365523 0.01946595564 0.00115163959 0.06515309065 0.01897932646 0.00113072328 0.06496193745 0.01836874063 0.00109650548 0.06481473678 0.01766006473 0.00105239276 0.06470602977 0.01687916537 0.00100179168 0.06463035756 0.01605190913 0.00094810879 0.06458226129 0.01520416262 0.00089475066 0.06455628210 0.01436179243 0.00084512385 0.06454696112 0.01355066514 0.00080263490 0.06454883950 0.01279664737 0.00101759911 0.06549079679 0.01924392638 0.00102287865 0.06524446724 0.01876518926 0.00101290442 0.06504950756 0.01817687725 0.00099055235 0.06490030071 0.01750119240 0.00095869833 0.06479122964 0.01676033673 0.00092021830 0.06471667731 0.01597651230 0.00087798818 0.06467102667 0.01517192115 0.00083488386 0.06464866069 0.01436876532 0.00079378129 0.06464396230 0.01358924684 0.00075755636 0.06465131448 0.01285556777 0.00088298999 0.06555981654 0.01904523080 0.00089390124 0.06531071894 0.01857602423 0.00089145358 0.06511438654 0.01800803611 0.00087797023 0.06496516271 0.01736053437 0.00085577440 0.06485739083 0.01665278697 0.00082718931 0.06478541428 0.01590406185 0.00079453818 0.06474357643 0.01513362698 0.00076014422 0.06472622065 0.01436075031 0.00072633065 0.06472769033 0.01360469977 0.00069542068 0.06474232884 0.01288474334 0.00075554348 0.06560220989 0.01886162862 0.00076927627 0.06535369855 0.01840478149 0.00077122151 0.06515817654 0.01785626631 0.00076327691 0.06501019380 0.01723299969 0.00074734022 0.06490430027 0.01655189827 0.00072530916 0.06483504590 0.01582987868 0.00069908147 0.06479698063 0.01508385754 0.00067055486 0.06478465440 0.01433075149 0.00064162708 0.06479261716 0.01358747715 0.00061419585 0.06481541885 0.01287095117 0.00063878256 0.06561947222 0.01868487959 0.00065357266 0.06537525886 0.01824441116 0.00065705896 0.06518247972 0.01771561697 0.00065099018 0.06503626499 0.01711349741 0.00063711506 0.06493174488 0.01645305285 0.00061718232 0.06486404959 0.01574928367 0.00059294071 0.06482830934 0.01501719025 0.00056613894 0.06481965432 0.01427177297 0.00053852575 0.06483321474 0.01352803222 0.00051184987 0.06486412081 0.01280096837 0.00053623020 0.06561309893 0.01850674345 0.00055135931 0.06537725267 0.01808786335 0.00055381669 0.06518889822 0.01758013722 0.00054562781 0.06504424729 0.01699693657 0.00052881817 0.06493951157 0.01635163290 0.00050541325 0.06487090278 0.01565759772 0.00047743856 0.06483463262 0.01492820254 0.00044691958 0.06482691280 0.01417681886 0.00041588181 0.06484395502 0.01341681820 0.00038635073 0.06488197099 0.01266157205 0.00159338053 0.06509889275 0.02034302420 0.00150754429 0.06485752998 0.01980490959 0.00141482815 0.06467929958 0.01907539272 0.00131825493 0.06455562688 0.01819991362 0.00122084744 0.06447793727 0.01722391235 0.00112562850 0.06443765609 0.01619282897 0.00103562093 0.06442620870 0.01515210351 0.00095384754 0.06443502047 0.01414717604 0.00088333115 0.06445551676 0.01322348660 0.00082709457 0.06447912291 0.01242647525 0.00149848005 0.06532953992 0.01994615405 0.00143640893 0.06508277413 0.01942838070 0.00136355220 0.06489484752 0.01874394583 0.00128316112 0.06475819353 0.01793066568 0.00119848696 0.06466524564 0.01702635650 0.00111278097 0.06460843729 0.01606883451 0.00102929441 0.06458020195 0.01509591596 0.00095127854 0.06457297308 0.01414541709 0.00088198463 0.06457918412 0.01325515414 0.00082466392 0.06459126855 0.01246294334 0.00138811605 0.06552299445 0.01961167288 0.00134564288 0.06527130062 0.01911063967 0.00129046264 0.06507618266 0.01846462851 0.00122575149 0.06493069074 0.01770512253 0.00115468563 0.06482787506 0.01686360486 0.00108044123 0.06476078579 0.01597155863 0.00100619446 0.06472247311 0.01506046697 0.00093512151 0.06470598722 0.01416181302 0.00087039855 0.06470437828 0.01330707989 0.00081520175 0.06471069650 0.01252775073 0.00126638489 0.06568203600 0.01933040479 0.00123968331 0.06542616483 0.01884355266 0.00119987093 0.06522609515 0.01823030850 0.00114983414 0.06507520552 0.01751695764 0.00109245934 0.06496687445 0.01672978543 0.00103063292 0.06489448047 0.01589507720 0.00096724128 0.06485140213 0.01503911830 0.00090517081 0.06483101796 0.01418819407 0.00084730792 0.06482670648 0.01336858984 0.00079653899 0.06483184623 0.01260659096 0.00113738291 0.06580944425 0.01909317387 0.00112296736 0.06555042213 0.01861898584 0.00109608852 0.06534737517 0.01803385356 0.00105921714 0.06519382487 0.01735984452 0.00101482394 0.06508329273 0.01661902621 0.00096537967 0.06500930026 0.01583346611 0.00091335505 0.06496536897 0.01502523171 0.00086122084 0.06494502035 0.01421639050 0.00081144775 0.06494177592 0.01342900996 0.00076650654 0.06494915719 0.01268515757 0.00100520645 0.06590799886 0.01889080423 0.00099993218 0.06564712793 0.01842880535 0.00098342688 0.06544281288 0.01786813144 0.00095770859 0.06528863581 0.01722745665 0.00092479532 0.06517817884 0.01652545519 0.00088670511 0.06510502405 0.01578080123 0.00084545598 0.06506275356 0.01501216896 0.00080306595 0.06504494946 0.01423823256 0.00076155306 0.06504519386 0.01347766621 0.00072293532 0.06505706885 0.01274914411 0.00087395188 0.06598047952 0.01871411996 0.00087501492 0.06571933758 0.01826487737 0.00086619745 0.06551519842 0.01772600988 0.00084911656 0.06536172535 0.01711346752 0.00082538934 0.06525258169 0.01644320036 0.00079663287 0.06518143076 0.01573115844 0.00076446425 0.06514193587 0.01499329180 0.00073050054 0.06512776035 0.01424555050 0.00069635885 0.06513256751 0.01350388459 0.00066365625 0.06515002066 0.01278424411 0.00074771554 0.06602966588 0.01855394516 0.00075265272 0.06577010649 0.01811906804 0.00074871168 0.06556732198 0.01760035663 0.00073724915 0.06541518051 0.01701155063 0.00071962188 0.06530755022 0.01636638972 0.00069718660 0.06523829928 0.01567861362 0.00067130005 0.06520129585 0.01496196201 0.00064331898 0.06519040807 0.01423017459 0.00061460013 0.06519950410 0.01349699106 0.00058650024 0.06522245209 0.01277615111 0.00063059377 0.06605833762 0.01840110394 0.00063728275 0.06580249002 0.01798324353 0.00063528103 0.06560197371 0.01748403945 0.00062591445 0.06545108828 0.01691537945 0.00061050880 0.06534413335 0.01628915127 0.00059038990 0.06527540853 0.01561724265 0.00056688358 0.06523921344 0.01491154133 0.00054131565 0.06522984768 0.01418393507 0.00051501192 0.06524161086 0.01344631160 0.00048929821 0.06526880259 0.01271055866 0.00052668292 0.06606927441 0.01824642039 0.00053334214 0.06581954357 0.01784926999 0.00053021696 0.06562194376 0.01736992609 0.00051892053 0.06547153568 0.01681862749 0.00050106597 0.06536338000 0.01620561299 0.00047826643 0.06529253742 0.01554112141 0.00045213504 0.06525406860 0.01483539154 0.00042428492 0.06524303424 0.01409866220 0.00039632922 0.06525449502 0.01334117218 0.00036988108 0.06528351163 0.01257316030 0.00151723856 0.06546423534 0.01989781757 0.00144251290 0.06520242917 0.01935619130 0.00135893151 0.06500964508 0.01864419126 0.00126974160 0.06487692933 0.01780269885 0.00117819037 0.06479532816 0.01687259546 0.00108752501 0.06475588781 0.01589476249 0.00100099272 0.06474965454 0.01491008135 0.00092184069 0.06476767458 0.01395943344 0.00085331613 0.06480099418 0.01308370015 0.00079866622 0.06484065959 0.01232376288 0.00143856244 0.06569643502 0.01952665263 0.00137998007 0.06543507644 0.01900975776 0.00131108110 0.06523764596 0.01834419928 0.00123485311 0.06509615757 0.01756354310 0.00115428373 0.06500262528 0.01670135512 0.00107236056 0.06494906309 0.01579120126 0.00099207119 0.06492748501 0.01486664742 0.00091640324 0.06492990502 0.01396125950 0.00084834431 0.06494833714 0.01310860342 0.00079088201 0.06497479537 0.01234224507 0.00134175106 0.06588858487 0.01921480083 0.00129763974 0.06562797259 0.01871957363 0.00124277952 0.06542793371 0.01809438377 0.00117979207 0.06528116690 0.01736682330 0.00111129904 0.06518037081 0.01656448428 0.00103992210 0.06511824413 0.01571495875 0.00096828290 0.06508748550 0.01484583876 0.00089900310 0.06508079361 0.01398471637 0.00083470435 0.06509086711 0.01315918363 0.00077800833 0.06511040468 0.01239683258 0.00123106654 0.06604466144 0.01895378575 0.00119964518 0.06578510125 0.01847780069 0.00115780164 0.06558411331 0.01788762463 0.00110773559 0.06543485676 0.01720603406 0.00105164665 0.06533049068 0.01645580545 0.00099173447 0.06526417421 0.01565971527 0.00093019869 0.06522906644 0.01484054001 0.00086923894 0.06521832648 0.01402105614 0.00081105488 0.06522511345 0.01322404014 0.00075784613 0.06524258646 0.01247226849 0.00111077099 0.06616864125 0.01873513099 0.00109014967 0.06591044601 0.01827660072 0.00105992233 0.06570978973 0.01771680177 0.00102186079 0.06556012660 0.01707466998 0.00097773690 0.06545491083 0.01636914117 0.00092932248 0.06538759664 0.01561915116 0.00087838939 0.06535163822 0.01484363580 0.00082670944 0.06534048978 0.01406153091 0.00077605449 0.06534760552 0.01329177231 0.00072819637 0.06536643965 0.01255329585 0.00098512651 0.06626450083 0.01855036013 0.00097330652 0.06600799051 0.01810813550 0.00095291644 0.06580856792 0.01757479509 0.00092534480 0.06565987587 0.01696622565 0.00089198013 0.06555555720 0.01629831395 0.00085421096 0.06548925472 0.01558694674 0.00081342584 0.06545461125 0.01484801075 0.00077101328 0.06544526963 0.01409739276 0.00072836183 0.06545487267 0.01335097950 0.00068686001 0.06547706319 0.01262465774 0.00085839522 0.06633621670 0.01839099676 0.00085326900 0.06608171836 0.01796456679 0.00084055883 0.06588405286 0.01745448447 0.00082136472 0.06573700403 0.01687419569 0.00079678669 0.06563435572 0.01623714634 0.00076792474 0.06556989175 0.01555678232 0.00073587889 0.06553739596 0.01484654950 0.00070174914 0.06553065218 0.01411989379 0.00066663550 0.06554344425 0.01339026106 0.00063163800 0.06556955602 0.01267109722 0.00073483923 0.06638776540 0.01824856446 0.00073419039 0.06613561317 0.01783805638 0.00072662436 0.06593984951 0.01734874982 0.00071309768 0.06579441052 0.01679207469 0.00069456692 0.06569323232 0.01617946086 0.00067198863 0.06563025102 0.01552233822 0.00064631936 0.06559940273 0.01483213667 0.00061851568 0.06559462357 0.01412028608 0.00058953413 0.06560984964 0.01339821636 0.00056033128 0.06563901706 0.01267735737 0.00061872065 0.06642312344 0.01811458683 0.00062022399 0.06617365857 0.01772076604 0.00061488789 0.06597956284 0.01725047104 0.00060372080 0.06583499480 0.01671335725 0.00058773117 0.06573411296 0.01611908003 0.00056792746 0.06567107585 0.01547729478 0.00054531811 0.06564004199 0.01479765689 0.00052091159 0.06563516993 0.01408982174 0.00049571634 0.06565061818 0.01336344474 0.00047074081 0.06568054526 0.01262818125 0.00051430158 0.06644626737 0.01798058745 0.00051552308 0.06619983816 0.01760485754 0.00050912429 0.06600679782 0.01715252804 0.00049641120 0.06586165630 0.01663153797 0.00047868979 0.06575892355 0.01604982638 0.00045726605 0.06569310952 0.01541533230 0.00043344597 0.06565872415 0.01473599478 0.00040853554 0.06565027740 0.01401975286 0.00038384073 0.06566227922 0.01327454556 0.00036066755 0.06568923956 0.01250831193 0.00144771984 0.06578752853 0.01944724112 0.00138054113 0.06552360000 0.01890875328 0.00130395617 0.06532857774 0.01821778730 0.00122110608 0.06519451012 0.01741137056 0.00113513197 0.06511344551 0.01652653047 0.00104917498 0.06507743229 0.01560029441 0.00096637621 0.06507851884 0.01466968978 0.00088987678 0.06510875352 0.01377174396 0.00082281782 0.06516018473 0.01294348436 0.00076834043 0.06522486083 0.01222193836 0.00138000644 0.06601750573 0.01911506916 0.00132441135 0.06575964626 0.01860431005 0.00125917922 0.06556533281 0.01795966842 0.00118695470 0.06542736723 0.01721104891 0.00111038244 0.06533855137 0.01638835618 0.00103210707 0.06529168710 0.01552149489 0.00095477325 0.06527957627 0.01464036967 0.00088102562 0.06529502075 0.01377488520 0.00081350883 0.06533082238 0.01295494612 0.00075486751 0.06537978303 0.01221045708 0.00129327307 0.06620532586 0.01883399562 0.00124897925 0.06595362570 0.01834873261 0.00119534179 0.06576148421 0.01774527801 0.00113450518 0.06562230848 0.01704785378 0.00106861387 0.06552950560 0.01628068184 0.00099981234 0.06547648266 0.01546798415 0.00093024506 0.06545664674 0.01463398264 0.00086205650 0.06546340493 0.01380289926 0.00079739112 0.06549016432 0.01299895594 0.00073839340 0.06553033200 0.01224637463 0.00119164817 0.06635591952 0.01859710559 0.00115802973 0.06611022789 0.01813528183 0.00111572574 0.06592125113 0.01756826156 0.00106640712 0.06578286607 0.01691580478 0.00101174477 0.06568894953 0.01619767145 0.00095340959 0.06563337834 0.01543362156 0.00089307249 0.06561002932 0.01464341509 0.00083240439 0.06561277928 0.01384681203 0.00077307618 0.06563550505 0.01306357235 0.00071675878 0.06567208346 0.01231345604 0.00107926019 0.06647421733 0.01839748414 0.00105534770 0.06623414241 0.01795721860 0.00102361293 0.06604885275 0.01742226456 0.00098531014 0.06591257218 0.01680892152 0.00094169361 0.06581952450 0.01613348900 0.00089401761 0.06576393353 0.01541226647 0.00084353641 0.06574002310 0.01466155344 0.00079150429 0.06574201701 0.01389764941 0.00073917551 0.06576413908 0.01313685388 0.00068780435 0.06580061313 0.01239546635 0.00096023756 0.06656514988 0.01822821638 0.00094471807 0.06633005883 0.01780780380 0.00092228521 0.06614850826 0.01730093248 0.00089386387 0.06601495898 0.01672122364 0.00086037891 0.06592387182 0.01608229848 0.00082275522 0.06586970762 0.01539777823 0.00078191768 0.06584692718 0.01468128410 0.00073879118 0.06584999134 0.01394643731 0.00069430059 0.06587336093 0.01320685907 0.00064937079 0.06591149676 0.01247617059 0.00083870873 0.06663364777 0.01808238737 0.00082992575 0.06640266674 0.01768029832 0.00081502446 0.06622443684 0.01719791081 0.00079471790 0.06609355867 0.01664673072 0.00076971914 0.06600463285 0.01603826390 0.00074074121 0.06595225997 0.01538401620 0.00070849717 0.06593104065 0.01469549349 0.00067370005 0.06593557549 0.01398420161 0.00063706291 0.06596046509 0.01326164643 0.00059929880 0.06600031007 0.01253933381 0.00071880213 0.06668464161 0.01795308221 0.00071475563 0.06645665570 0.01756796303 0.00070511252 0.06628085767 0.01710684505 0.00069052188 0.06615190343 0.01657946240 0.00067163281 0.06606444889 0.01599554925 0.00064909440 0.06601314997 0.01536483974 0.00062355573 0.06599266259 0.01469706801 0.00059566589 0.06599764265 0.01400196822 0.00056607397 0.06602274608 0.01328927452 0.00053542907 0.06606262879 0.01256872104 0.00060464622 0.06672306200 0.01783338598 0.00060299263 0.06649671530 0.01746405883 0.00059583125 0.06632198995 0.01702138066 0.00058392541 0.06619352544 0.01651343829 0.00056803841 0.06610596130 0.01594831853 0.00054893357 0.06605393701 0.01533410819 0.00052737423 0.06603209210 0.01467889409 0.00050412368 0.06603506606 0.01399076304 0.00047994526 0.06605749841 0.01327780185 0.00045560227 0.06609402865 0.01254809733 0.00050036941 0.06675383955 0.01771638376 0.00049842165 0.06652753511 0.01736184659 0.00049046253 0.06635205285 0.01693516315 0.00047757810 0.06622195690 0.01644267800 0.00046085443 0.06613181139 0.01589073574 0.00044137755 0.06607618047 0.01528568092 0.00042023353 0.06604962827 0.01463385814 0.00039850842 0.06604671893 0.01394161196 0.00037728826 0.06606201658 0.01321528695 0.00035765912 0.06609008537 0.01246122771 0.00138619060 0.06606630990 0.01902194135 0.00132412399 0.06581066532 0.01849090909 0.00125288458 0.06562093601 0.01782213844 0.00117532181 0.06549093042 0.01704942739 0.00109428517 0.06541445704 0.01620657398 0.00101262410 0.06538532434 0.01532737621 0.00093318808 0.06539734078 0.01444563209 0.00085882657 0.06544431486 0.01359513965 0.00079238904 0.06552005504 0.01280969688 0.00073672493 0.06561836979 0.01212310182 0.00132536927 0.06629102665 0.01873052906 0.00127246625 0.06604953928 0.01823014656 0.00121055878 0.06586778669 0.01760728838 0.00114193142 0.06574017428 0.01688872265 0.00106886875 0.06566110745 0.01610121750 0.00099365535 0.06562499161 0.01527154108 0.00091857580 0.06562623215 0.01442646150 0.00084591466 0.06565923449 0.01359274690 0.00077795653 0.06571840402 0.01279716541 0.00071698596 0.06579814615 0.01206648518 0.00124587782 0.06647274682 0.01848089284 0.00120241371 0.06624431806 0.01800933043 0.00115047862 0.06607074994 0.01742798587 0.00109182058 0.06594697641 0.01675814926 0.00102818767 0.06586793144 0.01602111070 0.00096132795 0.06582854899 0.01523816029 0.00089298946 0.06582376300 0.01443058815 0.00082492028 0.06584850743 0.01361968437 0.00075886847 0.06589771624 0.01282673906 0.00069658208 0.06596632339 0.01207304232 0.00115151975 0.06661695695 0.01826776815 0.00111736597 0.06640022700 0.01782304810 0.00107551743 0.06623463119 0.01727895534 0.00102723964 0.06611554590 0.01665260298 0.00097379807 0.06603834751 0.01596110415 0.00091645823 0.06599841240 0.01522157196 0.00085648561 0.06599111695 0.01445111954 0.00079514570 0.06601183754 0.01366686001 0.00073370399 0.06605595055 0.01288590648 0.00067342598 0.06611883235 0.01212537207 0.00104609860 0.06672914356 0.01808589045 0.00102072261 0.06652249144 0.01766588695 0.00098854856 0.06636423589 0.01715492120 0.00095043890 0.06625009182 0.01656697958 0.00090725607 0.06617577414 0.01591604846 0.00085986255 0.06613699779 0.01521611420 0.00080912076 0.06612947767 0.01448116318 0.00075589317 0.06614892870 0.01372518176 0.00070104223 0.06619106579 0.01296215632 0.00064543038 0.06625160388 0.01220607322 0.00093341788 0.06681479319 0.01792999523 0.00091588323 0.06661633673 0.01753243438 0.00089244533 0.06646436946 0.01705060789 0.00086366868 0.06635482322 0.01649617483 0.00083011781 0.06628362982 0.01588079422 0.00079235722 0.06624672106 0.01521612511 0.00075095144 0.06624002877 0.01451382656 0.00070646496 0.06625948476 0.01378555759 0.00065946231 0.06630102084 0.01304297725 0.00061050800 0.06636056882 0.01229774459 0.00081728111 0.06687939239 0.01779481796 0.00080624742 0.06668698819 0.01741727778 0.00079008107 0.06653983736 0.01696073984 0.00076917932 0.06643394920 0.01643508448 0.00074393941 0.06636533303 0.01585019203 0.00071475861 0.06632999816 0.01521594282 0.00068203416 0.06632395391 0.01454221717 0.00064616333 0.06634320960 0.01383889543 0.00060754337 0.06638377453 0.01311585793 0.00056657153 0.06644165802 0.01238298499 0.00070149181 0.06692842767 0.01767509409 0.00069521478 0.06673967118 0.01731500454 0.00068432914 0.06659544500 0.01688004148 0.00066922113 0.06649167881 0.01637860432 0.00065027701 0.06642430225 0.01581909249 0.00062788303 0.06638924501 0.01520990542 0.00060242546 0.06638243673 0.01455944253 0.00057429054 0.06639980708 0.01387610325 0.00054386454 0.06643728573 0.01316828700 0.00051153370 0.06649080233 0.01244439321 0.00058985350 0.06696738558 0.01756555911 0.00058618490 0.06677961102 0.01722020207 0.00057806285 0.06663599784 0.01680323722 0.00056604442 0.06653222112 0.01632163009 0.00055068672 0.06646395598 0.01578234619 0.00053254684 0.06642687753 0.01519235103 0.00051218185 0.06641666086 0.01455861013 0.00049014886 0.06642898107 0.01388808899 0.00046700494 0.06645951328 0.01318775314 0.00044330720 0.06650393259 0.01246456808 0.00048616970 0.06700175265 0.01746094849 0.00048255737 0.06681203307 0.01712745774 0.00047415554 0.06666630130 0.01672505150 0.00046189953 0.06655978522 0.01625905757 0.00044672470 0.06648771271 0.01573480373 0.00042956636 0.06644531165 0.01515761777 0.00041135986 0.06642780994 0.01453282747 0.00039304054 0.06643043544 0.01386576061 0.00037554372 0.06644841605 0.01316174499 0.00035980475 0.06647697964 0.01242610839 0.00133401709 0.06629811705 0.01865256475 0.00127575650 0.06605324796 0.01813097229 0.00120869919 0.06587155833 0.01748320228 0.00113536228 0.06574875140 0.01674036795 0.00105826287 0.06568053046 0.01593358257 0.00097991809 0.06566259876 0.01509395937 0.00090284504 0.06569065956 0.01425261160 0.00082956084 0.06576041612 0.01344065253 0.00076258261 0.06586757172 0.01268919539 0.00070442745 0.06600782961 0.01202935344 0.00127720818 0.06651527239 0.01839215776 0.00122690829 0.06629781117 0.01790537626 0.00116793196 0.06613488620 0.01730399428 0.00110224878 0.06602293049 0.01661210384 0.00103182833 0.06595837705 0.01585379692 0.00095864021 0.06593765890 0.01505316552 0.00088465402 0.06595720903 0.01423430165 0.00081183934 0.06601346048 0.01342129730 0.00074216576 0.06610284623 0.01263824446 0.00067760288 0.06622179931 0.01190923515 0.00120276105 0.06669037720 0.01816712806 0.00116069545 0.06649610780 0.01771258093 0.00111051915 0.06634964667 0.01715318198 0.00105366804 0.06624803159 0.01650764504 0.00099157800 0.06618830035 0.01579468398 0.00092568491 0.06616749071 0.01503301262 0.00085742463 0.06618264046 0.01424134481 0.00078823304 0.06623078737 0.01343839439 0.00071954603 0.06630896921 0.01264287521 0.00065279946 0.06641422377 0.01187350110 0.00111407126 0.06682892042 0.01797317729 0.00108018289 0.06665378082 0.01754815152 0.00103905092 0.06652137608 0.01702644199 0.00099162405 0.06642920869 0.01642276186 0.00093885096 0.06637478114 0.01575182427 0.00088168036 0.06635559592 0.01502834238 0.00082106095 0.06636915554 0.01426702936 0.00075794141 0.06641296247 0.01348259835 0.00069327045 0.06648451922 0.01268976252 0.00062799677 0.06658132828 0.01190323502 0.00101453431 0.06693639103 0.01780600705 0.00098843556 0.06677647324 0.01740765326 0.00095611745 0.06665561078 0.01691945099 0.00091812076 0.06657161573 0.01635322457 0.00087498627 0.06652230019 0.01572079831 0.00082725477 0.06650547624 0.01503399653 0.00077546705 0.06651895597 0.01430464356 0.00072016390 0.06656055147 0.01354456370 0.00066188609 0.06662807483 0.01276558129 0.00060117441 0.06671933813 0.01197952063 0.00090754573 0.06701827798 0.01766131898 0.00088851838 0.06686982803 0.01728665135 0.00086430889 0.06675788711 0.01682788560 0.00083516214 0.06668040669 0.01629480346 0.00080132299 0.06663533829 0.01569718662 0.00076303633 0.06662063338 0.01504481679 0.00072054702 0.06663424347 0.01434747567 0.00067409995 0.06667412004 0.01361494498 0.00062393997 0.06673821459 0.01285700641 0.00057031198 0.06682447862 0.01208344168 0.00079650106 0.06708007023 0.01753481469 0.00078349629 0.06693948819 0.01718071100 0.00076621542 0.06683374141 0.01674742249 0.00074475216 0.06676073554 0.01624326883 0.00071920020 0.06671837621 0.01567656973 0.00068965323 0.06670456906 0.01505564488 0.00065620494 0.06671721973 0.01438881397 0.00061894902 0.06675423386 0.01368439671 0.00057797916 0.06681351708 0.01295071278 0.00053338907 0.06689297505 0.01219608188 0.00068479582 0.06712725674 0.01742219581 0.00067643420 0.06699109669 0.01708539745 0.00066442720 0.06688871003 0.01667373828 0.00064889480 0.06681775623 0.01619439096 0.00062995696 0.06677589473 0.01565452815 0.00060773366 0.06676078498 0.01506132252 0.00058234487 0.06677008646 0.01442194672 0.00055391056 0.06680145860 0.01374357343 0.00052255071 0.06685256087 0.01303337529 0.00048838527 0.06692105271 0.01229852497 0.00057582552 0.06716532648 0.01731916396 0.00057039705 0.06703029653 0.01699627590 0.00056153440 0.06692832932 0.01660250963 0.00054959401 0.06685662273 0.01614394014 0.00053493234 0.06681237463 0.01562664241 0.00051790583 0.06679278288 0.01505669143 0.00049887091 0.06679504536 0.01444016219 0.00047818403 0.06681635995 0.01378312966 0.00045620165 0.06685392450 0.01309166883 0.00043328019 0.06690493691 0.01237185468 0.00047298570 0.06719976840 0.01722142076 0.00046844977 0.06706273069 0.01690891156 0.00046012718 0.06695813562 0.01652941318 0.00044885378 0.06688248901 0.01608768666 0.00043546541 0.06683229669 0.01558849304 0.00042079791 0.06680406446 0.01503659335 0.00040568712 0.06679429815 0.01443674863 0.00039096888 0.06679950358 0.01379371993 0.00037747903 0.06681618656 0.01311226829 0.00036605342 0.06684085293 0.01239715473 0.00129256556 0.06648048757 0.01836975780 0.00123793366 0.06624097074 0.01785725644 0.00117438246 0.06606528314 0.01722693644 0.00110420093 0.06595053424 0.01650769087 0.00102967800 0.06589383349 0.01572841282 0.00095310262 0.06589229036 0.01491799538 0.00087676376 0.06594301433 0.01410533163 0.00080295035 0.06604311486 0.01331931465 0.00073395135 0.06618970141 0.01258883754 0.00067205570 0.06637988344 0.01194279336 0.00123808037 0.06668851755 0.01811908066 0.00119050096 0.06649751761 0.01764810811 0.00113401098 0.06635650995 0.01706672126 0.00107037231 0.06626398763 0.01639673200 0.00100134685 0.06621844372 0.01565995225 0.00092869649 0.06621837126 0.01487819391 0.00085418311 0.06626226332 0.01407326889 0.00077956861 0.06634861294 0.01326698909 0.00070661488 0.06647591320 0.01248116643 0.00063708380 0.06664265713 0.01173761280 0.00116711853 0.06685774641 0.01790433688 0.00112657674 0.06670505303 0.01746969792 0.00107779255 0.06659209018 0.01693154096 0.00102197732 0.06651833493 0.01630627644 0.00096034242 0.06648326433 0.01561031483 0.00089409922 0.06648635544 0.01486006659 0.00082445907 0.06652708531 0.01407194216 0.00075263335 0.06660493100 0.01326235202 0.00067983342 0.06671936957 0.01244770661 0.00060727066 0.06686987808 0.01164441640 0.00108269266 0.06699295665 0.01772073688 0.00104900950 0.06686957160 0.01731764413 0.00100820043 0.06677860838 0.01681745759 0.00096095127 0.06672016686 0.01623261460 0.00090794783 0.06669434692 0.01557555253 0.00084987593 0.06670124842 0.01485870872 0.00078742141 0.06674097125 0.01409452054 0.00072127006 0.06681361527 0.01329542535 0.00065210772 0.06691928036 0.01247386049 0.00058062020 0.06705806638 0.01164226332 0.00098781541 0.06709893082 0.01756349107 0.00096064773 0.06699706792 0.01718756501 0.00092770784 0.06692264906 0.01672053321 0.00088922943 0.06687607413 0.01617203691 0.00084544618 0.06685774305 0.01555171731 0.00079659178 0.06686805573 0.01486921564 0.00074289991 0.06690741207 0.01413417313 0.00068460426 0.06697621197 0.01335623099 0.00062193852 0.06707485536 0.01254503045 0.00055513636 0.06720374213 0.01171021273 0.00088549942 0.06718045141 0.01742780988 0.00086433993 0.06709353659 0.01707507881 0.00083878803 0.06703079675 0.01663682989 0.00080874713 0.06699264748 0.01612083377 0.00077412061 0.06697950433 0.01553486114 0.00073481189 0.06699178288 0.01488668266 0.00069072437 0.06702989869 0.01418406901 0.00064176146 0.06709426734 0.01343479087 0.00058782656 0.06718530439 0.01264661890 0.00052882307 0.06730342541 0.01182732378 0.00077875731 0.06724230096 0.01730890373 0.00076293460 0.06716497220 0.01697580382 0.00074391424 0.06710963600 0.01656240967 0.00072143964 0.06707647762 0.01607529562 0.00069525422 0.06706568233 0.01552103599 0.00066510140 0.06707743538 0.01490620510 0.00063072457 0.06711192205 0.01423737730 0.00059186717 0.06716932759 0.01352112690 0.00054827260 0.06724983726 0.01276402823 0.00049968427 0.06735363633 0.01197265562 0.00067060172 0.06728926198 0.01720198304 0.00065928022 0.06721736934 0.01688535828 0.00064555969 0.06716575131 0.01649333462 0.00062924228 0.06713415528 0.01603171287 0.00061013014 0.06712232863 0.01550629382 0.00058802543 0.06713001877 0.01492287829 0.00056273030 0.06715697308 0.01428726708 0.00053404689 0.06720293896 0.01360526099 0.00050177737 0.06726766380 0.01288266084 0.00046572388 0.06735089498 0.01212526742 0.00056404530 0.06732611699 0.01710225824 0.00055622531 0.06725672262 0.01679936048 0.00054619763 0.06720572723 0.01642566680 0.00053409034 0.06717227118 0.01598637594 0.00052003149 0.06715549483 0.01548668661 0.00050414913 0.06715453856 0.01493179754 0.00048657133 0.06716854272 0.01432690745 0.00046742614 0.06719664768 0.01367721507 0.00044684163 0.06723799380 0.01298791912 0.00042494585 0.06729172145 0.01226421833 0.00046210068 0.06735764852 0.01700493974 0.00045661834 0.06728902663 0.01671342867 0.00044830130 0.06723614828 0.01635546827 0.00043791912 0.06719741604 0.01593557525 0.00042624137 0.06717123251 0.01545826631 0.00041403763 0.06715600026 0.01492805816 0.00040207746 0.06715012188 0.01434946750 0.00039113043 0.06715199996 0.01372701104 0.00038196612 0.06716003709 0.01306520548 0.00037535409 0.06717263583 0.01236856751 </DataArray>
</PointData>
<Points>
<DataArray type="Float32" NumberOfComponents="3">
-0.85867214403 0.25723127639 -0.35719777729 -0.87628055853 0.29032465678 -0.35484987915 -0.88776382515 0.32819002561 -0.35298960012 -0.89418867925 0.36940982903 -0.35158289039 -0.89662185618 0.41256651314 -0.35059570021 -0.89613009132 0.45624252409 -0.34999397979 -0.89378012000 0.49902030799 -0.34974367935 -0.89063867759 0.53948231098 -0.34981074910 -0.88777249946 0.57621097918 -0.35016113929 -0.88624832095 0.60778875871 -0.35076080011 -0.79091535599 0.27402569005 -0.35922419384 -0.81851768540 0.30288390073 -0.35773573432 -0.83720018927 0.33734375297 -0.35664194069 -0.84846671339 0.37589046397 -0.35590753177 -0.85382110354 0.41700925091 -0.35549722636 -0.85476720550 0.45918533097 -0.35537574325 -0.85280886506 0.50090392134 -0.35550780124 -0.84944992801 0.54065023921 -0.35585811914 -0.84619424012 0.57690950176 -0.35639141574 -0.84454564720 0.60816692618 -0.35707240985 -0.71822399699 0.29204398463 -0.36098882043 -0.75370157762 0.31769919620 -0.36017104524 -0.77818437033 0.34935990481 -0.35967132075 -0.79348056614 0.38548262854 -0.35945242047 -0.80139835605 0.42452388547 -0.35947711792 -0.80374593105 0.46494019366 -0.35970818662 -0.80233148215 0.50518807120 -0.36010840010 -0.79896320035 0.54372403616 -0.36064053186 -0.79544927665 0.57900460661 -0.36126735544 -0.79359790206 0.60948630063 -0.36195164435 -0.64327121546 0.31075518571 -0.36262680765 -0.68464749656 0.33407893695 -0.36232005490 -0.71359937684 0.36346974389 -0.36226703534 -0.73211381224 0.39741051973 -0.36242692620 -0.74217775873 0.43438417767 -0.36275890467 -0.74577817223 0.47287363092 -0.36322214796 -0.74490200870 0.51136179270 -0.36377583330 -0.74153622408 0.54833157620 -0.36437913788 -0.73766777432 0.58226589464 -0.36499123892 -0.73528361536 0.61164766123 -0.36557131363 -0.56873015983 0.32962831885 -0.36427330612 -0.61417070360 0.35133151676 -0.36434700625 -0.64632821729 0.37890453298 -0.36461837953 -0.66725002643 0.41089833451 -0.36504041867 -0.67898345659 0.44586388835 -0.36556611636 -0.68357583331 0.48235216150 -0.36614846531 -0.68307448216 0.51891412096 -0.36674045822 -0.67952672867 0.55410073371 -0.36729508779 -0.67497989842 0.58646296677 -0.36776534671 -0.67148131695 0.61455178713 -0.36810422769 -0.49727397851 0.34813240962 -0.36606346643 -0.54508646014 0.36876532938 -0.36641614225 -0.57925390019 0.39489553485 -0.36691464836 -0.60177278344 0.42517026990 -0.36750226761 -0.61463959464 0.45823677838 -0.36812228279 -0.61985081856 0.49274230416 -0.36871797673 -0.61940293996 0.52733409110 -0.36923263226 -0.61529244360 0.56065938306 -0.36960953219 -0.60951581424 0.59136542392 -0.36979195935 -0.60406953665 0.61809945752 -0.36972319655 -0.43157581995 0.36573648358 -0.36813243918 -0.48021002754 0.38568876857 -0.36869170586 -0.51525943406 0.41067401226 -0.36934513690 -0.53856565801 0.43945052286 -0.37002184272 -0.55197031790 0.47077660858 -0.37065093371 -0.55731503224 0.50341057764 -0.37116152027 -0.55644141954 0.53611073825 -0.37148271280 -0.55119109831 0.56763539863 -0.37154362170 -0.54340568706 0.59674286699 -0.37127335737 -0.53492680430 0.62219145154 -0.37060103021 -0.37430883257 0.38190956630 -0.37061537499 -0.42235666720 0.40141022811 -0.37133794005 -0.45722782739 0.42547122799 -0.37209914020 -0.48051222487 0.45296329040 -0.37280851373 -0.49379977137 0.48275713982 -0.37337559890 -0.49868037862 0.51372350071 -0.37370993397 -0.49674395835 0.54473309754 -0.37372105722 -0.48958042229 0.57465665478 -0.37331850690 -0.47877968217 0.60236489690 -0.37241182130 -0.46593164973 0.62672854838 -0.37091053868 -0.32814616479 0.39612068334 -0.37364742446 -0.37434164050 0.41523810176 -0.37451908777 -0.40804208870 0.43851844480 -0.37536595332 -0.43049605877 0.46493276951 -0.37607165035 -0.44295210007 0.49345213294 -0.37651980812 -0.44665876196 0.52304759211 -0.37659405589 -0.44286459381 0.55269020408 -0.37617802290 -0.43281814499 0.58135102589 -0.37515533842 -0.41776796485 0.60800111458 -0.37340963169 -0.39896260278 0.63161152718 -0.37082453196 -0.29576096504 0.40783886028 -0.37736373817 -0.33898020881 0.42648078327 -0.37839939199 -0.37058522649 0.44904692546 -0.37933487131 -0.39140073444 0.47458315718 -0.38002062230 -0.40225144900 0.50213534878 -0.38030709116 -0.40396208653 0.53074937061 -0.38004472408 -0.39735736337 0.55947109301 -0.37908396725 -0.38326199588 0.58734638633 -0.37727526684 -0.36250070039 0.61342112092 -0.37446906906 -0.33589819327 0.63674116713 -0.37051582007 -0.90026357059 0.27435487432 -0.33811578871 -0.91264837547 0.30312494446 -0.33958403161 -0.92072768005 0.33753192981 -0.34055872119 -0.92523970458 0.37605412488 -0.34114862258 -0.92692266934 0.41716982417 -0.34146250093 -0.92651479459 0.45935732222 -0.34160912137 -0.92475430060 0.50109491353 -0.34169724906 -0.92237940764 0.54086089261 -0.34183564913 -0.92012833597 0.57713355398 -0.34213308672 -0.91873930587 0.60839119215 -0.34269832698 -0.83064444986 0.29262432987 -0.33748576800 -0.85004714845 0.31844304583 -0.33993970714 -0.86318335848 0.35008902592 -0.34181252590 -0.87110165680 0.38607020784 -0.34320586985 -0.87485062028 0.42489452931 -0.34422138457 -0.87547882579 0.46506992805 -0.34496071564 -0.87403485019 0.50510434175 -0.34552550863 -0.87156727036 0.54350570813 -0.34601740911 -0.86912466314 0.57878196489 -0.34653806268 -0.86775560541 0.60944104976 -0.34718911489 -0.75756844984 0.31112288705 -0.33712586282 -0.78250018681 0.33465007918 -0.34035018273 -0.79970807155 0.36397512794 -0.34292096233 -0.81045576391 0.39766528598 -0.34493402382 -0.81600692373 0.43428780597 -0.34648518942 -0.81762521085 0.47240994055 -0.34767028132 -0.81657428513 0.51059894238 -0.34858512174 -0.81411780640 0.54742206413 -0.34932553287 -0.81151943451 0.58144655844 -0.34998733693 -0.81004282931 0.61123967798 -0.35066635612 -0.68291098972 0.32950257605 -0.33707603060 -0.71198261349 0.35129792047 -0.34088551987 -0.73232262305 0.37869187798 -0.34398136224 -0.74531770666 0.41033427250 -0.34645406752 -0.75235455257 0.44487492794 -0.34839414551 -0.75481984905 0.48096366820 -0.34989210602 -0.75410028435 0.51725031722 -0.35103845885 -0.75158254672 0.55238469890 -0.35192371379 -0.74865332443 0.58501663715 -0.35263838066 -0.74669930572 0.61379595589 -0.35327296926 -0.60854748870 0.34741542706 -0.33737622878 -0.64046955142 0.36793844564 -0.34161578003 -0.66304781673 0.39374091813 -0.34509105737 -0.67770316577 0.42357208058 -0.34788698394 -0.68585647971 0.45618116903 -0.35008848288 -0.68892863968 0.49031741951 -0.35178047732 -0.68834052682 0.52473006807 -0.35304789041 -0.68551302229 0.55816835073 -0.35397564527 -0.68186700722 0.58938150355 -0.35464866505 -0.67882336277 0.61711876256 -0.35515187288 -0.53635336596 0.36451347026 -0.33806641482 -0.56993612354 0.38412353062 -0.34261102470 -0.59390445637 0.40862389048 -0.34634737946 -0.60962782201 0.43687362343 -0.34935375608 -0.61847567803 0.46773180305 -0.35170843154 -0.62181748200 0.50005750295 -0.35348968281 -0.62102269148 0.53270979671 -0.35477578688 -0.61746076404 0.56454775792 -0.35564502070 -0.61250115723 0.59443046017 -0.35617566127 -0.60751332864 0.62121697705 -0.35644598556 -0.46820404070 0.38044873584 -0.33918654616 -0.50235745279 0.39940505137 -0.34394131536 -0.52691334574 0.42284243712 -0.34784766026 -0.54310735610 0.44973381423 -0.35097536695 -0.55217512044 0.47905210381 -0.35339422153 -0.55535227531 0.50977022701 -0.35517401009 -0.55387445729 0.54086110494 -0.35638451871 -0.54897730293 0.57129765874 -0.35709553349 -0.54189644880 0.60005280953 -0.35737684051 -0.53386753145 0.62609947844 -0.35729822588 -0.40597493210 0.39487325397 -0.34077658023 -0.43970866211 0.41333488381 -0.34567671348 -0.46409528862 0.43589820014 -0.34968923151 -0.48015744879 0.46164756617 -0.35287279955 -0.48891777982 0.48966734512 -0.35528608288 -0.49139891889 0.51904190018 -0.35698774673 -0.48862350320 0.54885559457 -0.35803645636 -0.48161416992 0.57819279150 -0.35849087702 -0.47139355625 0.60613785417 -0.35840967395 -0.45898429936 0.63177514581 -0.35785151242 -0.35154145935 0.40743905486 -0.34287647450 -0.38396487444 0.42546490391 -0.34788728056 -0.40747108877 0.44729282164 -0.35196942495 -0.42279378082 0.47210979247 -0.35516703689 -0.43066662907 0.49910280077 -0.35752424561 -0.43182331203 0.52745883094 -0.35908518034 -0.42699750816 0.55636486737 -0.35989397029 -0.41692289596 0.58500789447 -0.35999474469 -0.40233315393 0.61257489662 -0.35943163277 -0.38396196053 0.63825285822 -0.35824876375 -0.30677904166 0.41779816868 -0.34552618640 -0.33710121272 0.43534698759 -0.35064307807 -0.35906154997 0.45652794371 -0.35478557233 -0.37303203293 0.48061540629 -0.35797906197 -0.37938464109 0.50688374457 -0.36024893976 -0.37849135399 0.53460732778 -0.36162059849 -0.37072415112 0.56306052516 -0.36211943094 -0.35645501201 0.59151770596 -0.36177082990 -0.33605591617 0.61925323941 -0.36060018814 -0.30989884310 0.64554149475 -0.35863289845 -0.93273708167 0.29265206671 -0.31956869418 -0.94105265275 0.31815947976 -0.32402092921 -0.94647441610 0.34972999235 -0.32723134755 -0.94948126813 0.38580914789 -0.32941325686 -0.95055210527 0.42484248978 -0.33077996478 -0.95016582392 0.46527556144 -0.33154477896 -0.94880132052 0.50555390626 -0.33192100707 -0.94693749148 0.54412306766 -0.33212195674 -0.94505323323 0.57942858905 -0.33236093564 -0.94362744218 0.60991601382 -0.33285125142 -0.86164781505 0.31142590137 -0.31738939091 -0.87466365481 0.33488778296 -0.32282019650 -0.88347628580 0.36417185093 -0.32694245454 -0.88877794456 0.39784086803 -0.32995676408 -0.89126086768 0.43445759702 -0.33206372419 -0.89161729170 0.47258480066 -0.33346393392 -0.89053945319 0.51078524172 -0.33435799233 -0.88871958872 0.54762168294 -0.33494649849 -0.88684993484 0.58165688709 -0.33543005144 -0.88562272812 0.61145361693 -0.33600925024 -0.78825607710 0.32979333733 -0.31578185471 -0.80497374630 0.35160163809 -0.32197744468 -0.81651336329 0.37891665128 -0.32680863019 -0.82371375080 0.41042024811 -0.33046624523 -0.82741373157 0.44479429981 -0.33314112379 -0.82845212835 0.48072067762 -0.33502409983 -0.82766776388 0.51688125275 -0.33630600735 -0.82589946088 0.55195789644 -0.33717768031 -0.82398604211 0.58463247991 -0.33782995271 -0.82276633031 0.61358687439 -0.33845365851 -0.71381568255 0.34753195643 -0.31472540474 -0.73330345978 0.36802254947 -0.32150036568 -0.74693493833 0.39365554389 -0.32686430204 -0.75562912483 0.42323247341 -0.33100050722 -0.76030502592 0.45555487170 -0.33409227462 -0.76188164823 0.48942427246 -0.33632289763 -0.76127799838 0.52364220939 -0.33787566964 -0.75941308302 0.55701021617 -0.33893388405 -0.75720590876 0.58832982651 -0.33968083426 -0.75557548224 0.61640257409 -0.34029981366 -0.63958044613 0.36441934050 -0.31419936017 -0.66097332779 0.38387202139 -0.32139665145 -0.67609030066 0.40807967928 -0.32714389761 -0.68586450465 0.43596272922 -0.33161835694 -0.69122907969 0.46644158624 -0.33499728772 -0.69311716567 0.49843666538 -0.33745794822 -0.69246190253 0.53086838168 -0.33917759673 -0.69019643015 0.56265715018 -0.34033349153 -0.68725388847 0.59272338591 -0.34110289089 -0.68456741740 0.61998750392 -0.34166305310 -0.56680418259 0.38023307140 -0.31418304016 -0.58930388290 0.39887155817 -0.32167399393 -0.60532874003 0.42188020793 -0.32768184444 -0.61576032825 0.44829620081 -0.33237860130 -0.62148022183 0.47715671697 -0.33593627414 -0.62336999503 0.50749893653 -0.33852687255 -0.62231122211 0.53836003965 -0.34032240616 -0.61918547734 0.56877720647 -0.34149488457 -0.61487433497 0.59778761712 -0.34221631739 -0.61025936927 0.62442845175 -0.34265871425 -0.49674070666 0.39475073095 -0.31465576388 -0.51961565765 0.41274266413 -0.32234008506 -0.53599954619 0.43474828035 -0.32851257004 -0.54665703362 0.45991807349 -0.33334004721 -0.55235278133 0.48740253745 -0.33698934491 -0.55385145065 0.51635216610 -0.33962729153 -0.55191770296 0.54591745335 -0.34142071544 -0.54731619960 0.57524889306 -0.34253644499 -0.54081160195 0.60349697915 -0.34314130857 -0.53316857136 0.62981220548 -0.34340213453 -0.43064383309 0.40774990100 -0.31559685050 -0.45322918461 0.42520684358 -0.32340261678 -0.46945200888 0.44637504704 -0.32967050196 -0.47989505876 0.47051353253 -0.33456150155 -0.48514108713 0.49688132122 -0.33823661109 -0.48577284687 0.52473743426 -0.34085682610 -0.48237309087 0.55334089280 -0.34258314211 -0.47552457199 0.58195071800 -0.34357655463 -0.46581004312 0.60982593101 -0.34399805921 -0.45381225714 0.63622555300 -0.34400865137 -0.36976737660 0.41900816339 -0.31698561919 -0.39146499634 0.43598560083 -0.32486928104 -0.40703541785 0.45645165850 -0.33119006771 -0.41681484164 0.47976776323 -0.33610177124 -0.42113946821 0.50529534184 -0.33975818371 -0.42034549805 0.53239582117 -0.34231309717 -0.41476913166 0.56043062804 -0.34392030369 -0.40474656954 0.58876118928 -0.34473359532 -0.39061401219 0.61674893172 -0.34490676413 -0.37270766011 0.64375528218 -0.34459360217 -0.31536515193 0.42830309995 -0.31880138911 -0.33564362537 0.44480044018 -0.32674776978 -0.35009906285 0.46466926522 -0.33310569482 -0.35875682027 0.48736595085 -0.33801966319 -0.36164225353 0.51234687286 -0.34163417382 -0.35878071852 0.53906840702 -0.34409372568 -0.35019757113 0.56698692912 -0.34554281771 -0.33591816728 0.59555881495 -0.34612594887 -0.31596786286 0.62424044028 -0.34598761810 -0.29037201376 0.65248818091 -0.34527232437 -0.95729981309 0.31154403723 -0.30187100770 -0.96255490191 0.33468181861 -0.30855607593 -0.96596566313 0.36395668825 -0.31345814553 -0.96780771423 0.39783894010 -0.31685979787 -0.96835667266 0.43479886817 -0.31904361432 -0.96788815588 0.47330676643 -0.32029217625 -0.96667778136 0.51183292886 -0.32088806503 -0.96500116656 0.54884764943 -0.32111386203 -0.96313392893 0.58282122215 -0.32125214863 -0.96135168595 0.61222394097 -0.32158550620 -0.88506311472 0.33006338885 -0.29903014048 -0.89327750139 0.35174099895 -0.30656660158 -0.89883268924 0.37905844121 -0.31228867092 -0.90214869540 0.41065847900 -0.31646075402 -0.90364553696 0.44518387569 -0.31934725639 -0.90374323104 0.48127739464 -0.32121258354 -0.90286179476 0.51758179924 -0.32232114099 -0.90142124521 0.55273985285 -0.32293733424 -0.89984159951 0.58539431884 -0.32332556881 -0.89854287477 0.61418796057 -0.32375025022 -0.81140006968 0.34783388173 -0.29687867950 -0.82194360475 0.36826481485 -0.30507981633 -0.82921886596 0.39385720138 -0.31143880367 -0.83374340957 0.42340955703 -0.31620621416 -0.83603479183 0.45572039750 -0.31963262044 -0.83661056898 0.48958823849 -0.32196859517 -0.83598829729 0.52381159570 -0.32346471098 -0.83468553299 0.55718898485 -0.32437154052 -0.83321983234 0.58851892163 -0.32493965644 -0.83210875159 0.61659992174 -0.32541963137 -0.73709641364 0.36471108990 -0.29536346587 -0.74938096269 0.38408274773 -0.30406663667 -0.75796856982 0.40816588207 -0.31090316585 -0.76342615789 0.43590014481 -0.31611342413 -0.76632064978 0.46622518783 -0.31993778222 -0.76721896838 0.49808066302 -0.32261661082 -0.76668803657 0.53040622226 -0.32439028065 -0.76529477721 0.56214151744 -0.32549916243 -0.76360611319 0.59222620045 -0.32618362685 -0.76218896738 0.61959992317 -0.32668404463 -0.66293788227 0.38055058741 -0.29443134066 -0.67641732593 0.39902427901 -0.30349797908 -0.68592617733 0.42179739658 -0.31067637957 -0.69203124148 0.44793821294 -0.31619962982 -0.69529932335 0.47651500090 -0.32030081747 -0.69629722793 0.50659603329 -0.32321303019 -0.69559176021 0.53724958293 -0.32516935563 -0.69374972517 0.56754392264 -0.32640288147 -0.69133792781 0.59654732524 -0.32714669536 -0.68892317310 0.62332806355 -0.32763388497 -0.58971021123 0.39520794829 -0.29402914495 -0.60388044514 0.41291889012 -0.30334476003 -0.61393606503 0.43456465823 -0.31075306693 -0.62039296148 0.45933173203 -0.31648207708 -0.62376702504 0.48640659094 -0.32075980194 -0.62457414630 0.51497571437 -0.32381425295 -0.62333021583 0.54422558173 -0.32587344156 -0.62055112419 0.57334267245 -0.32716537919 -0.61675276197 0.60151346593 -0.32791807731 -0.61245101972 0.62792444160 -0.32835954735 -0.51819913621 0.40853874658 -0.29410371982 -0.53259807105 0.42559606247 -0.30357789601 -0.54284260944 0.44628058032 -0.31112785000 -0.54934561901 0.46988867269 -0.31697801179 -0.55251996739 0.49571671216 -0.32135281139 -0.55277852219 0.52306107130 -0.32447667881 -0.55053415105 0.55121812269 -0.32657404405 -0.54619972158 0.57948423888 -0.32786933712 -0.54018810142 0.60715579246 -0.32858698802 -0.53291215820 0.63352915600 -0.32895142676 -0.44919039286 0.42039855633 -0.29460190636 -0.46339795434 0.43688527749 -0.30416830350 -0.47349018708 0.45675807615 -0.31179535088 -0.47972351521 0.47941700552 -0.31770467981 -0.48235436290 0.50426211880 -0.32211792156 -0.48163915427 0.53069346916 -0.32525670745 -0.47783431347 0.55811110981 -0.32734266876 -0.47119626465 0.58591509395 -0.32859743679 -0.46198143194 0.61350547476 -0.32924264282 -0.45044623950 0.64028230545 -0.32949991816 -0.38346971686 0.43064295157 -0.29547054565 -0.39710784572 0.44661601658 -0.30508689898 -0.40672317447 0.46581005904 -0.31275019167 -0.41236095122 0.48772470114 -0.31867932700 -0.41406642410 0.51185956506 -0.32309320821 -0.41188484123 0.53771427299 -0.32621073856 -0.40586145072 0.56478844713 -0.32825082131 -0.39604150070 0.59258170966 -0.32943235972 -0.38247023929 0.62059368278 -0.32997425704 -0.36519291460 0.64832398866 -0.33009541653 -0.32182284387 0.43912750634 -0.29665647878 -0.33455549589 0.45461776118 -0.30630459893 -0.34338594814 0.47324944230 -0.31398699446 -0.34809222816 0.49461973014 -0.31991919923 -0.34845236351 0.51832580517 -0.32431674707 -0.34424438175 0.54396484786 -0.32739517182 -0.33524631041 0.57113403866 -0.32937000733 -0.32123617705 0.59943055803 -0.33045678745 -0.30199200921 0.62845158643 -0.33087104600 -0.27729183446 0.65779430432 -0.33082831684 -0.97515890068 0.33045196957 -0.28533724329 -0.97821663446 0.35194551697 -0.29358497578 -0.98016305096 0.37938449250 -0.29968978147 -0.98111338720 0.41130754356 -0.30397125028 -0.98118288021 0.44625331756 -0.30674897212 -0.98048676705 0.48276046190 -0.30834253693 -0.97914028473 0.51936762399 -0.30907153460 -0.97725867029 0.55461345123 -0.30925555507 -0.97495716078 0.58703659104 -0.30921418826 -0.97235099322 0.61517569081 -0.30926702407 -0.90202801201 0.34816977663 -0.28250309459 -0.90679898507 0.36852558060 -0.29136832155 -0.91000628682 0.39421500993 -0.29810811936 -0.91186702801 0.42397907519 -0.30301837922 -0.91259831937 0.45655878695 -0.30639499234 -0.91241727165 0.49069515581 -0.30853384993 -0.91154099560 0.52512919232 -0.30973084319 -0.91018660194 0.55860190706 -0.31028186334 -0.90857120143 0.58985431063 -0.31048280159 -0.90691190481 0.61762741358 -0.31062954914 -0.82811361849 0.36502306653 -0.28033822058 -0.83423111081 0.38435055136 -0.28968428294 -0.83844319999 0.40846950480 -0.29691596209 -0.84103362299 0.43629525485 -0.30231106004 -0.84228611674 0.46674312951 -0.30614737878 -0.84248441818 0.49872845677 -0.30870272033 -0.84191226426 0.53116656465 -0.31025488668 -0.84085339191 0.56297278113 -0.31108167983 -0.83959153808 0.59306243422 -0.31146090178 -0.83841043971 0.62035085193 -0.31167035455 -0.75386430271 0.38090773955 -0.27877874976 -0.76098604951 0.39930843906 -0.28848637717 -0.76595576466 0.42202803295 -0.29608526478 -0.76908689694 0.44813230905 -0.30183999708 -0.77069289517 0.47668705519 -0.30601515854 -0.77108720814 0.50675805919 -0.30887533364 -0.77058328467 0.53741110889 -0.31068510686 -0.76949457355 0.56771199212 -0.31170906267 -0.76813452360 0.59672649670 -0.31221178555 -0.76681658361 0.62352041047 -0.31245785999 -0.67972864725 0.39571969600 -0.27776081064 -0.68753683903 0.41328725352 -0.28772812148 -0.69302595501 0.43477065021 -0.29558798256 -0.69650057467 0.45936646429 -0.30159589469 -0.69826527752 0.48627127396 -0.30600735869 -0.69862464306 0.51468165744 -0.30907787537 -0.69788325080 0.54379419296 -0.31106294554 -0.69634568023 0.57280545871 -0.31221807001 -0.69431651086 0.60091203292 -0.31279874960 -0.69210032218 0.62731049381 -0.31306048512 -0.60615523471 0.40935483617 -0.27722053170 -0.61435651721 0.42617500456 -0.28736303310 -0.62013574524 0.44657741241 -0.29539607054 -0.62374838098 0.46987394706 -0.30156945722 -0.62544988666 0.49537649579 -0.30613300632 -0.62549572446 0.52239694592 -0.30933653103 -0.62414135661 0.55024718476 -0.31142984453 -0.62164224530 0.57823909960 -0.31266276000 -0.61825385274 0.60568457776 -0.31328509064 -0.61423164113 0.63189550655 -0.31354664962 -0.53359264767 0.42170906037 -0.27709404145 -0.54191812190 0.43785970198 -0.28734462925 -0.54776710954 0.45732837539 -0.29548148385 -0.55130404069 0.47953098386 -0.30175138901 -0.55269334544 0.50388343065 -0.30640112851 -0.55209945387 0.52980161901 -0.30967748612 -0.54968679607 0.55670145220 -0.31182724562 -0.54561980212 0.58399883348 -0.31309719078 -0.54006290212 0.61110966610 -0.31373410537 -0.53318052615 0.63744985331 -0.31398477317 -0.46248946873 0.43267826890 -0.27731746839 -0.47069469092 0.44822935560 -0.28762642718 -0.47640202211 0.46690359496 -0.29581617760 -0.47964127860 0.48821380119 -0.30213239440 -0.48044227673 0.51167278849 -0.30682075234 -0.47883483280 0.53679337110 -0.31012692616 -0.47484876313 0.56308836320 -0.31229659063 -0.46851388405 0.59007057903 -0.31357542050 -0.45986001187 0.61725283279 -0.31420909052 -0.44891696290 0.64414793869 -0.31444327544 -0.39329428048 0.44215836204 -0.27782694102 -0.40115926214 0.45717197524 -0.28816194412 -0.40652245714 0.47518312697 -0.29637210692 -0.40923381953 0.49579862554 -0.30270317775 -0.40914330338 0.51862527930 -0.30740090489 -0.40610086277 0.54326989657 -0.31071103666 -0.39995645177 0.56933928567 -0.31287932136 -0.39056002444 0.59644025494 -0.31415150730 -0.37776153486 0.62417961271 -0.31477334278 -0.36141093710 0.65216416729 -0.31499057610 -0.32645566550 0.45004524011 -0.27855858784 -0.33378487340 0.46457557072 -0.28890469729 -0.33861038882 0.48204702724 -0.29712122694 -0.34055538827 0.50216168342 -0.30345444339 -0.33924304826 0.52462161303 -0.30815061325 -0.33429654531 0.54912888982 -0.31145600312 -0.32533905594 0.57538558752 -0.31361687961 -0.31199375666 0.60309377991 -0.31487950932 -0.29388382398 0.63195554073 -0.31549015887 -0.27063243442 0.66167294372 -0.31569509484 -0.98752148023 0.34879704741 -0.27028191494 -0.98909936195 0.36920413079 -0.27950313274 -0.99002820940 0.39518588014 -0.28637692170 -0.99029263136 0.42537900031 -0.29123061874 -0.98987723663 0.45842019615 -0.29439156076 -0.98876663398 0.49294617254 -0.29618708469 -0.98694543222 0.52759363431 -0.29694452745 -0.98439824012 0.56099928634 -0.29699122594 -0.98110966647 0.59179983348 -0.29665451709 -0.97706432006 0.61863198058 -0.29626173780 -0.91368017006 0.36537804904 -0.26790333116 -0.91613840277 0.38476441475 -0.27741475561 -0.91775079656 0.40910777028 -0.28465774415 -0.91858606112 0.43725869106 -0.28993017921 -0.91871290616 0.46806775248 -0.29352994320 -0.91820004136 0.50038552997 -0.29575491851 -0.91711617641 0.53306259893 -0.29690298757 -0.91553002103 0.56494953479 -0.29727203279 -0.91351028489 0.59489691295 -0.29715993656 -0.91112567770 0.62175530882 -0.29686458131 -0.83950991443 0.38113943801 -0.26608236134 -0.84265761314 0.39956978956 -0.27581782975 -0.84480498580 0.42242628811 -0.28334458480 -0.84607327381 0.44873938369 -0.28893791234 -0.84658371855 0.47753952634 -0.29287309823 -0.84645756137 0.50785716609 -0.29542542832 -0.84581604368 0.53872275298 -0.29687018848 -0.84478040683 0.56916673705 -0.29748266455 -0.84347189222 0.59821956832 -0.29753814241 -0.84201174121 0.62491169684 -0.29731190789 -0.76523046945 0.39598966845 -0.26475979221 -0.76888964750 0.41352954727 -0.27466163152 -0.77142876998 0.43504713699 -0.28239790994 -0.77298943309 0.45972398850 -0.28822740490 -0.77371323307 0.48674165265 -0.29240889382 -0.77374176612 0.51528168031 -0.29520115412 -0.77321662846 0.54452562234 -0.29686296322 -0.77227941631 0.57365502962 -0.29765309854 -0.77107172587 0.60185145299 -0.29783033750 -0.76973515336 0.62829644334 -0.29765345752 -0.69106159122 0.40983719451 -0.26387641049 -0.69506716032 0.42655297992 -0.27389543723 -0.69786014192 0.44687602033 -0.28177818588 -0.69956970263 0.47011541579 -0.28777224370 -0.70032500902 0.49558026634 -0.29212519797 -0.70025522769 0.52257967203 -0.29508463594 -0.69948952523 0.55042273290 -0.29689814488 -0.69815706822 0.57841854899 -0.29781331206 -0.69638702326 0.60587622035 -0.29807772473 -0.69430855693 0.63210484703 -0.29793897016 -0.61722303584 0.42259047031 -0.26337300292 -0.62142280604 0.43854937956 -0.27346852322 -0.62433709449 0.45781864151 -0.28144587891 -0.62604924607 0.47981657586 -0.28754601553 -0.62664260567 0.50396150234 -0.29200987864 -0.62620051817 0.52967174066 -0.29507841379 -0.62480632844 0.55636561053 -0.29699256652 -0.62254338136 0.58346143166 -0.29799328240 -0.61949502181 0.61037752378 -0.29832150697 -0.61574459468 0.63653220660 -0.29821818579 -0.54393455941 0.43415794997 -0.26319035624 -0.54818923912 0.44942803824 -0.27333016583 -0.55109762052 0.46778070391 -0.28136145533 -0.55266322710 0.48873037902 -0.28752230717 -0.55288958231 0.51179149558 -0.29205080381 -0.55178020963 0.53647848560 -0.29518502767 -0.54933863253 0.56230578112 -0.29716306122 -0.54556837448 0.58878781413 -0.29822298688 -0.54047295894 0.61543901668 -0.29860288711 -0.53405590938 0.64177382076 -0.29854084435 -0.47141591803 0.44444808764 -0.26326925716 -0.47559911401 0.45909824799 -0.27342964139 -0.47837971287 0.47666791093 -0.28148538144 -0.47964680937 0.49675973556 -0.28767470543 -0.47928949822 0.51897638097 -0.29223584145 -0.47719687418 0.54292050627 -0.29540701762 -0.47325803198 0.56819477055 -0.29742646204 -0.46736206635 0.59440183290 -0.29853240281 -0.45939807205 0.62114435243 -0.29896306803 -0.44925514380 0.64802498822 -0.29895668583 -0.39988686779 0.45336933745 -0.26355049243 -0.40388508516 0.46746930087 -0.27371622622 -0.40642136438 0.48438596595 -0.28177812354 -0.40723515654 0.50380755578 -0.28797679708 -0.40606591268 0.52542229346 -0.29255285955 -0.40265308389 0.54891840207 -0.29574692364 -0.39673612123 0.57398410471 -0.29779960205 -0.38805447576 0.60030762446 -0.29895150747 -0.37634759857 0.62757718442 -0.29944325262 -0.36135494071 0.65548100767 -0.29951545018 -0.32956716482 0.46083015352 -0.26397484877 -0.33327980703 0.47445048891 -0.27413919667 -0.33546056790 0.49084057235 -0.28220014793 -0.33566343227 0.50977674999 -0.28840216894 -0.33344238497 0.53103536796 -0.29298972608 -0.32835141085 0.55439277241 -0.29620728574 -0.31994449474 0.57962530948 -0.29829931432 -0.30777562148 0.60650932531 -0.29951027819 -0.29139877591 0.63482116605 -0.30008464374 -0.27036794288 0.66433717783 -0.30026687737 -0.99559468757 0.36600045445 -0.25701953665 -0.99626459589 0.38571121602 -0.26670605081 -0.99652276827 0.41053332616 -0.27397023257 -0.99623979104 0.43921735237 -0.27912090790 -0.99528625059 0.47051386216 -0.28246690280 -0.99353273327 0.50317342304 -0.28431704324 -0.99084982544 0.53594660251 -0.28498015522 -0.98710811347 0.56758396808 -0.28476506471 -0.98217818371 0.59683608724 -0.28398059769 -0.97593062253 0.62245352750 -0.28293558016 -0.92115725201 0.38132119038 -0.25532592810 -0.92220605138 0.39998038820 -0.26489530291 -0.92281993646 0.42320293545 -0.27219448960 -0.92295891345 0.44995336105 -0.27749669355 -0.92258298856 0.47919619392 -0.28107512013 -0.92165216798 0.50989596296 -0.28320297474 -0.92012645792 0.54101719709 -0.28415346275 -0.91796586458 0.57152442523 -0.28419978954 -0.91513039416 0.60038217629 -0.28361516051 -0.91158005288 0.62655497919 -0.28267278104 -0.84670214841 0.39596154244 -0.25403298517 -0.84804446039 0.41363347135 -0.26350744201 -0.84892284382 0.43540027785 -0.27082915112 -0.84935124481 0.46040398564 -0.27624390050 -0.84934360950 0.48778661847 -0.27999747818 -0.84891388400 0.51669020005 -0.28233567215 -0.84807601445 0.54625675411 -0.28350427043 -0.84684394695 0.57562830437 -0.28374906103 -0.84523162764 0.60394687455 -0.28331583196 -0.84325300263 0.63035448838 -0.28245037124 -0.77230603359 0.40982463969 -0.25309512898 -0.77386268393 0.42657599614 -0.26249444403 -0.77491983292 0.44702833463 -0.26982841243 -0.77551185747 0.47047020550 -0.27532282643 -0.77567313452 0.49619015908 -0.27920347830 -0.77543804096 0.52347674569 -0.28169616031 -0.77484095372 0.55161851567 -0.28302666472 -0.77391624972 0.57990401935 -0.28342078381 -0.77269830588 0.60762180706 -0.28310430982 -0.77122149911 0.63406042913 -0.28230303504 -0.69804556433 0.42281361117 -0.25246678060 -0.69974358298 0.43871349321 -0.26180828489 -0.70089924633 0.45799008710 -0.26914646883 -0.70153582377 0.48005299998 -0.27469376898 -0.70167658468 0.50431183898 -0.27866262187 -0.70134479844 0.53017621123 -0.28126546406 -0.70056373444 0.55705572388 -0.28271473209 -0.69935666204 0.58435998406 -0.28322286252 -0.69774685065 0.61149859891 -0.28300229188 -0.69575756963 0.63788117555 -0.28226545673 -0.62399739745 0.43483158594 -0.25210236113 -0.62577001855 0.44995149323 -0.26140094050 -0.62694942665 0.46818851655 -0.26873751565 -0.62751821606 0.48905334843 -0.27431702581 -0.62745898109 0.51205668142 -0.27834441026 -0.62675431606 0.53670920804 -0.28102460823 -0.62538681528 0.56252162085 -0.28256255900 -0.62333907305 0.58900461237 -0.28316320181 -0.62059368369 0.61566887514 -0.28303147593 -0.61713324151 0.64202510170 -0.28237232060 -0.55023818976 0.44578169303 -0.25195629164 -0.55202485163 0.46019552685 -0.26122438679 -0.55315871643 0.47752660426 -0.26855574817 -0.55355410666 0.49737223021 -0.27415289459 -0.55312534483 0.51932970964 -0.27821834482 -0.55178675342 0.54299634748 -0.28095461767 -0.54945265494 0.56796944866 -0.28256423191 -0.54603737190 0.59384631813 -0.28324970634 -0.54145522677 0.62022426083 -0.28321355974 -0.53562054208 0.64670058168 -0.28265831091 -0.47684459806 0.45556706151 -0.25198299324 -0.47859094322 0.46935112473 -0.26123059966 -0.47961545827 0.48590733154 -0.26855536172 -0.47973856794 0.50491062468 -0.27416167297 -0.47878069698 0.52603594689 -0.27825392694 -0.47656227013 0.54895824090 -0.28103651720 -0.47290371212 0.57335244944 -0.28271383728 -0.46762544772 0.59889351524 -0.28349028074 -0.46054790164 0.62525638104 -0.28357024111 -0.45149149864 0.65211598956 -0.28315811196 -0.40389327915 0.46409082042 -0.25213688700 -0.40555115432 0.47732381752 -0.26137155504 -0.40640799473 0.49323367967 -0.26869055160 -0.40616667222 0.51156951120 -0.27430365860 -0.40453005863 0.53208041642 -0.27842065798 -0.40120102578 0.55451549967 -0.28125133166 -0.39588244551 0.57862386528 -0.28300546157 -0.38827718966 0.60415461755 -0.28389282965 -0.37808813005 0.63085686083 -0.28412321783 -0.36501813852 0.65847969943 -0.28390640803 -0.33146088984 0.47125609881 -0.25237239401 -0.33298834592 0.48401913588 -0.26159922885 -0.33362466840 0.49940862995 -0.26891551312 -0.33293349186 0.51724986910 -0.27453914916 -0.33047845086 0.53736814147 -0.27868803930 -0.32582317999 0.55958873516 -0.28158008588 -0.31853131380 0.58373693828 -0.28343319125 -0.30816648686 0.60963803895 -0.28446525773 -0.29429233375 0.63711732527 -0.28489418767 -0.27647248903 0.66600008537 -0.28493788340 -1.00058565851 0.38148337437 -0.24586462243 -1.00077384783 0.40072032860 -0.25558923398 -1.00060835739 0.42459930557 -0.26292038040 -0.99984921058 0.45198664180 -0.26812512242 -0.99825643080 0.48174867381 -0.27147052080 -0.99559004147 0.51275173811 -0.27322363627 -0.99161006599 0.54386217125 -0.27365152957 -0.98607652776 0.57394630972 -0.27302126145 -0.97874945019 0.60187049007 -0.27159989265 -0.96938885669 0.62650104880 -0.26965448391 -0.92559692101 0.39563218497 -0.24486596329 -0.92591222781 0.41369638777 -0.25399936266 -0.92596742454 0.43596671862 -0.26097530002 -0.92563870371 0.46151911963 -0.26601846177 -0.92480225781 0.48942953291 -0.26935353431 -0.92333427934 0.51877390059 -0.27120520402 -0.92111096081 0.54862816478 -0.27179815732 -0.91800849471 0.57806826760 -0.27135708060 -0.91390307354 0.60617015115 -0.27010666024 -0.90867088980 0.63200975757 -0.26827158265 -0.85080351134 0.40926792610 -0.24411197547 -0.85121300124 0.42625253867 -0.25278010498 -0.85141539446 0.44706420058 -0.25947414039 -0.85135641875 0.47095110283 -0.26438615399 -0.85098180185 0.49716143640 -0.26770821804 -0.85023727151 0.52494339228 -0.26963240481 -0.84906855546 0.55354516143 -0.27035078657 -0.84742138145 0.58221493485 -0.27005543558 -0.84524147723 0.61020090352 -0.26893842412 -0.84247457052 0.63675125842 -0.26719182445 -0.77620211481 0.42228041633 -0.24357329587 -0.77667608606 0.43827770947 -0.25188685906 -0.77696120062 0.45777676631 -0.25836408335 -0.77703226119 0.48016598242 -0.26317344049 -0.77686407050 0.50483375334 -0.26648340220 -0.77643143127 0.53116847467 -0.26846244023 -0.77570914621 0.55855854195 -0.26927902633 -0.77467201805 0.58639235075 -0.26910163222 -0.77329484951 0.61405829664 -0.26809872965 -0.77155244330 0.64094477519 -0.26643879036 -0.70178941672 0.43455947421 -0.24322056136 -0.70230140023 0.44966082840 -0.25127502304 -0.70261377649 0.46798943069 -0.25759231074 -0.70269613652 0.48904714938 -0.26232556265 -0.70251807133 0.51233585280 -0.26562791697 -0.70204917193 0.53735740926 -0.26765251189 -0.70125902934 0.56361368706 -0.26855248561 -0.70011723458 0.59060655453 -0.26848097631 -0.69859337865 0.61783787998 -0.26759112219 -0.69665705257 0.64480953172 -0.26603606145 -0.62756210237 0.44599491832 -0.24302440882 -0.62808886168 0.46029082365 -0.25089999503 -0.62838205556 0.47758720856 -0.25710600438 -0.62837795023 0.49747799473 -0.26178776187 -0.62801281191 0.51955710384 -0.26509059254 -0.62722290680 0.54341845754 -0.26715982138 -0.62594450112 0.56865597752 -0.26814077341 -0.62411386109 0.59486358545 -0.26817877365 -0.62166725291 0.62163520300 -0.26741914711 -0.61854094279 0.64856475184 -0.26600721879 -0.55351685709 0.45647656721 -0.24295547514 -0.55403838836 0.47005662340 -0.25071717316 -0.55427497130 0.48645511480 -0.25685234611 -0.55410760782 0.50534190947 -0.26150527956 -0.55341729981 0.52638687552 -0.26482025910 -0.55208504917 0.54925988102 -0.26694157031 -0.54999185782 0.57363079407 -0.26801349877 -0.54701872764 0.59916948276 -0.26818033005 -0.54304666053 0.62554581517 -0.26758634975 -0.53795665841 0.65242965940 -0.26637584344 -0.47965036616 0.46589423945 -0.24298439719 -0.48014989820 0.47884715588 -0.25068195556 -0.48030145719 0.49447816426 -0.25677851777 -0.47991501476 0.51252228460 -0.26142335710 -0.47880054260 0.53271453691 -0.26476574684 -0.47676801236 0.55478994119 -0.26695496027 -0.47362739570 0.57848351746 -0.26814027067 -0.46918866429 0.60353028571 -0.26847095132 -0.46326178979 0.62966526597 -0.26809627549 -0.45565674387 0.65662347823 -0.26716551648 -0.40595931489 0.47413775360 -0.24308181187 -0.40642330916 0.48655134927 -0.25074974034 -0.40647044669 0.50154137182 -0.25683170119 -0.40583007656 0.51890251113 -0.26148723589 -0.40423154785 0.53842945708 -0.26487588596 -0.40140420965 0.55991689955 -0.26715719288 -0.39707741104 0.58315952842 -0.26849069814 -0.39098050111 0.60795203356 -0.26903594324 -0.38284282894 0.63408910485 -0.26895246968 -0.37239374362 0.66136543217 -0.26839981895 -0.33244038860 0.48109692823 -0.24321835604 -0.33285853918 0.49305813177 -0.25087592564 -0.33279087330 0.50752975233 -0.25695907820 -0.33188269870 0.52436598005 -0.26164215733 -0.32977932314 0.54342100509 -0.26509950664 -0.32612605436 0.56454901759 -0.26750546972 -0.32056820012 0.58760420769 -0.26903439018 -0.31275106816 0.61244076554 -0.26986061164 -0.30231996624 0.63891288128 -0.27015847769 -0.28892020211 0.66687474507 -0.27010233194 -1.00370152886 0.39466699085 -0.23713168628 -1.00368862929 0.41348502449 -0.24654818625 -1.00324660658 0.43655629339 -0.25367803154 -1.00201523428 0.46285091063 -0.25872626696 -0.99963428596 0.49133898929 -0.26189793733 -0.99574353517 0.52099064245 -0.26339808747 -0.98998275548 0.55077598319 -0.26343176217 -0.98199172044 0.57966512459 -0.26220400625 -0.97141020363 0.60662817974 -0.25991986453 -0.95787797859 0.63063526171 -0.25678438181 -0.92813684020 0.40794401714 -0.23661851465 -0.92816722895 0.42543530029 -0.24491633402 -0.92794697881 0.44686533297 -0.25125711970 -0.92727855061 0.47141200123 -0.25579602342 -0.92596440516 0.49825319112 -0.25868819689 -0.92380700328 0.52656678869 -0.26008879181 -0.92060880580 0.55553068000 -0.26015295992 -0.91617227353 0.58432275109 -0.25903585292 -0.91029986730 0.61212088802 -0.25689262253 -0.90279404793 0.63810297684 -0.25387842046 -0.85292719412 0.42083713528 -0.23624121563 -0.85298458432 0.43713793342 -0.24366280388 -0.85290125815 0.45709078287 -0.24938403194 -0.85257767838 0.48004277736 -0.25352180225 -0.85191430784 0.50534101062 -0.25619301724 -0.85081160932 0.53233257638 -0.25751457932 -0.84917004561 0.56036456835 -0.25760339095 -0.84689007953 0.58878408027 -0.25657635454 -0.84387217387 0.61693820587 -0.25455037253 -0.84001679144 0.64417403887 -0.25164234735 -0.77802983282 0.43322476145 -0.23598282866 -0.77810078118 0.44846461108 -0.24274092092 -0.77808512021 0.46709757249 -0.24799223382 -0.77792873536 0.48860634160 -0.25182642591 -0.77757751204 0.51247361432 -0.25433315576 -0.77697733568 0.53818208655 -0.25560208194 -0.77607409171 0.56521445422 -0.25572286301 -0.77481366556 0.59305341322 -0.25478515754 -0.77314194264 0.62118165946 -0.25287862411 -0.77100480839 0.64908188886 -0.25009292126 -0.70340199852 0.44498531186 -0.23582639314 -0.70347590527 0.45928702050 -0.24210401023 -0.70347424065 0.47675063125 -0.24701519089 -0.70334783928 0.49696579653 -0.25063271685 -0.70304753579 0.51952216874 -0.25302936984 -0.70252416479 0.54400940028 -0.25427793160 -0.70172856089 0.57001714356 -0.25445118385 -0.70061155873 0.59713505099 -0.25362190834 -0.69912399290 0.62495277495 -0.25186288678 -0.69721669805 0.65305996788 -0.24924690093 -0.62900093342 0.45599720269 -0.23575494851 -0.62907004236 0.46947684890 -0.24170539689 -0.62904429509 0.48591488858 -0.24638636872 -0.62885110791 0.50498424475 -0.24986349753 -0.62841789712 0.52635784042 -0.25220241685 -0.62767207903 0.54970859862 -0.25346876024 -0.62654106994 0.57470944236 -0.25372816122 -0.62495228615 0.60103329466 -0.25304625333 -0.62283314396 0.62835307852 -0.25148867011 -0.62011105968 0.65634171698 -0.24912104511 -0.55478387972 0.46613885014 -0.23575153419 -0.55484327822 0.47890578350 -0.24149840600 -0.55477095917 0.49445527388 -0.24603923287 -0.55445465899 0.51252478883 -0.24944159040 -0.55378211408 0.53285179589 -0.25177305418 -0.55264106083 0.55517376263 -0.25310119980 -0.55091923566 0.57922815658 -0.25349360286 -0.54850437495 0.60475244530 -0.25301783894 -0.54528421512 0.63148409634 -0.25174148364 -0.54114649256 0.65916057724 -0.24973211255 -0.48070807963 0.47528867038 -0.23579918960 -0.48075569859 0.48744551152 -0.24143636263 -0.48062990853 0.50223671657 -0.24590724890 -0.48017461028 0.51945053136 -0.24928981792 -0.47923370469 0.53887520168 -0.25166203920 -0.47765109259 0.56029897336 -0.25310188223 -0.47527067482 0.58351009219 -0.25368731652 -0.47193635224 0.60829680399 -0.25349631158 -0.46749202566 0.63444735457 -0.25260683691 -0.46178159595 0.66174998973 -0.25109686201 -0.40673077535 0.48332507963 -0.23588095416 -0.40676738925 0.49496772017 -0.24147259187 -0.40659681879 0.50912414607 -0.24592388238 -0.40602707952 0.52562457492 -0.24933100255 -0.40486618698 0.54429922432 -0.25179012929 -0.40292215671 0.56497831187 -0.25339743946 -0.40000300424 0.58749205516 -0.25424910996 -0.39591674513 0.61167067180 -0.25444131767 -0.39047139490 0.63734437939 -0.25407023946 -0.38347496911 0.66434339551 -0.25323205223 -0.33280920908 0.49012649405 -0.23597986730 -0.33283843595 0.50134409669 -0.24156041882 -0.33264736561 0.51498249180 -0.24602259886 -0.33202818448 0.53091002211 -0.24948796675 -0.33077307900 0.54899503035 -0.25207808183 -0.32867423560 0.56910585922 -0.25391450344 -0.32552384070 0.59111085147 -0.25511879092 -0.32111408073 0.61487834980 -0.25581250361 -0.31523714213 0.64027669696 -0.25611720085 -0.30768521133 0.66717423565 -0.25615444197 -1.00614943444 0.40497248757 -0.23113524220 -1.00607045180 0.42325885963 -0.23997841160 -1.00539914566 0.44557676462 -0.24669385232 -1.00363220648 0.47097420090 -0.25140734617 -1.00026632475 0.49849916682 -0.25424467497 -0.99479819093 0.52719966073 -0.25533162053 -0.98672449550 0.55612368100 -0.25479396467 -0.97554192894 0.58431922597 -0.25275748919 -0.96074718171 0.61083429400 -0.24934797591 -0.94183694430 0.63471688344 -0.24469120664 -0.92991467272 0.41788967119 -0.23067866008 -0.92988135171 0.43472001257 -0.23783561618 -0.92951231729 0.45536499170 -0.24329689296 -0.92853157287 0.47908804032 -0.24712991805 -0.92666312185 0.50515259019 -0.24940211904 -0.92363096762 0.53282207308 -0.25018092354 -0.91915911359 0.56135992074 -0.24953375915 -0.91297156316 0.59002956492 -0.24752805349 -0.90479231973 0.61809443738 -0.24423123416 -0.89434538671 0.64481796989 -0.23971072876 -0.85418638765 0.43044771623 -0.23034258905 -0.85418055831 0.44600059752 -0.23618252398 -0.85399905530 0.46515275127 -0.24066330511 -0.85350390648 0.48734105134 -0.24380797474 -0.85255713972 0.51200237161 -0.24563957516 -0.85102078287 0.53857358596 -0.24618114869 -0.84875686380 0.56649156827 -0.24545573761 -0.84562741038 0.59519319239 -0.24348638424 -0.84149445046 0.62411533222 -0.24029613087 -0.83622001192 0.65269486162 -0.23590801981 -0.77890030734 0.44252543814 -0.23011226312 -0.77890769654 0.45696662474 -0.23495867396 -0.77882383884 0.47479589360 -0.23870017494 -0.77857937109 0.49558630541 -0.24132896153 -0.77810493014 0.51891092086 -0.24283722921 -0.77733115282 0.54434280068 -0.24321717346 -0.77618867599 0.57145500554 -0.24246098974 -0.77460813648 0.59982059617 -0.24056087354 -0.77252017115 0.62901263325 -0.23750902032 -0.76985541684 0.65860417749 -0.23329762556 -0.70399215990 0.45400165235 -0.22997291634 -0.70400239130 0.46748410451 -0.23410360505 -0.70395114705 0.48415026896 -0.23731458861 -0.70378813047 0.50367687396 -0.23958032371 -0.70346304488 0.52574064773 -0.24087526706 -0.70292559362 0.55001831851 -0.24117387534 -0.70212548001 0.57618661453 -0.24045060526 -0.70101240737 0.60392226402 -0.23867991351 -0.69953607904 0.63290199522 -0.23583625679 -0.69764619835 0.66280253637 -0.23189409180 -0.62939767342 0.46475517432 -0.22990978271 -0.62940426753 0.47741904708 -0.23355685619 -0.62934545908 0.49307172763 -0.23641363230 -0.62916034839 0.51146582845 -0.23844950657 -0.62878803573 0.53235396200 -0.23963387456 -0.62816762141 0.55548874075 -0.23993613181 -0.62723820572 0.58062277716 -0.23932567386 -0.62593888894 0.60750868372 -0.23777189626 -0.62420877139 0.63589907287 -0.23524419456 -0.62198695333 0.66554655710 -0.23171196429 -0.55505257603 0.47466481948 -0.22990809627 -0.55505295013 0.48663746272 -0.23325796634 -0.55497125408 0.50141611986 -0.23590439219 -0.55472618862 0.51880624031 -0.23782395541 -0.55423645446 0.53861327345 -0.23899323760 -0.55342075233 0.56064266868 -0.23938882035 -0.55219778297 0.58469987541 -0.23898728525 -0.55048624709 0.61059034304 -0.23776521390 -0.54820484542 0.63811952095 -0.23569918790 -0.54527227870 0.66709285856 -0.23276578882 -0.48089259581 0.48360940327 -0.22995309103 -0.48088806402 0.49500536171 -0.23314647443 -0.48079301119 0.50903929594 -0.23569395445 -0.48051581493 0.52555118098 -0.23759111551 -0.47996485284 0.54438099187 -0.23883354204 -0.47904850253 0.56536870361 -0.23941681844 -0.47767514162 0.58835429123 -0.23933652914 -0.47575314771 0.61317772975 -0.23858825855 -0.47319089841 0.63967899420 -0.23716759110 -0.46989677132 0.66769805959 -0.23507011118 -0.40685346087 0.49146774113 -0.23003000102 -0.40684923412 0.50238875430 -0.23316191940 -0.40677520956 0.51579710612 -0.23568940525 -0.40655939109 0.53155372192 -0.23763843217 -0.40612978265 0.54951952704 -0.23903497375 -0.40541438815 0.56955544681 -0.23990500357 -0.40434121153 0.59152240656 -0.24027449524 -0.40283825669 0.61528133163 -0.24016942233 -0.40083352757 0.64069314735 -0.23961575843 -0.39825502809 0.66761877906 -0.23863947714 -0.33287089932 0.49811864852 -0.23012406026 -0.33287608536 0.50865365078 -0.23324384019 -0.33288232833 0.52154540068 -0.23579783077 -0.33288708088 0.53666693456 -0.23785335068 -0.33288779566 0.55389128875 -0.23947771860 -0.33288192533 0.57309149958 -0.24073825322 -0.33286692254 0.59414060337 -0.24170227324 -0.33284023994 0.61691163645 -0.24243709733 -0.33279933018 0.64127763516 -0.24301004418 -0.33274164591 0.66711163583 -0.24348843249 </DataArray>
</Points>
</Piece>
</StructuredGrid>
</VTKFile>
