<?xml version="1.0"?>
<VTKFile type="StructuredGrid" version="0.1">
<StructuredGrid WholeExtent="0 9 0 9 0 9">
<Piece Extent="0 9 0 9 0 9">
<PointData>
<DataArray type="Float32" Name="Deformation" format="ascii" NumberOfComponents="3">
0.00043398678 -1.13151307961 0.07313310856 0.00047320157 -1.12899401713 0.07657758698 0.00051254461 -1.12474019716 0.08002853238 0.00055791312 -1.11908074842 0.08360713723 0.00061520427 -1.11234479968 0.08743459400 0.00069031528 -1.10486147966 0.09163209518 0.00078914333 -1.09695991711 0.09632083323 0.00091758562 -1.08896924078 0.10162200065 0.00108153934 -1.08121857940 0.10765678990 0.00128690170 -1.07403706171 0.11454639346 0.00046697825 -1.12738812415 0.06475554977 0.00051987465 -1.12368759194 0.06711845853 0.00057139092 -1.11867470115 0.06973472899 0.00062600137 -1.11261386622 0.07260247046 0.00068818035 -1.10576950158 0.07571979226 0.00076240217 -1.09840602165 0.07908480372 0.00085314117 -1.09078784088 0.08269561413 0.00096487167 -1.08317937368 0.08655033282 0.00110206800 -1.07584503450 0.09064706911 0.00126920449 -1.06904923775 0.09498393230 0.00048735447 -1.12180069067 0.05502005927 0.00055007330 -1.11720909945 0.05639561955 0.00060926546 -1.11159472897 0.05811329079 0.00066859792 -1.10517841994 0.06010061111 0.00073173767 -1.09818101305 0.06228511869 0.00080235168 -1.09082334900 0.06459435167 0.00088410692 -1.08332626849 0.06695584819 0.00098067037 -1.07591061221 0.06929714641 0.00109570900 -1.06879722088 0.07154578448 0.00123288978 -1.06220693517 0.07362930055 0.00049616089 -1.11504296816 0.04429204311 0.00056478822 -1.10980399287 0.04475181595 0.00062751132 -1.10372614285 0.04552655816 0.00068763725 -1.09700310188 0.04651405712 0.00074847309 -1.08982855370 0.04761210021 0.00081332590 -1.08239618209 0.04871847480 0.00088550277 -1.07489967081 0.04973096828 0.00096831075 -1.06753270363 0.05054736800 0.00106505694 -1.06048896432 0.05106546137 0.00117904839 -1.05396213663 0.05118303574 0.00049444295 -1.10740714562 0.03293690735 0.00056501016 -1.10171772543 0.03252979361 0.00062747160 -1.09529480505 0.03233687150 0.00068505384 -1.08831660434 0.03225530642 0.00074098343 -1.08096134314 0.03218226376 0.00079848693 -1.07340724132 0.03201490890 0.00086079090 -1.06583251872 0.03165040725 0.00093112189 -1.05841539520 0.03098592418 0.00101270646 -1.05133409060 0.02991862510 0.00110877117 -1.04476682478 0.02834567539 0.00048324609 -1.09918541205 0.02132005804 0.00055172982 -1.09319575033 0.02007229842 0.00061048940 -1.08652657779 0.01890657120 0.00066278219 -1.07934761962 0.01773685695 0.00071186556 -1.07182860099 0.01647713627 0.00076099688 -1.06413924709 0.01504138975 0.00081343351 -1.05644928309 0.01334359797 0.00087243282 -1.04892843417 0.01129774153 0.00094125218 -1.04174642551 0.00881780102 0.00102314894 -1.03507298229 0.00581775702 0.00046361577 -1.09066995645 0.00980690124 0.00052593794 -1.08448352080 0.00772207629 0.00057790780 -1.07764732334 0.00559799763 0.00062275678 -1.07032484004 0.00337120663 0.00066371632 -1.06267954687 0.00097824467 0.00070401785 -1.05487491979 -0.00164434690 0.00074689280 -1.04707443477 -0.00456002670 0.00079557261 -1.03944156779 -0.00783225336 0.00085328872 -1.03213979482 -0.01152448553 0.00092327255 -1.02533259181 -0.01570018183 0.00043659742 -1.08215296780 -0.00123715699 0.00048862524 -1.07582649005 -0.00417812690 0.00053106990 -1.06888290393 -0.00722650881 0.00056691210 -1.06147695789 -0.01042914658 0.00059913255 -1.05376340037 -0.01383288410 0.00063071193 -1.04589697981 -0.01748456524 0.00066463095 -1.03803244465 -0.02143103389 0.00070387031 -1.03032454334 -0.02571913392 0.00075141071 -1.02292802431 -0.03039570921 0.00081023284 -1.01599763602 -0.03550760363 0.00040323649 -1.07392663512 -0.01144671061 0.00044078244 -1.06747011130 -0.01528556527 0.00047131879 -1.06045918181 -0.01920460773 0.00049718264 -1.05303266548 -0.02325170476 0.00052071109 -1.04532938112 -0.02747472311 0.00054424123 -1.03748814755 -0.03192152952 0.00057011016 -1.02964778359 -0.03663999076 0.00060065497 -1.02194710806 -0.04167797356 0.00063821277 -1.01452493977 -0.04708334468 0.00068512063 -1.00752009756 -0.05290397088 0.00036457843 -1.06628314739 -0.02045635357 0.00038340027 -1.05965983776 -0.02525749290 0.00039999756 -1.05260201923 -0.02997395875 0.00041550289 -1.04522065511 -0.03468396997 0.00043104880 -1.03762670873 -0.03946574542 0.00044776785 -1.02993114340 -0.04439750396 0.00046679262 -1.02224492246 -0.04955746443 0.00048925565 -1.01467900921 -0.05502384569 0.00051628952 -1.00734436698 -0.06087486661 0.00054902678 -1.00035195910 -0.06718874603 0.00035786682 -1.13581867703 0.07676832272 0.00038415240 -1.13408073791 0.08212997560 0.00041525706 -1.13024562261 0.08688459116 0.00045354834 -1.12468650891 0.09120917176 0.00050139379 -1.11777657456 0.09528071974 0.00056116095 -1.10988899733 0.09927623744 0.00063521736 -1.10139695500 0.10337272721 0.00072593058 -1.09267362533 0.10774719138 0.00083566815 -1.08409218609 0.11257663229 0.00096679762 -1.07602581505 0.11803805230 0.00038192651 -1.13206889498 0.06748810810 0.00042224685 -1.12862767868 0.07124369598 0.00046322936 -1.12362305414 0.07472780936 0.00050708010 -1.11734636397 0.07801926310 0.00055600516 -1.11008895076 0.08119687203 0.00061221064 -1.10214215713 0.08433945102 0.00067790260 -1.09379732568 0.08752581490 0.00075528714 -1.08534579902 0.09083477853 0.00084657034 -1.07707891976 0.09434515675 0.00095395829 -1.06928803049 0.09813576441 0.00039652746 -1.12667275638 0.05706072440 0.00044618861 -1.12188337347 0.05933243689 0.00049295782 -1.11593621241 0.06154373849 0.00053905534 -1.10906145257 0.06371253511 0.00058670143 -1.10148927334 0.06585673268 0.00063811632 -1.09344985408 0.06799423713 0.00069552028 -1.08517337418 0.07014295436 0.00076113353 -1.07689001301 0.07232079031 0.00083717634 -1.06882994996 0.07454565089 0.00092586895 -1.06122336439 0.07683544202 0.00040240350 -1.11990047226 0.04577843397 0.00045701733 -1.11406797943 0.04666128352 0.00050591495 -1.10737884328 0.04760192921 0.00055142692 -1.10001860185 0.04858520749 0.00059588381 -1.09217279322 0.04959595481 0.00064161619 -1.08402695545 0.05061900762 0.00069095464 -1.07576662658 0.05163920239 0.00074622971 -1.06757734470 0.05264137555 0.00080977199 -1.05964464785 0.05361036357 0.00088391203 -1.05215407409 0.05453100290 0.00040028844 -1.11202225365 0.03393349912 0.00045577270 -1.10540165372 0.03349532104 0.00050357324 -1.09814469260 0.03317193219 0.00054614766 -1.09040463893 0.03293349991 0.00058595353 -1.08233476134 0.03275019152 0.00062544843 -1.07408832848 0.03259217437 0.00066708994 -1.06581860897 0.03242961578 0.00071333564 -1.05767887146 0.03223268310 0.00076664312 -1.04982238459 0.03197154366 0.00082946995 -1.04240241698 0.03161636479 0.00039091611 -1.10330831159 0.02181818220 0.00044349438 -1.09610455350 0.02009963463 0.00048740522 -1.08842750626 0.01852329809 0.00052517042 -1.08040639094 0.01705363204 0.00055931181 -1.07217042864 0.01565509592 0.00059235121 -1.06384884044 0.01429214921 0.00062681042 -1.05557084743 0.01292925135 0.00066521127 -1.04746567070 0.01153086180 0.00071007557 -1.03966253134 0.01006144003 0.00076392514 -1.03229065043 0.00848544548 0.00037502031 -1.09402885710 0.00972474552 0.00042122206 -1.08639683593 0.00673930946 0.00045888336 -1.07842103010 0.00392557757 0.00049044804 -1.07021068500 0.00124182356 0.00051835989 -1.06187504603 -0.00135367887 0.00054506272 -1.05352335858 -0.00390265599 0.00057300034 -1.04526486804 -0.00644683411 0.00060461656 -1.03720881981 -0.00902793950 0.00064235519 -1.02946445926 -0.01168769846 0.00068866003 -1.02214103180 -0.01446783729 0.00035333487 -1.08445410121 -0.00205454857 0.00038999539 -1.07649865815 -0.00632056928 0.00041948019 -1.06831900999 -0.01035167871 0.00044393335 -1.06000434825 -0.01420570585 0.00046549897 -1.05164386447 -0.01794047974 0.00048632114 -1.04332675017 -0.02161382938 0.00050854394 -1.03514219690 -0.02528358378 0.00053431146 -1.02717939617 -0.02900757197 0.00056576780 -1.01952753952 -0.03284362295 0.00060505703 -1.01227581848 -0.03684956575 0.00032659360 -1.07485425496 -0.01322743776 0.00035085405 -1.06663017734 -0.01881491643 0.00037066819 -1.05831519179 -0.02403892008 0.00038757921 -1.04997420781 -0.02899273652 0.00040313030 -1.04167213487 -0.03376965358 0.00041886466 -1.03347388246 -0.03846295909 0.00043632547 -1.02544436007 -0.04316594088 0.00045705593 -1.01764847718 -0.04797188676 0.00048259924 -1.01015114327 -0.05297408457 0.00051449858 -1.00301726783 -0.05826582213 0.00029553032 -1.06549952937 -0.02350165970 0.00030483772 -1.05701155064 -0.03047864680 0.00031391988 -1.04860332137 -0.03686659588 0.00032333846 -1.04030709080 -0.04282304876 0.00033365510 -1.03215510817 -0.04850554729 0.00034543146 -1.02417962271 -0.05407163329 0.00035922919 -1.01641288365 -0.05967884859 0.00037560994 -1.00888714022 -0.06548473504 0.00039513536 -1.00163464167 -0.07164683446 0.00041836710 -0.99468763723 -0.07832268868 0.00026635656 -1.13904788118 0.07949474676 0.00028287397 -1.13789578493 0.08629428112 0.00030536243 -1.13437469867 0.09202665046 0.00033432410 -1.12889083686 0.09691071440 0.00037026114 -1.12185041398 0.10116533254 0.00041367570 -1.11365964451 0.10500936450 0.00046506995 -1.10472474292 0.10866166990 0.00052494603 -1.09545192369 0.11234110834 0.00059380610 -1.08624740129 0.11626653943 0.00067215233 -1.07751739021 0.12065682280 0.00028268562 -1.13557947929 0.06953754033 0.00031104646 -1.13233275040 0.07433763855 0.00034081053 -1.12733432605 0.07847263535 0.00037287105 -1.12089574497 0.08208187468 0.00040812125 -1.11332854584 0.08530470044 0.00044745433 -1.10494426740 0.08828045659 0.00049176351 -1.09605444833 0.09114848704 0.00054194201 -1.08697062736 0.09404813573 0.00059888306 -1.07800434319 0.09711874658 0.00066347986 -1.06946713453 0.10049966352 0.00029244817 -1.13032681187 0.05859123676 0.00032839289 -1.12538908571 0.06153506464 0.00036219248 -1.11919233219 0.06411659028 0.00039509427 -1.11197373468 0.06642149540 0.00042834560 -1.10397047657 0.06853546174 0.00046319382 -1.09541974123 0.07054417102 0.00050088627 -1.08655871204 0.07253330497 0.00054267028 -1.07762457238 0.07458854532 0.00058979319 -1.06885450564 0.07679557380 0.00064350236 -1.06048569519 0.07924007213 0.00029612584 -1.12354360648 0.04689324060 0.00033580002 -1.11726597601 0.04809339905 0.00037078925 -1.11011837568 0.04915847361 0.00040262874 -1.10228023428 0.05013858756 0.00043285371 -1.09393098059 0.05108386416 0.00046299937 -1.08525004341 0.05204442669 0.00049460095 -1.07641685153 0.05307039841 0.00052919367 -1.06761083373 0.05421190261 0.00056831274 -1.05901141882 0.05551906255 0.00061349339 -1.05079803557 0.05704200151 0.00029420023 -1.11548359068 0.03468095638 0.00033415459 -1.10816460642 0.03421948142 0.00036788182 -1.10028211511 0.03379824373 0.00039710946 -1.09197067200 0.03344216213 0.00042356505 -1.08336483234 0.03317615544 0.00044897614 -1.07459915135 0.03302514249 0.00047507029 -1.06580818428 0.03301404210 0.00050357504 -1.05712648639 0.03316777309 0.00053621792 -1.04868861289 0.03351125430 0.00057472650 -1.04062911905 0.03406940453 0.00028715297 -1.10640049204 0.02219178863 0.00032434335 -1.09828616206 0.02012015140 0.00035475116 -1.08985320908 0.01823585901 0.00038017141 -1.08120047613 0.01654123011 0.00040239913 -1.07242680624 0.01503858333 0.00042322932 -1.06363104245 0.01373023733 0.00044445702 -1.05491202780 0.01261851076 0.00046787722 -1.04636860532 0.01170572226 0.00049528497 -1.03809961803 0.01099419048 0.00052847526 -1.03020390899 0.01048623407 0.00027546567 -1.09654803813 0.00966314189 0.00030725304 -1.08783182808 0.00600224864 0.00033267824 -1.07900131618 0.00267127783 0.00035344960 -1.07012507491 -0.00035519753 0.00037127544 -1.06127167674 -0.00310260444 0.00038786408 -1.05250969413 -0.00559636989 0.00040492385 -1.04390769956 -0.00786192088 0.00042416308 -1.03553426549 -0.00992468440 0.00044729009 -1.02745796441 -0.01181008745 0.00047601321 -1.01974736877 -0.01354355702 0.00025961994 -1.08617995650 -0.00266757931 0.00028377041 -1.07700278960 -0.00792738723 0.00030294405 -1.06789609502 -0.01269554144 0.00031857901 -1.05889989662 -0.01703810980 0.00033211347 -1.05005421826 -0.02102116014 0.00034498559 -1.04139908378 -0.02471076029 0.00035863353 -1.03297451704 -0.02817297810 0.00037449546 -1.02482054190 -0.03147388140 0.00039400953 -1.01697718219 -0.03467953803 0.00041861392 -1.00948446177 -0.03785601584 0.00024009740 -1.07554997473 -0.01456297043 0.00025478221 -1.06600023174 -0.02146191655 0.00026682954 -1.05670720417 -0.02766464043 0.00027719465 -1.04768036951 -0.03329849571 0.00028683273 -1.03892920523 -0.03849083601 0.00029669904 -1.03046318882 -0.04336901495 0.00030774878 -1.02229179775 -0.04806038615 0.00032093719 -1.01442450949 -0.05269230323 0.00033721950 -1.00687080154 -0.05739211982 0.00035755093 -0.99964015136 -0.06228718953 0.00021737966 -1.06491182037 -0.02578562695 0.00022117517 -1.05502533964 -0.03439449967 0.00022561571 -1.04560430225 -0.04203606076 0.00023093149 -1.03662192185 -0.04892734429 0.00023735271 -1.02805141210 -0.05528538434 0.00024510959 -1.01986598665 -0.06132721499 0.00025443233 -1.01203885915 -0.06726987032 0.00026555114 -1.00454324326 -0.07333038441 0.00027869623 -0.99735235263 -0.07972579135 0.00029409780 -0.99043940091 -0.08667312521 0.00016385368 -1.14120069129 0.08131237918 0.00017286086 -1.14043915742 0.08907050215 0.00018646330 -1.13712742445 0.09545470875 0.00020448652 -1.13169373128 0.10071176334 0.00022675605 -1.12456631681 0.10508843027 0.00025309741 -1.11617341993 0.10883147391 0.00028333614 -1.10694327955 0.11218765861 0.00031729775 -1.09730413456 0.11540374874 0.00035480778 -1.08768422387 0.11872650865 0.00039569176 -1.07851178637 0.12240270270 0.00017331009 -1.13791987638 0.07090384522 0.00019015184 -1.13480280639 0.07640028512 0.00020820843 -1.12980851615 0.08096920581 0.00022774263 -1.12326200842 0.08479030391 0.00024901720 -1.11548828597 0.08804327604 0.00027229491 -1.10681235155 0.09090781881 0.00029783853 -1.09755920794 0.09356362882 0.00032591081 -1.08805385788 0.09619040270 0.00035677453 -1.07862130413 0.09896783706 0.00039069244 -1.06958654948 0.10207562852 0.00017890345 -1.13276285649 0.05961159530 0.00020066120 -1.12772623556 0.06300350190 0.00022110063 -1.12136308771 0.06583184529 0.00024083463 -1.11391526565 0.06822749109 0.00026047607 -1.10562462211 0.07032130490 0.00028063784 -1.09673300982 0.07224415234 0.00030193280 -1.08748228149 0.07412689902 0.00032497384 -1.07811428985 0.07610041055 0.00035037382 -1.06887088762 0.07829555254 0.00037874564 -1.05999392752 0.08084319060 0.00018090560 -1.12597237021 0.04763646210 0.00020497855 -1.11939798206 0.04904816180 0.00022600010 -1.11194473956 0.05019619071 0.00024483951 -1.10378799867 0.05117419672 0.00026236605 -1.09510311536 0.05207582767 0.00027944899 -1.08606544558 0.05299473143 0.00029695758 -1.07685034531 0.05402455586 0.00031576110 -1.06763317051 0.05525894883 0.00033672881 -1.05858927715 0.05679155820 0.00036072997 -1.04989402119 0.05871603184 0.00017958840 -1.11779115614 0.03517927828 0.00020369352 -1.11000658303 0.03470227411 0.00022376703 -1.10170707216 0.03421580561 0.00024083425 -1.09301470319 0.03378129267 0.00025592053 -1.08405155581 0.03346015517 0.00027005117 -1.07493970968 0.03331381298 0.00028425152 -1.06580124448 0.03340368600 0.00029954690 -1.05675823988 0.03379119411 0.00031696263 -1.04793277555 0.03453775718 0.00033752405 -1.03944693117 0.03570479510 0.00017522371 -1.10846195288 0.02244087652 0.00019739573 -1.09974057559 0.02013384814 0.00021526162 -1.09080368593 0.01804425351 0.00022989585 -1.08172987492 0.01619965081 0.00024237289 -1.07259773359 0.01462759822 0.00025376719 -1.06348585298 0.01335565392 0.00026515324 -1.05447282410 0.01241137609 0.00027760549 -1.04563723798 0.01182232292 0.00029219841 -1.03705768566 0.01161605258 0.00031000648 -1.02881275817 0.01182012326 0.00016808337 -1.09822749903 0.00962208948 0.00018667479 -1.08878849689 0.00551089318 0.00020134407 -1.07938818133 0.00183509793 0.00021310129 -1.07006800957 -0.00141985701 0.00022295652 -1.06086943883 -0.00426853236 0.00023191986 -1.05183392631 -0.00672548885 0.00024100138 -1.04300292925 -0.00880528721 0.00025121116 -1.03441790484 -0.01052248817 0.00026355931 -1.02612031031 -0.01189165246 0.00027905588 -1.01815160287 -0.01292734079 0.00015843923 -1.08733053319 -0.00307625017 0.00017212034 -1.07733888404 -0.00899858146 0.00018287458 -1.06761415879 -0.01425809759 0.00019152755 -1.05816360284 -0.01892635891 0.00019890482 -1.04899446162 -0.02307492574 0.00020583197 -1.04011398054 -0.02677535841 0.00021313457 -1.03152940502 -0.03009921726 0.00022163820 -1.02324798047 -0.03311806262 0.00023216844 -1.01527695231 -0.03590345482 0.00024555088 -1.00762356595 -0.03852695419 0.00014656317 -1.07601379396 -0.01545330975 0.00015432198 -1.06558027419 -0.02322656648 0.00016071335 -1.05563521874 -0.03008176954 0.00016625163 -1.04615115044 -0.03616898304 0.00017145118 -1.03710059210 -0.04163827110 0.00017682633 -1.02845606652 -0.04663969785 0.00018289145 -1.02019009652 -0.05132332739 0.00019016088 -1.01227520491 -0.05583922386 0.00019914897 -1.00468391450 -0.06033745137 0.00021037007 -0.99738874812 -0.06496807404 0.00013272701 -1.06452001993 -0.02730825659 0.00013386933 -1.05370120446 -0.03700505259 0.00013572057 -1.04360496164 -0.04548235437 0.00013835051 -1.03416514809 -0.05299685753 0.00014182898 -1.02531562037 -0.05980525762 0.00014622576 -1.01699023508 -0.06616425024 0.00015161065 -1.00912284882 -0.07233053096 0.00015805347 -1.00164731817 -0.07856079536 0.00016562402 -0.99449749972 -0.08511173900 0.00017439208 -0.98760725006 -0.09224005748 0.00005475582 -1.14227710659 0.08222121848 0.00005760767 -1.14171085460 0.09045863727 0.00006216225 -1.13850379911 0.09716876449 0.00006828171 -1.13309519118 0.10261231678 0.00007582822 -1.12592428190 0.10705001081 0.00008466393 -1.11743032233 0.11074256322 0.00009465099 -1.10805256355 0.11395069066 0.00010565155 -1.09823025664 0.11693510979 0.00011752778 -1.08840265267 0.11995653725 0.00013014183 -1.07900900271 0.12327568970 0.00005785444 -1.13909008555 0.07158702155 0.00006344138 -1.13603784596 0.07743163457 0.00006949705 -1.13104562370 0.08221751958 0.00007606321 -1.12444515355 0.08614454952 0.00008318163 -1.11656817029 0.08941259736 0.00009089407 -1.10774640871 0.09222153604 0.00009924229 -1.09831160360 0.09477123852 0.00010826806 -1.08859548975 0.09726157775 0.00011801314 -1.07892980194 0.09989242669 0.00012851929 -1.06964627497 0.10286365828 0.00005968015 -1.13398088959 0.06012179900 0.00006696856 -1.12889482239 0.06373774778 0.00007381346 -1.12244847834 0.06668950267 0.00008039636 -1.11488604485 0.06913052128 0.00008689872 -1.10645170935 0.07121426122 0.00009350203 -1.09738965926 0.07309418009 0.00010038777 -1.08794408199 0.07492373552 0.00010773744 -1.07835916496 0.07685638509 0.00011573250 -1.06887909559 0.07904558644 0.00012455445 -1.05974806130 0.08164479715 0.00006032050 -1.12718676285 0.04800809756 0.00006839516 -1.12046399704 0.04952557103 0.00007541335 -1.11285793441 0.05071507987 0.00008165602 -1.10454189456 0.05169203436 0.00008740412 -1.09568919708 0.05257184475 0.00009293860 -1.08647316156 0.05346992129 0.00009854041 -1.07706710761 0.05450167424 0.00010449049 -1.06764435480 0.05578251386 0.00011106981 -1.05837822275 0.05742785040 0.00011855929 -1.04944203104 0.05955309412 0.00005986305 -1.11894494947 0.03542846399 0.00006792716 -1.11092758308 0.03494369846 0.00007459858 -1.10241956333 0.03442461732 0.00008021709 -1.09353673214 0.03395089110 0.00008512249 -1.08439493146 0.03360219033 0.00008965459 -1.07511000323 0.03345818554 0.00009415317 -1.06579778938 0.03359854728 0.00009895804 -1.05657413186 0.03410294608 0.00010440898 -1.04755487260 0.03505105247 0.00011084581 -1.03885585355 0.03652253698 0.00005839533 -1.10949269357 0.02256544503 0.00006577052 -1.10046779367 0.02014072423 0.00007167100 -1.09127893647 0.01794848112 0.00007645443 -1.08199458705 0.01602889379 0.00008047847 -1.07268321048 0.01442214032 0.00008410078 -1.06341327185 0.01316839877 0.00008767902 -1.05425323622 0.01230784725 0.00009157087 -1.04527156868 0.01188066381 0.00009613397 -1.03653673430 0.01192702655 0.00010172599 -1.02811719816 0.01248711354 0.00005600492 -1.09906723930 0.00960158741 0.00006213122 -1.08926684198 0.00526524246 0.00006693249 -1.07958162525 0.00141703740 0.00007074292 -1.07003948876 -0.00195215523 0.00007389669 -1.06066833214 -0.00485146291 0.00007672797 -1.05149605503 -0.00729001310 0.00007957094 -1.04255055704 -0.00927693328 0.00008275979 -1.03385973782 -0.01082135091 0.00008662869 -1.02545149701 -0.01193239347 0.00009151182 -1.01735373422 -0.01261918841 0.00005277934 -1.08790583079 -0.00328056212 0.00005721520 -1.07750694115 -0.00953415270 0.00006068491 -1.06747320106 -0.01503934772 0.00006345744 -1.05779546674 -0.01987045366 0.00006580179 -1.04846459443 -0.02410177699 0.00006798695 -1.03947144035 -0.02780762418 0.00007028189 -1.03080686075 -0.03106230171 0.00007295560 -1.02246171185 -0.03394011605 0.00007627708 -1.01442684988 -0.03651537368 0.00008051530 -1.00669313108 -0.03886238107 0.00004880617 -1.07624571217 -0.01589845681 0.00005122845 -1.06537030437 -0.02410886710 0.00005323012 -1.05509923530 -0.03129030812 0.00005497287 -1.04538655045 -0.03760419917 0.00005661843 -1.03618629533 -0.04321195954 0.00005832851 -1.02745251543 -0.04827500853 0.00006026484 -1.01913925626 -0.05295476544 0.00006258912 -1.01120056331 -0.05741264956 0.00006546307 -1.00359048209 -0.06181008019 0.00006904841 -0.99626305808 -0.06630847664 0.00004417294 -1.06432412758 -0.02806954993 0.00004437693 -1.05303914479 -0.03831030661 0.00004486998 -1.04260529936 -0.04720547769 0.00004566408 -1.03293676936 -0.05503158945 0.00004677124 -1.02394773284 -0.06206516820 0.00004820346 -1.01555236786 -0.06858274024 0.00004997276 -1.00766485249 -0.07486083187 0.00005209113 -1.00019936477 -0.08117596939 0.00005457059 -0.99307008278 -0.08780467910 0.00005742314 -0.98619118457 -0.09502348731 -0.00005653933 -1.14227712629 0.08222126315 -0.00005939101 -1.14171087569 0.09045868506 -0.00006393815 -1.13850382176 0.09716881613 -0.00007004421 -1.13309521556 0.10261237294 -0.00007757263 -1.12592430811 0.10705007204 -0.00008638690 -1.11743035044 0.11074262999 -0.00009635046 -1.10805259360 0.11395076335 -0.00010732677 -1.09823028862 0.11693518869 -0.00011917930 -1.08840268654 0.11995662257 -0.00013177151 -1.07900903839 0.12327578154 -0.00005962683 -1.13909010607 0.07158706807 -0.00006520654 -1.13603786842 0.07743168579 -0.00007124962 -1.13104564797 0.08221757550 -0.00007779882 -1.12444517955 0.08614461022 -0.00008489688 -1.11656819794 0.08941266294 -0.00009258655 -1.10774643797 0.09222160667 -0.00010091059 -1.09831163445 0.09477131441 -0.00010991173 -1.08859552217 0.09726165916 -0.00011963274 -1.07892983596 0.09989251392 -0.00013011635 -1.06964631063 0.10286375170 -0.00006143488 -1.13398091051 0.06012184680 -0.00006870999 -1.12889484558 0.06373780138 -0.00007553783 -1.12244850347 0.06668956156 -0.00008210063 -1.11488607167 0.06913058509 -0.00008858060 -1.10645173766 0.07121432974 -0.00009515995 -1.09738968893 0.07309425327 -0.00010202091 -1.08794411295 0.07492381345 -0.00010934569 -1.07835919723 0.07685646804 -0.00011731651 -1.06887912923 0.07904567481 -0.00012611559 -1.05974809646 0.08164489151 -0.00006205176 -1.12718678380 0.04800814608 -0.00007010789 -1.12046402040 0.04952562601 -0.00007710512 -1.11285795973 0.05071514045 -0.00008332493 -1.10454192147 0.05169209989 -0.00008904881 -1.09568922532 0.05257191481 -0.00009455823 -1.08647319096 0.05346999570 -0.00010013470 -1.07706713809 0.05450175304 -0.00010605968 -1.06764438638 0.05578259732 -0.00011261467 -1.05837825554 0.05742793902 -0.00012008116 -1.04944206525 0.05955318862 -0.00006156575 -1.11894497010 0.03542851268 -0.00006960681 -1.11092760609 0.03494375385 -0.00007625384 -1.10241958820 0.03442467835 -0.00008184702 -1.09353675848 0.03395095698 -0.00008672652 -1.08439495898 0.03360226056 -0.00009123253 -1.07511003174 0.03345825988 -0.00009570520 -1.06579781881 0.03359862574 -0.00010048472 -1.05657416224 0.03410302897 -0.00010591126 -1.04755490407 0.03505114034 -0.00011232499 -1.03885588636 0.03652263069 -0.00006006512 -1.10949271359 0.02256549334 -0.00006741326 -1.10046781587 0.02014077906 -0.00007328631 -1.09127896036 0.01794854140 -0.00007804217 -1.08199461224 0.01602895871 -0.00008203876 -1.07268323670 0.01442220936 -0.00008563396 -1.06341329892 0.01316847171 -0.00008918569 -1.05425326409 0.01230792412 -0.00009305184 -1.04527159739 0.01188074496 -0.00009759032 -1.03653676401 0.01192711259 -0.00010315902 -1.02811722915 0.01248720537 -0.00005763816 -1.09906725844 0.00960163482 -0.00006373380 -1.08926686297 0.00526529583 -0.00006850487 -1.07958164768 0.00141709576 -0.00007228569 -1.07003951229 -0.00195209258 -0.00007541052 -1.06066835654 -0.00485139640 -0.00007821367 -1.05149608016 -0.00728994290 -0.00008102943 -1.04255058288 -0.00927685927 -0.00008419207 -1.03385976444 -0.01082127273 -0.00008803589 -1.02545152456 -0.01193231046 -0.00009289519 -1.01735376298 -0.01261909967 -0.00005437314 -1.08790584882 -0.00328051611 -0.00005877496 -1.07750696060 -0.00953410167 -0.00006221188 -1.06747322161 -0.01503929240 -0.00006495285 -1.05779548816 -0.01987039453 -0.00006726684 -1.04846461656 -0.02410171432 -0.00006942279 -1.03947146312 -0.02780755802 -0.00007168967 -1.03080688415 -0.03106223187 -0.00007433643 -1.02246173597 -0.03394004211 -0.00007763203 -1.01442687489 -0.03651529499 -0.00008184542 -1.00669315721 -0.03886229677 -0.00005035833 -1.07624572890 -0.01589841272 -0.00005274328 -1.06537032198 -0.02410881928 -0.00005470965 -1.05509925362 -0.03129025693 -0.00005641895 -1.04538656938 -0.03760414480 -0.00005803271 -1.03618631481 -0.04321190203 -0.00005971245 -1.02745253546 -0.04827494775 -0.00006161970 -1.01913927687 -0.05295470110 -0.00006391596 -1.01120058460 -0.05741258121 -0.00006676277 -1.00359050420 -0.06181000723 -0.00007032165 -0.99626308121 -0.06630839828 -0.00004568201 -1.06432414287 -0.02806950824 -0.00004584531 -1.05303916033 -0.03831026282 -0.00004630053 -1.04260531518 -0.04720543168 -0.00004705928 -1.03293678550 -0.05503154104 -0.00004813316 -1.02394774936 -0.06206511712 -0.00004953379 -1.01555238484 -0.06858268617 -0.00005127276 -1.00766487000 -0.07486077441 -0.00005336168 -1.00019938292 -0.08117590806 -0.00005581217 -0.99307010167 -0.08780461336 -0.00005863582 -0.98619120433 -0.09502341654 -0.00016563412 -1.14120074962 0.08131251170 -0.00017464059 -1.14043921990 0.08907064410 -0.00018823531 -1.13712749156 0.09545486215 -0.00020624511 -1.13169380342 0.10071193001 -0.00022849680 -1.12456639429 0.10508861183 -0.00025481720 -1.11617350300 0.10883167177 -0.00028503314 -1.10694336837 0.11218787399 -0.00031897143 -1.09730422921 0.11540398266 -0.00035645889 -1.08768432434 0.11872676192 -0.00039732234 -1.07851189259 0.12240297593 -0.00017507920 -1.13791993724 0.07090398357 -0.00019191354 -1.13480287306 0.07640043765 -0.00020995759 -1.12980858823 0.08096937243 -0.00022947507 -1.12326208562 0.08479048471 -0.00025072972 -1.11548836807 0.08804347132 -0.00027398527 -1.10681243844 0.09090802907 -0.00029950547 -1.09755929957 0.09356385476 -0.00032755404 -1.08805395432 0.09619064522 -0.00035839472 -1.07862140554 0.09896809725 -0.00039229125 -1.06958665607 0.10207590767 -0.00018065479 -1.13276291861 0.05961173768 -0.00020239939 -1.12772630452 0.06300366182 -0.00022282206 -1.12136316250 0.06583202110 -0.00024253640 -1.11391534548 0.06822768162 -0.00026215599 -1.10562470641 0.07032150951 -0.00028229444 -1.09673309822 0.07224437088 -0.00030356535 -1.08748237383 0.07412713183 -0.00032658232 -1.07811438620 0.07610065850 -0.00035195895 -1.06887098826 0.07829581698 -0.00038030884 -1.05999403293 0.08084347339 -0.00018263348 -1.12597243245 0.04763660675 -0.00020668837 -1.11939805159 0.04904832601 -0.00022768947 -1.11194481500 0.05019637180 -0.00024650657 -1.10378807892 0.05117439270 -0.00026400947 -1.09510319963 0.05207603727 -0.00028106796 -1.08606553338 0.05299495411 -0.00029855186 -1.07685043642 0.05402479178 -0.00031733094 -1.06763326502 0.05525919886 -0.00033827501 -1.05858937543 0.05679182394 -0.00036225387 -1.04989412392 0.05871631558 -0.00018128790 -1.11779121748 0.03517942349 -0.00020537070 -1.11000665158 0.03470243962 -0.00022542051 -1.10170714637 0.03421598818 -0.00024246304 -1.09301478186 0.03378148990 -0.00025752399 -1.08405163806 0.03346036550 -0.00027162909 -1.07493979496 0.03331403568 -0.00028580404 -1.06580133258 0.03340392118 -0.00030107455 -1.05675833093 0.03379144270 -0.00031846635 -1.04793287000 0.03453802097 -0.00033900513 -1.03944702980 0.03570507670 -0.00017689065 -1.10846201240 0.02244102062 -0.00019903661 -1.09974064178 0.02013401204 -0.00021687591 -1.09080375727 0.01804443388 -0.00023148327 -1.08172995023 0.01619984521 -0.00024393341 -1.07259781202 0.01462780507 -0.00025530107 -1.06348593402 0.01335587252 -0.00026666096 -1.05447290759 0.01241160660 -0.00027908783 -1.04563732409 0.01182256638 -0.00029365639 -1.03705777488 0.01161631091 -0.00031144137 -1.02881285133 0.01182039924 -0.00016971435 -1.09822755593 0.00962223084 -0.00018827634 -1.08878855950 0.00551105266 -0.00020291639 -1.07938824833 0.00183527254 -0.00021464472 -1.07006807994 -0.00141966942 -0.00022447156 -1.06086951185 -0.00426833312 -0.00023340714 -1.05183400160 -0.00672527847 -0.00024246169 -1.04300300669 -0.00880506537 -0.00025264543 -1.03441798466 -0.01052225371 -0.00026496858 -1.02612039301 -0.01189140340 -0.00028044137 -1.01815168929 -0.01292707434 -0.00016003161 -1.08733058679 -0.00307611313 -0.00017368010 -1.07733894204 -0.00899842911 -0.00018440265 -1.06761422019 -0.01425793220 -0.00019302485 -1.05816366692 -0.01892618202 -0.00020037230 -1.04899452788 -0.02307473820 -0.00020727057 -1.04011404874 -0.02677516037 -0.00021454528 -1.03152947515 -0.03009900816 -0.00022302201 -1.02324805280 -0.03311784120 -0.00023352635 -1.01527702733 -0.03590321913 -0.00024688389 -1.00762364442 -0.03852670155 -0.00014811504 -1.07601384369 -0.01545317858 -0.00015583814 -1.06558032670 -0.02322642389 -0.00016219543 -1.05563527350 -0.03008161670 -0.00016770113 -1.04615120709 -0.03616882062 -0.00017286945 -1.03710065042 -0.04163809927 -0.00017821460 -1.02845612648 -0.04663951626 -0.00018425079 -1.02019015824 -0.05132313520 -0.00019149223 -1.01227526867 -0.05583901972 -0.00020045314 -1.00468398077 -0.06033723343 -0.00021164771 -0.99738881749 -0.06496783993 -0.00013423726 -1.06452006534 -0.02730813280 -0.00013534067 -1.05370125078 -0.03700492228 -0.00013715544 -1.04360500891 -0.04548221732 -0.00013975102 -1.03416519637 -0.05299671326 -0.00014319688 -1.02531566980 -0.05980510545 -0.00014756248 -1.01699028587 -0.06616408922 -0.00015291729 -1.00912290119 -0.07233035992 -0.00015933077 -1.00164737244 -0.07856061289 -0.00016687239 -0.99449755625 -0.08511154347 -0.00017561160 -0.98760730926 -0.09223984700 -0.00026813088 -1.13904797580 0.07949496264 -0.00028464647 -1.13789588647 0.08629451300 -0.00030712666 -1.13437480763 0.09202690101 -0.00033607489 -1.12889095376 0.09691098619 -0.00037199457 -1.12185053931 0.10116562806 -0.00041538914 -1.11365977875 0.10500968612 -0.00046676201 -1.10472488652 0.10866201990 -0.00052661661 -1.09545207709 0.11234148889 -0.00059545637 -1.08624756492 0.11626695261 -0.00067378472 -1.07751756447 0.12065727059 -0.00028444818 -1.13557957835 0.06953776679 -0.00031280125 -1.13233285918 0.07433788903 -0.00034255286 -1.12733444375 0.07847290920 -0.00037459715 -1.12089587098 0.08208217172 -0.00040982829 -1.11332867983 0.08530502105 -0.00044914042 -1.10494440922 0.08828080161 -0.00049342772 -1.09605459809 0.09114885785 -0.00054358434 -1.08697078537 0.09404853422 -0.00060050443 -1.07800451001 0.09711917514 -0.00066508215 -1.06946731094 0.10050012506 -0.00029419273 -1.13032691323 0.05859147059 -0.00033012463 -1.12538919858 0.06153532820 -0.00036390805 -1.11919245480 0.06411688043 -0.00039679102 -1.11197386567 0.06642180999 -0.00043002158 -1.10397061498 0.06853579958 -0.00046484778 -1.09541988652 0.07054453190 -0.00050251765 -1.08655886407 0.07253368966 -0.00054427922 -1.07762473141 0.07458895555 -0.00059138054 -1.06885467235 0.07679601227 -0.00064506965 -1.06048587065 0.07924054252 -0.00029784696 -1.12354370821 0.04689347866 -0.00033750402 -1.11726609007 0.04809367030 -0.00037247381 -1.11011849971 0.04915877328 -0.00040429208 -1.10228036644 0.05013891217 -0.00043449458 -1.09393111957 0.05108421154 -0.00046461703 -1.08525018841 0.05204479594 -0.00049619520 -1.07641700228 0.05307078995 -0.00053076481 -1.06761099048 0.05421231813 -0.00056986161 -1.05901158234 0.05551950504 -0.00061502135 -1.05079820716 0.05704247526 -0.00029589331 -1.11548369104 0.03468119561 -0.00033582684 -1.10816471907 0.03421975514 -0.00036953174 -1.10028223742 0.03379854632 -0.00039873593 -1.09197080192 0.03344248943 -0.00042516738 -1.08336496839 0.03317650478 -0.00045055402 -1.07459929265 0.03302551266 -0.00047662379 -1.06580833053 0.03301443338 -0.00050510465 -1.05712663784 0.03316818723 -0.00053772453 -1.04868877041 0.03351169452 -0.00057621138 -1.04062928406 0.03406987553 -0.00028881422 -1.10640058948 0.02219202605 -0.00032598053 -1.09828627097 0.02012042255 -0.00035636341 -1.08985332685 0.01823615812 -0.00038175816 -1.08120060074 0.01654155294 -0.00040396011 -1.07242693625 0.01503892718 -0.00042476457 -1.06363117701 0.01373060101 -0.00044596686 -1.05491216664 0.01261889460 -0.00046936230 -1.04636874875 0.01170612811 -0.00049674619 -1.03809976697 0.01099462173 -0.00052991386 -1.03020406491 0.01048669561 -0.00027709214 -1.09654813129 0.00966337460 -0.00030885251 -1.08783193119 0.00600251232 -0.00033425041 -1.07900142693 0.00267156726 -0.00035499435 -1.07012519151 -0.00035488612 -0.00037279288 -1.06127179794 -0.00310227338 -0.00038935453 -1.05250981924 -0.00559602008 -0.00040638782 -1.04390782842 -0.00786155176 -0.00042560130 -1.03553439847 -0.00992429397 -0.00044870349 -1.02745810243 -0.01180967228 -0.00047740293 -1.01974751328 -0.01354311222 -0.00026120949 -1.08618004422 -0.00266735412 -0.00028533021 -1.07700288513 -0.00792713573 -0.00030447432 -1.06789619658 -0.01269526769 -0.00032008010 -1.05890000286 -0.01703781659 -0.00033358581 -1.05005432827 -0.02102084905 -0.00034642971 -1.04139919711 -0.02471043166 -0.00036005009 -1.03297463368 -0.02817263103 -0.00037588521 -1.02482066228 -0.03147351376 -0.00039537333 -1.01697730720 -0.03467914645 -0.00041995273 -1.00948459275 -0.03785559571 -0.00024164872 -1.07555005605 -0.01456275549 -0.00025630104 -1.06600031821 -0.02146168179 -0.00026831673 -1.05670729474 -0.02766438816 -0.00027865099 -1.04768046341 -0.03329822731 -0.00028825900 -1.03892930203 -0.03849055195 -0.00029809597 -1.03046328837 -0.04336871481 -0.00030911709 -1.02229190024 -0.04806006858 -0.00032227757 -1.01442461542 -0.05269196599 -0.00033853260 -1.00687091171 -0.05739175975 -0.00035883737 -0.99964026688 -0.06228680257 -0.00021889226 -1.06491189451 -0.02578542491 -0.00022265244 -1.05502541583 -0.03439428606 -0.00022705923 -1.04560438032 -0.04203583558 -0.00023234261 -1.03662200179 -0.04892710709 -0.00023873258 -1.02805149402 -0.05528513422 -0.00024645913 -1.01986607079 -0.06132695057 -0.00025575225 -1.01203894592 -0.06726958976 -0.00026684194 -1.00454333317 -0.07333008541 -0.00027995819 -0.99735244636 -0.07972547113 -0.00029533099 -0.99043949925 -0.08667278054 -0.00035963194 -1.13581880406 0.07676861446 -0.00038591405 -1.13408087460 0.08213029032 -0.00041700961 -1.13024576912 0.08688493117 -0.00045528741 -1.12468666560 0.09120953970 -0.00050311623 -1.11777674203 0.09528111861 -0.00056286484 -1.10988917641 0.09927667061 -0.00063690201 -1.10139714673 0.10337319837 -0.00072759653 -1.09267383097 0.10774770460 -0.00083731717 -1.08409240714 0.11257719199 -0.00096843271 -1.07602605321 0.11803866324 -0.00038367925 -1.13206902869 0.06748841652 -0.00042399129 -1.12862782609 0.07124403882 -0.00046496144 -1.12362321378 0.07472818466 -0.00050879668 -1.11734653484 0.07801966995 -0.00055770399 -1.11008913235 0.08119731065 -0.00061389035 -1.10214234941 0.08433992267 -0.00067956273 -1.09379752910 0.08752632196 -0.00075692812 -1.08534601451 0.09083532445 -0.00084819349 -1.07707914873 0.09434574607 -0.00095556582 -1.06928827485 0.09813640276 -0.00039826185 -1.12667289372 0.05706104451 -0.00044791065 -1.12188352715 0.05933279962 -0.00049466458 -1.11593637976 0.06154413869 -0.00054074457 -1.10906163161 0.06371296930 -0.00058837150 -1.10148946274 0.06585719900 -0.00063976631 -1.09345005322 0.06799473535 -0.00069714989 -1.08517358309 0.07014348593 -0.00076274316 -1.07689023240 0.07232135829 -0.00083876703 -1.06883018120 0.07454626000 -0.00092744240 -1.06122360954 0.07683609862 -0.00040411449 -1.11990061046 0.04577876090 -0.00045871258 -1.11406813530 0.04666165813 -0.00050759229 -1.10737901337 0.04760234424 -0.00055308469 -1.10001878355 0.04858565771 -0.00059752086 -1.09217298469 0.04959643701 -0.00064323189 -1.08402715566 0.05061952064 -0.00069254884 -1.07576683533 0.05163974706 -0.00074780281 -1.06757756255 0.05264195476 -0.00081132486 -1.05964487618 0.05361098221 -0.00088544609 -1.05215431510 0.05453166790 -0.00040197189 -1.11202239022 0.03393382817 -0.00045743755 -1.10540180807 0.03349569978 -0.00050521782 -1.09814486093 0.03317235224 -0.00054777069 -1.09040481830 0.03293395514 -0.00058755416 -1.08233494967 0.03275067804 -0.00062702624 -1.07408852456 0.03259269052 -0.00066864491 -1.06581881246 0.03243016215 -0.00071486819 -1.05767908289 0.03223326251 -0.00076815406 -1.04982260535 0.03197216115 -0.00083096052 -1.04240264933 0.03161702766 -0.00039256882 -1.10330844429 0.02181850879 -0.00044512601 -1.09610470302 0.02010000998 -0.00048901440 -1.08842766877 0.01852371366 -0.00052675617 -1.08040656350 0.01705408157 -0.00056087349 -1.07217060916 0.01565557543 -0.00059388852 -1.06384902772 0.01429265700 -0.00062832345 -1.05557104113 0.01292978800 -0.00066670044 -1.04746587136 0.01153143017 -0.00071154167 -1.03966274035 0.01006204525 -0.00076536932 -1.03229087007 0.00848609497 -0.00037664000 -1.09402898400 0.00972506522 -0.00042281842 -1.08639697767 0.00673967416 -0.00046045530 -1.07842118320 0.00392597945 -0.00049199477 -1.07021084679 0.00124225695 -0.00051988093 -1.06187521465 -0.00135321747 -0.00054655790 -1.05352353298 -0.00390216795 -0.00057446979 -1.04526504798 -0.00644631862 -0.00060606071 -1.03720900587 -0.00902739361 -0.00064377478 -1.02946465284 -0.01168711706 -0.00069005611 -1.02214123510 -0.01446721311 -0.00035492017 -1.08445422064 -0.00205424005 -0.00039155523 -1.07649878955 -0.00632022226 -0.00042101377 -1.06831915053 -0.01035129944 -0.00044544011 -1.06000449581 -0.01420529875 -0.00046697859 -1.05164401760 -0.01794004733 -0.00048777353 -1.04332690814 -0.02161337233 -0.00050996927 -1.03514235965 -0.02528310090 -0.00053571013 -1.02717956436 -0.02900706018 -0.00056714044 -1.01952771449 -0.03284307734 -0.00060640453 -1.01227600227 -0.03684897950 -0.00032814407 -1.07485436552 -0.01322714457 -0.00035237690 -1.06663029621 -0.01881459386 -0.00037216304 -1.05831531710 -0.02403857205 -0.00038904581 -1.04997433820 -0.02899236556 -0.00040456855 -1.04167226951 -0.03376926078 -0.00042027458 -1.03347402104 -0.03846254415 -0.00043770724 -1.02544450278 -0.04316550205 -0.00045840984 -1.01764862474 -0.04797142092 -0.00048392572 -1.01015129694 -0.05297358714 -0.00051579822 -1.00301742936 -0.05826528715 -0.00029704644 -1.06549962995 -0.02350138586 -0.00030632390 -1.05701165518 -0.03047835522 -0.00031537638 -1.04860342922 -0.03686628743 -0.00032476551 -1.04030720161 -0.04282272351 -0.00033505291 -1.03215522185 -0.04850520450 -0.00034680021 -1.02417973948 -0.05407127141 -0.00036056902 -1.01641300401 -0.05967846529 -0.00037692098 -1.00888726496 -0.06548432716 -0.00039641769 -1.00163477185 -0.07164639805 -0.00041962080 -0.99468777421 -0.07832221898 -0.00043573965 -1.13151323361 0.07313346566 -0.00047494874 -1.12899418353 0.07657797466 -0.00051428159 -1.12474037515 0.08002895109 -0.00055963657 -1.11908093792 0.08360758873 -0.00061691206 -1.11234500130 0.08743508137 -0.00069200645 -1.10486169473 0.09163262277 -0.00079081810 -1.09696014766 0.09632140671 -0.00091924538 -1.08896948955 0.10162262698 -0.00108318669 -1.08121884984 0.10765747735 -0.00128854039 -1.07403735798 0.11454715160 -0.00046871790 -1.12738828755 0.06475593150 -0.00052160527 -1.12368777310 0.06711888589 -0.00057310934 -1.11867489760 0.06973519765 -0.00062770527 -1.11261407639 0.07260297812 -0.00068986823 -1.10576972479 0.07572033867 -0.00076407337 -1.09840625812 0.07908539062 -0.00085479585 -1.09078809173 0.08269624535 -0.00096651085 -1.08317964092 0.08655101420 -0.00110369351 -1.07584532105 0.09064780852 -0.00127081901 -1.06904954742 0.09498473965 -0.00048907531 -1.12180085943 0.05502045838 -0.00055178242 -1.11720928960 0.05639607519 -0.00061096049 -1.11159493677 0.05811379504 -0.00067027711 -1.10517864268 0.06010115866 -0.00073339988 -1.09818124908 0.06228570681 -0.00080399637 -1.09082359772 0.06459498022 -0.00088573419 -1.08332653033 0.06695651964 -0.00098228091 -1.07591088868 0.06929786582 -0.00109730413 -1.06879751450 0.07154655950 -0.00123447145 -1.06220724953 0.07363014141 -0.00049785836 -1.11504313861 0.04429245257 -0.00056647183 -1.10980418671 0.04475228878 -0.00062917905 -1.10372635546 0.04552708404 -0.00068928760 -1.09700332977 0.04651462870 -0.00075010506 -1.08982879456 0.04761271312 -0.00081493897 -1.08239643474 0.04871912764 -0.00088709691 -1.07489993524 0.04973166262 -0.00096988645 -1.06753298098 0.05054810839 -0.00106661516 -1.06048925687 0.05106625533 -0.00118059059 -1.05396244783 0.05118389377 -0.00049611357 -1.10740731445 0.03293732035 -0.00056666515 -1.10171791812 0.03253027288 -0.00062910905 -1.09529501650 0.03233740544 -0.00068667227 -1.08831683063 0.03225588660 -0.00074258180 -1.08096158159 0.03218288492 -0.00080006466 -1.07340749043 0.03201556897 -0.00086234784 -1.06583277821 0.03165110729 -0.00093265834 -1.05841566599 0.03098666846 -0.00101422317 -1.05133437484 0.02991942104 -0.00111026933 -1.04476712581 0.02834653360 -0.00048488742 -1.09918557631 0.02132046802 -0.00055335404 -1.09319593751 0.02007277373 -0.00061209451 -1.08652678269 0.01890710004 -0.00066436661 -1.07934783824 0.01773743072 -0.00071342816 -1.07182883055 0.01647774954 -0.00076253695 -1.06413948600 0.01504204028 -0.00081495078 -1.05644953098 0.01334428670 -0.00087392746 -1.04892869189 0.01129847258 -0.00094272478 -1.04174669509 0.00881858168 -0.00102460054 -1.03507326700 0.00581859779 -0.00046522642 -1.09067011356 0.00980730184 -0.00052753015 -1.08448369856 0.00772253755 -0.00057947944 -1.07764751686 0.00559850862 -0.00062430616 -1.07032504557 0.00337175941 -0.00066524217 -1.06267976181 0.00097883430 -0.00070551935 -1.05487514269 -0.00164372234 -0.00074836956 -1.04707466533 -0.00455936614 -0.00079702468 -1.03944180683 -0.00783155273 -0.00085471657 -1.03214004432 -0.01152373773 -0.00092467711 -1.02533285490 -0.01569937678 -0.00043817706 -1.08215311554 -0.00123677190 -0.00049018513 -1.07582665496 -0.00417768942 -0.00053260788 -1.06888308183 -0.00722602803 -0.00056842643 -1.06147714561 -0.01042862896 -0.00060062188 -1.05376359576 -0.01383233347 -0.00063217536 -1.04589718173 -0.01748398280 -0.00066606798 -1.03803265299 -0.02143041819 -0.00070528087 -1.03032475899 -0.02571848090 -0.00075279515 -1.02292824918 -0.03039501216 -0.00081159192 -1.01599787303 -0.03550685322 -0.00040478584 -1.07392677163 -0.01144634691 -0.00044231064 -1.06747026038 -0.01528516096 -0.00047282385 -1.06045934040 -0.01920416911 -0.00049866292 -1.05303283131 -0.02325123605 -0.00052216532 -1.04532955275 -0.02747422646 -0.00054566848 -1.03748832435 -0.03192100503 -0.00057150986 -1.02964796573 -0.03663943644 -0.00060202692 -1.02194729653 -0.04167738539 -0.00063955710 -1.01452513638 -0.04708271656 -0.00068643786 -1.00752030490 -0.05290329464 -0.00036609925 -1.06628327118 -0.02045601692 -0.00038489831 -1.05965996852 -0.02525713084 -0.00040147136 -1.05260215540 -0.02997357384 -0.00041695117 -1.04522079567 -0.03468356349 -0.00043247053 -1.03762685318 -0.03946531733 -0.00044916222 -1.02993129177 -0.04439705293 -0.00046815901 -1.02224507531 -0.04955698786 -0.00049059369 -1.01467916763 -0.05502333967 -0.00051759903 -1.00734453259 -0.06087432591 -0.00055030781 -1.00035213403 -0.06718816416 </DataArray>
</PointData>
<Points>
<DataArray type="Float32" NumberOfComponents="3">
-0.16623301322 -0.57332607961 2.46273810856 -0.17989443081 -0.56843180588 2.46180801222 -0.19354973659 -0.56266358124 2.45904945282 -0.20774816096 -0.55606037805 2.45487195204 -0.22303893427 -0.54866116868 2.44968503158 -0.23997128692 -0.54050492548 2.44389821315 -0.25909444927 -0.53163062082 2.43792101842 -0.28095765170 -0.52207722706 2.43216296910 -0.30611012458 -0.51188371657 2.42703358688 -0.33510109830 -0.50108906171 2.42294239346 -0.17854550323 -0.58012208300 2.45418145923 -0.19919540854 -0.57578897613 2.45146823778 -0.21762917901 -0.57053081208 2.44749455201 -0.23476521826 -0.56448395711 2.44254058808 -0.25152192990 -0.55778477747 2.43688653213 -0.26881771757 -0.55056963938 2.43081257033 -0.28757098488 -0.54297490911 2.42459888883 -0.30870013545 -0.53513695289 2.41852567379 -0.33312357290 -0.52719213697 2.41287311137 -0.36175970086 -0.51927682760 2.40792138772 -0.18778423812 -0.58761336145 2.44340300166 -0.21367137104 -0.58388339571 2.43925993295 -0.23568406443 -0.57927807766 2.43420569915 -0.25502836900 -0.57398638438 2.42843954654 -0.27291033548 -0.56819729294 2.42216072144 -0.29053601458 -0.56209978043 2.41556847015 -0.30911145702 -0.55588282394 2.40886203896 -0.32984271351 -0.54973540055 2.40224067419 -0.35393583478 -0.54384648733 2.39590362213 -0.38259687154 -0.53840506137 2.39005012908 -0.19394817244 -0.59556185705 2.43089359867 -0.22331471673 -0.59247820722 2.42561293036 -0.24768479580 -0.58863875750 2.41960141311 -0.26846803353 -0.58425027197 2.41301491172 -0.28707405382 -0.57951951473 2.40600929099 -0.30491248053 -0.57465324986 2.39874041572 -0.32339293756 -0.56985824146 2.39136415072 -0.34392504879 -0.56534125360 2.38403636079 -0.36791843811 -0.56130905038 2.37691291074 -0.39678272939 -0.55796839589 2.37014966537 -0.19703626076 -0.60372951188 2.41714411311 -0.22811784404 -0.60133655321 2.41095706266 -0.25360177607 -0.59834623110 2.40410021281 -0.27501463218 -0.59495823203 2.39671276789 -0.29388298771 -0.59137224248 2.38893393222 -0.31173341800 -0.58778794891 2.38090291015 -0.33009249839 -0.58440503780 2.37275890600 -0.35048680420 -0.58142319563 2.36464112411 -0.37444291077 -0.57904210888 2.35668876879 -0.40348739344 -0.57746146401 2.34904104439 -0.19704745761 -0.61187826802 2.40264540784 -0.22807315139 -0.61022157626 2.39572216248 -0.25340540818 -0.60813387800 2.38812061713 -0.27459858528 -0.60579287670 2.37997919932 -0.29320703998 -0.60337627581 2.37143633662 -0.31078512958 -0.60106177880 2.36263045658 -0.32888721136 -0.59902708911 2.35369998673 -0.34906764262 -0.59744991021 2.34478335465 -0.37288078065 -0.59650794556 2.33601898787 -0.40188098275 -0.59637889861 2.32754531395 -0.19398071757 -0.61977006756 2.38788834569 -0.22317303722 -0.61889641894 2.38033806247 -0.24706609510 -0.61773507770 2.37208114497 -0.26715031318 -0.61643681809 2.36326029031 -0.28491611343 -0.61515241437 2.35401819564 -0.30185391783 -0.61403264076 2.34449755810 -0.31945414835 -0.61322827153 2.33484107481 -0.33920722696 -0.61289008093 2.32519144292 -0.36260357563 -0.61316884318 2.31569135957 -0.39113361634 -0.61421533256 2.30648352188 -0.18783499518 -0.62716685258 2.37336378951 -0.21340989994 -0.62712422381 2.36523459526 -0.23455423975 -0.62688320972 2.35640031522 -0.25260023620 -0.62657266835 2.34700212513 -0.26888011087 -0.62632145778 2.33718120075 -0.28472608535 -0.62625843604 2.32707871784 -0.30147038124 -0.62651246121 2.31683585215 -0.32044522013 -0.62721239134 2.30659377944 -0.34298282360 -0.62848708449 2.29649367547 -0.37041541325 -0.63046539871 2.28667671598 -0.17860924499 -0.63383056516 2.35956260214 -0.19877613800 -0.63466813346 2.35084159350 -0.21584024510 -0.63531165357 2.34149664677 -0.23087877468 -0.63588303961 2.33165078805 -0.24496893510 -0.63650420568 2.32142704340 -0.25918793471 -0.63729706587 2.31094843891 -0.27461298190 -0.63838353429 2.30033800066 -0.29232128502 -0.63988552504 2.28971875471 -0.31339005244 -0.64192495222 2.27921372716 -0.33889649253 -0.64462372993 2.26894594407 -0.16630242157 -0.63952314739 2.34697564643 -0.17926414980 -0.64129129044 2.33758888982 -0.19089451410 -0.64275378878 2.32778865853 -0.20191634896 -0.64405054400 2.31765236336 -0.21305248893 -0.64532145770 2.30725741507 -0.22502576850 -0.64670643147 2.29668122444 -0.23855902220 -0.64834536690 2.28600120224 -0.25437508454 -0.65037816559 2.27529475924 -0.27319679004 -0.65294472912 2.26463930623 -0.29574697322 -0.65618495910 2.25411225397 -0.13567338284 -0.57162012147 2.46909895235 -0.14578954067 -0.56508482855 2.46995334297 -0.15680194504 -0.55814200066 2.46828744647 -0.16883870507 -0.55079263511 2.46458495503 -0.18202792991 -0.54303772921 2.45932956082 -0.19649772869 -0.53487828027 2.45300495603 -0.21237621052 -0.52631528559 2.44609483283 -0.22979148455 -0.51734974249 2.43908288339 -0.24887165991 -0.50798264826 2.43245279990 -0.26974484572 -0.49821500023 2.42668827452 -0.14430301456 -0.57955637310 2.46048148268 -0.15971790037 -0.57387335379 2.45873502235 -0.17408924088 -0.56769394226 2.45519932169 -0.18789563849 -0.56108187086 2.45022278528 -0.20161569563 -0.55410087195 2.44415381769 -0.21572801469 -0.54681467788 2.43734082346 -0.23071119810 -0.53928702100 2.43013220717 -0.24704384827 -0.53158163366 2.42287637338 -0.26520456761 -0.52376224822 2.41592172665 -0.28567195854 -0.51589259702 2.40961667154 -0.15077868216 -0.58787308758 2.44955394469 -0.17016295374 -0.58308739439 2.44564320633 -0.18704401203 -0.57778413893 2.44047704515 -0.20217283995 -0.57206076634 2.43430896715 -0.21630042040 -0.56601472177 2.42739247831 -0.23017773627 -0.55974345038 2.41998108461 -0.24455577047 -0.55334439730 2.41232829206 -0.26018550589 -0.54691500770 2.40468760662 -0.27781792544 -0.54055272672 2.39731253430 -0.29820401202 -0.53435499950 2.39045658108 -0.15509965183 -0.59639875209 2.43674757251 -0.17711649540 -0.59255996745 2.43104232130 -0.19563608058 -0.58822860535 2.42445897206 -0.21160367340 -0.58351469254 2.41718740395 -0.22596453989 -0.57852825576 2.40941749612 -0.23966394609 -0.57337932175 2.40133912770 -0.25364715802 -0.56817791724 2.39314217785 -0.26885944172 -0.56303406898 2.38501652571 -0.28624606322 -0.55805780371 2.37715205043 -0.30675228855 -0.55335914816 2.36973863115 -0.15726518974 -0.60496185387 2.42249360027 -0.18057032002 -0.60212409004 2.41529679363 -0.19983526862 -0.59884335618 2.40748345763 -0.21612150278 -0.59522902043 2.39920199903 -0.23049048976 -0.59139045097 2.39060082455 -0.24400369680 -0.58743701595 2.38182834093 -0.25772259115 -0.58347808354 2.37303295491 -0.27270864005 -0.57962302189 2.36436307323 -0.29002331076 -0.57598119916 2.35596710261 -0.31072807051 -0.57266198351 2.34799344979 -0.15727456207 -0.61339088010 2.40722326211 -0.18051622223 -0.61161277926 2.39877104969 -0.19961139823 -0.60944440608 2.38988885707 -0.21565969204 -0.60698912100 2.38069665570 -0.22976070566 -0.60435028449 2.37131441704 -0.24301404107 -0.60163125698 2.36186211253 -0.25651930025 -0.59893539893 2.35245971362 -0.27137608519 -0.59636607079 2.34322719177 -0.28868399787 -0.59402663301 2.33428451841 -0.30954264028 -0.59202044604 2.32575166501 -0.15512703502 -0.62151431801 2.39136779216 -0.17694599669 -0.62085905220 2.38182951585 -0.19493429150 -0.61984776973 2.37201352557 -0.21015160513 -0.61858036523 2.36201527730 -0.22365762325 -0.61715673337 2.35193022701 -0.23651203155 -0.61567676879 2.34185383070 -0.24977451572 -0.61424036614 2.33188154434 -0.26450476143 -0.61294742007 2.32210882392 -0.28176245437 -0.61189782522 2.31263112542 -0.30260728022 -0.61119147625 2.30354390482 -0.15082187476 -0.62916065479 2.37535842455 -0.16985143805 -0.62969592594 2.36483661851 -0.18577377053 -0.62986946178 2.35419581836 -0.19953060598 -0.62978812410 2.34350176716 -0.21206367818 -0.62955877470 2.33282020791 -0.22431472091 -0.62928827537 2.32221688366 -0.23722546795 -0.62908348790 2.31175753744 -0.25173765308 -0.62905127410 2.30150791228 -0.26879301009 -0.62929849574 2.29153375121 -0.28933327274 -0.62993201464 2.28190079726 -0.14435834747 -0.63615837766 2.35962639342 -0.15922434095 -0.63795641757 2.34815678402 -0.17209965740 -0.63932549691 2.33677409065 -0.18373005855 -0.64039776859 2.32550002860 -0.19486130612 -0.64130538554 2.31435631316 -0.20623916181 -0.64218050068 2.30336465963 -0.21860938734 -0.64315526695 2.29254678329 -0.23271774444 -0.64436183726 2.28192439944 -0.24930999482 -0.64593236454 2.27151922335 -0.26913190019 -0.64799900171 2.26135297033 -0.13573571933 -0.64233597382 2.34460293289 -0.14505650003 -0.64547354419 2.33215443876 -0.15388177421 -0.64803188978 2.32008669763 -0.16268332679 -0.65019466968 2.30835396496 -0.17193294271 -0.65214554296 2.29691049620 -0.18210240690 -0.65406816871 2.28571054682 -0.19366350429 -0.65614620601 2.27470837226 -0.20708801981 -0.65856331393 2.26385822798 -0.22284773839 -0.66150315155 2.25311436943 -0.24141444497 -0.66514937797 2.24243105207 -0.10032812217 -0.57034065896 2.47386959862 -0.10728106221 -0.56257460198 2.47606235509 -0.11535685636 -0.55475082218 2.47521595692 -0.12448679514 -0.54684183549 2.47186972400 -0.13460216909 -0.53882015787 2.46656297624 -0.14563426875 -0.53065830528 2.45983503356 -0.15751438466 -0.52232879368 2.45222521585 -0.17017380734 -0.51380413900 2.44427284303 -0.18354382734 -0.50505685722 2.43651723501 -0.19755573519 -0.49605946428 2.42949771169 -0.10598495677 -0.57913209688 2.46520651375 -0.11664943625 -0.57243664369 2.46418512525 -0.12693287313 -0.56556629705 2.46097791466 -0.13705085234 -0.55853031385 2.45598445029 -0.14721895880 -0.55133795100 2.44960430044 -0.15765277744 -0.54399846541 2.44223703341 -0.16856789318 -0.53652111396 2.43428221749 -0.18017989095 -0.52891515357 2.42613942099 -0.19270435568 -0.52118984114 2.41820821220 -0.20635687228 -0.51335443357 2.41088815943 -0.11023006695 -0.58806788838 2.45416716548 -0.12367409989 -0.58249040013 2.45043067611 -0.13560346572 -0.57666369209 2.44518057067 -0.14645437197 -0.57061656045 2.43871104989 -0.15666302620 -0.56437780141 2.43131631452 -0.16666563598 -0.55797621117 2.42329056526 -0.17689840886 -0.55144058591 2.41492800286 -0.18779755239 -0.54479972183 2.40652282804 -0.19979927413 -0.53808241513 2.39836924154 -0.21333978164 -0.53131746199 2.39076144408 -0.11306297110 -0.59702642952 2.44113806639 -0.12834796383 -0.59262129428 2.43511437935 -0.14134324386 -0.58792099833 2.42810215739 -0.15264305050 -0.58296301541 2.42031679042 -0.16284162305 -0.57778481925 2.41197366837 -0.17253320080 -0.57242388360 2.40328818113 -0.18231202307 -0.56691768219 2.39447571864 -0.19277232914 -0.56130368876 2.38575167080 -0.20450835833 -0.55561937703 2.37733142753 -0.21811434993 -0.54990222076 2.36943037874 -0.11448318762 -0.60588611636 2.42650572907 -0.13066393872 -0.60271474914 2.41855160666 -0.14412681731 -0.59921620682 2.41002090727 -0.15556258442 -0.59543211886 2.40106893950 -0.16566200109 -0.59140411469 2.39185101190 -0.17511582833 -0.58717382374 2.38252243305 -0.18461482720 -0.58278287547 2.37323851151 -0.19484975871 -0.57827289930 2.36415455587 -0.20651138391 -0.57368552468 2.35542587468 -0.22029046382 -0.56906238105 2.34720777653 -0.11449023488 -0.61452534496 2.41065666614 -0.13061493525 -0.61265618770 2.40105772971 -0.14392879582 -0.61042730862 2.39121505277 -0.15515867022 -0.60788631094 2.38123476473 -0.16503141207 -0.60508079787 2.37122299501 -0.17427387500 -0.60205837262 2.36128587302 -0.18361291263 -0.59886663840 2.35152952816 -0.19377537858 -0.59555319843 2.34206008986 -0.20548812649 -0.59216565591 2.33298368751 -0.21947800998 -0.58875161407 2.32440645055 -0.11308363127 -0.62282251138 2.39397739017 -0.12819386408 -0.62233103296 2.38294812019 -0.14072378913 -0.62143229477 2.37196282633 -0.15137700437 -0.62018803178 2.36108153376 -0.16085710775 -0.61865997896 2.35036426762 -0.16986769722 -0.61690987126 2.33987105307 -0.17911237074 -0.61499944365 2.32966191527 -0.18929472625 -0.61299043110 2.31979687937 -0.20111836171 -0.61094456856 2.31033597053 -0.21528687507 -0.60892359100 2.30133921390 -0.11026289517 -0.63065601168 2.37685441378 -0.12339363590 -0.63162470790 2.36453814978 -0.13448640700 -0.63210915632 2.35254246041 -0.14416328336 -0.63219972152 2.34087651418 -0.15304633988 -0.63198676811 2.32954947961 -0.16175765144 -0.63156066070 2.31857052522 -0.17091929292 -0.63101176388 2.30794881952 -0.18115333921 -0.63043044227 2.29769353102 -0.19308186519 -0.62990706045 2.28781382825 -0.20732694576 -0.62953198303 2.27831887971 -0.10602754498 -0.63790424192 2.35967424955 -0.11620716136 -0.64042263553 2.34614319016 -0.12519125916 -0.64233588431 2.33323218745 -0.13346320368 -0.64378382028 2.32088697363 -0.14150636021 -0.64490627549 2.30905328091 -0.14980409407 -0.64584308197 2.29767684149 -0.15883977055 -0.64673407176 2.28670338759 -0.16909675495 -0.64771907690 2.27607865141 -0.18105841257 -0.64893792943 2.26574836517 -0.19520810872 -0.65053046137 2.25565826106 -0.10037709907 -0.64444559815 2.34282341009 -0.10662735116 -0.64861023884 2.32807861301 -0.11281295538 -0.65199046980 2.31431023991 -0.11922246180 -0.65480276821 2.30138017972 -0.12614442050 -0.65726361125 2.28915032140 -0.13386738154 -0.65958947611 2.27748255390 -0.14267989501 -0.66199683995 2.26623876617 -0.15287051096 -0.66470217996 2.25528084716 -0.16472777947 -0.66792197332 2.24447068581 -0.17854025062 -0.67187269721 2.23367017108 -0.06156455373 -0.56948769129 2.47705004585 -0.06562716302 -0.56090112542 2.48013504719 -0.07055655489 -0.55249004494 2.47983498264 -0.07624741746 -0.54420797820 2.47672625716 -0.08259443884 -0.53600845353 2.47138527572 -0.08949230715 -0.52784499926 2.46438844327 -0.09683571050 -0.51967114375 2.45631216478 -0.10451933701 -0.51144041531 2.44773284522 -0.11243787479 -0.50310634230 2.43922688953 -0.12048601195 -0.49462245304 2.43137070270 -0.06475577770 -0.57884925361 2.46835655121 -0.07101600309 -0.57147884515 2.46781854538 -0.07719334088 -0.56414787574 2.46483032977 -0.08336663260 -0.55682928531 2.45982558182 -0.08961471976 -0.54949601378 2.45323797893 -0.09601644390 -0.54212100107 2.44550119854 -0.10265064653 -0.53467718711 2.43704891806 -0.10959616918 -0.52713751180 2.42831481491 -0.11693185336 -0.51947491508 2.41973256651 -0.12473654060 -0.51166233686 2.41173585028 -0.06715069463 -0.58819776321 2.45724266298 -0.07505636235 -0.58209241230 2.45362234139 -0.08216256618 -0.57591673652 2.44831627483 -0.08869094723 -0.56965376608 2.44164579389 -0.09486314664 -0.56328653123 2.43393222911 -0.10090080551 -0.55679806219 2.42549691109 -0.10702556497 -0.55017138920 2.41666117037 -0.11345906614 -0.54338954248 2.40774633754 -0.12042295013 -0.53643555226 2.39907374316 -0.12813885808 -0.52929244878 2.39096471781 -0.06874903267 -0.59744488873 2.44406507938 -0.07774349595 -0.59266218716 2.43782910378 -0.08544746286 -0.58771593592 2.43053096844 -0.09218509678 -0.58259524010 2.42240307052 -0.09828056107 -0.57728920477 2.41367780714 -0.10405801910 -0.57178693504 2.40458757546 -0.10984163425 -0.56607753598 2.39536477260 -0.11595556987 -0.56015011270 2.38624179571 -0.12272398934 -0.55399377026 2.37745104192 -0.13047105603 -0.54759761378 2.36922490838 -0.06955051996 -0.60650229880 2.42918049867 -0.07907265902 -0.60310853002 2.42072150111 -0.08703126300 -0.59946478263 2.41171256122 -0.09381381664 -0.59556752695 2.40231358886 -0.09980780467 -0.59141323331 2.39268449390 -0.10540071181 -0.58699837202 2.38298518620 -0.11098002280 -0.58231941341 2.37337557560 -0.11693322237 -0.57737282779 2.36401557198 -0.12364779524 -0.57215508549 2.35506508519 -0.13151122614 -0.56666265682 2.34668402509 -0.06955488466 -0.61528166207 2.41294561909 -0.07903910669 -0.61335180114 2.40258220194 -0.08689719866 -0.61108258528 2.39209920379 -0.09354184222 -0.60848444623 2.38159352608 -0.09938571903 -0.60556781574 2.37116207028 -0.10484151076 -0.60234312556 2.36090173785 -0.11032189907 -0.59882080743 2.35090943025 -0.11623956561 -0.59501129311 2.34128204894 -0.12300719206 -0.59092501435 2.33211649539 -0.13103746007 -0.58657240289 2.32350967104 -0.06876185491 -0.62369464718 2.39571713886 -0.07763809411 -0.62331236083 2.38369387484 -0.08502850191 -0.62248865255 2.37192904677 -0.09133390892 -0.62125981753 2.36045905932 -0.09695514577 -0.61966215096 2.34932031716 -0.10229304308 -0.61773194806 2.33854922496 -0.10774843148 -0.61550550400 2.32818218741 -0.11372214160 -0.61301911400 2.31825560917 -0.12061500405 -0.61030907325 2.30880589492 -0.12882784947 -0.60741167694 2.29986944933 -0.06717115885 -0.63165292277 2.37785175623 -0.07486487642 -0.63291056936 2.36433918836 -0.08140840483 -0.63360229309 2.35144024079 -0.08715475216 -0.63380746043 2.33912636573 -0.09245692649 -0.63360543789 2.32736901541 -0.09766793591 -0.63307559194 2.31613964208 -0.10314078848 -0.63229728908 2.30540969794 -0.10922849231 -0.63134989581 2.29515063524 -0.11628405545 -0.63031277860 2.28533390620 -0.12466048601 -0.62926530395 2.27593096305 -0.06478252463 -0.63906815747 2.35970616945 -0.07071470873 -0.64206678702 2.34480081107 -0.07602013947 -0.64434281556 2.33087093646 -0.08096910733 -0.64604119454 2.31781162246 -0.08583190279 -0.64730687541 2.30551794594 -0.09087881635 -0.64828480962 2.29388498374 -0.09638013850 -0.64911994862 2.28280781273 -0.10260615973 -0.64995724387 2.27218150975 -0.10982717052 -0.65094164680 2.26190115165 -0.11831346136 -0.65221810889 2.25186181530 -0.06159568039 -0.64585201993 2.34163707674 -0.06518284621 -0.65070137409 2.32536141152 -0.06884693792 -0.65462952863 2.31045928440 -0.07274170984 -0.65787483944 2.29673100667 -0.07702091629 -0.66067566244 2.28397688961 -0.08183831156 -0.66327035351 2.27199724450 -0.08734764998 -0.66589726857 2.26059238262 -0.09370268584 -0.66879476353 2.24956261525 -0.10105717347 -0.67220119428 2.23870825368 -0.10956486718 -0.67635491673 2.22782960919 -0.02075000001 -0.56906121770 2.47864029255 -0.02208601065 -0.56006439806 2.48217141784 -0.02374312497 -0.55135966808 2.48214452209 -0.02567555835 -0.54289106224 2.47915455272 -0.02783752620 -0.53460261503 2.47379645713 -0.03018324391 -0.52643836094 2.46666518274 -0.03266692687 -0.51834233447 2.45835567694 -0.03524279049 -0.51025857011 2.44946288716 -0.03786505016 -0.50213110234 2.44058176079 -0.04048792127 -0.49390396567 2.43230724526 -0.02177992522 -0.57870784259 2.46993159382 -0.02384358781 -0.57099995745 2.46963528161 -0.02590390924 -0.56343867759 2.46675656587 -0.02797875206 -0.55597878444 2.46174617857 -0.03008597885 -0.54857505943 2.45505485170 -0.03224345217 -0.54118228399 2.44713331723 -0.03446903457 -0.53375523955 2.43843230715 -0.03678058864 -0.52624870753 2.42940255342 -0.03919597693 -0.51861746938 2.42049478804 -0.04173306202 -0.51081630652 2.41215974297 -0.02255286738 -0.58826271141 2.45878043614 -0.02516129394 -0.58189343030 2.45521820127 -0.02752145412 -0.57554327160 2.44988415679 -0.02970054795 -0.56917238262 2.44311319823 -0.03176577546 -0.56274091061 2.43524022115 -0.03378433667 -0.55620900285 2.42660012109 -0.03582343160 -0.54953680661 2.41752779360 -0.03795026028 -0.54268446917 2.40835813422 -0.04023202275 -0.53561213781 2.39942603850 -0.04273591901 -0.52827995979 2.39106640199 -0.02306873894 -0.59765412911 2.44552861060 -0.02603746570 -0.59268264556 2.43918649385 -0.02858991482 -0.58761341763 2.43174540458 -0.03082874420 -0.58241136614 2.42344624363 -0.03285661176 -0.57704141187 2.41452991186 -0.03477617543 -0.57146847565 2.40523731011 -0.03669009310 -0.56565747828 2.39580933923 -0.03870102271 -0.55957334057 2.38648690007 -0.04091162217 -0.55318098332 2.37751089349 -0.04342454938 -0.54644532734 2.36912222032 -0.02332745235 -0.60681040062 2.43051790824 -0.02647043978 -0.60330543220 2.42180647635 -0.02910344653 -0.59958908317 2.41255841896 -0.03135113897 -0.59563524435 2.40293594670 -0.03333818349 -0.59141780653 2.39310127020 -0.03518924646 -0.58691066054 2.38321660009 -0.03702899424 -0.58208769718 2.37344414698 -0.03898209322 -0.57692280727 2.36394612151 -0.04117320977 -0.57138988161 2.35488473430 -0.04372701025 -0.56546281102 2.34642219598 -0.02332892006 -0.61565983090 2.41409012013 -0.02645855283 -0.61369961918 2.40334446578 -0.02905620444 -0.61141023572 2.39254130966 -0.03125553044 -0.60878352660 2.38177293939 -0.03319018637 -0.60581133789 2.37113164257 -0.03499382777 -0.60248551564 2.36070970683 -0.03680011017 -0.59879790593 2.35059941978 -0.03874268910 -0.59474035482 2.34089306905 -0.04095522012 -0.59030470839 2.33168294224 -0.04357135876 -0.58548281270 2.32306132697 -0.02307305453 -0.62413072490 2.39658703734 -0.02600014153 -0.62380303545 2.38406677917 -0.02844234377 -0.62301684279 2.37191218641 -0.03052971679 -0.62179572226 2.36014785361 -0.03239231614 -0.62016324924 2.34879837533 -0.03416019737 -0.61814299908 2.33788834613 -0.03596341603 -0.61575854713 2.32744236057 -0.03793202766 -0.61303346877 2.31748501321 -0.04019608781 -0.60999133935 2.30804089861 -0.04288565202 -0.60665573422 2.29913461131 -0.02255976818 -0.63215138757 2.37835045094 -0.02509354254 -0.63355350998 2.36423973353 -0.02725601969 -0.63434887187 2.35088915892 -0.02916149618 -0.63461134068 2.33825132130 -0.03092426853 -0.63441478390 2.32627881487 -0.03265863329 -0.63383306899 2.31492423380 -0.03447888699 -0.63294006342 2.30414017229 -0.03649932618 -0.63180963466 2.29387922453 -0.03883424740 -0.63051565018 2.28409398471 -0.04159794717 -0.62913197744 2.27473704701 -0.02178897349 -0.63965012385 2.35972215199 -0.02373709254 -0.64288887173 2.34412964587 -0.02549138742 -0.64534629046 2.32969033692 -0.02713866678 -0.64716989121 2.31627397440 -0.02876573926 -0.64850718517 2.30375030756 -0.03045941352 -0.64950568351 2.29198908563 -0.03230649821 -0.65031289741 2.28086005788 -0.03439380197 -0.65107633805 2.27023297353 -0.03680813347 -0.65194351659 2.25997758185 -0.03963630134 -0.65306194422 2.24996363209 -0.02076058289 -0.64655523869 2.34104393155 -0.02192912820 -0.65174694965 2.32400283320 -0.02314260215 -0.65594906606 2.30853383014 -0.02444902677 -0.65941088321 2.29440644484 -0.02589642407 -0.66238169636 2.28139019978 -0.02753281608 -0.66511080077 2.26925461743 -0.02940622482 -0.66784749172 2.25776922025 -0.03156467232 -0.67084106446 2.24670353073 -0.03405618058 -0.67434081428 2.23582707134 -0.03692877165 -0.67859603642 2.22490936454 0.02074821650 -0.56906123740 2.47864033722 0.02208422731 -0.56006441915 2.48217146563 0.02374134906 -0.55135969074 2.48214457374 0.02567379586 -0.54289108662 2.47915460888 0.02783578179 -0.53460264124 2.47379651836 0.03018152094 -0.52643838905 2.46666524951 0.03266522740 -0.51834236452 2.45835574963 0.03524111527 -0.51025860209 2.44946296606 0.03786339864 -0.50213113622 2.44058184611 0.04048629159 -0.49390400135 2.43230733710 0.02177815283 -0.57870786312 2.46993164034 0.02384182265 -0.57099997990 2.46963533283 0.02590215667 -0.56343870186 2.46675662179 0.02797701646 -0.55597881043 2.46174623927 0.03008426360 -0.54857508708 2.45505491728 0.03224175968 -0.54118231325 2.44713338786 0.03446736627 -0.53375527039 2.43843238304 0.03677894496 -0.52624873995 2.42940263483 0.03919435733 -0.51861750340 2.42049487528 0.04173146495 -0.51081634218 2.41215983640 0.02255111265 -0.58826273234 2.45878048395 0.02515955251 -0.58189345349 2.45521825488 0.02751972975 -0.57554329674 2.44988421568 0.02969884368 -0.56917240943 2.44311326204 0.03176409358 -0.56274093891 2.43524028967 0.03378267874 -0.55620903251 2.42660019427 0.03582179846 -0.54953683758 2.41752787153 0.03794865203 -0.54268450144 2.40835821717 0.04023043873 -0.53561217146 2.39942612687 0.04273435787 -0.52827999495 2.39106649635 0.02306700768 -0.59765415005 2.44552865911 0.02603575297 -0.59268266892 2.43918654883 0.02858822304 -0.58761344295 2.43174546515 0.03082707529 -0.58241139304 2.42344630916 0.03285496708 -0.57704144011 2.41452998192 0.03477455580 -0.57146850505 2.40523738452 0.03668849882 -0.56565750876 2.39580941803 0.03869945353 -0.55957337215 2.38648698354 0.04091007730 -0.55318101611 2.37751098211 0.04342302751 -0.54644536154 2.36912231482 0.02332574965 -0.60681042125 2.43051795692 0.02646876013 -0.60330545521 2.42180653173 0.02910179126 -0.59958910805 2.41255847999 0.03134950904 -0.59563527069 2.40293601259 0.03333657946 -0.59141783405 2.39310134044 0.03518766852 -0.58691068905 2.38321667442 0.03702744221 -0.58208772661 2.37344422544 0.03898056654 -0.57692283765 2.36394620439 0.04117170749 -0.57138991308 2.35488482217 0.04372553107 -0.56546284383 2.34642228968 0.02332725027 -0.61565985092 2.41409016844 0.02645691009 -0.61369964138 2.40334452062 0.02905458913 -0.61141025961 2.39254136994 0.03125394270 -0.60878355180 2.38177300430 0.03318862608 -0.60581136410 2.37113171161 0.03499229458 -0.60248554270 2.36070977976 0.03679860350 -0.59879793379 2.35059949665 0.03874120813 -0.59474038353 2.34089315019 0.04095376377 -0.59030473810 2.33168302828 0.04356992573 -0.58548284369 2.32306141881 0.02307142128 -0.62413074403 2.39658708476 0.02599853895 -0.62380305645 2.38406683254 0.02844077138 -0.62301686521 2.37191224477 0.03052817402 -0.62179574579 2.36014791626 0.03239080230 -0.62016327363 2.34879844184 0.03415871167 -0.61814302421 2.33788841634 0.03596195754 -0.61575857297 2.32744243459 0.03793059538 -0.61303349538 2.31748509140 0.04019468060 -0.60999136690 2.30804098162 0.04288426866 -0.60665576298 2.29913470006 0.02255817439 -0.63215140559 2.37835049694 0.02509198279 -0.63355352943 2.36423978455 0.02725449273 -0.63434889241 2.35088921424 0.02916000077 -0.63461136210 2.33825138043 0.03092280348 -0.63441480603 2.32627887753 0.03265719744 -0.63383309176 2.31492429996 0.03447747921 -0.63294008683 2.30414024214 0.03649794535 -0.63180965879 2.29387929848 0.03883289245 -0.63051567519 2.28409406340 0.04159661706 -0.62913200358 2.27473713132 0.02178742133 -0.63965014058 2.35972219608 0.02373557772 -0.64288888933 2.34412969369 0.02548990789 -0.64534630878 2.32969038811 0.02713722070 -0.64716991014 2.31627402877 0.02876432498 -0.64850720465 2.30375036507 0.03045802958 -0.64950570354 2.29198914641 0.03230514335 -0.65031291802 2.28086012221 0.03439247512 -0.65107635934 2.27023304188 0.03680683376 -0.65194353870 2.25997765482 0.03963502810 -0.65306196736 2.24996371044 0.02075907382 -0.64655525398 2.34104397325 0.02192765983 -0.65174696519 2.32400287699 0.02314117161 -0.65594908189 2.30853387615 0.02444763157 -0.65941089936 2.29440649326 0.02589506215 -0.66238171289 2.28139025086 0.02753148576 -0.66511081775 2.26925467150 0.02940492482 -0.66784750923 2.25776927772 0.03156340177 -0.67084108261 2.24670359207 0.03405493901 -0.67434083317 2.23582713708 0.03692755897 -0.67859605618 2.22490943531 0.06156277329 -0.56948774962 2.47705017837 0.06562538329 -0.56090118789 2.48013518914 0.07055478287 -0.55249011205 2.47983513604 0.07624565887 -0.54420805033 2.47672642383 0.08259269809 -0.53600853101 2.47138545728 0.08949058736 -0.52784508233 2.46438864114 0.09683401350 -0.51967123256 2.45631238017 0.10451766333 -0.51144050996 2.44773307914 0.11243622368 -0.50310644277 2.43922714280 0.12048438136 -0.49462255925 2.43137097593 0.06475400859 -0.57884931447 2.46835668956 0.07101424138 -0.57147891181 2.46781869791 0.07719159172 -0.56414794782 2.46483049639 0.08336490016 -0.55682936251 2.45982576262 0.08961300725 -0.54949609588 2.45323817422 0.09601475354 -0.54212108796 2.44550140880 0.10264897959 -0.53467727874 2.43704914400 0.10959452595 -0.52713760824 2.42831505742 0.11693023317 -0.51947501648 2.41973282669 0.12473494179 -0.51166244345 2.41173612943 0.06714894329 -0.58819782533 2.45724280535 0.07505462415 -0.58209248126 2.45362250131 0.08216084474 -0.57591681131 2.44831645064 0.08868924547 -0.56965384591 2.44164598442 0.09486146672 -0.56328661553 2.43393243372 0.10089914891 -0.55679815059 2.42549712962 0.10702393242 -0.55017148154 2.41666140318 0.11345745765 -0.54338963883 2.40774658549 0.12042136500 -0.53643565290 2.39907400760 0.12813729488 -0.52929255419 2.39096500060 0.06874730479 -0.59744495097 2.44406522403 0.07774178613 -0.59266225669 2.43782926799 0.08544577349 -0.58771601136 2.43053114953 0.09218342972 -0.58259532035 2.42240326649 0.09827891766 -0.57728928905 2.41367801675 0.10405640013 -0.57178702283 2.40458779814 0.10984003997 -0.56607762709 2.39536500851 0.11595400003 -0.56015020720 2.38624204574 0.12272244314 -0.55399386855 2.37745130766 0.13046953213 -0.54759771651 2.36922519212 0.06954882047 -0.60650236014 2.42918064389 0.07907098184 -0.60310859856 2.42072166662 0.08702960952 -0.59946485684 2.41171274379 0.09381218786 -0.59556760562 2.40231378610 0.09980620120 -0.59141331556 2.39268470423 0.10539913389 -0.58699845730 2.38298540890 0.11097847028 -0.58231950151 2.37337581078 0.11693169471 -0.57737291884 2.36401582058 0.12364629152 -0.57215517993 2.35506534898 0.13150974506 -0.56666275545 2.34668430670 0.06955321772 -0.61528172159 2.41294576319 0.07903746581 -0.61335186733 2.40258236585 0.08689558437 -0.61108265661 2.39209938416 0.09354025481 -0.60848452153 2.38159372048 0.09938415851 -0.60556789417 2.37116227713 0.10483997689 -0.60234320660 2.36090195645 0.11032039134 -0.59882089092 2.35090966076 0.11623808327 -0.59501137922 2.34128229241 0.12300573408 -0.59092510357 2.33211675372 0.13103602518 -0.58657249605 2.32350994702 0.06876022392 -0.62369470408 2.39571728023 0.07763649257 -0.62331242344 2.38369403432 0.08502692960 -0.62248871955 2.37192922138 0.09133236549 -0.62125988789 2.36045924690 0.09695363073 -0.61966222399 2.34932051639 0.10229155580 -0.61773202334 2.33854943534 0.10774697117 -0.61550558145 2.32818240925 0.11372070734 -0.61301919382 2.31825584363 0.12061359478 -0.61030915596 2.30880614398 0.12882646398 -0.60741176336 2.29986971579 0.06716956647 -0.63165297637 2.37785189328 0.07486331665 -0.63291062736 2.36433934071 0.08140687676 -0.63360235449 2.35144040618 0.08715325486 -0.63380752451 2.33912654262 0.09245545902 -0.63360550414 2.32736920295 0.09766649730 -0.63307566013 2.31613984012 0.10313937777 -0.63229735922 2.30540990704 0.10922710850 -0.63134996813 2.29515085666 0.11628269755 -0.63031285362 2.28533414189 0.12465915299 -0.62926538241 2.27593121568 0.06478097275 -0.63906820720 2.35970630062 0.07071319257 -0.64206683953 2.34480095366 0.07601865739 -0.64434287032 2.33087108929 0.08096765783 -0.64604125119 2.31781178488 0.08583048452 -0.64730693373 2.30551811777 0.09087742808 -0.64828486958 2.29388516533 0.09637877916 -0.64912001034 2.28280800492 0.10260482837 -0.64995730763 2.27218171389 0.10982586635 -0.65094171307 2.26190136960 0.11831218372 -0.65221817826 2.25186204941 0.06159417015 -0.64585206534 2.34163720053 0.06518137487 -0.65070142042 2.32536154183 0.06884550305 -0.65462957589 2.31045942146 0.07274030934 -0.65787488773 2.29673115094 0.07701954838 -0.66067571187 2.28397704179 0.08183697483 -0.66327040429 2.27199740552 0.08734634334 -0.66589732095 2.26059255366 0.09370140854 -0.66879481780 2.24956279772 0.10105592510 -0.67220125081 2.23870844921 0.10956364766 -0.67635497593 2.22782981966 0.10032634786 -0.57034075358 2.47386981449 0.10727928972 -0.56257470352 2.47606258697 0.11535509213 -0.55475093114 2.47521620747 0.12448504435 -0.54684195239 2.47186999580 0.13460043566 -0.53882028320 2.46656327176 0.14563255532 -0.53065843952 2.45983535518 0.15751269260 -0.52232893727 2.45222556585 0.17017213676 -0.51380429240 2.44427322358 0.18354217707 -0.50505702085 2.43651764819 0.19755410280 -0.49605963854 2.42949815948 0.10598319420 -0.57913219594 2.46520674022 0.11664768145 -0.57243675248 2.46418537574 0.12693113080 -0.56556641475 2.46097818851 0.13704912625 -0.55853043987 2.45598474734 0.14721725176 -0.55133808499 2.44960462104 0.15765109134 -0.54399860723 2.44223737843 0.16856622897 -0.53652126371 2.43428258830 0.18017824862 -0.52891531158 2.42613981948 0.19270273430 -0.52119000796 2.41820864076 0.20635526998 -0.51335460998 2.41088862097 0.11022832239 -0.58806798974 2.45416739931 0.12367236816 -0.58249051299 2.45043093966 0.13560175015 -0.57666381469 2.44518086082 0.14645267522 -0.57061669143 2.43871136448 0.15666135022 -0.56437793982 2.43131665236 0.16666398202 -0.55797635646 2.42329092614 0.17689677748 -0.55144073794 2.41492838755 0.18779594344 -0.54479988087 2.40652323827 0.19979768678 -0.53808258184 2.39836968001 0.21333821434 -0.53131763745 2.39076191447 0.11306124998 -0.59702653125 2.44113830445 0.12834625983 -0.59262140834 2.43511465059 0.14134155930 -0.58792112236 2.42810245705 0.15264138716 -0.58296314757 2.42031711503 0.16283998218 -0.57778495823 2.41197401574 0.17253158314 -0.57242402860 2.40328855039 0.18231042882 -0.56691783294 2.39447611018 0.19277075800 -0.56130384551 2.38575208632 0.20450680946 -0.55561954056 2.37733187002 0.21811282196 -0.54990239235 2.36943085249 0.11448149454 -0.60588621672 2.42650596830 0.13066226647 -0.60271486178 2.41855188038 0.14412516740 -0.59921632913 2.41002120986 0.15556095794 -0.59543224878 2.40106926680 0.16566039875 -0.59140425074 2.39185136124 0.17511425046 -0.58717396505 2.38252280322 0.18461327369 -0.58278302171 2.37323890279 0.19484822910 -0.57827305076 2.36415497001 0.20650987730 -0.57368568220 2.35542631490 0.22028897894 -0.56906254606 2.34720824753 0.11448857363 -0.61452544240 2.41065690356 0.13061329807 -0.61265629660 2.40105800085 0.14392718357 -0.61042742639 2.39121535188 0.15515708347 -0.60788643554 2.38123508757 0.16502985109 -0.60508092787 2.37122333887 0.17427233975 -0.60205850717 2.36128623670 0.18361140278 -0.59886677724 2.35152991200 0.19377389351 -0.59555334186 2.34206049571 0.20548666526 -0.59216580485 2.33298411876 0.21947657137 -0.58875176998 2.32440691210 0.11308200480 -0.62282260454 2.39397762289 0.12819226461 -0.62233113606 2.38294838387 0.14072221697 -0.62143240551 2.37196311577 0.15137545962 -0.62018814837 2.36108184517 0.16085559031 -0.61866010016 2.35036459868 0.16986620678 -0.61690999637 2.33987140289 0.17911090677 -0.61499957251 2.32966228440 0.18929328803 -0.61299056408 2.31979726980 0.20111694831 -0.61094470657 2.31033638570 0.21528548534 -0.60892373550 2.30133965870 0.11026130563 -0.63065609940 2.37685463897 0.12339207610 -0.63162480344 2.36453840128 0.13448487672 -0.63210925788 2.35254273417 0.14416178228 -0.63219982775 2.34087680739 0.15304486755 -0.63198687812 2.32954979070 0.16175620732 -0.63156077403 2.31857085385 0.17091787636 -0.63101188052 2.30794916658 0.18115194946 -0.63043056265 2.29769389866 0.19308050139 -0.62990718546 2.28781421983 0.20732560695 -0.62953211401 2.27831929984 0.10602599367 -0.63790432323 2.35967446449 0.11620564253 -0.64042272201 2.34614342492 0.12518977197 -0.64233597487 2.33323243972 0.13346174734 -0.64378391418 2.32088724204 0.14150493395 -0.64490637228 2.30905356497 0.14980269714 -0.64584318152 2.29767714164 0.15883840224 -0.64673417426 2.28670370516 0.16909541457 -0.64771918283 2.27607898865 0.18105709948 -0.64893803959 2.26574872524 0.19520682228 -0.65053057690 2.25565864802 0.10037558648 -0.64444567229 2.34282361212 0.10662587388 -0.64861031503 2.32807882663 0.11281151185 -0.65199054788 2.31431046509 0.11922105067 -0.65480284815 2.30138041691 0.12614304063 -0.65726369317 2.28915057152 0.13386603201 -0.65958956025 2.27748281832 0.14267857509 -0.66199692671 2.26623904673 0.15286922017 -0.66470226987 2.25528114616 0.16472651752 -0.66792206704 2.24447100603 0.17853901743 -0.67187279555 2.23367051576 0.13567161771 -0.57162024850 2.46909924409 0.14578777902 -0.56508496524 2.46995365769 0.15680019249 -0.55814214716 2.46828778647 0.16883696600 -0.55079279180 2.46458532297 0.18202620747 -0.54303789668 2.45932995970 0.19649602479 -0.53487845934 2.45300538919 0.21237452587 -0.52631547732 2.44609530399 0.22978981860 -0.51734994813 2.43908339661 0.24887001089 -0.50798286931 2.43245335959 0.26974321064 -0.49821523839 2.42668888546 0.14430126182 -0.57955650682 2.46048179110 0.15971615594 -0.57387350120 2.45873536519 0.17408750880 -0.56769410189 2.45519969699 0.18789392191 -0.56108204173 2.45022319214 0.20161399680 -0.55410105354 2.44415425630 0.21572633498 -0.54681487016 2.43734129512 0.23070953797 -0.53928722442 2.43013271423 0.24704220729 -0.53158184915 2.42287691930 0.26520294447 -0.52376247719 2.41592231597 0.28567035101 -0.51589284138 2.40961730988 0.15077694777 -0.58787322492 2.44955426480 0.17016123169 -0.58308754807 2.44564356906 0.18704230527 -0.57778430628 2.44047744536 0.20217115073 -0.57206094538 2.43430940134 0.21629875033 -0.56601491118 2.42739294462 0.23017608629 -0.55974364952 2.41998158284 0.24455414085 -0.55334460621 2.41232882362 0.26018389626 -0.54691522708 2.40468817461 0.27781633475 -0.54055295796 2.39731314341 0.29820243857 -0.53435524466 2.39045723768 0.15509794084 -0.59639889030 2.43674789945 0.17711480015 -0.59256012331 2.43104269591 0.19563440323 -0.58822877544 2.42445938709 0.21160201562 -0.58351487423 2.41718785417 0.22596290284 -0.57852844723 2.40941797832 0.23966233040 -0.57337952196 2.40133964072 0.25364556382 -0.56817812598 2.39314272252 0.26885786863 -0.56303428683 2.38501710492 0.28624451034 -0.55805803205 2.37715266907 0.30675075449 -0.55335938917 2.36973929616 0.15726350628 -0.60496199043 2.42249392932 0.18056865516 -0.60212424439 2.41529717236 0.19983362405 -0.59884352451 2.40748387768 0.21611987976 -0.59522919980 2.39920245426 0.23048888913 -0.59139063930 2.39060131107 0.24400211899 -0.58743721203 2.38182885709 0.25772103617 -0.58347828703 2.37303350129 0.27270710751 -0.57962323331 2.36436365263 0.29002179982 -0.57598141992 2.35596772010 0.31072657994 -0.57266221586 2.34799411266 0.15727290936 -0.61339101280 2.40722358871 0.18051459061 -0.61161292878 2.39877142504 0.19960978904 -0.60944456859 2.38988927264 0.21565810629 -0.60698929356 2.38069710523 0.22975914399 -0.60435046501 2.37131489655 0.24301250375 -0.60163144426 2.36186262032 0.25651778722 -0.59893559263 2.35246025027 0.27137459602 -0.59636627144 2.34322776013 0.28868253177 -0.59402684202 2.33428512363 0.30954119610 -0.59202066568 2.32575231450 0.15512541533 -0.62151444490 2.39136811186 0.17694440033 -0.62085919394 2.38182988055 0.19493271956 -0.61984792282 2.37201392745 0.21015005839 -0.61858052702 2.36201571069 0.22365610220 -0.61715690198 2.35193068841 0.23651053637 -0.61567694318 2.34185431874 0.24977304627 -0.61424054608 2.33188205983 0.26450331728 -0.61294760613 2.32210936981 0.28176103478 -0.61189801880 2.31263170683 0.30260588414 -0.61119167955 2.30354452901 0.15082028946 -0.62916077421 2.37535873307 0.16984987821 -0.62969605734 2.36483696553 0.18577223695 -0.62986960233 2.35419619763 0.19952909922 -0.62978827166 2.34350217426 0.21206219857 -0.62955892784 2.33282064032 0.22431326852 -0.62928843334 2.32221734071 0.23722404262 -0.62908365066 2.31175802033 0.25173625441 -0.62905144228 2.30150842407 0.26879163744 -0.62929867071 2.29153429683 0.28933192524 -0.62993219843 2.28190138350 0.14435679700 -0.63615848821 2.35962668660 0.15922281810 -0.63795653645 2.34815710659 0.17209816256 -0.63932562222 2.33677443867 0.18372859195 -0.64039789899 2.32550039956 0.19485986787 -0.64130552018 2.31435670596 0.20623775188 -0.64218063926 2.30336507458 0.21860800558 -0.64315540966 2.29254722212 0.23271639054 -0.64436198483 2.28192486528 0.24930866834 -0.64593251821 2.27151972078 0.26913060056 -0.64799916325 2.26135350531 0.13573420321 -0.64233607439 2.34460320674 0.14505501386 -0.64547364872 2.33215473034 0.15388031771 -0.64803199763 2.32008700607 0.16268189974 -0.65019478048 2.30835429021 0.17193154490 -0.65214565664 2.29691083899 0.18210103815 -0.65406828548 2.28571090869 0.19366216445 -0.65614632637 2.27470875556 0.20708670877 -0.65856343866 2.26385863586 0.22284645606 -0.66150328173 2.25311480584 0.24141319128 -0.66514951495 2.24243152176 0.16623126035 -0.57332623361 2.46273846566 0.17989268363 -0.56843197228 2.46180839990 0.19354799962 -0.56266375924 2.45904987153 0.20774643750 -0.55606056755 2.45487240355 0.22303722648 -0.54866137030 2.44968551895 0.23996959575 -0.54050514054 2.44389874074 0.25909277450 -0.53163085136 2.43792159190 0.28095599193 -0.52207747583 2.43216359543 0.30610847723 -0.51188398701 2.42703427434 0.33509945961 -0.50108935798 2.42294315160 0.17854376358 -0.58012224640 2.45418184097 0.19919367792 -0.57578915729 2.45146866515 0.21762746059 -0.57053100853 2.44749502068 0.23476351436 -0.56448416728 2.44254109574 0.25152024203 -0.55778500067 2.43688707853 0.26881604637 -0.55056987585 2.43081315724 0.28756933019 -0.54297515996 2.42459952006 0.30869849627 -0.53513722013 2.41852635517 0.33312194739 -0.52719242352 2.41287385078 0.36175808634 -0.51927713727 2.40792219507 0.18778251729 -0.58761353021 2.44340340077 0.21366966192 -0.58388358587 2.43926038859 0.23568236940 -0.57927828546 2.43420620340 0.25502668981 -0.57398660712 2.42844009409 0.27290867328 -0.56819752897 2.42216130956 0.29053436989 -0.56210002915 2.41556909870 0.30910982975 -0.55588308579 2.40886271042 0.32984110297 -0.54973567701 2.40224139360 0.35393423964 -0.54384678095 2.39590439714 0.38259528987 -0.53840537573 2.39005096995 0.19394647497 -0.59556202750 2.43089400812 0.22331303313 -0.59247840106 2.42561340319 0.24768312807 -0.58863897010 2.41960193899 0.26846638318 -0.58425049987 2.41301548330 0.28707242185 -0.57951975559 2.40600990389 0.30491086746 -0.57465350252 2.39874106855 0.32339134342 -0.56985850589 2.39136484506 0.34392347310 -0.56534153095 2.38403710118 0.36791687989 -0.56130934293 2.37691370470 0.39678118719 -0.55796870708 2.37015052340 0.19703459014 -0.60372968071 2.41714452612 0.22811618904 -0.60133674591 2.41095754193 0.25360013862 -0.59834644255 2.40410074675 0.27501301376 -0.59495845833 2.39671334807 0.29388138935 -0.59137248092 2.38893455339 0.31173184028 -0.58778819801 2.38090357022 0.33009094145 -0.58440529728 2.37275960605 0.35048526774 -0.58142346642 2.36464186839 0.37444139405 -0.57904239312 2.35668956474 0.40348589528 -0.57746176504 2.34904190259 0.19704581628 -0.61187843228 2.40264581781 0.22807152717 -0.61022176344 2.39572263779 0.25340380308 -0.60813408290 2.38812114597 0.27459700086 -0.60579309532 2.37997977310 0.29320547739 -0.60337650536 2.37143694990 0.31078358951 -0.60106201771 2.36263110711 0.32888569409 -0.59902733701 2.35370067546 0.34906614798 -0.59745016793 2.34478408569 0.37287930805 -0.59650821515 2.33601976853 0.40187953115 -0.59637918332 2.32754615471 0.19397910692 -0.61977022467 2.38788874628 0.22317144500 -0.61889659670 2.38033852373 0.24706452345 -0.61773527122 2.37208165596 0.26714876380 -0.61643702363 2.36326084309 0.28491458758 -0.61515262931 2.35401878528 0.30185241633 -0.61403286367 2.34449818266 0.31945267159 -0.61322850209 2.33484173537 0.33920577490 -0.61289031996 2.32519214356 0.36260214778 -0.61316909268 2.31569210736 0.39113221178 -0.61421559564 2.30648432692 0.18783341554 -0.62716700032 2.37336417461 0.21340834005 -0.62712438872 2.36523503275 0.23455270177 -0.62688338761 2.35640079600 0.25259872188 -0.62657285607 2.34700264274 0.26887862154 -0.62632165316 2.33718175138 0.28472462193 -0.62625863797 2.32707930028 0.30146894421 -0.62651266955 2.31683646785 0.32044380957 -0.62721260699 2.30659443247 0.34298143916 -0.62848730936 2.29649437252 0.37041405417 -0.63046563572 2.28667746640 0.17860769565 -0.63383070167 2.35956296585 0.19877460980 -0.63466828254 2.35084199780 0.21583874005 -0.63531181215 2.34149708539 0.23087729440 -0.63588320544 2.33165125676 0.24496748087 -0.63650437731 2.32142754005 0.25918650747 -0.63729724267 2.31094896341 0.27461158220 -0.63838371643 2.30033855497 0.29231991308 -0.63988571351 2.28971934288 0.31338870811 -0.64192514882 2.27921435528 0.33889517531 -0.64462393728 2.26894662031 0.16630090075 -0.63952327118 2.34697598308 0.17926265176 -0.64129142119 2.33758925187 0.19089304030 -0.64275392494 2.32778904344 0.20191490068 -0.64405068456 2.31765276985 0.21305106719 -0.64532160215 2.30725784316 0.22502437413 -0.64670657984 2.29668167546 0.23855765580 -0.64834551975 2.28600167881 0.25437374650 -0.65037832401 2.27529526527 0.27319548053 -0.65294489473 2.26463984693 0.29574569219 -0.65618513403 2.25411283584 </DataArray>
</Points>
</Piece>
</StructuredGrid>
</VTKFile>
