<?xml version="1.0"?>
<VTKFile type="StructuredGrid" version="0.1">
<StructuredGrid WholeExtent="0 9 0 9 0 9">
<Piece Extent="0 9 0 9 0 9">
<PointData>
<DataArray type="Float32" Name="Deformation" format="ascii" NumberOfComponents="3">
0.00110220444 -0.23159608416 0.07923816498 0.00117792006 -0.23123153056 0.08260098009 0.00126528567 -0.23116506600 0.08664829072 0.00136519286 -0.23136813328 0.09134341103 0.00147853323 -0.23181217516 0.09664965517 0.00160619837 -0.23246863443 0.10253033730 0.00174907985 -0.23330895387 0.10894877158 0.00190806928 -0.23430457625 0.11586827216 0.00208405823 -0.23542694437 0.12325215320 0.00227793830 -0.23664750100 0.13106372884 0.00105788776 -0.23445380010 0.07821558163 0.00113949370 -0.23457630233 0.08207541331 0.00123150318 -0.23487420134 0.08645149613 0.00133596456 -0.23532511831 0.09131913210 0.00145492620 -0.23590667446 0.09665362324 0.00159043646 -0.23659649097 0.10243027156 0.00174454367 -0.23737218905 0.10862437908 0.00191929621 -0.23821138989 0.11521124781 0.00211674241 -0.23909171469 0.12216617978 0.00233893064 -0.23999078466 0.12946447699 0.00101004925 -0.23786907832 0.07725662039 0.00109657932 -0.23829898622 0.08149833876 0.00119232590 -0.23882659880 0.08612745661 0.00130021471 -0.23943406926 0.09112827559 0.00142317146 -0.24010355079 0.09648509733 0.00156412190 -0.24081719659 0.10218222347 0.00172599172 -0.24155715986 0.10820395563 0.00191170666 -0.24230559381 0.11453459545 0.00212419244 -0.24304465162 0.12115844457 0.00236637478 -0.24375648651 0.12805980462 0.00096031848 -0.24168911944 0.07638449572 0.00105028265 -0.24229207057 0.08088590670 0.00114852973 -0.24294931593 0.08568674434 0.00125853628 -0.24364639493 0.09077691535 0.00138377887 -0.24436884700 0.09614632644 0.00152773406 -0.24510221155 0.10178488430 0.00169387841 -0.24583202801 0.10768249564 0.00188568850 -0.24654383579 0.11382906718 0.00210664089 -0.24722317432 0.12021450561 0.00236021214 -0.24785558301 0.12682871764 0.00091032503 -0.24576112406 0.07562242207 0.00100170941 -0.24644804371 0.08025426743 0.00110089058 -0.24716941023 0.08513993152 0.00121152227 -0.24791350414 0.09027112524 0.00133725827 -0.24866860593 0.09563955953 0.00148175231 -0.24942299610 0.10123694532 0.00164865817 -0.25016495516 0.10705499353 0.00184162959 -0.25088276361 0.11308541509 0.00206432034 -0.25156470195 0.11931992093 0.00232038417 -0.25219905068 0.12575022197 0.00086169847 -0.24993229281 0.07499361389 0.00095196533 -0.25065939397 0.07961957125 0.00105018434 -0.25141393924 0.08449759032 0.00115976568 -0.25218680570 0.08961697911 0.00128411952 -0.25296887042 0.09496704561 0.00142665603 -0.25375101050 0.10053709781 0.00159078539 -0.25452410301 0.10631644371 0.00177991777 -0.25527902504 0.11229439129 0.00199746335 -0.25600665367 0.11846024857 0.00224683229 -0.25669786599 0.12480332351 0.00081606839 -0.25404982629 0.07452128565 0.00090215613 -0.25481860971 0.07899796842 0.00099718694 -0.25560996049 0.08377029294 0.00110385949 -0.25641770843 0.08882055081 0.00122487248 -0.25723568333 0.09413103364 0.00136292459 -0.25805771500 0.09968403303 0.00152071451 -0.25887763324 0.10546184057 0.00170094091 -0.25968926786 0.11144674788 0.00190630250 -0.26048644865 0.11762104655 0.00213949794 -0.26126300543 0.12396702817 0.00077506435 -0.25796092513 0.07422865181 0.00085338753 -0.25881817926 0.07840560925 0.00094267426 -0.25968453150 0.08296861157 0.00104439669 -0.26055762115 0.08788791421 0.00116002701 -0.26143508750 0.09313377262 0.00129103736 -0.26231456987 0.09867644225 0.00143889993 -0.26319370755 0.10448617855 0.00160508687 -0.26407013984 0.11053323695 0.00179107035 -0.26494150605 0.11678787290 0.00199832254 -0.26580544549 0.12322034186 0.00074031595 -0.26151278993 0.07413892681 0.00080676527 -0.26255059096 0.07785864402 0.00088742221 -0.26356470980 0.08210311839 0.00098197028 -0.26455795266 0.08682514315 0.00109009295 -0.26553312577 0.09197751153 0.00121147371 -0.26649303534 0.09751301675 0.00134579607 -0.26744048760 0.10338445203 0.00149274349 -0.26837828876 0.10954461060 0.00165199948 -0.26930924504 0.11594628567 0.00182324752 -0.27023616266 0.12254227048 0.00071345274 -0.26455262131 0.07427532512 0.00076339505 -0.26590833315 0.07737322301 0.00083220671 -0.26717755291 0.08118438559 0.00091717323 -0.26837011179 0.08563831150 0.00101558016 -0.26949584099 0.09066449935 0.00112471302 -0.27056457169 0.09619244779 0.00124185734 -0.27158613510 0.10215165544 0.00136429864 -0.27257036239 0.10847162093 0.00148932246 -0.27352708477 0.11508184289 0.00161421433 -0.27446613343 0.12191181995 0.00130232405 -0.23068908047 0.07702386650 0.00139544686 -0.23033553385 0.08049819768 0.00150569596 -0.23029774203 0.08469269254 0.00163304464 -0.23055888494 0.08956459510 0.00177746616 -0.23110214249 0.09507114941 0.00193893380 -0.23191069461 0.10116959949 0.00211742083 -0.23296772120 0.10781718939 0.00231290053 -0.23425640219 0.11497116314 0.00252534618 -0.23575991750 0.12258876477 0.00275473104 -0.23746144704 0.13062723832 0.00124885038 -0.23353370125 0.07595327193 0.00135065367 -0.23366935817 0.07993921206 0.00146647666 -0.23399112705 0.08447075328 0.00159730271 -0.23448629652 0.08951726370 0.00174411517 -0.23514215520 0.09504811139 0.00190789739 -0.23594599172 0.10103266444 0.00208963273 -0.23688509470 0.10744029096 0.00229030454 -0.23794675277 0.11424035901 0.00251089617 -0.23911825455 0.12140223670 0.00275239096 -0.24038688868 0.12889529212 0.00119156452 -0.23693825616 0.07495879888 0.00130064374 -0.23738203779 0.07933654891 0.00142102396 -0.23792988420 0.08412678290 0.00155451098 -0.23857167978 0.08930776876 0.00170291060 -0.23929730893 0.09485777438 0.00186802859 -0.24009665604 0.10075506766 0.00205167076 -0.24095960552 0.10697791651 0.00225564290 -0.24187604175 0.11350458882 0.00248175079 -0.24283584913 0.12031335249 0.00273180024 -0.24382891207 0.12738247542 0.00113246867 -0.24074974537 0.07406334714 0.00124676575 -0.24136624133 0.07870641083 0.00137024598 -0.24204111565 0.08367151910 0.00150529789 -0.24276586497 0.08894225516 0.00165431005 -0.24353198590 0.09450220225 0.00181967098 -0.24433097507 0.10033494358 0.00200376923 -0.24515432911 0.10642406236 0.00220899336 -0.24599354463 0.11275314182 0.00243773190 -0.24684011827 0.11930576519 0.00269237340 -0.24768554664 0.12606551567 0.00107356503 -0.24481516907 0.07328981648 0.00119036839 -0.24551463743 0.07806500040 0.00131505081 -0.24625192362 0.08311569957 0.00145029187 -0.24701968235 0.08842686779 0.00159877113 -0.24781056834 0.09398345886 0.00176316814 -0.24861723629 0.09977042660 0.00194616247 -0.24943234091 0.10577272481 0.00215043368 -0.25024853691 0.11197530730 0.00237866134 -0.25105847899 0.11836312787 0.00263352500 -0.25185482186 0.12492114033 0.00101685582 -0.24898152745 0.07266110669 0.00113280033 -0.24971989472 0.07742852022 0.00125634658 -0.25048941029 0.08247006202 0.00139012135 -0.25128396219 0.08776775150 0.00153675145 -0.25209743848 0.09330360808 0.00169886367 -0.25292372720 0.09905965117 0.00187908480 -0.25375671638 0.10501790018 0.00208004163 -0.25459029407 0.11116037453 0.00230436095 -0.25541834831 0.11746909362 0.00255466956 -0.25623476715 0.12392607687 0.00096434323 -0.25309582068 0.07220011755 0.00107541025 -0.25387468184 0.07681317286 0.00119504137 -0.25468067785 0.08174534414 0.00132541476 -0.25550953474 0.08697105118 0.00146870863 -0.25635697854 0.09246471377 0.00162710116 -0.25721873527 0.09820075170 0.00180277054 -0.25809053095 0.10415358477 0.00199789495 -0.25896809161 0.11029763277 0.00221465258 -0.25984714327 0.11660731550 0.00245522163 -0.26072341196 0.12305705273 0.00091802949 -0.25700504897 0.07192974884 0.00101954684 -0.25787166742 0.07623516093 0.00113204329 -0.25875282851 0.08095228365 0.00125680053 -0.25964723026 0.08604291171 0.00139510027 -0.26055357074 0.09146883980 0.00154822419 -0.26147054799 0.09719186262 0.00171745401 -0.26239686007 0.10317377489 0.00190407140 -0.26333120502 0.10937637131 0.00210935808 -0.26427228089 0.11576144658 0.00233459573 -0.26521878574 0.12229079539 0.00087991678 -0.26055621248 0.07187290035 0.00096655877 -0.26160352011 0.07571068701 0.00106826045 -0.26263296445 0.08010161825 0.00118490710 -0.26364787901 0.08498947795 0.00131638398 -0.26465159730 0.09031805002 0.00146257636 -0.26564745286 0.09603111835 0.00162336953 -0.26663877918 0.10207246685 0.00179864874 -0.26762890979 0.10838587941 0.00198829929 -0.26862117821 0.11491513993 0.00219220643 -0.26961891794 0.12160403230 0.00085200732 -0.26359631140 0.07205247186 0.00091779473 -0.26496290853 0.07525595369 0.00100460096 -0.26624818787 0.07920408562 0.00111036289 -0.26746231124 0.08381689478 0.00123301737 -0.26861544046 0.08901440831 0.00137050126 -0.26971773735 0.09471665332 0.00152075143 -0.27077936373 0.10084365696 0.00168170474 -0.27181048142 0.10731544635 0.00185129805 -0.27282125224 0.11405204863 0.00202746824 -0.27382183800 0.12097349092 0.00147557689 -0.22956568873 0.07446850051 0.00158488411 -0.22921534986 0.07808257820 0.00171570457 -0.22919958426 0.08245810460 0.00186731996 -0.22950955798 0.08754433468 0.00203901197 -0.23013643704 0.09329052342 0.00223006230 -0.23107138750 0.09964592581 0.00243975262 -0.23230557540 0.10655979681 0.00266736462 -0.23383016678 0.11398139141 0.00291218000 -0.23563632769 0.12185996459 0.00317348044 -0.23771522417 0.13014477133 0.00141277224 -0.23239579635 0.07331701027 0.00153229095 -0.23254393396 0.07746907547 0.00166914930 -0.23289013788 0.08219920665 0.00182350667 -0.23342819946 0.08746974639 0.00199552247 -0.23415191006 0.09324303729 0.00218535609 -0.23505506103 0.09948142190 0.00239316693 -0.23613144373 0.10614724282 0.00261911439 -0.23737484951 0.11320284263 0.00286335786 -0.23877906972 0.12061056389 0.00312605674 -0.24033789573 0.12833274920 0.00134631970 -0.23578777735 0.07226244497 0.00147442340 -0.23625084919 0.07682537967 0.00161628679 -0.23682524385 0.08182692312 0.00177281598 -0.23750600161 0.08723891468 0.00194491711 -0.23828816274 0.09303319373 0.00213349631 -0.23916676751 0.09918159962 0.00233945971 -0.24013685619 0.10565597174 0.00256371343 -0.24119346905 0.11242814943 0.00280716361 -0.24233164636 0.11946997207 0.00307071638 -0.24354642840 0.12675327903 0.00127849932 -0.23958881578 0.07132746487 0.00141280863 -0.24022934003 0.07616765224 0.00155811464 -0.24093257705 0.08135199016 0.00171588767 -0.24169397085 0.08685789016 0.00188759800 -0.24250896546 0.09266276375 0.00207471596 -0.24337300488 0.09874402248 0.00227871185 -0.24428153312 0.10507907786 0.00250105597 -0.24522999420 0.11164534142 0.00274321863 -0.24621383214 0.11842022470 0.00300667014 -0.24722849093 0.12538113920 0.00121159117 -0.24364609568 0.07053473026 0.00134897383 -0.24437265096 0.07551205462 0.00149563049 -0.24513981235 0.08078514393 0.00165336152 -0.24594311362 0.08633272343 0.00182396726 -0.24677808860 0.09213351837 0.00200924806 -0.24764027108 0.09816625398 0.00221100426 -0.24852519486 0.10440965552 0.00243103622 -0.24942839376 0.11084244822 0.00267114428 -0.25034540156 0.11744335732 0.00293312879 -0.25127175208 0.12419110808 0.00114787532 -0.24780680107 0.06990690142 0.00128444617 -0.24857402647 0.07487474825 0.00142983194 -0.24937462461 0.08013712059 0.00158587732 -0.25020443634 0.08566946513 0.00175442698 -0.25105930253 0.09144722858 0.00193732560 -0.25193506405 0.09744585764 0.00213641784 -0.25282756175 0.10364079902 0.00235354840 -0.25373263650 0.11000749941 0.00259056193 -0.25464612916 0.11652140552 0.00284930313 -0.25556388061 0.12315796404 0.00108963182 -0.25191811600 0.06946663863 0.00122075284 -0.25272671104 0.07427189456 0.00136171662 -0.25356468872 0.07941865628 0.00151407486 -0.25442894545 0.08487416586 0.00167937929 -0.25531637764 0.09060566540 0.00185918160 -0.25622388172 0.09658039698 0.00205503351 -0.25714835411 0.10276560269 0.00226848672 -0.25808669122 0.10912852461 0.00250109296 -0.25903578946 0.11563640484 0.00275440393 -0.25999254526 0.12225648546 0.00103914073 -0.25582722450 0.06923660216 0.00115942103 -0.25672394915 0.07371965499 0.00129228213 -0.25763767954 0.07864048716 0.00143859392 -0.25856764736 0.08395287624 0.00159922627 -0.25951308430 0.08961059982 0.00177504906 -0.26047322205 0.09556743549 0.00196693215 -0.26144729228 0.10177716083 0.00217574542 -0.26243452670 0.10819355343 0.00240235874 -0.26343415698 0.11477039086 0.00264764199 -0.26444541481 0.12146145071 0.00099868212 -0.25938131062 0.06923945230 0.00110197791 -0.26045898527 0.07323419097 0.00122252610 -0.26152127194 0.07781334937 0.00136007429 -0.26257154851 0.08291164688 0.00151437006 -0.26361319289 0.08846380287 0.00168516099 -0.26464958295 0.09440453671 0.00187219468 -0.26568409661 0.10066856778 0.00207521869 -0.26672011173 0.10719061546 0.00229398063 -0.26776100623 0.11390539913 0.00252822808 -0.26881015799 0.12074763815 0.00097053605 -0.26242755839 0.06949784932 0.00104995066 -0.26382506390 0.07283166394 0.00115344614 -0.26514314079 0.07694797909 0.00127915574 -0.26639165533 0.08175652840 0.00142521274 -0.26758047378 0.08716704553 0.00158975040 -0.26871946238 0.09308926413 0.00177090199 -0.26981848741 0.09943291784 0.00196680077 -0.27088741511 0.10610774032 0.00217558001 -0.27193611175 0.11302346522 0.00239537298 -0.27297444358 0.12008982617 0.00161752724 -0.22825247857 0.07160901735 0.00174269559 -0.22788479951 0.07539741098 0.00189278564 -0.22787593667 0.07999276823 0.00206648316 -0.22822099107 0.08533305704 0.00226247395 -0.22891506374 0.09135624538 0.00247944378 -0.22995325569 0.09800030117 0.00271607844 -0.23133066795 0.10520319237 0.00297106370 -0.23304240154 0.11290288693 0.00324308536 -0.23508355748 0.12103735278 0.00353082918 -0.23744923678 0.12954455789 0.00154407125 -0.23106379670 0.07031821750 0.00168056273 -0.23121785815 0.07469255487 0.00183716883 -0.23158519023 0.07967592652 0.00201338909 -0.23216292450 0.08522203325 0.00220872306 -0.23294819252 0.09128457584 0.00242267026 -0.23393812585 0.09781725509 0.00265473023 -0.23512985605 0.10477377177 0.00290440252 -0.23652051467 0.11210782668 0.00317118666 -0.23810723327 0.11977312062 0.00345458220 -0.23988714341 0.12772335436 0.00146780015 -0.23443958420 0.06915977108 0.00161379632 -0.23492675486 0.07398042302 0.00177584713 -0.23553370989 0.07925985686 0.00195415077 -0.23625828115 0.08496319411 0.00214890542 -0.23709830054 0.09105555627 0.00236030928 -0.23805159992 0.09750206487 0.00258856055 -0.23911601119 0.10426784141 0.00283385742 -0.24028936622 0.11131800739 0.00309639808 -0.24156949689 0.11861768433 0.00337638072 -0.24295423509 0.12613199374 0.00139119745 -0.23822762199 0.06815613700 0.00154404286 -0.23890600139 0.07327698722 0.00170985966 -0.23965074178 0.07875503822 0.00188938235 -0.24045956376 0.08456220055 0.00208334544 -0.24133018789 0.09067038475 0.00229248342 -0.24226033476 0.09705150138 0.00251753082 -0.24324772494 0.10367746098 0.00275922212 -0.24429007903 0.11052017411 0.00301829184 -0.24538511759 0.11755155131 0.00329547448 -0.24653056120 0.12474350313 0.00131674666 -0.24227569104 0.06732977414 0.00147294883 -0.24305010947 0.07259821925 0.00164024554 -0.24386553206 0.07817194958 0.00181969802 -0.24471927505 0.08402471350 0.00201236751 -0.24560865469 0.09013025935 0.00221931523 -0.24653098722 0.09646233547 0.00244160243 -0.24748358889 0.10299469021 0.00268029034 -0.24846377593 0.10970107192 0.00293644017 -0.24946886460 0.11655522894 0.00321111318 -0.25049617113 0.12353090964 0.00124693130 -0.24643157228 0.06670314140 0.00140216072 -0.24725359085 0.07196009089 0.00156804388 -0.24810732686 0.07752106994 0.00174571194 -0.24898991778 0.08335639391 0.00193629602 -0.24989850106 0.08943637815 0.00214092727 -0.25083021417 0.09573133799 0.00236073681 -0.25178219459 0.10221158879 0.00259685578 -0.25275157976 0.10884744588 0.00285041532 -0.25373550717 0.11560922462 0.00312254656 -0.25473111428 0.12246724034 0.00118423488 -0.25054304665 0.06629869767 0.00133332501 -0.25141095728 0.07137857392 0.00149429382 -0.25230537234 0.07681287827 0.00166803829 -0.25322399467 0.08256290272 0.00185545539 -0.25416452710 0.08858993924 0.00205744209 -0.25512467247 0.09485527981 0.00227489536 -0.25610213361 0.10132021642 0.00250871218 -0.25709461336 0.10794604106 0.00275978951 -0.25809981455 0.11469404571 0.00302902435 -0.25911544002 0.12152552235 0.00113114090 -0.25445789510 0.06613890183 0.00126808819 -0.25541672050 0.07086964012 0.00142003447 -0.25638891464 0.07605785356 0.00158729124 -0.25737400848 0.08164990085 0.00177016999 -0.25837153294 0.08759214069 0.00196898224 -0.25938101898 0.09383093178 0.00218403949 -0.26040199754 0.10031263283 0.00241565324 -0.26143399956 0.10698360254 0.00266413499 -0.26247655598 0.11379019961 0.00292979625 -0.26352919775 0.12067878275 0.00109013288 -0.25802389857 0.06624621278 0.00120809676 -0.25916539225 0.07044926129 0.00134630496 -0.26028719991 0.07526647480 0.00150408495 -0.26139246192 0.08062304925 0.00168076424 -0.26248431868 0.08644418059 0.00187567029 -0.26356591056 0.09265506476 0.00208813061 -0.26464037794 0.09918089770 0.00231747268 -0.26571086119 0.10594687537 0.00256302398 -0.26678050071 0.11287819370 0.00282411201 -0.26785243686 0.11990004865 0.00106369432 -0.26108883800 0.06664308942 0.00115499720 -0.26255148427 0.07013340920 0.00127414440 -0.26392947428 0.07444922096 0.00141903361 -0.26523185776 0.07948800885 0.00158756251 -0.26646768444 0.08514725701 0.00177762879 -0.26764600407 0.09132444960 0.00198713013 -0.26877586638 0.09791707076 0.00221396421 -0.26986632110 0.10482260464 0.00245602872 -0.27092641797 0.11193853538 0.00271122133 -0.27196520673 0.11916234713 0.00172373935 -0.22677601965 0.06848236740 0.00186534510 -0.22635770368 0.07248598535 0.00203441334 -0.22633214319 0.07734492474 0.00222899859 -0.22669402291 0.08298118947 0.00244715536 -0.22743802753 0.08931678343 0.00268693816 -0.22855884177 0.09627371052 0.00294640151 -0.23005115036 0.10377397463 0.00322359992 -0.23190963799 0.11173957965 0.00351658790 -0.23412898938 0.12009252947 0.00382341996 -0.23670388925 0.12875482800 0.00163716531 -0.22956141364 0.06696831444 0.00179162616 -0.22970895920 0.07163720159 0.00196818299 -0.23009024053 0.07693998321 0.00216576262 -0.23070256902 0.08281957733 0.00238329188 -0.23154325609 0.08921890197 0.00261969759 -0.23260961314 0.09608087514 0.00287390659 -0.23389895158 0.10334841488 0.00314484570 -0.23540858282 0.11096443921 0.00343144174 -0.23713581826 0.11887186616 0.00373262154 -0.23907796931 0.12701361374 0.00154949124 -0.23291561897 0.06564298965 0.00171464051 -0.23343108925 0.07081727097 0.00189743776 -0.23407631443 0.07645756374 0.00209753642 -0.23484976480 0.08252208779 0.00231458993 -0.23574991063 0.08896906292 0.00254825174 -0.23677522221 0.09575670892 0.00279817529 -0.23792416983 0.10284324561 0.00306401402 -0.23919522376 0.11018689279 0.00334542136 -0.24058685430 0.11774587026 0.00364205077 -0.24209753172 0.12547839783 0.00146335007 -0.23668745531 0.06452865160 0.00163610001 -0.23742086012 0.07004177204 0.00182320495 -0.23822265152 0.07590754396 0.00202485870 -0.23909149484 0.08209356655 0.00224125504 -0.24002605539 0.08856743904 0.00247258777 -0.24102499849 0.09529676063 0.00271905069 -0.24208698946 0.10224913055 0.00298083760 -0.24321069362 0.10939214800 0.00325814229 -0.24439477628 0.11669341220 0.00355115855 -0.24563790278 0.12412052236 0.00138137471 -0.24072574233 0.06364755884 0.00155771650 -0.24157503809 0.06932628341 0.00174651188 -0.24246153840 0.07529980149 0.00194826817 -0.24338364375 0.08153885931 0.00216349272 -0.24433975461 0.08801420309 0.00239269285 -0.24532827148 0.09469657906 0.00263637589 -0.24634759485 0.10155673345 0.00289504918 -0.24739612519 0.10856541249 0.00316922003 -0.24847226301 0.11569336240 0.00345939579 -0.24957440879 0.12291132941 0.00130619809 -0.24487929969 0.06302196993 0.00148120183 -0.24579038946 0.06868638364 0.00166838582 -0.24672526168 0.07464421398 0.00186830355 -0.24768209612 0.08086281176 0.00208150849 -0.24865907253 0.08730952782 0.00230855414 -0.24965437068 0.09395171298 0.00254999397 -0.25066617035 0.10075671805 0.00280638148 -0.25169265129 0.10769189388 0.00307827013 -0.25273199328 0.11472459127 0.00336621342 -0.25378237607 0.12182216106 0.00124045314 -0.24899694706 0.06267414344 0.00140826786 -0.24996368051 0.06813765133 0.00158985410 -0.25094610797 0.07395065906 0.00178550354 -0.25194273655 0.08007026963 0.00199550788 -0.25295207338 0.08645358600 0.00222015881 -0.25397262561 0.09305771116 0.00245974803 -0.25500290034 0.09983974810 0.00271456723 -0.25604140472 0.10675679980 0.00298490810 -0.25708664587 0.11376596923 0.00327106234 -0.25813713092 0.12082435939 0.00118677277 -0.25292750412 0.06262633792 0.00134062644 -0.25399167754 0.06769566504 0.00151194400 -0.25505636386 0.07322901437 0.00170040685 -0.25612144963 0.07916607859 0.00190569640 -0.25718682141 0.08544655037 0.00212749403 -0.25825236574 0.09201012239 0.00236548116 -0.25931796918 0.09879648734 0.00261933917 -0.26038351828 0.10574533788 0.00288874948 -0.26144889958 0.11279636670 0.00317339348 -0.26251399965 0.11988926647 0.00114778992 -0.25651979052 0.06290081194 0.00127998942 -0.25777114683 0.06737600337 0.00143568283 -0.25898831598 0.07248915755 0.00161355220 -0.26017411998 0.07815508436 0.00181227956 -0.26133138085 0.08428859370 0.00203054696 -0.26246292060 0.09080449545 0.00226703643 -0.26357156124 0.09761759951 0.00252043003 -0.26466012477 0.10464271576 0.00278940978 -0.26573143321 0.11179465409 0.00307265774 -0.26678830856 0.11898822439 0.00112613750 -0.25962262595 0.06351982406 0.00122806865 -0.26119885466 0.06719424489 0.00136209790 -0.26267425092 0.07174096622 0.00152547829 -0.26405663218 0.07704213264 0.00171546290 -0.26535381595 0.08297988874 0.00192930477 -0.26657361969 0.08943637911 0.00216425696 -0.26772386088 0.09629374836 0.00241757253 -0.26881235700 0.10343414107 0.00268650453 -0.26984692554 0.11073970183 0.00296830603 -0.27083538397 0.11809257524 0.00178977751 -0.22516288160 0.06512550102 0.00194929643 -0.22464788328 0.06939159064 0.00213806184 -0.22457354781 0.07456281545 0.00235333057 -0.22492949217 0.08053915923 0.00259235947 -0.22570533335 0.08722060575 0.00285240535 -0.22689068833 0.09450713878 0.00313072506 -0.22847517410 0.10229874212 0.00342457542 -0.23044840764 0.11049539952 0.00373121327 -0.23280000594 0.11899709478 0.00404789545 -0.23551958597 0.12770381166 0.00168647235 -0.22791235848 0.06327872195 0.00186163843 -0.22803506557 0.06833056697 0.00205983950 -0.22841924518 0.07403044702 0.00227943989 -0.22905923038 0.08030783169 0.00251880389 -0.22994935424 0.08709219056 0.00277629582 -0.23108394984 0.09431299322 0.00305027998 -0.23245735024 0.10189970925 0.00333912070 -0.23406388853 0.10978180825 0.00364118226 -0.23589789777 0.11788875979 0.00395482899 -0.23795371103 0.12615003348 0.00158487836 -0.23123782396 0.06170431312 0.00177283399 -0.23178518679 0.06735151549 0.00197879143 -0.23247408961 0.07345202337 0.00220199401 -0.23330169894 0.07995707648 0.00244168506 -0.23426518133 0.08681791455 0.00269710792 -0.23536170331 0.09398577729 0.00296750591 -0.23658843142 0.10141190445 0.00325212237 -0.23794253219 0.10904753573 0.00355020064 -0.23942117217 0.11684391087 0.00386098403 -0.24102151788 0.12475226959 0.00148774419 -0.23498960704 0.06042429675 0.00168461165 -0.23579855094 0.06646936299 0.00189587446 -0.23667534794 0.07283638806 0.00212139347 -0.23761861528 0.07949036839 0.00236102951 -0.23862697018 0.08639630042 0.00261464342 -0.23969902987 0.09351918061 0.00288209603 -0.24083341156 0.10082400540 0.00316324819 -0.24202873250 0.10827577123 0.00345796073 -0.24328360990 0.11583947454 0.00376609448 -0.24459666098 0.12348011179 0.00139781853 -0.23901803669 0.05946069507 0.00159869994 -0.23997546198 0.06569903625 0.00181204544 -0.24096028703 0.07219238462 0.00203803879 -0.24197169682 0.07891118217 0.00227686375 -0.24300887636 0.08582587089 0.00252870408 -0.24407101063 0.09290689277 0.00279374354 -0.24515728462 0.10012468981 0.00307216588 -0.24626688332 0.10744970401 0.00336415487 -0.24739899173 0.11485237735 0.00366989425 -0.24855279483 0.12230315183 0.00131785002 -0.24317344190 0.05883553032 0.00151682738 -0.24421622391 0.06505546206 0.00172826119 -0.24526617371 0.07152885661 0.00195233049 -0.24632266099 0.07822299260 0.00218921431 -0.24738505543 0.08510514864 0.00243909168 -0.24845272671 0.09214260337 0.00270214162 -0.24952504451 0.09930263539 0.00297854318 -0.25060137852 0.10655252334 0.00326847538 -0.25168109842 0.11385954584 0.00357211726 -0.25276357389 0.12119098150 0.00125058734 -0.24730615164 0.05857082472 0.00144072251 -0.24842114070 0.06455356720 0.00164547857 -0.24953027483 0.07085464758 0.00186466910 -0.25063322519 0.07742927445 0.00209810770 -0.25172966294 0.08423265640 0.00234560796 -0.25281925922 0.09122000199 0.00260698347 -0.25390168518 0.09834651983 0.00288204782 -0.25497661197 0.10556741848 0.00317061461 -0.25604371074 0.11283790653 0.00347249741 -0.25710265265 0.12011319258 0.00119877916 -0.25126649492 0.05868860051 0.00137211387 -0.25249051634 0.06420827846 0.00156465440 -0.25368985724 0.07017860108 0.00177545514 -0.25486510687 0.07653350250 0.00200357046 -0.25601685446 0.08320691685 0.00224805471 -0.25714568928 0.09013277825 0.00250796229 -0.25825220055 0.09724502082 0.00278234755 -0.25933697753 0.10447757869 0.00307026487 -0.26040060946 0.11176438598 0.00337076861 -0.26144368558 0.11903937682 0.00116517414 -0.25490480069 0.05921087992 0.00131272997 -0.25632465480 0.06403452262 0.00148674554 -0.25768218778 0.06950956065 0.00168508914 -0.25898002342 0.07553915152 0.00190562909 -0.26022078556 0.08202645272 0.00214623369 -0.26140709801 0.08887462174 0.00240477125 -0.26254158457 0.09598681608 0.00267911008 -0.26362686907 0.10326619325 0.00296711850 -0.26466557533 0.11061591072 0.00326666479 -0.26566032715 0.11793912601 0.00115252094 -0.25807139796 0.06015968518 0.00126429936 -0.25982386008 0.06404722647 0.00141270881 -0.26144453329 0.06885636985 0.00159397161 -0.26293969229 0.07444969628 0.00180431012 -0.26431561179 0.08068978670 0.00203994665 -0.26557856652 0.08743922205 0.00229710356 -0.26673483117 0.09456058331 0.00257200317 -0.26779068047 0.10191645140 0.00286086782 -0.26875238912 0.10936940729 0.00315991985 -0.26962623185 0.11678203192 0.00181120598 -0.22343963405 0.06157536856 0.00199101337 -0.22276915920 0.06615751620 0.00220120529 -0.22260549446 0.07169468170 0.00243794345 -0.22292823755 0.07805739361 0.00269738954 -0.22371698615 0.08511618048 0.00297570526 -0.22495133796 0.09274157089 0.00326905230 -0.22661089069 0.10080409338 0.00357359236 -0.22867524203 0.10917427650 0.00388548714 -0.23112398967 0.11772264882 0.00420089833 -0.23393673133 0.12631973890 0.00168641028 -0.22614034253 0.05926086086 0.00188675670 -0.22621400570 0.06480020233 0.00210978611 -0.22658616060 0.07098638825 0.00235323354 -0.22724500594 0.07773224938 0.00261483404 -0.22817874047 0.08495061653 0.00289232264 -0.22937556289 0.09255432046 0.00318343437 -0.23082367195 0.10045619196 0.00348590427 -0.23251126636 0.10856906182 0.00379746739 -0.23442654486 0.11680576081 0.00411585875 -0.23655770616 0.12507911971 0.00156744686 -0.22942814146 0.05733595390 0.00178425476 -0.23001038192 0.06359874860 0.00201764091 -0.23074806753 0.07027521536 0.00226654462 -0.23163532997 0.07730964093 0.00252990522 -0.23266630094 0.08464631207 0.00280666204 -0.23383511215 0.09222951551 0.00309575441 -0.23513589527 0.10000353801 0.00339612164 -0.23656278202 0.10791266631 0.00370670307 -0.23810990408 0.11590118716 0.00402643802 -0.23977139314 0.12391338730 0.00145716684 -0.23315536850 0.05582236051 0.00168520935 -0.23406370855 0.06256711634 0.00192559212 -0.23503587270 0.06956845120 0.00217806342 -0.23606977624 0.07679098627 0.00244237154 -0.23716333447 0.08419934271 0.00271826477 -0.23831446267 0.09175814168 0.00300549139 -0.23952107615 0.09943200436 0.00330379968 -0.24078109019 0.10718555191 0.00361293792 -0.24209242009 0.11498340550 0.00393265441 -0.24345298115 0.12279018629 0.00135842132 -0.23717436130 0.05474179355 0.00159132224 -0.23827940628 0.06171926691 0.00183446215 -0.23939423357 0.06887338394 0.00208797668 -0.24051891139 0.07617770340 0.00235200145 -0.24165350793 0.08360578404 0.00262667211 -0.24279809142 0.09113118461 0.00291212428 -0.24395273007 0.09872746387 0.00320849359 -0.24511749208 0.10636818057 0.00351591569 -0.24629244566 0.11402689346 0.00383452619 -0.24747765903 0.12167716131 0.00127406141 -0.24133745752 0.05411596586 0.00150429522 -0.24256289580 0.06106916166 0.00174507342 -0.24376780758 0.06819730174 0.00199647112 -0.24495330201 0.07547121033 0.00225856339 -0.24612048823 0.08286171165 0.00253142533 -0.24727047535 0.09033962992 0.00281513203 -0.24840437252 0.09787578937 0.00310975859 -0.24952328887 0.10544101421 0.00341538009 -0.25062833354 0.11300612867 0.00373207163 -0.25172061566 0.12054195697 0.00120693822 -0.24549699482 0.05396659028 0.00142583007 -0.24681959779 0.06063076193 0.00165824836 -0.24810125218 0.06754749277 0.00190373348 -0.24934351475 0.07467292508 0.00216182580 -0.25054794224 0.08196320115 0.00243206572 -0.25171609140 0.08937446326 0.00271399362 -0.25284951900 0.09686285371 0.00300714988 -0.25394978178 0.10438451478 0.00331107489 -0.25501843649 0.11189558875 0.00362530902 -0.25605703989 0.11935221791 0.00115990286 -0.24950531085 0.05431537966 0.00135762857 -0.25095493295 0.06041802907 0.00157480937 -0.25233922482 0.06693124518 0.00180995048 -0.25366011620 0.07378426564 0.00206155714 -0.25491953685 0.08090632812 0.00232813458 -0.25611941653 0.08822667027 0.00260818801 -0.25726168500 0.09567452975 0.00290022268 -0.25834827199 0.10317914421 0.00320274380 -0.25938110728 0.11066975133 0.00351425662 -0.26036212060 0.11807558875 0.00113580642 -0.25321474328 0.05518404685 0.00130139250 -0.25487432197 0.06044492444 0.00149557887 -0.25642638294 0.06635584715 0.00171530887 -0.25787367299 0.07280665004 0.00195752586 -0.25921893897 0.07968716816 0.00221917317 -0.26046492769 0.08688723657 0.00249719417 -0.26161438600 0.09429669031 0.00278853219 -0.26267006071 0.10180536445 0.00309013058 -0.26363469865 0.10930309403 0.00339893270 -0.26451104665 0.11667971411 0.00113750003 -0.25647762975 0.05659430468 0.00125882366 -0.25848318555 0.06072540937 0.00142137929 -0.26030738399 0.06582858684 0.00161999538 -0.26195475174 0.07174149628 0.00184950039 -0.26342981547 0.07830179687 0.00210472279 -0.26473710184 0.08534714780 0.00238049105 -0.26588113750 0.09271520826 0.00267163362 -0.26686644912 0.10024363742 0.00297297896 -0.26769756336 0.10777009448 0.00327935555 -0.26837900689 0.11513223862 0.00178358903 -0.22163284667 0.05786892038 0.00198695972 -0.22073535235 0.06282705136 0.00222131788 -0.22043332712 0.06878876479 0.00248130157 -0.22069109772 0.07558631988 0.00276154886 -0.22147299086 0.08305197581 0.00305669781 -0.22274333324 0.09101799177 0.00336138647 -0.22446645161 0.09931662695 0.00367025290 -0.22660667266 0.10778014054 0.00397793515 -0.22912832312 0.11624079173 0.00427907130 -0.23199572971 0.12453083970 0.00163139700 -0.22426907713 0.05492615201 0.00186313815 -0.22426360806 0.06107365901 0.00211567053 -0.22460494320 0.06784687719 0.00238595623 -0.22527199309 0.07513828348 0.00267095728 -0.22624366826 0.08284035478 0.00296763575 -0.22749887926 0.09084556802 0.00327295371 -0.22901653662 0.09904640010 0.00358387320 -0.23077555089 0.10733532795 0.00389735630 -0.23275483260 0.11560482847 0.00421036504 -0.23493329229 0.12374737859 0.00149068213 -0.22750851376 0.05253012443 0.00174478085 -0.22812800908 0.05957456227 0.00201171895 -0.22891928032 0.06695911931 0.00229020932 -0.22987190428 0.07462126190 0.00257896482 -0.23097545779 0.08249845638 0.00287669835 -0.23221951766 0.09052816909 0.00318212277 -0.23359366070 0.09864786639 0.00349395098 -0.23508746375 0.10679501462 0.00381089584 -0.23669050361 0.11490708012 0.00413167024 -0.23839235711 0.12292152925 0.00136440502 -0.23120603100 0.05070213098 0.00163352469 -0.23224096768 0.05834238837 0.00191008185 -0.23333126748 0.06613061408 0.00219394530 -0.23447382890 0.07403380042 0.00248498384 -0.23566555047 0.08201893969 0.00278306625 -0.23690333069 0.09005302421 0.00308806132 -0.23818406810 0.09810304626 0.00339983785 -0.23950466121 0.10613599817 0.00371826463 -0.24086200853 0.11411887224 0.00404321045 -0.24225300859 0.12201866078 0.00125552631 -0.23521650331 0.04946346501 0.00153100652 -0.23651489614 0.05738976453 0.00181137794 -0.23779583369 0.06536648443 0.00209704863 -0.23906076455 0.07337444432 0.00238842666 -0.24031113733 0.08139446383 0.00268592010 -0.24154840064 0.08940736258 0.00298993701 -0.24277400307 0.09739396017 0.00330088545 -0.24398939323 0.10533507624 0.00361917350 -0.24519601973 0.11321153039 0.00394520922 -0.24639533117 0.12100414226 0.00116700660 -0.23939480516 0.04883541987 0.00143886322 -0.24086220674 0.05672931797 0.00171622595 -0.24226790794 0.06467185327 0.00199940377 -0.24361570882 0.07264173888 0.00228870564 -0.24490940941 0.08061768789 0.00258444056 -0.24615280974 0.08857841341 0.00288691749 -0.24734970985 0.09650262856 0.00319644540 -0.24850390979 0.10436904643 0.00351333329 -0.24961920958 0.11215638013 0.00383789011 -0.25069940927 0.11984334276 0.00110180651 -0.24359581100 0.04883928890 0.00135873164 -0.24519531175 0.05637367592 0.00162524459 -0.24670241926 0.06405184354 0.00190089515 -0.24812165933 0.07183422936 0.00218523312 -0.24945755773 0.07968127096 0.00247780828 -0.25071464026 0.08755340594 0.00277817042 -0.25189743270 0.09541107188 0.00308586934 -0.25301046083 0.10321470637 0.00340045482 -0.25405825045 0.11092474701 0.00372147666 -0.25504532734 0.11850163138 0.00106288666 -0.24767439529 0.04949636545 0.00129224865 -0.24942662345 0.05633546560 0.00153905258 -0.25105429664 0.06351157817 0.00180140725 -0.25256161366 0.07095046105 0.00207742143 -0.25395277333 0.07857787215 0.00236520391 -0.25523197446 0.08631956935 0.00266286347 -0.25640341586 0.09410131057 0.00296850889 -0.25747129634 0.10184885368 0.00328024895 -0.25843981472 0.10948795659 0.00359619244 -0.25931316980 0.11694437720 0.00105320766 -0.25148543249 0.05082794286 0.00124105110 -0.25346855413 0.05662731422 0.00145826865 -0.25527846908 0.06305618006 0.00170082451 -0.25691856943 0.06998897922 0.00196468293 -0.25839224724 0.07730015055 0.00224580811 -0.25970289459 0.08486413288 0.00254016428 -0.26085390358 0.09255536508 0.00284371567 -0.26184866627 0.10024828599 0.00315242650 -0.26269057475 0.10781733444 0.00346226099 -0.26338302109 0.11513694930 0.00107573013 -0.25488379705 0.05285531448 0.00120677587 -0.25723351606 0.05726184902 0.00138351150 -0.25932986560 0.06269077216 0.00159903139 -0.26117552423 0.06894832915 0.00184642994 -0.26277317048 0.07584076525 0.00211880152 -0.26412548293 0.08317432574 0.00240924052 -0.26523514011 0.09075525587 0.00271084132 -0.26610482059 0.09838980091 0.00301669831 -0.26673720291 0.10588420612 0.00331990588 -0.26713496563 0.11304471677 0.00170249094 -0.21976908908 0.05404310686 0.00193359926 -0.21856028361 0.05944348545 0.00219587375 -0.21806238974 0.06589330606 0.00248186927 -0.21821891138 0.07317636532 0.00278414070 -0.21897335242 0.08107645988 0.00309524291 -0.22026921677 0.08937738635 0.00340773077 -0.22205000835 0.09786294138 0.00371415917 -0.22425923106 0.10631692159 0.00400708296 -0.22684038880 0.11452312361 0.00427905702 -0.22973698549 0.12226534409 0.00151585044 -0.22232227359 0.05028601625 0.00178693995 -0.22220170111 0.05717848833 0.00207514052 -0.22248954941 0.06465098416 0.00237642058 -0.22315228918 0.07257138702 0.00268674856 -0.22415639111 0.08080758022 0.00300209288 -0.22546832588 0.08922744704 0.00331842197 -0.22705456417 0.09769887076 0.00363170425 -0.22888157667 0.10608973467 0.00393790814 -0.23091583406 0.11426792207 0.00423300208 -0.23312380702 0.12210131624 0.00134806952 -0.22550088313 0.04727903714 0.00165029026 -0.22615940271 0.05529454851 0.00195875832 -0.22700876011 0.06353571484 0.00227200918 -0.22803266827 0.07193342012 0.00258857828 -0.22921484017 0.08041854836 0.00290700107 -0.23053898877 0.08892198355 0.00322581300 -0.23198882702 0.09737460969 0.00354354954 -0.23354806789 0.10570731076 0.00385874612 -0.23520042435 0.11385097078 0.00416993822 -0.23692960936 0.12173647372 0.00120224576 -0.22916288584 0.04504289622 0.00152518923 -0.23035496304 0.05380253536 0.00184706759 -0.23158857394 0.06254975738 0.00216811587 -0.23285962442 0.07125719106 0.00248856909 -0.23416402038 0.07989746518 0.00280866225 -0.23549766772 0.08844320855 0.00312863038 -0.23685647232 0.09686704994 0.00344870850 -0.23823634008 0.10514161814 0.00376913161 -0.23963317689 0.11323954195 0.00409013475 -0.24104288864 0.12113345014 0.00108147670 -0.23316624989 0.04359832017 0.00141317588 -0.23470995671 0.05271331825 0.00174040874 -0.23619754301 0.06169537105 0.00206422147 -0.23763273342 0.07053742626 0.00238566024 -0.23901925255 0.07923243157 0.00270577124 -0.24036082503 0.08777333468 0.00302560063 -0.24166117549 0.09615308330 0.00334619460 -0.24292402856 0.10436462510 0.00366859933 -0.24415310886 0.11240090780 0.00399386099 -0.24535214102 0.12025487909 0.00098885991 -0.23736894343 0.04296603565 0.00131578924 -0.23914595834 0.05203776654 0.00163912220 -0.24080421944 0.06097481512 0.00195980679 -0.24235157103 0.06976885215 0.00227879100 -0.24379585745 0.07841154840 0.00259702282 -0.24514492299 0.08689457460 0.00291545027 -0.24640661196 0.09520960153 0.00323502132 -0.24758876869 0.10334829993 0.00355668398 -0.24869923748 0.11130234056 0.00388138624 -0.24974586265 0.11906339417 0.00092749294 -0.24162893461 0.04316676935 0.00123456834 -0.24358454253 0.05178674958 0.00154354839 -0.24537715531 0.06039034885 0.00185435263 -0.24701571306 0.06894619518 0.00216690060 -0.24850915588 0.07742291655 0.00248111181 -0.24986642388 0.08578914097 0.00279690581 -0.25109645715 0.09401349642 0.00311420212 -0.25220819581 0.10206461091 0.00343292028 -0.25321057995 0.10991111243 0.00375297981 -0.25411254968 0.11752162899 0.00090047336 -0.24580419159 0.04422124794 0.00117105220 -0.24794728390 0.05197113674 0.00145402774 -0.24988490275 0.05994423153 0.00174733982 -0.25162473528 0.06806418177 0.00204892830 -0.25317446865 0.07625463692 0.00235673300 -0.25454179000 0.08443924643 0.00266869378 -0.25573438648 0.09254165975 0.00298275048 -0.25675994525 0.10048552633 0.00329684295 -0.25762615346 0.10819449564 0.00360891103 -0.25834069825 0.11559221713 0.00091089873 -0.24975268253 0.04615019810 0.00112677986 -0.25215575707 0.05260179739 0.00137090067 -0.25429601385 0.05963872242 0.00163824917 -0.25617821347 0.06711753837 0.00192381334 -0.25780711653 0.07489481038 0.00222258119 -0.25918748363 0.08282710364 0.00252954070 -0.26032407538 0.09077098328 0.00283967987 -0.26122165237 0.09858301448 0.00314798670 -0.26188497522 0.10611976240 0.00344944918 -0.26231880451 0.11323779220 0.00096186660 -0.25333237558 0.04897434650 0.00110329033 -0.25613153665 0.05368960088 0.00129450761 -0.25857904072 0.05947608079 0.00152656148 -0.26067572341 0.06610099139 0.00179049498 -0.26242242032 0.07333153783 0.00207735117 -0.26381996707 0.08093492525 0.00237817308 -0.26486919926 0.08867835880 0.00268400376 -0.26557095251 0.09632904365 0.00298588625 -0.26592606242 0.10365418493 0.00327486360 -0.26593536462 0.11042098780 0.00156347598 -0.21787493093 0.05013487835 0.00182739580 -0.21625777390 0.05605010781 0.00212234707 -0.21549802628 0.06305654682 0.00243811087 -0.21551251720 0.07087795722 0.00276446831 -0.21621807577 0.07923810085 0.00309120047 -0.21753153113 0.08786073957 0.00340808844 -0.21936971242 0.09646963520 0.00370491333 -0.22164944875 0.10478854960 0.00397145621 -0.22428756925 0.11254124460 0.00419749819 -0.22720090307 0.11945148206 0.00133418850 -0.22032364323 0.04535187440 0.00165431927 -0.22004611329 0.05314224162 0.00198584379 -0.22025393563 0.06143777944 0.00232343925 -0.22089799160 0.07007701309 0.00266178284 -0.22192916251 0.07889846776 0.00299555173 -0.22329832971 0.08774066867 0.00331942312 -0.22495637452 0.09644214102 0.00362807418 -0.22685417827 0.10484141002 0.00391618210 -0.22894262231 0.11277700088 0.00417842407 -0.23117258795 0.12008743880 0.00113309442 -0.22342719186 0.04157490446 0.00149666100 -0.22412589725 0.05077429930 0.00185649179 -0.22503753901 0.06003698155 0.00221096528 -0.22613886833 0.06928759637 0.00255845999 -0.22740663640 0.07845078893 0.00289735442 -0.22881759441 0.08745120442 0.00322602708 -0.23034849353 0.09621348799 0.00354285646 -0.23197608496 0.10466228483 0.00384622108 -0.23367711988 0.11272224011 0.00413449944 -0.23542834947 0.12031799900 0.00096347605 -0.22704722434 0.03882394431 0.00135583454 -0.22843032934 0.04895491360 0.00173427328 -0.22983483375 0.05885276178 0.00209965189 -0.23125601398 0.06849953839 0.00245282999 -0.23268914643 0.07787729298 0.00279466719 -0.23412950753 0.08696807508 0.00312602312 -0.23557237369 0.09575393422 0.00344775739 -0.23701302131 0.10421691994 0.00376072962 -0.23844672682 0.11233908178 0.00406579942 -0.23986876662 0.12010246927 0.00082861570 -0.23104538819 0.03711896974 0.00123325340 -0.23289261314 0.04769271721 0.00161917048 -0.23463181720 0.05788372877 0.00198846199 -0.23627029510 0.06770267051 0.00234322304 -0.23781534158 0.07716020854 0.00268554869 -0.23927425137 0.08626700893 0.00301753405 -0.24065431920 0.09503373781 0.00334127418 -0.24196283983 0.10347106125 0.00365886417 -0.24320710797 0.11158964536 0.00397239910 -0.24439441837 0.11940015624 0.00073179566 -0.23528333092 0.03647995651 0.00113033114 -0.23744595220 0.04699634287 0.00151116560 -0.23941448670 0.05712849117 0.00187635852 -0.24120257828 0.06688682407 0.00222796936 -0.24282387082 0.07628176421 0.00256805758 -0.24429200821 0.08532373426 0.00289868265 -0.24562063431 0.09402315686 0.00322190403 -0.24682339301 0.10239045466 0.00353978119 -0.24791392818 0.11043605033 0.00385437358 -0.24890588370 0.11817036651 0.00067629825 -0.23962270006 0.03692688041 0.00104848127 -0.24202355009 0.04687442330 0.00141024088 -0.24416883958 0.05658565763 0.00176230441 -0.24607373008 0.06604183041 0.00210539918 -0.24775338316 0.07522418864 0.00244025251 -0.24922296036 0.08411397932 0.00276759173 -0.25049762324 0.09269244947 0.00308814417 -0.25159253337 0.10094084608 0.00340263713 -0.25252285230 0.10884041616 0.00371179796 -0.25330374159 0.11637240672 0.00066540577 -0.24392514311 0.03847971722 0.00098911733 -0.24655861036 0.04733559121 0.00131637852 -0.24888087319 0.05625383677 0.00164526257 -0.25090461708 0.06515752086 0.00197384270 -0.25264252755 0.07396971042 0.00230019213 -0.25410729010 0.08261347240 0.00262238409 -0.25531159021 0.09101187375 0.00293849179 -0.25626811340 0.09908798141 0.00324658847 -0.25698954517 0.10676486234 0.00354474734 -0.25748857101 0.11396558348 0.00070240052 -0.24805230760 0.04115844271 0.00095365285 -0.25098433658 0.04838847932 0.00122956075 -0.25353658486 0.05613163726 0.00152419594 -0.25571610586 0.06422372679 0.00183163015 -0.25752995300 0.07250055820 0.00214593511 -0.25898517973 0.08079794177 0.00246118252 -0.26008883946 0.08895168780 0.00277144413 -0.26084798562 0.09679760656 0.00307079165 -0.26126967164 0.10417150834 0.00335329680 -0.26136095094 0.11090920342 0.00079056482 -0.25186584105 0.04498303266 0.00094350137 -0.25523393232 0.05004172037 0.00114976978 -0.25812197193 0.05621766772 0.00139806744 -0.26052906297 0.06323027952 0.00167709175 -0.26245430848 0.07079896058 0.00197554008 -0.26389681154 0.07864311571 0.00228210983 -0.26485567519 0.08648214972 0.00258549838 -0.26533000251 0.09403546742 0.00287440313 -0.26531889655 0.10102247363 0.00313752147 -0.26482146037 0.10716257315 </DataArray>
</PointData>
<Points>
<DataArray type="Float32" NumberOfComponents="3">
-0.33223079556 0.19916491584 2.91171516498 -0.33215478365 0.21013309359 2.91224971122 -0.33206534396 0.22314418640 2.91410099168 -0.33195980714 0.23810138524 2.91716048510 -0.33183550381 0.25490788108 2.92131967026 -0.33168976460 0.27346686489 2.92647002592 -0.33151992015 0.29368152761 2.93250303084 -0.33132330109 0.31545506023 2.93931016379 -0.33109723806 0.33869065371 2.94678290354 -0.33083906170 0.36329149900 2.95481272884 -0.33227511224 0.19441001471 2.92046494240 -0.33222762604 0.20672576568 2.92282887244 -0.33237445472 0.22060701904 2.92602943964 -0.33291826833 0.23599711311 2.92999050018 -0.33406173695 0.25283938621 2.93463591029 -0.33600753063 0.27107717666 2.93988952614 -0.33895831946 0.29065382279 2.94567520395 -0.34311677349 0.31151266292 2.95191679991 -0.34868556279 0.33359703536 2.95853817023 -0.35586735742 0.35685027844 2.96546317109 -0.33232295075 0.18957184760 2.93105806210 -0.33229696451 0.20295609057 2.93460798408 -0.33262502475 0.21753300461 2.93868016722 -0.33366746873 0.23327569567 2.94322234921 -0.33578463371 0.25015726968 2.94818226773 -0.33933685696 0.26815083261 2.95350766049 -0.34468447574 0.28722949039 2.95914626518 -0.35218782731 0.30736634898 2.96504581950 -0.36220724894 0.32853451433 2.97115406114 -0.37510307790 0.35070709237 2.97741872780 -0.33237268152 0.18480321390 2.94300923646 -0.33236136405 0.19893142560 2.94724567442 -0.33281364387 0.21399385092 2.95182139912 -0.33419792463 0.22998155706 2.95670098943 -0.33698260995 0.24688561122 2.96184902419 -0.34163610347 0.26469708058 2.96723008229 -0.34862680883 0.28340703235 2.97280874256 -0.35842312966 0.30300653372 2.97854958387 -0.37149346961 0.32348665187 2.98441718508 -0.38830623230 0.34483845402 2.99037612505 -0.33242267497 0.18025691298 2.95583317790 -0.33241938965 0.19475912807 2.96040057171 -0.33293690190 0.21006126575 2.96522136001 -0.33450015232 0.22615912143 2.97027137810 -0.33763408151 0.24304849052 2.97552646128 -0.34286363006 0.26072516844 2.98096244484 -0.35071373857 0.27918495059 2.98655516409 -0.36170934764 0.29842363240 2.99228045432 -0.37637539786 0.31843700927 2.99811415083 -0.39523682982 0.33922087662 3.00403208892 -0.33247130153 0.17608574423 2.96904459880 -0.33246960629 0.19054655532 2.97373130421 -0.33299138863 0.20580695690 2.97864827456 -0.33456466809 0.22185281291 2.98377847248 -0.33771746424 0.23866998730 2.98910486057 -0.34297779663 0.25624434404 2.99461040147 -0.35087368481 0.27456174706 3.00027805779 -0.36193314834 0.29360806033 3.00609079215 -0.37668420676 0.31336914778 3.01203156717 -0.39565487964 0.33383087338 3.01808334546 -0.33251693161 0.17244250704 2.98215821158 -0.33251057897 0.18640106468 2.98689650020 -0.33297369387 0.20130263215 2.99187036747 -0.33438198824 0.21710705563 2.99706722983 -0.33721117400 0.23377418127 3.00247450369 -0.34193696308 0.25126385523 3.00807960550 -0.34903506739 0.26953592368 3.01386995169 -0.35898119885 0.28855023278 3.01983295867 -0.37225106940 0.30826662867 3.02595604289 -0.38932039095 0.32864495754 3.03222662077 -0.33255793565 0.16948000080 2.99468872862 -0.33254087268 0.18243001346 2.99955478793 -0.33288040745 0.19661999931 3.00465586341 -0.33394262906 0.21196627374 3.00998260740 -0.33609362664 0.22838515213 3.01552567223 -0.33969948930 0.24579294989 3.02127571025 -0.34512630614 0.26410598239 3.02722337379 -0.35274016628 0.28324056503 3.03335931519 -0.36290715885 0.30311301321 3.03967418678 -0.37599337294 0.32363964230 3.04615864090 -0.33259268405 0.16735102489 3.00615086234 -0.33255905240 0.17874075900 3.01136479567 -0.33270811916 0.19183076616 3.01677298706 -0.33323710684 0.20647489137 3.02236956245 -0.33434323801 0.22252697960 3.02814864779 -0.33622373519 0.23984087585 3.03410436903 -0.33907582091 0.25827042512 3.04023085212 -0.34309671773 0.27766947239 3.04652222300 -0.34848364817 0.29789186265 3.05297260763 -0.35543383478 0.31879144091 3.05957613194 -0.33261954726 0.16620837869 3.01605932512 -0.33256368314 0.17544065862 3.02198515168 -0.33245341881 0.18700664051 3.02798996310 -0.33225593788 0.20067733265 3.03407305224 -0.33193842395 0.21622374337 3.04023371197 -0.33146806064 0.23341688098 3.04647123517 -0.33081203155 0.25202775379 3.05278491470 -0.32993752029 0.27182737012 3.05917404342 -0.32881171046 0.29258673827 3.06563791422 -0.32740178567 0.31407686657 3.07217581995 -0.40611518212 0.19345254367 2.90949760724 -0.40601001257 0.20479649784 2.91014291785 -0.40581571123 0.21829363686 2.91218362064 -0.40546043679 0.23382256581 2.91554578730 -0.40487234798 0.25126188971 2.92015548950 -0.40397960349 0.27049021364 2.92593879895 -0.40271036203 0.29138614264 2.93282178732 -0.40099278231 0.31382828176 2.94073052630 -0.39875502303 0.33769523605 2.94959108758 -0.39592524290 0.36286561058 2.95932954284 -0.40616865579 0.18855611331 2.91820034809 -0.40606546332 0.20129196179 2.92068981567 -0.40602373932 0.21569283515 2.92407514015 -0.40611474007 0.23167455088 2.92830248232 -0.40640972187 0.24915292650 2.93331800301 -0.40697994098 0.26804377952 2.93906786305 -0.40789665372 0.28826292743 2.94549822324 -0.40923111634 0.30972618775 2.95255524442 -0.41105458515 0.33234937799 2.96018508738 -0.41343831643 0.35604831564 2.96833391296 -0.40622594165 0.18361270122 2.92875874286 -0.40612426615 0.19745112488 2.93244436537 -0.40620219543 0.21257254135 2.93669717065 -0.40664304088 0.22892044302 2.94147762861 -0.40763011394 0.24643832233 2.94674620916 -0.40934672599 0.26506967168 2.95246338224 -0.41197618844 0.28475798349 2.95858961774 -0.41570181271 0.30544675018 2.96508538560 -0.42070691021 0.32707946416 2.97191115572 -0.42717479233 0.34959961785 2.97902739803 -0.40628503750 0.17877530722 2.94068724293 -0.40618473767 0.19338114150 2.94506536124 -0.40634749270 0.20900425073 2.94981785176 -0.40703566891 0.22560469338 2.95491482758 -0.40851163258 0.24314252792 2.96032640182 -0.41103775004 0.26157781281 2.96602268755 -0.41487638757 0.28087060652 2.97197379789 -0.42028991149 0.30098096753 2.97814984592 -0.42754068810 0.32186895429 2.98452094473 -0.43689108369 0.34349462528 2.99105720743 -0.40634394114 0.17419693112 2.95350029971 -0.40624519448 0.18918916602 2.95821159757 -0.40645604431 0.20505945856 2.96320532307 -0.40728295381 0.22177175310 2.96845768067 -0.40903238621 0.23928999400 2.97394487485 -0.41201080470 0.25757812559 2.97964311005 -0.41652467248 0.27660009224 2.98552859076 -0.42288045276 0.29631983829 2.99157752144 -0.43138460874 0.31670130810 2.99776610655 -0.44234360362 0.33770844602 3.00407055057 -0.40640065035 0.17003057274 2.96671236456 -0.40630395319 0.18498235282 2.97154186866 -0.40652426339 0.20080966010 2.97662772420 -0.40737522528 0.21746607334 2.98194978930 -0.40917048321 0.23490517129 2.98748792211 -0.41222368151 0.25308053271 2.99322198078 -0.41684846452 0.27194573635 2.99913182344 -0.42335847658 0.29145436097 3.00519730824 -0.43206736203 0.31155998532 3.01139829331 -0.44328876520 0.33221618816 3.01771463681 -0.40645316294 0.16642923190 2.97983788887 -0.40635933040 0.18086785629 2.98471496882 -0.40654856311 0.19632635061 2.98985319474 -0.40730281299 0.21273210523 2.99523475489 -0.40890403198 0.23001251052 3.00084183749 -0.41163417203 0.24809495684 3.00665663079 -0.41577518507 0.26690683456 3.01266132300 -0.42160902305 0.28637553405 3.01883810238 -0.42941763789 0.30642844567 3.02516915715 -0.43948298154 0.32699295978 3.03163667556 -0.40649947669 0.16354590841 2.99239132405 -0.40640964272 0.17695283081 2.99738969232 -0.40652535661 0.19168102536 3.00264987430 -0.40705604660 0.20761429994 3.00815617886 -0.40821114092 0.22463646242 3.01389291485 -0.41020006780 0.24263132067 3.01984439112 -0.41323225549 0.26148268258 3.02599491653 -0.41751713222 0.28107435602 3.03232879994 -0.42326412622 0.30129014885 3.03883035021 -0.43068266574 0.32201386897 3.04548387619 -0.40653758940 0.16153360208 3.00388712146 -0.40645320675 0.17334443076 3.00922483347 -0.40645105707 0.18694517961 3.01478590249 -0.40662525581 0.20215710860 3.02055766264 -0.40706991842 0.21880147770 3.02652744805 -0.40787916039 0.23669954689 3.03268259283 -0.40914709715 0.25567257612 3.03901043110 -0.41096784418 0.27554182537 3.04549829699 -0.41343551694 0.29612855461 3.05213352461 -0.41664423088 0.31725402380 3.05890344810 -0.40656549886 0.16054531274 3.01383973249 -0.40648833910 0.17014981052 3.01987918656 -0.40632207762 0.18219030862 3.02602941890 -0.40600077027 0.19640498237 3.03228280765 -0.40545847289 0.21253200710 3.03863173096 -0.40462924133 0.23030955816 3.04506856696 -0.40344713142 0.24947581089 3.05158569379 -0.40184619901 0.26976894060 3.05817548959 -0.39976049994 0.29092712265 3.06483033250 -0.39712409006 0.31268853237 3.07154260066 -0.48008762064 0.18675445256 2.90691942643 -0.47996246013 0.19857264250 2.90765674586 -0.47972286631 0.21267396036 2.90987681680 -0.47927773725 0.22890746773 2.91352750874 -0.47853597101 0.24712222619 2.91855669118 -0.47740646567 0.26716729733 2.92491223359 -0.47579811930 0.28889174274 2.93254200546 -0.47361982998 0.31214462400 2.94139387629 -0.47078049578 0.33677500271 2.95141571555 -0.46718901476 0.36263194044 2.96255539273 -0.48015042529 0.18160546225 2.91554809417 -0.47992395354 0.19489562403 2.91817019072 -0.47970901032 0.20995881603 2.92175269874 -0.47950831607 0.22668237959 2.92625542463 -0.47932459125 0.24495365601 2.93163817482 -0.47916055631 0.26465998665 2.93786075573 -0.47901893168 0.28568871281 2.94488297378 -0.47890243783 0.30792717584 2.95266463540 -0.47881379518 0.33126271705 2.96116554701 -0.47875572421 0.35558267778 2.97034551502 -0.48021687783 0.17647431923 2.92605190487 -0.47991423734 0.19092720168 2.92990078923 -0.47972248438 0.20675392727 2.93436421222 -0.47971905136 0.22387034566 2.93940994798 -0.47998137069 0.24219230649 2.94500577066 -0.48058687479 0.26163565940 2.95111945443 -0.48161299605 0.28211625406 2.95771877342 -0.48313716690 0.30354994010 2.96477150179 -0.48523681974 0.32585256718 2.97224541369 -0.48798938698 0.34893998493 2.98010828328 -0.48028469821 0.17151383945 2.93794544607 -0.47993149987 0.18677391772 2.94250849545 -0.47976000681 0.20313001993 2.94748097965 -0.47990158540 0.22051508188 2.95283552788 -0.48048760203 0.23886203938 2.95854476935 -0.48164942305 0.25810382824 2.96458133327 -0.48351841484 0.27817338427 2.97091784884 -0.48622594377 0.29900364327 2.97752694528 -0.48990337621 0.32052754105 2.98438125180 -0.49468207853 0.34267801341 2.99145339760 -0.48035160636 0.16687683889 2.95074330527 -0.47997392944 0.18254231446 2.95565326345 -0.47981829591 0.19915781988 2.96087262346 -0.48004756051 0.21666030419 2.96637661345 -0.48082457796 0.23498671648 2.97214046153 -0.48231220303 0.25407400580 2.97813939585 -0.48467329046 0.27385912122 2.98434864453 -0.48807069498 0.29427901180 2.99074343571 -0.49266727133 0.31527062661 2.99729899751 -0.49862587428 0.33677091470 3.00399055806 -0.48041532221 0.16271613349 2.96396007000 -0.48003971440 0.17833893418 2.96899504729 -0.47989407001 0.19490805296 2.97430876606 -0.48014861896 0.21234972853 2.97987765376 -0.48097359121 0.23059019956 2.98567813784 -0.48253921669 0.24955570473 2.99168664576 -0.48501572533 0.26917248270 2.99787960496 -0.48857334709 0.28936677218 3.00423344289 -0.49338231189 0.31006481182 3.01072458702 -0.49961284967 0.33119284030 3.01732946478 -0.48047356571 0.15918453924 2.97711032775 -0.48012704306 0.17427031916 2.98219380104 -0.47998404739 0.19045144505 2.98755902985 -0.48019640307 0.20762707083 2.99318309791 -0.48091593447 0.22569635039 2.99904308892 -0.48229446595 0.24455843764 3.00511608657 -0.48448382189 0.26411248650 3.01137917459 -0.48763582666 0.28425765085 3.01780943666 -0.49190230462 0.30489308462 3.02438395651 -0.49743508014 0.32591794171 3.03107981783 -0.48052405680 0.15643487208 2.98970866606 -0.48023410376 0.17044301169 2.99490947876 -0.48008494639 0.18585872200 3.00039303727 -0.48018255514 0.20253604702 3.00613739501 -0.48063290045 0.22032903075 3.01212060540 -0.48154195277 0.23909171720 3.01832072189 -0.48301568255 0.25867815038 3.02471579790 -0.48516006024 0.27894237430 3.03128388685 -0.48808105628 0.29973843298 3.03800304218 -0.49188464112 0.32092037041 3.04485131731 -0.48056451541 0.15461994798 3.00126967242 -0.48035908481 0.16696355407 3.00680203453 -0.48019348530 0.18120060967 3.01258041071 -0.48009871745 0.19712037304 3.01858499413 -0.48010578185 0.21451210241 3.02479597794 -0.48024567909 0.23316505603 3.03119355529 -0.48054940974 0.25286849214 3.03775791935 -0.48104797440 0.27341166899 3.04446926327 -0.48177237364 0.29458384483 3.05130778021 -0.48275360805 0.31617427790 3.05825366332 -0.48059266148 0.15389258290 3.01130793437 -0.48050017455 0.16393848857 3.01753142241 -0.48030638243 0.17654783392 3.02389077260 -0.47993653231 0.19142376483 3.03037034438 -0.47931587139 0.20826942715 3.03695449716 -0.47836964685 0.22678796677 3.04362759037 -0.47702310588 0.24668252956 3.05037398343 -0.47520149569 0.26765626139 3.05717803577 -0.47283006345 0.28941230814 3.06402410679 -0.46983405637 0.31165381568 3.07089655594 -0.55421380610 0.17917003994 2.90399801735 -0.55407318913 0.19158769102 2.90476964204 -0.55382238268 0.20643054720 2.90713197063 -0.55338114509 0.22350877162 2.91103981425 -0.55266923473 0.24263252738 2.91644798398 -0.55160640995 0.26361197760 2.92331129096 -0.55011242911 0.28625728541 2.93158454628 -0.54810705056 0.31037861390 2.94122256106 -0.54551003267 0.33578612621 2.95218014641 -0.54224113378 0.36228998544 2.96441211344 -0.55428726209 0.17357596187 2.91250589382 -0.55378392409 0.18760880799 2.91525209606 -0.55332262143 0.20351498126 2.91903328751 -0.55287829396 0.22115039650 2.92381324900 -0.55242588154 0.24037096855 2.92955576137 -0.55194032402 0.26103261224 2.93622460543 -0.55139656126 0.28299124240 2.94378356203 -0.55076953311 0.30610277385 2.95219641200 -0.55003417942 0.33022312144 2.96142693616 -0.54916544005 0.35520819998 2.97143891535 -0.55436353319 0.16811310442 2.92292077423 -0.55358764795 0.18341527536 2.92696305383 -0.55297142807 0.20015996098 2.93166876931 -0.55253410354 0.21823716871 2.93700734849 -0.55229490439 0.23753690603 2.94294821923 -0.55227306063 0.25794918039 2.94946080936 -0.55248780227 0.27936399925 2.95651454673 -0.55295835935 0.30167137006 2.96407885917 -0.55370396186 0.32476130028 2.97212317452 -0.55474383982 0.34852379738 2.98061692063 -0.55444013589 0.16293368665 2.93475806430 -0.55348251936 0.17911229982 2.93956563890 -0.55276617691 0.19643434735 2.94481260599 -0.55234257406 0.21481060177 2.95047141444 -0.55226317634 0.23415183562 2.95651451310 -0.55257944930 0.25436882144 2.96291435083 -0.55334285845 0.27537233176 2.96964337649 -0.55460486934 0.29707313912 2.97667403895 -0.55641694749 0.31938201605 2.98397878705 -0.55883055845 0.34220973510 2.99153006966 -0.55451458667 0.15818992761 2.94753316971 -0.55346669694 0.17480508804 2.95272297478 -0.55270424227 0.19240700137 2.95823898753 -0.55229770576 0.21091220919 2.96405474855 -0.55231757050 0.23023725312 2.97014379848 -0.55283431958 0.25029867477 2.97647967790 -0.55391843610 0.27101301573 2.98303592744 -0.55564040316 0.29229681762 2.98978608770 -0.55807070386 0.31406662205 2.99670369929 -0.56127982128 0.33623897061 3.00376230282 -0.55458440203 0.15403404638 2.96076149617 -0.55353833933 0.17059884672 2.96609818502 -0.55278299847 0.18814678403 2.97172210388 -0.55239349887 0.20658350450 2.97760665257 -0.55244495992 0.22581465434 2.98372523089 -0.55301250100 0.24574587976 2.99005123865 -0.55417124153 0.26628282697 2.99655807568 -0.55599630088 0.28733114218 3.00321914179 -0.55856279847 0.30879647158 3.01000783678 -0.56194585368 0.33058446140 3.01689756046 -0.55464709846 0.15061826199 2.97395844938 -0.55369560514 0.16659878255 2.97935439316 -0.55299981982 0.18372255633 2.98503614503 -0.55262395363 0.20186600121 2.99097642820 -0.55263221769 0.22090553508 2.99714796584 -0.55308882311 0.24071757581 3.00352348116 -0.55405798103 0.26117854128 3.01007569735 -0.55560390257 0.28216484937 3.01677733758 -0.55779079886 0.30355291796 3.02360112506 -0.56068288100 0.32521916492 3.03051978298 -0.55470019244 0.14809479351 2.98663943503 -0.55393665302 0.16291010219 2.99215472271 -0.55335208064 0.17920317925 2.99795530093 -0.55298307027 0.19680121285 3.00401337716 -0.55286621688 0.21553139115 3.01030115887 -0.55303811545 0.23522090230 3.01679085351 -0.55353536093 0.25569693446 3.02345466855 -0.55439454831 0.27678667581 3.03026481146 -0.55565227254 0.29831731448 3.03719348969 -0.55734512861 0.32011603865 3.04421291073 -0.55474120046 0.14661586000 2.99831985882 -0.55425964158 0.15963801235 3.00416229722 -0.55383715523 0.17465751380 3.01025376156 -0.55346484902 0.19143065293 3.01656680119 -0.55313383059 0.20971371833 3.02307396547 -0.55283520755 0.22926299860 3.02974780376 -0.55256008753 0.24983478232 3.03656086541 -0.55229957815 0.27118535807 3.04348569977 -0.55204478705 0.29307101446 3.05049485622 -0.55178682185 0.31524804005 3.05756088409 -0.55476763901 0.14633368052 3.00851512645 -0.55466272947 0.15688771971 3.01504024022 -0.55445241792 0.17015442096 3.02170571687 -0.55406329012 0.18579583497 3.02848600199 -0.55342193187 0.20347401245 3.03535554117 -0.55245492895 0.22285100411 3.04228877999 -0.55108886712 0.24358886065 3.04926016404 -0.54925033218 0.26534963277 3.05624413890 -0.54686590991 0.28779537119 3.06321515017 -0.54386218608 0.31058812661 3.07014764343 -0.62855943349 0.17079870326 2.90075077481 -0.62840326236 0.18396780681 2.90146005323 -0.62814983378 0.19970878768 2.90390047266 -0.62774009693 0.21777915806 2.90801686863 -0.62711500098 0.23793643014 2.91375407663 -0.62621549514 0.25993811609 2.92105693218 -0.62498252858 0.28354172812 2.92987027077 -0.62335705049 0.30850477839 2.94013892792 -0.62128001005 0.33458477910 2.95180773914 -0.61869235645 0.36153924244 2.96482153993 -0.62864600753 0.16448551249 2.90907146022 -0.62762620235 0.17950356925 2.91191763015 -0.62675692636 0.19647135037 2.91588807857 -0.62600397136 0.21520839891 2.92093987735 -0.62533312916 0.23553425792 2.92703009834 -0.62471019155 0.25726847048 2.93411581343 -0.62410095036 0.28023057965 2.94215409447 -0.62347119737 0.30424012848 2.95110201334 -0.62278672440 0.32911666005 2.96091664190 -0.62201332326 0.35467971741 2.97155505201 -0.62873368160 0.15848545957 2.91934857701 -0.62706526786 0.17494630036 2.92361695733 -0.62573456294 0.19287344105 2.92859831929 -0.62472680081 0.21213267733 2.93425787133 -0.62402721543 0.23258980484 2.94056082188 -0.62362104077 0.25411061924 2.94747237936 -0.62349351081 0.27656091619 2.95495775220 -0.62362985952 0.29980649135 2.96298214883 -0.62401532086 0.32371314037 2.97151077767 -0.62463512880 0.34814665892 2.98050884716 -0.62881982277 0.15294972485 2.93109931603 -0.62671866488 0.17039883333 2.93622735340 -0.62508099373 0.18898042181 2.94181455393 -0.62390553482 0.20858913225 2.94783081134 -0.62319101361 0.22911960663 2.95424601934 -0.62293615560 0.25046648694 2.96103007162 -0.62313968626 0.27252441515 2.96815286190 -0.62380033107 0.29518803325 2.97558428388 -0.62491681552 0.31835198321 2.98329423126 -0.62648786508 0.34191090701 2.99125259776 -0.62890179813 0.14802948863 2.94384086813 -0.62658459938 0.16596400141 2.94941813701 -0.62479446894 0.18485765471 2.95532014161 -0.62353712295 0.20461490259 2.96151865813 -0.62281827753 0.22514019906 2.96798546281 -0.62264364884 0.24633799817 2.97469233186 -0.62301895301 0.26811275395 2.98161104150 -0.62394990619 0.29036892045 2.98871336797 -0.62544222450 0.31301095168 2.99597108747 -0.62750162410 0.33594330170 3.00335597623 -0.62897697475 0.14387593127 2.95709042415 -0.62666127737 0.16174463780 2.96285862682 -0.62487323879 0.18057050185 2.96889844142 -0.62361851475 0.20024712726 2.97518137245 -0.62290276101 0.22066811787 2.98167892438 -0.62273163330 0.24172707750 2.98836260172 -0.62311078738 0.26331761000 2.99520390895 -0.62404587901 0.28533331920 3.00217435058 -0.62554256392 0.30766780893 3.00924543109 -0.62760649788 0.33021468303 3.01638865497 -0.62904271970 0.14064023309 2.97036517494 -0.62694690483 0.15784357572 2.97621814147 -0.62531555349 0.17618432529 2.98233281250 -0.62414665979 0.19552294519 2.98867891504 -0.62343821785 0.21571989881 2.99522617615 -0.62318822178 0.23663564952 3.00194432285 -0.62339466569 0.25813066072 3.00880308219 -0.62405554369 0.28006539578 3.01577218120 -0.62516884989 0.30230031809 3.02282134693 -0.62673257841 0.32469589103 3.02992030640 -0.62909640006 0.13847357443 2.98318231135 -0.62743968773 0.15436364839 2.98916599962 -0.62611966324 0.17176448712 2.99540661393 -0.62511850761 0.19047949531 3.00187124667 -0.62441840188 0.21031207764 3.00852699020 -0.62400152708 0.23106563881 3.01534093691 -0.62385006423 0.25254358351 3.02228017915 -0.62394619437 0.27454931643 3.02931180932 -0.62427209852 0.29688624227 3.03640291978 -0.62480995772 0.31935776571 3.04352060290 -0.62913538292 0.13752713560 2.99505902424 -0.62813783208 0.15140768903 3.00137151991 -0.62728381826 0.16737634942 3.00790320485 -0.62653100777 0.18515391652 3.01461832809 -0.62583706692 0.20446119010 3.02148113864 -0.62515966201 0.22501896994 3.02845588553 -0.62445645933 0.24654805579 3.03550681778 -0.62368512521 0.26876924743 3.04259818441 -0.62280332593 0.29140334462 3.04969423444 -0.62176872780 0.31417114712 3.05675921689 -0.62915703534 0.13795209696 3.00551250445 -0.62903954384 0.14907853087 3.01250402098 -0.62880626876 0.16308527426 3.01960594435 -0.62838110983 0.17958334775 3.02678012004 -0.62768796678 0.19818377196 3.03398839355 -0.62665073936 0.21849756750 3.04119261037 -0.62519332730 0.24013575498 3.04835461601 -0.62323963034 0.26270935503 3.05543625596 -0.62071354822 0.28582938826 3.06239937572 -0.61753898066 0.30910687529 3.06920582078 -0.70319019780 0.16173983994 2.89719509361 -0.70301374261 0.17583915331 2.89770642623 -0.70274079306 0.19265407210 2.90013371339 -0.70232402933 0.21187130766 2.90439283672 -0.70171613160 0.23317757132 2.91039967783 -0.70086978005 0.25625957444 2.91807011837 -0.69973765486 0.28080402836 2.92732003994 -0.69827243621 0.30649764440 2.93806532417 -0.69642680429 0.33302713393 2.95022185270 -0.69415343926 0.36007920827 2.96370550714 -0.70329350296 0.15435201443 2.90524250657 -0.70143161571 0.17065196340 2.90814889148 -0.69990427883 0.18893794293 2.91228824402 -0.69866464590 0.20898618408 2.91759923155 -0.69766587053 0.23057291794 2.92402052142 -0.69686110632 0.25347437556 2.93149078097 -0.69620350687 0.27746678803 2.93994867757 -0.69564622578 0.30232638641 2.94933287855 -0.69514241667 0.32782940177 2.95958205127 -0.69464523312 0.35375206519 2.97063486309 -0.70339509695 0.14754778748 2.91531853930 -0.70026786693 0.16555123106 2.91984829787 -0.69779742546 0.18497716610 2.92514033954 -0.69593574655 0.20566863665 2.93114955767 -0.69463480422 0.22746868679 2.93783084561 -0.69384657248 0.25022036056 2.94513909671 -0.69352302537 0.27376670203 2.95302920434 -0.69361613688 0.29795075528 2.96145606185 -0.69407788104 0.32261556435 2.97037456259 -0.69486023187 0.34760417331 2.97973959993 -0.70349223111 0.14147683009 2.92694341969 -0.69952080513 0.16063606382 2.93248420078 -0.69641944799 0.18083143215 2.93848864665 -0.69413736761 0.20194855253 2.94492204271 -0.69262377190 0.22387304243 2.95174967437 -0.69182786876 0.24649051931 2.95893682703 -0.69169886609 0.26968660063 2.96644878612 -0.69218597182 0.29334690385 2.97425083704 -0.69323839384 0.31735704643 2.98230826520 -0.69480534006 0.34160264583 2.99058635601 -0.70358215678 0.13628881328 2.93963737562 -0.69918873918 0.15600556920 2.94573615558 -0.69576956148 0.17656043159 2.95213181205 -0.69326954543 0.19785581887 2.95879491431 -0.69163361280 0.21979414944 2.96569603166 -0.69080668534 0.24227784170 2.97280573338 -0.69073368479 0.26520931408 2.98009458876 -0.69135953292 0.28849098497 2.98753316708 -0.69262915148 0.31202527278 2.99509203764 -0.69448746222 0.33571459593 3.00274176971 -0.70366212529 0.13213340807 2.95292063496 -0.69926997795 0.15175885473 2.95928371762 -0.69584698096 0.17222385497 2.96586848242 -0.69333231634 0.19342032283 2.97264640011 -0.69166516615 0.21524017236 2.97958894145 -0.69078471242 0.23757531762 2.98666757720 -0.69063013719 0.26031767265 2.99385377811 -0.69114062250 0.28335915149 3.00111901495 -0.69225535039 0.30659166819 3.00843475846 -0.69391350290 0.32990713680 3.01577247941 -0.70372938796 0.12916028548 2.96631342559 -0.69976283031 0.14799502795 2.97280644229 -0.69665092147 0.16788139280 2.97949730448 -0.69432571667 0.18867195157 2.98635472775 -0.69271927117 0.21021927578 2.99334742771 -0.69176364021 0.23237593695 3.00044411994 -0.69139087904 0.25499450660 3.00761352003 -0.69153304288 0.27792755625 3.01482434359 -0.69212218700 0.30102765742 3.02204530621 -0.69309036664 0.32414738164 3.02924512348 -0.70378119615 0.12751911653 2.97933597540 -0.70066560514 0.14481319637 2.98598388495 -0.69818059806 0.16359273563 2.99281692491 -0.69624978276 0.18364059226 2.99979812487 -0.69479676710 0.20473962425 3.00689051439 -0.69374515891 0.22667268957 3.01405712303 -0.69301856606 0.24922264620 3.02126098038 -0.69254059639 0.27217235210 3.02846511599 -0.69223485774 0.29530466525 3.03563255944 -0.69202495797 0.31840244364 3.04272634029 -0.70381480117 0.12735957222 2.99150851226 -0.70197661129 0.14231246754 2.99849560096 -0.70043522577 0.15941757396 3.00562599042 -0.69910455094 0.17835613205 3.01285481911 -0.69789849315 0.19880938233 3.02013722546 -0.69673095872 0.22045856537 3.02742834794 -0.69551585400 0.24298492171 3.03468332501 -0.69416708532 0.26606969189 3.04185729510 -0.69259855903 0.28939411646 3.04890539669 -0.69072418145 0.31263943598 3.05578276822 -0.70382745436 0.12883132358 3.00235126405 -0.70369415764 0.14059194897 3.01002114570 -0.70341401964 0.15541559835 3.01772314771 -0.70289005755 0.17284845810 3.02540303810 -0.70202528855 0.19243671460 3.03300658489 -0.70072272984 0.21372655423 3.04047955611 -0.69888539860 0.23626416339 3.04776771977 -0.69641631202 0.25959572846 3.05481684390 -0.69321848729 0.28326743582 3.06157269651 -0.68919494160 0.30682547186 3.06798104564 -0.77817179402 0.15209284743 2.89334836856 -0.77796569267 0.16732789394 2.89348720786 -0.77763083398 0.18541179076 2.89578308331 -0.77710237891 0.20593790100 2.90010188332 -0.77631548842 0.22849958780 2.90630949629 -0.77520532349 0.25269021429 2.91427181064 -0.77370704509 0.27810314361 2.92385471478 -0.77175581418 0.30433173887 2.93492409711 -0.76928679173 0.33096936322 2.94734584605 -0.76623513871 0.35760937978 2.96098585001 -0.77829658972 0.14319336803 2.90101674604 -0.77518099156 0.16112604602 2.90392797851 -0.77265703254 0.18102477848 2.90820495597 -0.77063961520 0.20261354931 2.91375523352 -0.76904364208 0.22561634240 2.92048636627 -0.76778401574 0.24975714167 2.92830590932 -0.76677563870 0.27475993101 2.93712141779 -0.76593341352 0.30034869432 2.94684044676 -0.76517224275 0.32624741551 2.95737055135 -0.76440702892 0.35218007848 2.96861928666 -0.77841555314 0.13525649091 2.91081388719 -0.77311621504 0.15526102189 2.91564287364 -0.76894555207 0.17655393471 2.92128230744 -0.76579954415 0.19895681183 2.92767044868 -0.76357417117 0.22229123575 2.93474555742 -0.76216541303 0.24637878895 2.94244589373 -0.76146924964 0.27104105392 2.95070971768 -0.76138166090 0.29609961315 2.95947528933 -0.76179862672 0.32137604911 2.96868086875 -0.76261612698 0.34669194431 2.97826471601 -0.77852583316 0.12842987841 2.92226459371 -0.77176980884 0.14982653682 2.92832674289 -0.76649653042 0.17205056719 2.93483670733 -0.76258497240 0.19498674182 2.94175343265 -0.75991410928 0.21851983302 2.94903586448 -0.75836291558 0.24253461309 2.95664294847 -0.75781036580 0.26691585435 2.96453363023 -0.75813543444 0.29154832909 2.97266685541 -0.75921709601 0.31631680962 2.98100156963 -0.76093432502 0.34110606824 2.98949671853 -0.77862457868 0.12286119288 2.93489366730 -0.77114021873 0.14491630605 2.94167443592 -0.76531010543 0.16756598368 2.94868972519 -0.76099870659 0.19072239253 2.95591008924 -0.75807049003 0.21429769940 2.96330608217 -0.75638992357 0.23820407106 2.97084825814 -0.75582147503 0.26235367429 2.97850717124 -0.75622961223 0.28665867588 2.98625337561 -0.75747880299 0.31103124260 2.99405742538 -0.75943351512 0.33538354124 3.00188987466 -0.77870893859 0.11869809666 2.94822590967 -0.77122589047 0.14062404486 2.95538080238 -0.76538641496 0.16315149194 2.96266293062 -0.76104355338 0.18618281723 2.97004632229 -0.75805034703 0.20962040007 2.97750500524 -0.75625983721 0.23336661979 2.98501300735 -0.75552506523 0.25732385575 2.99254435649 -0.75569907240 0.28139448726 3.00007308055 -0.75663490002 0.30548089366 3.00757320739 -0.75818558939 0.32948545430 3.01501876488 -0.77877606178 0.11608825209 2.96178612252 -0.77202526979 0.13704346849 2.96914069190 -0.76672559686 0.15885839972 2.97657789320 -0.76272231941 0.18138706916 2.98406803563 -0.75986071388 0.20448350021 2.99158142840 -0.75798605669 0.22800171626 2.99908838071 -0.75694362427 0.25179574072 3.00655920178 -0.75657869305 0.27571959696 3.01396420082 -0.75673653947 0.29962730838 3.02127368703 -0.75726243995 0.32337289838 3.02845796962 -0.77882309714 0.11517932152 2.97509910755 -0.77353680246 0.13426829222 2.98264895414 -0.76932778897 0.15473801478 2.99025618250 -0.76603781133 0.17635420159 2.99788113310 -0.76350862419 0.19888256501 3.00548414638 -0.76158198220 0.22208881742 3.01302556283 -0.76009964002 0.24573867120 3.02046572289 -0.75890335231 0.26959783871 3.02776496702 -0.75783487372 0.29343203234 3.03488363569 -0.75673595890 0.31700696445 3.04178206936 -0.77884719358 0.11611896728 2.98768966647 -0.77575893423 0.13239223129 2.99560043874 -0.77319312915 0.15084164488 3.00351936811 -0.77099283578 0.17110326777 3.01139151852 -0.76900111156 0.19281315965 3.01916195393 -0.76706101394 0.21560738023 3.02677573831 -0.76501560037 0.23912198920 3.03417793560 -0.76270792828 0.26299304626 3.04131360977 -0.75998105512 0.28685661112 3.04812782477 -0.75667803834 0.31034874348 3.05456564456 -0.77884549997 0.11905485173 2.99908260098 -0.77869011085 0.13150900096 3.00768999536 -0.77832175525 0.14722059777 3.01618901960 -0.77759019941 0.16565332096 3.02450509573 -0.77634520961 0.18627084932 3.03256364578 -0.77443655211 0.20853686164 3.04029009176 -0.77171399318 0.23191503671 3.04760985572 -0.76802729907 0.25586905335 3.05444835967 -0.76322623605 0.27986259032 3.06073102564 -0.75716057038 0.30335932645 3.06638327566 -0.85356991714 0.14195712315 2.88922799446 -0.85332017534 0.15856019215 2.88878084494 -0.85285552998 0.17812733396 2.89079997293 -0.85204458224 0.20013161868 2.89507817325 -0.85075593328 0.22404611643 2.90140824071 -0.84885818427 0.24934389728 2.90958297012 -0.84621993640 0.27549803135 2.91939515629 -0.84270979083 0.30198158873 2.93063759403 -0.83819634873 0.32826763953 2.94310307816 -0.83254821128 0.35382925383 2.95658440349 -0.85372210917 0.13102747360 2.89639189182 -0.84885515728 0.15099787270 2.89923698971 -0.84490754121 0.17284187659 2.90360938651 -0.84170817689 0.19622029186 2.90937180514 -0.83908598025 0.22079392513 2.91638696857 -0.83686986723 0.24622358298 2.92451759975 -0.83488875376 0.27217007204 2.93362642161 -0.83297155576 0.29829419889 2.94357615710 -0.83094718918 0.32425677015 2.95422952918 -0.82864456995 0.34971859241 2.96544926079 -0.85386282405 0.12156797265 2.90581784676 -0.84553108205 0.14410662726 2.91098648277 -0.83896447924 0.16768654546 2.91701170036 -0.83395679700 0.19210896800 2.92380858555 -0.83030181669 0.21717513560 2.93129222433 -0.82779331968 0.24268628902 2.93937770272 -0.82622508735 0.26844366899 2.94798010672 -0.82539090106 0.29424851626 2.95701452234 -0.82508454219 0.31990207156 2.96639603560 -0.82509979211 0.34520557564 2.97603973249 -0.85398910115 0.11372374587 2.91703705650 -0.84334654473 0.13797279789 2.92374554155 -0.83502723173 0.16270101576 2.93086055912 -0.82879524911 0.18780157932 2.93833330525 -0.82441468383 0.21316766840 2.94611497597 -0.82164962287 0.23869246285 2.95415676731 -0.82026415320 0.26426914248 2.96240987529 -0.82002236178 0.28979088715 2.97082549596 -0.82068833559 0.31515087668 2.97935482533 -0.82202616159 0.34024229091 2.98794905945 -0.85409797986 0.10763991878 2.92958071828 -0.84230014046 0.13268272662 2.93723038349 -0.83309668636 0.15792496265 2.94500960739 -0.82622833979 0.18330205806 2.95289075504 -0.82143582295 0.20874944409 2.96084619148 -0.81845985807 0.23420255192 2.96884828178 -0.81704116734 0.25959681278 2.97686939098 -0.81692047299 0.28486765788 2.98488188413 -0.81783849723 0.30995051841 2.99285812628 -0.81953596227 0.33478082560 3.00077048250 -0.85418649957 0.10346161693 2.94298002933 -0.84239046433 0.12832275552 2.95115722602 -0.83317373081 0.15339806130 2.95931248977 -0.82626087561 0.17861433647 2.96742572568 -0.82137647532 0.20389838320 2.97547683886 -0.81824510651 0.22917700370 2.98344573441 -0.81659134579 0.25437700015 2.99131231744 -0.81613976974 0.27942517475 2.99905649306 -0.81661495495 0.30424832967 3.00665816637 -0.81774147800 0.32877326711 3.01409724247 -0.85425169966 0.10133396586 2.95676618688 -0.84361611145 0.12497922663 2.96524228660 -0.83525925275 0.14915998690 2.97362285089 -0.82889766313 0.17374234675 2.98188300797 -0.82424788218 0.19859240631 2.98999788609 -0.82102644947 0.22357626564 2.99794261347 -0.81894990458 0.24856002487 3.00569231834 -0.81773478709 0.27340978408 3.01322212894 -0.81709763658 0.29799164337 3.02050717349 -0.81675499263 0.32217170284 3.02752258022 -0.85429061951 0.10140209112 2.97047038818 -0.84597567694 0.12273848201 2.97920178265 -0.83935413985 0.14525041460 2.98779433533 -0.83414350892 0.16869002116 2.99620739269 -0.83006128481 0.19280943395 3.00440030116 -0.82682496819 0.21736078521 3.01233240723 -0.82415205973 0.24209620720 3.01996305734 -0.82176006010 0.26676783219 3.02725159797 -0.81936646997 0.29112779242 3.03415737556 -0.81668879001 0.31492822016 3.04063973658 -0.85430029851 0.10381111824 2.98362383044 -0.84946775590 0.12168686370 2.99275193162 -0.84545927980 0.14170901960 3.00168058773 -0.84200321953 0.16346129193 3.01034367060 -0.83882792446 0.18652738668 3.01867505207 -0.83566174392 0.21049100984 3.02660860395 -0.83223302726 0.23493586741 3.03407819810 -0.82827012383 0.25944566538 3.04101770633 -0.82350138296 0.28360410974 3.04736100048 -0.81765515401 0.30699490648 3.05304195238 -0.85427777605 0.10870617277 2.99575771091 -0.85409094345 0.12191071377 3.00560895095 -0.85357556025 0.13857547706 3.01513525268 -0.85248160154 0.15806009128 3.02423663250 -0.85055904240 0.17972418506 3.03281310679 -0.84755785793 0.20292738701 3.04076469192 -0.84322802321 0.22702932577 3.04799140427 -0.83731951334 0.25138962997 3.05439326023 -0.82958230339 0.27536792823 3.05987027617 -0.81976636847 0.29832384918 3.06432246848 -0.92945026214 0.13143206456 2.88485136612 -0.92913825340 0.14966221135 2.88356578428 -0.92845045452 0.17094609200 2.88513577276 -0.92712007591 0.19460514131 2.88925587134 -0.92488032800 0.21996079406 2.89562061981 -0.92146442120 0.24633448505 2.90392455793 -0.91660556593 0.27304764907 2.91386222548 -0.91003697261 0.29942172092 2.92512816225 -0.90149185165 0.32477813539 2.93741690800 -0.89070341349 0.34843832727 2.95042300252 -0.92963690265 0.11787223146 2.89136565710 -0.92243494026 0.14033949902 2.89405802357 -0.91654815856 0.16449925680 2.89847270774 -0.91164962860 0.18993620902 2.90441286832 -0.90741242147 0.21623505992 2.91168166400 -0.90350960822 0.24298051369 2.92008225350 -0.89961425994 0.26975727458 2.92941779549 -0.89539944768 0.29615004681 2.93949144870 -0.89053824251 0.32174353459 2.95010637182 -0.88470371552 0.34612244214 2.96106572355 -0.92980468356 0.10643863549 2.90031364409 -0.91743323783 0.13211900158 2.90586492344 -0.90763974341 0.15845779696 2.91231599568 -0.90004610847 0.18523687030 2.91955200944 -0.89427424118 0.21223807022 2.92745811333 -0.88994604969 0.23924324537 2.93591945598 -0.88668344218 0.26603424439 2.94482118599 -0.88410832682 0.29239291592 2.95404845199 -0.88184261176 0.31810110860 2.96348640260 -0.87950820518 0.34294067107 2.97302018644 -0.92995050733 0.09727330849 2.91123502649 -0.91413188153 0.12507739257 2.91873115859 -0.90172654265 0.15284596669 2.92656202522 -0.89231509768 0.18049094424 2.93466998464 -0.88547815362 0.20792423859 2.94299739513 -0.88079631744 0.23505776312 2.95148661495 -0.87785019615 0.26180343120 2.96008000236 -0.87622039672 0.28807315621 2.96871991565 -0.87548752615 0.31377885153 2.97734871307 -0.87523219142 0.33883243052 2.98590875289 -0.93007127639 0.09051828230 2.92366950366 -0.91252960676 0.11929134554 2.93240140371 -0.89880988983 0.14768802017 2.94110718498 -0.88846217840 0.17568224996 2.94976348386 -0.88103652529 0.20324797865 2.95834693672 -0.87608298332 0.23035914999 2.96683417998 -0.87315160531 0.25698970774 2.97520185000 -0.87179244407 0.28311359565 2.98342658319 -0.87155555242 0.30870475747 2.99148501593 -0.87199098317 0.33373713695 2.99935378461 -0.93016389318 0.08631558876 2.93715677499 -0.91262514895 0.11483753404 2.94662033351 -0.89889111850 0.14300821161 2.95584786362 -0.88849293277 0.17079460656 2.96482919703 -0.88096172268 0.19816370400 2.97355416546 -0.87582861917 0.22508248902 2.98201260064 -0.87262475315 0.25151794672 2.99019433430 -0.87088125556 0.27743706219 2.99808919814 -0.87012925732 0.30280682053 3.00568702390 -0.86989988936 0.32759420683 3.01297764330 -0.93022526015 0.08480725972 2.95123653986 -0.91441724349 0.11179263162 2.96113262269 -0.90197156223 0.13883079519 2.97068044976 -0.89241294296 0.16581183316 2.97986381409 -0.88526611229 0.19262582828 2.98866650867 -0.88005579682 0.21916286326 2.99707232652 -0.87630672315 0.24531302086 3.00506506064 -0.87354361787 0.27096638380 3.01262850403 -0.87129120760 0.29601303481 3.01974644970 -0.86907421894 0.32034305663 3.02640269066 -0.93025227972 0.08613532703 2.96544849767 -0.91790462581 0.11023331183 2.97568294594 -0.90805255457 0.13518002511 2.98550133205 -0.90022779113 0.16071774886 2.99486402498 -0.89396206061 0.18658876508 3.00373139369 -0.88878708812 0.21253535575 3.01206380718 -0.88423459878 0.23829980287 3.01982163441 -0.87983631771 0.26362438843 3.02696524437 -0.87512397002 0.28825139442 3.03345500604 -0.86962928084 0.31192310282 3.03925128839 -0.93024185436 0.09044182253 2.97933234778 -0.92308603131 0.11023624821 2.99001597797 -0.91713542909 0.13208015556 3.00020689913 -0.91194305944 0.15549617277 3.00982651963 -0.90706193413 0.18000692803 3.01879624786 -0.90204506491 0.20513504954 3.02703749220 -0.89644546353 0.23040316548 3.03447166102 -0.88981614174 0.25533390405 3.04102016270 -0.88171011132 0.27944989345 3.04660440563 -0.87168038400 0.30227376185 3.05114579819 -0.93019088649 0.09786877806 2.99242778957 -0.92996019541 0.11187811432 3.00387639347 -0.92922151934 0.12955544074 3.01469353962 -0.92756433005 0.15013092400 3.02474798799 -0.92457809935 0.17283473076 3.03390849851 -0.91985229902 0.19689702767 3.04204383115 -0.91297640087 0.22154798140 3.04902274584 -0.90353987668 0.24601775863 3.05471400254 -0.89113219825 0.26953652601 3.05898636120 -0.87534283736 0.29133445020 3.06170858176 -1.00587852402 0.12061706907 2.88023587835 -1.00548098966 0.14076011498 2.87782047270 -1.00445118105 0.16401345520 2.87874187330 -1.00229829653 0.18951114947 2.88256914241 -0.99853153443 0.21638725756 2.88887134228 -0.99266009308 0.24377583924 2.89721753518 -0.98419317082 0.27081095425 2.90717678335 -0.97263996596 0.29662666237 2.91831814905 -0.95750967685 0.32035702334 2.93021069453 -0.93831150181 0.34113609693 2.94242348206 -1.00610781150 0.10374554196 2.88593575506 -0.99590116788 0.12922298057 2.88837317855 -0.98747123828 0.15610693867 2.89276609178 -0.98024326796 0.18389109808 2.89884234495 -0.97364250216 0.21206914058 2.90632978824 -0.96709418613 0.24013474799 2.91495627183 -0.96002356514 0.26758160211 2.92444964592 -0.95185588444 0.29390338475 2.93453776069 -0.94201638928 0.31859377772 2.94494846633 -0.92993032491 0.34114646281 2.95540961302 -1.00630890558 0.08982488221 2.89428450528 -0.98874345227 0.11932909925 2.90026399380 -0.97475688105 0.14895048780 2.90718267077 -0.96370608197 0.17845228388 2.91488876154 -0.95494794505 0.20759772348 2.92323049144 -0.94783936033 0.23615004261 2.93205608581 -0.94173721785 0.26387247726 2.94121377001 -0.93599840764 0.29052826343 2.95055176937 -0.92997981974 0.31588063712 2.95991830922 -0.92303834418 0.33969283434 2.96916161492 -1.00647852395 0.07899344232 2.90483272209 -0.98400668794 0.11114286641 2.91327415583 -0.96630945390 0.14254860881 2.92194292877 -0.95269141807 0.17315271579 2.93077179491 -0.94245717672 0.20289723359 2.93969350824 -0.93491132610 0.23172420847 2.94864082278 -0.92935846247 0.25957568667 2.95754649252 -0.92510318210 0.28639371445 2.96634327146 -0.92145008123 0.31212033806 2.97496391361 -0.91770375613 0.33669760375 2.98334117298 -1.00661338430 0.07138957477 2.91713099854 -0.98168972005 0.10472867745 2.92718490204 -0.96213030138 0.13690580794 2.93699818431 -0.94720395578 0.16795040271 2.94655484782 -0.93617951077 0.19789189823 2.95583889503 -0.92832579386 0.22675973095 2.96483432839 -0.92291163254 0.25458333735 2.97352515035 -0.91920585434 0.28139215389 2.98189536337 -0.91647728675 0.30721561704 2.98992896991 -0.91399475727 0.33208316325 2.99760997242 -1.00671020434 0.06715163204 2.93072992770 -0.98179139372 0.10015092776 2.94177746979 -0.96222076802 0.13202659141 2.95229975590 -0.94724837460 0.16280335354 2.96230132303 -0.93612426081 0.19250594470 2.97178670816 -0.92809847402 0.22115909543 2.98076044829 -0.92242106160 0.24878753629 2.98922708039 -0.91834207089 0.27541599781 2.99719114147 -0.91511154928 0.30106921055 3.00465716850 -0.91197954411 0.32577190505 3.01162969847 -1.00676570175 0.06641796661 2.94518010263 -0.98431055409 0.09747401273 2.95683309647 -0.96658219838 0.12791546546 2.96779896205 -0.95282935403 0.15766957719 2.97807462327 -0.94230074043 0.18666360033 2.98765700401 -0.93424507701 0.21482478729 2.99654302815 -0.92791108316 0.24208039047 3.00472961956 -0.92254747830 0.26835766228 3.01221370215 -0.91740298183 0.29358385511 3.01899219978 -0.91172631315 0.31768622138 3.02506203635 -1.00677659423 0.06932693096 2.96003211639 -0.98924604629 0.09676232776 2.97213301946 -0.97521593700 0.12457693631 2.98344712129 -0.96395157358 0.15250708256 2.99393815131 -0.95471826325 0.18028909244 3.00356983894 -0.94678131325 0.20765929191 3.01230591362 -0.93940603079 0.23435400690 3.02011010476 -0.93185772309 0.26010956336 3.02694614180 -0.92340169738 0.28466228722 3.03277775416 -0.91330326089 0.30774850444 3.03756867127 -1.00673959948 0.07601687758 2.97483656205 -0.99659671546 0.09808026823 2.98745847614 -0.98812332842 0.12201551020 2.99919555212 -0.98061971276 0.14727387855 3.00995530988 -0.97338614287 0.17330664834 3.01964526932 -0.96572289315 0.19956509466 3.02817295035 -0.95693023799 0.22550049256 3.03544587288 -0.94630845179 0.25056411711 3.04137155681 -0.93315780895 0.27420724339 3.04585752203 -0.91677858385 0.29588114645 3.04881128847 -1.00665143518 0.08662615895 2.98914403266 -1.00636140672 0.10149222955 3.00259070391 -1.00530571719 0.12023569336 3.01499557307 -1.00283845108 0.14192797407 3.02618950174 -0.99831369289 0.16564049536 3.03600335152 -0.99108552714 0.19044468092 3.04426798402 -0.98050803832 0.21541195444 3.05081426083 -0.96593531095 0.23961373960 3.05547304355 -0.94672142951 0.26212146010 3.05807519379 -0.92222047853 0.28200653963 3.05845157315 </DataArray>
</Points>
</Piece>
</StructuredGrid>
</VTKFile>
