<?xml version="1.0"?>
<VTKFile type="StructuredGrid" version="0.1">
<StructuredGrid WholeExtent="0 9 0 9 0 9">
<Piece Extent="0 9 0 9 0 9">
<PointData>
<DataArray type="Float32" Name="Deformation" format="ascii" NumberOfComponents="3">
0.00010418282 0.00060445496 -0.00176068108 0.00010535811 0.00060531882 -0.00176555443 0.00010506630 0.00061537371 -0.00176934398 0.00010373869 0.00063302945 -0.00177201495 0.00010180657 0.00065669583 -0.00177353254 0.00009970122 0.00068478267 -0.00177386198 0.00009785394 0.00071569975 -0.00177296846 0.00009669600 0.00074785690 -0.00177081721 0.00009665871 0.00077966391 -0.00176737344 0.00009817335 0.00080953059 -0.00176260235 0.00010999724 0.00059611962 -0.00171943706 0.00011091431 0.00059717518 -0.00172181493 0.00011095327 0.00060809984 -0.00172368472 0.00011037219 0.00062712660 -0.00172502597 0.00010942912 0.00065248845 -0.00172581819 0.00010838214 0.00068241838 -0.00172604092 0.00010748930 0.00071514940 -0.00172567368 0.00010700867 0.00074891449 -0.00172469599 0.00010719832 0.00078194665 -0.00172308738 0.00010831630 0.00081247887 -0.00172082738 0.00011563995 0.00058814307 -0.00167624097 0.00011639084 0.00058958668 -0.00167624137 0.00011678300 0.00060126069 -0.00167629175 0.00011692277 0.00062130969 -0.00167638255 0.00011691653 0.00064787824 -0.00167650419 0.00011687061 0.00067911094 -0.00167664707 0.00011689137 0.00071315235 -0.00167680163 0.00011708516 0.00074814706 -0.00167695828 0.00011755834 0.00078223964 -0.00167710745 0.00011841726 0.00081357467 -0.00167723955 0.00012118340 0.00058044323 -0.00163128497 0.00012185409 0.00058242177 -0.00162904921 0.00012261368 0.00059473192 -0.00162739630 0.00012343866 0.00061550222 -0.00162632456 0.00012430552 0.00064286125 -0.00162583232 0.00012519078 0.00067493755 -0.00162591792 0.00012607091 0.00070985969 -0.00162657966 0.00012692241 0.00074575621 -0.00162781590 0.00012772178 0.00078075568 -0.00162962494 0.00012844552 0.00081298665 -0.00163200512 0.00012670001 0.00057293802 -0.00158476123 0.00012737044 0.00057554891 -0.00158045393 0.00012850351 0.00058838916 -0.00157722958 0.00012996803 0.00060962771 -0.00157509184 0.00013163285 0.00063743349 -0.00157404440 0.00013336679 0.00066997543 -0.00157409093 0.00013503867 0.00070542247 -0.00157523511 0.00013651735 0.00074194353 -0.00157748062 0.00013767164 0.00077770755 -0.00158083114 0.00013837038 0.00081088347 -0.00158529034 0.00013226220 0.00056554536 -0.00153686192 0.00013300630 0.00056883654 -0.00153067101 0.00013451071 0.00058210807 -0.00152602282 0.00013655912 0.00060360965 -0.00152292426 0.00013893524 0.00063159099 -0.00152138222 0.00014142278 0.00066430179 -0.00152140360 0.00014380544 0.00069999177 -0.00152299532 0.00014586691 0.00073691061 -0.00152616426 0.00014739091 0.00077330804 -0.00153091734 0.00014816113 0.00080743376 -0.00153726145 0.00013794242 0.00055818316 -0.00148777920 0.00013882805 0.00056215312 -0.00147991591 0.00014069346 0.00057576429 -0.00147400725 0.00014326011 0.00059737155 -0.00147006166 0.00014624944 0.00062532978 -0.00146808757 0.00014938291 0.00065799385 -0.00146809341 0.00015238196 0.00069371865 -0.00147008761 0.00015496804 0.00073085906 -0.00147407861 0.00015686259 0.00076776994 -0.00148007483 0.00015778708 0.00080280618 -0.00148808471 0.00014381308 0.00055076935 -0.00143770524 0.00014490207 0.00055536710 -0.00142840410 0.00014710998 0.00056923346 -0.00142141409 0.00015011922 0.00059083691 -0.00141674391 0.00015361219 0.00061864588 -0.00141440226 0.00015727131 0.00065112882 -0.00141439784 0.00016077900 0.00068675420 -0.00141673934 0.00016381765 0.00072399045 -0.00142143546 0.00016606969 0.00076130603 -0.00142849490 0.00016721752 0.00079716938 -0.00143792637 0.00014994662 0.00054322184 -0.00138683222 0.00015129477 0.00054834692 -0.00137635106 0.00015381846 0.00056239124 -0.00136847456 0.00015718464 0.00058392923 -0.00136321086 0.00016106022 0.00061153532 -0.00136056808 0.00016511214 0.00064378392 -0.00136055436 0.00016900732 0.00067924946 -0.00136317783 0.00017241270 0.00071650638 -0.00136844661 0.00017499519 0.00075412909 -0.00137636885 0.00017642173 0.00079069202 -0.00138695267 0.00015641547 0.00053545855 -0.00133535229 0.00015807252 0.00054096105 -0.00132397226 0.00016087712 0.00055511327 -0.00131541989 0.00016450459 0.00057657203 -0.00130970236 0.00016863028 0.00060399412 -0.00130682683 0.00017292954 0.00063603635 -0.00130680046 0.00017707770 0.00067135553 -0.00130963042 0.00018075010 0.00070860845 -0.00131532387 0.00018362210 0.00074645192 -0.00132388797 0.00018536903 0.00078354275 -0.00133532989 0.00010269994 0.00061347863 -0.00175624892 0.00010316658 0.00062389205 -0.00175969079 0.00010296161 0.00064001347 -0.00176234915 0.00010229970 0.00066093698 -0.00176421297 0.00010139555 0.00068575666 -0.00176527124 0.00010046385 0.00071356661 -0.00176551292 0.00009971930 0.00074346093 -0.00176492700 0.00009937657 0.00077453370 -0.00176350244 0.00009965037 0.00080587902 -0.00176122822 0.00010075538 0.00083659097 -0.00175809333 0.00010883800 0.00060506283 -0.00171719455 0.00010942285 0.00061611660 -0.00171908621 0.00010956143 0.00063331710 -0.00172056678 0.00010939907 0.00065564279 -0.00172162676 0.00010908109 0.00068207216 -0.00172225667 0.00010875282 0.00071158367 -0.00172244703 0.00010855958 0.00074315580 -0.00172218833 0.00010864671 0.00077576703 -0.00172147110 0.00010915953 0.00080839582 -0.00172028584 0.00011024337 0.00084002065 -0.00171862307 0.00011476437 0.00059675959 -0.00167623940 0.00011550686 0.00060847823 -0.00167663578 0.00011601738 0.00062662665 -0.00167698042 0.00011637597 0.00065011140 -0.00167726633 0.00011666268 0.00067783902 -0.00167748650 0.00011695756 0.00070871605 -0.00167763395 0.00011734063 0.00074164906 -0.00167770167 0.00011789195 0.00077554458 -0.00167768267 0.00011869155 0.00080930917 -0.00167756995 0.00011981948 0.00084184937 -0.00167735651 0.00012054143 0.00058853671 -0.00163352780 0.00012147678 0.00060092781 -0.00163249723 0.00012237911 0.00061990035 -0.00163175826 0.00012326838 0.00064432571 -0.00163130693 0.00012416457 0.00067307529 -0.00163113927 0.00012508764 0.00070502047 -0.00163125131 0.00012605754 0.00073903264 -0.00163163909 0.00012709426 0.00077398319 -0.00163229863 0.00012821775 0.00080874351 -0.00163322597 0.00012944797 0.00084218499 -0.00163441713 0.00012623156 0.00058036201 -0.00158920410 0.00012739078 0.00059341621 -0.00158682829 0.00012869628 0.00061309639 -0.00158506847 0.00013011427 0.00063826865 -0.00158392382 0.00013161098 0.00066779903 -0.00158339353 0.00013315263 0.00070055361 -0.00158347675 0.00013470544 0.00073539847 -0.00158417268 0.00013623564 0.00077119966 -0.00158548048 0.00013770944 0.00080682326 -0.00158739934 0.00013909307 0.00084113534 -0.00158992841 0.00013189712 0.00057220331 -0.00154341264 0.00013330704 0.00058589428 -0.00153978668 0.00013501856 0.00060617299 -0.00153707921 0.00013695161 0.00063192310 -0.00153529225 0.00013902614 0.00066202828 -0.00153442781 0.00014116210 0.00069537219 -0.00153448790 0.00014327942 0.00073083848 -0.00153547453 0.00014529806 0.00076731082 -0.00153738972 0.00014713796 0.00080367286 -0.00154023548 0.00014871906 0.00083880827 -0.00154401383 0.00013760050 0.00056402840 -0.00149629774 0.00013928373 0.00057831288 -0.00149153014 0.00014139560 0.00059908834 -0.00148795868 0.00014381837 0.00062527200 -0.00148558748 0.00014643428 0.00065578111 -0.00148442067 0.00014912561 0.00068953290 -0.00148446237 0.00015177460 0.00072544460 -0.00148571672 0.00015426352 0.00076243347 -0.00148818783 0.00015647463 0.00079941672 -0.00149187985 0.00015829017 0.00083531160 -0.00149679688 0.00014340406 0.00055580512 -0.00144800376 0.00014537902 0.00057062290 -0.00144221641 0.00014787707 0.00059180065 -0.00143787504 0.00015075252 0.00061829824 -0.00143498475 0.00015385964 0.00064907555 -0.00143355064 0.00015705273 0.00068309243 -0.00143357780 0.00016018609 0.00071930877 -0.00143507133 0.00016311400 0.00075668443 -0.00143803631 0.00016569077 0.00079417928 -0.00144247785 0.00016777067 0.00083075318 -0.00144840103 0.00014937017 0.00054750126 -0.00139867503 0.00015165107 0.00056277517 -0.00139200320 0.00015451264 0.00058426812 -0.00138699647 0.00015779203 0.00061098474 -0.00138365933 0.00016132644 0.00064192966 -0.00138199628 0.00016495303 0.00067610751 -0.00138201182 0.00016850899 0.00071252292 -0.00138371045 0.00017183149 0.00075018052 -0.00138709665 0.00017475770 0.00078808496 -0.00139217493 0.00017712480 0.00082524085 -0.00139894978 0.00015556122 0.00053908464 -0.00134845589 0.00015815807 0.00055472058 -0.00134104825 0.00016135195 0.00057644897 -0.00133549114 0.00016497488 0.00060331441 -0.00133178646 0.00016885891 0.00063436149 -0.00132993613 0.00017283608 0.00066863481 -0.00132994206 0.00017673841 0.00070517897 -0.00133180616 0.00018039795 0.00074303856 -0.00133553034 0.00018364674 0.00078125819 -0.00134111651 0.00018631681 0.00081888245 -0.00134856659 0.00010111605 0.00062857950 -0.00175474532 0.00010149695 0.00064601314 -0.00175701204 0.00010168593 0.00066661062 -0.00175874966 0.00010176130 0.00068994179 -0.00175996381 0.00010180141 0.00071557653 -0.00176066013 0.00010188457 0.00074308469 -0.00176084426 0.00010208910 0.00077203613 -0.00176052184 0.00010249333 0.00080200071 -0.00175969851 0.00010317558 0.00083254829 -0.00175837989 0.00010421418 0.00086324872 -0.00175657164 0.00010743167 0.00062027318 -0.00171744158 0.00010811258 0.00063863269 -0.00171880196 0.00010862015 0.00066041682 -0.00171986759 0.00010902317 0.00068512555 -0.00172063659 0.00010939043 0.00071225883 -0.00172110706 0.00010979069 0.00074131663 -0.00172127708 0.00011029276 0.00077179893 -0.00172114477 0.00011096541 0.00080320569 -0.00172070821 0.00011187741 0.00083503688 -0.00171996552 0.00011309757 0.00086679246 -0.00171891479 0.00011354724 0.00061191557 -0.00167832876 0.00011454040 0.00063112495 -0.00167881102 0.00011539635 0.00065396581 -0.00167921869 0.00011616984 0.00067988377 -0.00167954642 0.00011691561 0.00070832443 -0.00167978884 0.00011768844 0.00073873340 -0.00167994057 0.00011854306 0.00077055629 -0.00167999627 0.00011953424 0.00080323871 -0.00167995056 0.00012071672 0.00083622626 -0.00167979809 0.00012214527 0.00086896456 -0.00167953347 0.00011951105 0.00060349983 -0.00163751110 0.00012082576 0.00062348500 -0.00163714801 0.00012205241 0.00064725972 -0.00163691703 0.00012322851 0.00067422920 -0.00163681239 0.00012439153 0.00070379863 -0.00163682830 0.00012557898 0.00073537322 -0.00163695898 0.00012682834 0.00076835817 -0.00163719866 0.00012817710 0.00080215868 -0.00163754156 0.00012966275 0.00083617995 -0.00163798191 0.00013132279 0.00086982718 -0.00163851392 0.00012537138 0.00059501912 -0.00159509280 0.00012701396 0.00061570793 -0.00159392170 0.00012862622 0.00064030069 -0.00159307669 0.00013022640 0.00066817457 -0.00159255360 0.00013183274 0.00069870673 -0.00159234827 0.00013346350 0.00073127433 -0.00159245654 0.00013513692 0.00076525454 -0.00159287424 0.00013687125 0.00080002453 -0.00159359722 0.00013868473 0.00083496146 -0.00159462131 0.00014059562 0.00086944250 -0.00159594235 0.00013117651 0.00058646660 -0.00155117810 0.00013315034 0.00060778883 -0.00154924087 0.00013515565 0.00063309086 -0.00154781173 0.00013719071 0.00066173261 -0.00154688915 0.00013925379 0.00069307400 -0.00154647157 0.00014134318 0.00072647496 -0.00154655747 0.00014345714 0.00076129538 -0.00154714530 0.00014559396 0.00079689520 -0.00154823353 0.00014775192 0.00083263433 -0.00154982060 0.00014992928 0.00086787269 -0.00155190499 0.00013697472 0.00057783543 -0.00150587123 0.00013928023 0.00059972278 -0.00150321430 0.00014167860 0.00062563236 -0.00150123624 0.00014414866 0.00065491606 -0.00149993813 0.00014666925 0.00068692576 -0.00149932104 0.00014921920 0.00072101333 -0.00149938603 0.00015177735 0.00075653066 -0.00150013416 0.00015432251 0.00079282961 -0.00150156650 0.00015683354 0.00082926208 -0.00150368412 0.00015928926 0.00086517994 -0.00150648808 0.00014281430 0.00056911878 -0.00145927642 0.00014544894 0.00059150487 -0.00145595075 0.00014823293 0.00061792734 -0.00145346429 0.00015112745 0.00064773765 -0.00145181966 0.00015409367 0.00068028728 -0.00145101949 0.00015709275 0.00071492768 -0.00145106643 0.00016008586 0.00075101033 -0.00145196310 0.00016303417 0.00078788669 -0.00145371214 0.00016589885 0.00082490823 -0.00145631617 0.00016864107 0.00086142642 -0.00145977785 0.00014874353 0.00056030979 -0.00141149788 0.00015170180 0.00058313019 -0.00140755902 0.00015485655 0.00060997793 -0.00140460995 0.00015815430 0.00064021012 -0.00140265282 0.00016154160 0.00067318386 -0.00140168976 0.00016496499 0.00070825625 -0.00140172292 0.00016837101 0.00074478438 -0.00140275443 0.00017170619 0.00078212537 -0.00140478644 0.00017491708 0.00081963630 -0.00140782109 0.00017795021 0.00085667429 -0.00141186051 0.00015481068 0.00055140163 -0.00136263984 0.00015808414 0.00057459382 -0.00135814787 0.00016158732 0.00060178628 -0.00135478730 0.00016525641 0.00063234620 -0.00135255672 0.00016902761 0.00066564079 -0.00135145467 0.00017283713 0.00070103725 -0.00135147973 0.00017662114 0.00073790277 -0.00135263045 0.00018031586 0.00077560456 -0.00135490541 0.00018385748 0.00081350982 -0.00135830318 0.00018718219 0.00085098574 -0.00136282230 0.00009950151 0.00064874706 -0.00175603023 0.00010022741 0.00067107012 -0.00175752664 0.00010101510 0.00069479335 -0.00175866145 0.00010186413 0.00071978283 -0.00175945115 0.00010277404 0.00074590468 -0.00175991224 0.00010374439 0.00077302498 -0.00176006121 0.00010477472 0.00080100983 -0.00175991456 0.00010586457 0.00082972533 -0.00175948877 0.00010701351 0.00085903757 -0.00175880033 0.00010822108 0.00088881266 -0.00175786574 0.00010588489 0.00064070232 -0.00172008624 0.00010694634 0.00066409777 -0.00172107687 0.00010800173 0.00068903135 -0.00172185458 0.00010906701 0.00071533100 -0.00172242242 0.00011015816 0.00074282468 -0.00172278347 0.00011129113 0.00077134035 -0.00172294079 0.00011248187 0.00080070596 -0.00172289742 0.00011374636 0.00083074946 -0.00172265645 0.00011510056 0.00086129881 -0.00172222092 0.00011656041 0.00089218196 -0.00172159390 0.00011211699 0.00063251176 -0.00168245051 0.00011351794 0.00065685995 -0.00168296234 0.00011486858 0.00068288417 -0.00168339107 0.00011619487 0.00071037490 -0.00168373241 0.00011752277 0.00073912263 -0.00168398209 0.00011887824 0.00076891784 -0.00168413584 0.00012028727 0.00079955102 -0.00168418938 0.00012177580 0.00083081266 -0.00168413843 0.00012336980 0.00086249323 -0.00168397872 0.00012509525 0.00089438321 -0.00168370598 0.00011822985 0.00062417443 -0.00164319489 0.00011997209 0.00064936585 -0.00164325216 0.00012164007 0.00067636746 -0.00164334078 0.00012326428 0.00070493380 -0.00164345382 0.00012487520 0.00073481944 -0.00164358436 0.00012650331 0.00076577891 -0.00164372547 0.00012817908 0.00079756675 -0.00164387022 0.00012993299 0.00082993752 -0.00164401170 0.00013179553 0.00086264576 -0.00164414298 0.00013379717 0.00089544601 -0.00164425712 0.00012425555 0.00061568940 -0.00160239125 0.00012633865 0.00064162466 -0.00160201543 0.00012834061 0.00066949686 -0.00160177356 0.00013029186 0.00069902699 -0.00160165935 0.00013222281 0.00072993604 -0.00160166652 0.00013416389 0.00076194500 -0.00160178875 0.00013614550 0.00079477488 -0.00160201976 0.00013819807 0.00082814666 -0.00160235324 0.00014035202 0.00086178134 -0.00160278291 0.00014263776 0.00089539991 -0.00160330247 0.00013022614 0.00060705572 -0.00156011145 0.00013264749 0.00063364560 -0.00155932124 0.00013499460 0.00066228803 -0.00155875927 0.00013729419 0.00069267372 -0.00155842173 0.00013957294 0.00072449334 -0.00155830483 0.00014185755 0.00075743758 -0.00155840478 0.00014417473 0.00079119713 -0.00155871778 0.00014655116 0.00082546268 -0.00155924004 0.00014901356 0.00085992490 -0.00155996777 0.00015158861 0.00089427449 -0.00156089717 0.00013617367 0.00059827244 -0.00151642734 0.00013892847 0.00062543784 -0.00151523871 0.00014162646 0.00065475662 -0.00151436776 0.00014428786 0.00068589328 -0.00151381364 0.00014693292 0.00071851228 -0.00151357555 0.00014958187 0.00075227811 -0.00151365264 0.00015225494 0.00078685525 -0.00151404409 0.00015497238 0.00082190818 -0.00151474909 0.00015775442 0.00085710138 -0.00151576678 0.00016062130 0.00089209932 -0.00151709637 0.00014213022 0.00058933862 -0.00147141079 0.00014521148 0.00061701058 -0.00146983694 0.00014826058 0.00064691827 -0.00146866889 0.00015128947 0.00067870493 -0.00146790782 0.00015431009 0.00071201377 -0.00146755493 0.00015733440 0.00074648805 -0.00146761142 0.00016037434 0.00078177097 -0.00146807850 0.00016344186 0.00081750579 -0.00146895736 0.00016654890 0.00085333571 -0.00147024919 0.00016970740 0.00088890398 -0.00147195521 0.00014812784 0.00058025331 -0.00142513364 0.00015152637 0.00060837302 -0.00142318504 0.00015492137 0.00063878863 -0.00142173251 0.00015831561 0.00067112794 -0.00142077695 0.00016171181 0.00070501875 -0.00142031923 0.00016511273 0.00074008885 -0.00142036022 0.00016852111 0.00077596603 -0.00142090079 0.00017193971 0.00081227809 -0.00142194184 0.00017537126 0.00084865283 -0.00142348423 0.00017881851 0.00088471804 -0.00142552883 0.00015419859 0.00057101557 -0.00137766776 0.00015790301 0.00059953435 -0.00137535209 0.00016163325 0.00063038335 -0.00137362849 0.00016538287 0.00066318160 -0.00137249376 0.00016914540 0.00069754813 -0.00137194470 0.00017291441 0.00073310197 -0.00137197811 0.00017668344 0.00076946215 -0.00137259078 0.00018044605 0.00080624771 -0.00137377952 0.00018419579 0.00084307767 -0.00137554113 0.00018792621 0.00087957106 -0.00137787240 0.00009792663 0.00067297079 -0.00175996360 0.00009923617 0.00069845105 -0.00176124304 0.00010072498 0.00072418987 -0.00176220046 0.00010234880 0.00075019902 -0.00176285870 0.00010406335 0.00077649031 -0.00176324060 0.00010582436 0.00080307554 -0.00176336898 0.00010758753 0.00082996648 -0.00176326669 0.00010930862 0.00085717495 -0.00176295656 0.00011094332 0.00088471273 -0.00176246142 0.00011244738 0.00091259162 -0.00176180411 0.00010430431 0.00066530190 -0.00172503661 0.00010588699 0.00069188617 -0.00172602566 0.00010757846 0.00071879300 -0.00172679514 0.00010935310 0.00074601529 -0.00172735122 0.00011118531 0.00077354595 -0.00172770007 0.00011304947 0.00080137790 -0.00172784785 0.00011491997 0.00082950405 -0.00172780075 0.00011677120 0.00085791731 -0.00172756493 0.00011857755 0.00088661057 -0.00172714655 0.00012031340 0.00091557677 -0.00172655179 0.00011060205 0.00065744890 -0.00168854607 0.00011246594 0.00068501636 -0.00168928501 0.00011438273 0.00071298773 -0.00168988205 0.00011634156 0.00074133290 -0.00169033388 0.00011833158 0.00077002177 -0.00169063719 0.00012034196 0.00079902426 -0.00169078864 0.00012236184 0.00082831025 -0.00169078493 0.00012438038 0.00085784967 -0.00169062273 0.00012638672 0.00088761240 -0.00169029872 0.00012837003 0.00091756835 -0.00168980959 0.00011683546 0.00064940238 -0.00165053925 0.00011898684 0.00067784289 -0.00165106029 0.00012114856 0.00070678099 -0.00165149765 0.00012332096 0.00073616067 -0.00165184410 0.00012550437 0.00076592588 -0.00165209240 0.00012769913 0.00079602062 -0.00165223532 0.00012990557 0.00082638886 -0.00165226561 0.00013212402 0.00085697457 -0.00165217605 0.00013435482 0.00088772172 -0.00165195939 0.00013659831 0.00091857430 -0.00165160840 0.00012302017 0.00064115293 -0.00161106341 0.00012546350 0.00067036701 -0.00161139070 0.00012788673 0.00070017973 -0.00161167838 0.00013029811 0.00073050742 -0.00161191926 0.00013270588 0.00076126642 -0.00161210615 0.00013511829 0.00079237305 -0.00161223186 0.00013754358 0.00082374365 -0.00161228920 0.00013999001 0.00085529454 -0.00161227098 0.00014246581 0.00088694207 -0.00161217002 0.00014497925 0.00091860257 -0.00161197911 0.00012917178 0.00063269114 -0.00157016581 0.00013190975 0.00066258999 -0.00157031545 0.00013460802 0.00069319088 -0.00157046070 0.00013727980 0.00072438199 -0.00157059677 0.00013993831 0.00075605149 -0.00157071888 0.00014259674 0.00078808756 -0.00157082225 0.00014526830 0.00082037838 -0.00157090210 0.00014796621 0.00085281213 -0.00157095363 0.00015070367 0.00088527698 -0.00157097206 0.00015349389 0.00091766111 -0.00157095261 0.00013530593 0.00062400762 -0.00152789374 0.00013833940 0.00065451309 -0.00152787374 0.00014132320 0.00068582138 -0.00152788105 0.00014427284 0.00071779318 -0.00152791402 0.00014720386 0.00075028922 -0.00152797104 0.00015013179 0.00078317020 -0.00152805047 0.00015307216 0.00081629685 -0.00152815069 0.00015604051 0.00084952986 -0.00152827007 0.00015905236 0.00088272996 -0.00152840698 0.00016212325 0.00091575786 -0.00152855978 0.00014143821 0.00061509293 -0.00148429445 0.00014476628 0.00064613758 -0.00148410478 0.00014804303 0.00067807817 -0.00148397588 0.00015128401 0.00071074983 -0.00148390842 0.00015450474 0.00074398773 -0.00148390306 0.00015772075 0.00077762701 -0.00148396049 0.00016094759 0.00081150280 -0.00148408138 0.00016420078 0.00084545027 -0.00148426640 0.00016749586 0.00087930454 -0.00148451622 0.00017084836 0.00091290077 -0.00148483152 0.00014758426 0.00060593769 -0.00143941520 0.00015120420 0.00063746471 -0.00143904777 0.00015477830 0.00066996818 -0.00143878164 0.00015832011 0.00070326076 -0.00143861735 0.00016184314 0.00073715515 -0.00143855539 0.00016536093 0.00077146401 -0.00143859629 0.00016888701 0.00080600003 -0.00143874056 0.00017243490 0.00084057588 -0.00143898871 0.00017601814 0.00087500425 -0.00143934125 0.00017965025 0.00090909780 -0.00143979871 0.00015375969 0.00059653249 -0.00139330327 0.00015766698 0.00062849576 -0.00139274190 0.00016153979 0.00066149835 -0.00139233479 0.00016538794 0.00069533479 -0.00139207822 0.00016922128 0.00072979959 -0.00139196847 0.00017304964 0.00076468726 -0.00139200185 0.00017688285 0.00079979230 -0.00139217462 0.00018073075 0.00083490925 -0.00139248309 0.00018460316 0.00086983260 -0.00139292353 0.00018850994 0.00090435687 -0.00139349224 0.00009646176 0.00070024017 -0.00176640538 0.00009840142 0.00072754398 -0.00176816969 0.00010059141 0.00075442837 -0.00176948263 0.00010295595 0.00078092928 -0.00177037016 0.00010541924 0.00080708266 -0.00177085822 0.00010790550 0.00083292445 -0.00177097279 0.00011033894 0.00085849058 -0.00177073981 0.00011264376 0.00088381699 -0.00177018525 0.00011474418 0.00090893963 -0.00176933506 0.00011656441 0.00093389443 -0.00176821520 0.00010279656 0.00069302358 -0.00173220079 0.00010489738 0.00072137222 -0.00173376303 0.00010722265 0.00074933410 -0.00173495667 0.00010970396 0.00077693455 -0.00173578992 0.00011227291 0.00080419886 -0.00173627096 0.00011486109 0.00083115237 -0.00173640799 0.00011740010 0.00085782037 -0.00173620920 0.00011982153 0.00088422820 -0.00173568277 0.00012205699 0.00091040115 -0.00173483692 0.00012403806 0.00093636455 -0.00173367981 0.00010913085 0.00068562774 -0.00169655690 0.00011141087 0.00071492732 -0.00169797427 0.00011388746 0.00074388250 -0.00169907614 0.00011650041 0.00077250586 -0.00169986041 0.00011918952 0.00080081000 -0.00170032502 0.00012189458 0.00082880750 -0.00170046786 0.00012455539 0.00085651096 -0.00170028685 0.00012711174 0.00088393296 -0.00169977990 0.00012950344 0.00091108609 -0.00169894493 0.00013167027 0.00093798295 -0.00169777985 0.00011546548 0.00067802552 -0.00165950421 0.00011794107 0.00070818865 -0.00166082299 0.00012058435 0.00073805777 -0.00166185580 0.00012334379 0.00076763091 -0.00166259611 0.00012616783 0.00079690613 -0.00166303738 0.00012900495 0.00082588147 -0.00166317308 0.00013180360 0.00085455497 -0.00166299666 0.00013451226 0.00088292467 -0.00166250160 0.00013707937 0.00091098861 -0.00166168136 0.00013945340 0.00093874485 -0.00166052941 0.00012180132 0.00067018976 -0.00162107320 0.00012448719 0.00070113556 -0.00162232877 0.00012731187 0.00073184411 -0.00162331047 0.00013023259 0.00076229739 -0.00162401150 0.00013320662 0.00079247733 -0.00162442506 0.00013619118 0.00082236589 -0.00162454434 0.00013914354 0.00085194503 -0.00162436255 0.00014202094 0.00088119671 -0.00162387286 0.00014478062 0.00091010287 -0.00162306848 0.00014737983 0.00093864546 -0.00162194261 0.00012813923 0.00066209336 -0.00158129433 0.00013104842 0.00069374742 -0.00158251116 0.00013406852 0.00072522575 -0.00158345491 0.00013716532 0.00075649296 -0.00158412106 0.00014030463 0.00078751364 -0.00158450506 0.00014345226 0.00081825238 -0.00158460235 0.00014657400 0.00084867379 -0.00158440839 0.00014963566 0.00087874247 -0.00158391864 0.00015260303 0.00090842300 -0.00158312855 0.00015544193 0.00093768000 -0.00158203357 0.00013448006 0.00065370915 -0.00154019810 0.00013762395 0.00068600359 -0.00154138973 0.00014085282 0.00071818690 -0.00154230393 0.00014414046 0.00075020532 -0.00154293928 0.00014746064 0.00078200513 -0.00154329437 0.00015078715 0.00081353256 -0.00154336778 0.00015409377 0.00084473388 -0.00154315811 0.00015735427 0.00087555533 -0.00154266393 0.00016054245 0.00090594318 -0.00154188383 0.00016363207 0.00093584367 -0.00154081640 0.00014082468 0.00064501002 -0.00149781498 0.00014421298 0.00067788344 -0.00149898407 0.00014766332 0.00071071175 -0.00149987231 0.00015115651 0.00074342216 -0.00150048064 0.00015467341 0.00077594186 -0.00150081001 0.00015819485 0.00080819805 -0.00150086134 0.00016170165 0.00084011793 -0.00150063559 0.00016517465 0.00087162869 -0.00150013369 0.00016859470 0.00090265755 -0.00149935658 0.00017194262 0.00093313169 -0.00149830520 0.00014717395 0.00063596881 -0.00145417545 0.00015081471 0.00066936632 -0.00145531373 0.00015449851 0.00070278453 -0.00145617483 0.00015821197 0.00073613115 -0.00145675962 0.00016194170 0.00076931389 -0.00145706896 0.00016567432 0.00080224046 -0.00145710371 0.00016939643 0.00083481857 -0.00145686474 0.00017309467 0.00086695593 -0.00145635290 0.00017675563 0.00089856026 -0.00145556907 0.00018036594 0.00092953926 -0.00145451410 0.00015352873 0.00062655840 -0.00140930999 0.00015742833 0.00066043161 -0.00141039828 0.00016135694 0.00069438945 -0.00141122629 0.00016530533 0.00072831998 -0.00141179071 0.00016926427 0.00076211128 -0.00141208824 0.00017322454 0.00079565140 -0.00141211559 0.00017717692 0.00082882843 -0.00141186946 0.00018111217 0.00086153043 -0.00141134655 0.00018502108 0.00089364547 -0.00141054356 0.00018889442 0.00092506161 -0.00140945719 0.00009517724 0.00072954469 -0.00177521552 0.00009760138 0.00075773694 -0.00177831507 0.00010039024 0.00078513705 -0.00178062391 0.00010342620 0.00081171254 -0.00178216922 0.00010659162 0.00083743095 -0.00178297814 0.00010976886 0.00086225979 -0.00178307783 0.00011284030 0.00088616658 -0.00178249546 0.00011568831 0.00090911885 -0.00178125817 0.00011819525 0.00093108412 -0.00177939312 0.00012024348 0.00095202991 -0.00177692748 0.00010146829 0.00072281902 -0.00174148685 0.00010394037 0.00075193024 -0.00174440368 0.00010680660 0.00078028699 -0.00174660660 0.00010994210 0.00080784491 -0.00174810551 0.00011322197 0.00083455963 -0.00174891030 0.00011652133 0.00086038681 -0.00174903090 0.00011971529 0.00088528209 -0.00174847720 0.00012267897 0.00090920111 -0.00174725910 0.00012528747 0.00093209950 -0.00174538652 0.00012741590 0.00095393293 -0.00174286935 0.00010783182 0.00071594903 -0.00170642444 0.00011037919 0.00074592596 -0.00170922539 0.00011333143 0.00077517449 -0.00171135783 0.00011656192 0.00080364190 -0.00171282159 0.00011994401 0.00083127546 -0.00171361650 0.00012335108 0.00085802245 -0.00171374238 0.00012665650 0.00088383012 -0.00171319908 0.00012973365 0.00090864576 -0.00171198641 0.00013245588 0.00093241664 -0.00171010421 0.00013469657 0.00095509002 -0.00170755230 0.00011425752 0.00070888569 -0.00167004984 0.00011690586 0.00073967565 -0.00167279089 0.00011995393 0.00076975521 -0.00167488340 0.00012327801 0.00079906568 -0.00167632274 0.00012675437 0.00082754835 -0.00167710426 0.00013025927 0.00085514454 -0.00167722330 0.00013366899 0.00088179554 -0.00167667522 0.00013685977 0.00090744267 -0.00167545537 0.00013970790 0.00093202721 -0.00167355911 0.00014208964 0.00095549048 -0.00167098179 0.00012073510 0.00070157997 -0.00163238456 0.00012350838 0.00073313090 -0.00163511086 0.00012666329 0.00076398483 -0.00163718913 0.00013008275 0.00079407839 -0.00163861425 0.00013364971 0.00082334822 -0.00163938113 0.00013724707 0.00085173095 -0.00163948467 0.00014075778 0.00087916322 -0.00163891975 0.00014406476 0.00090558166 -0.00163768129 0.00014705095 0.00093092290 -0.00163576417 0.00014959926 0.00095512358 -0.00163316330 0.00012725425 0.00069398283 -0.00159345014 0.00013017478 0.00072624328 -0.00159619601 0.00013344870 0.00075781901 -0.00159828080 0.00013696850 0.00078864220 -0.00159970139 0.00014062665 0.00081864498 -0.00160045466 0.00014431564 0.00084775954 -0.00160053751 0.00014792795 0.00087591802 -0.00159994681 0.00015135605 0.00090305259 -0.00159867945 0.00015449243 0.00092909540 -0.00159673232 0.00015722956 0.00095397862 -0.00159410230 0.00013380466 0.00068604524 -0.00155326810 0.00013689306 0.00071896436 -0.00155605703 0.00014029936 0.00075121343 -0.00155816423 0.00014392760 0.00078271924 -0.00155958944 0.00014768185 0.00081340855 -0.00156033240 0.00015146614 0.00084320815 -0.00156039284 0.00015518452 0.00087204480 -0.00155977051 0.00015874105 0.00089984529 -0.00155846514 0.00016203976 0.00092653639 -0.00155647648 0.00016498471 0.00095204487 -0.00155380426 0.00014037604 0.00067771815 -0.00151185996 0.00014365124 0.00071124571 -0.00151470461 0.00014720445 0.00074412376 -0.00151684522 0.00015095243 0.00077627168 -0.00151828368 0.00015481194 0.00080760885 -0.00151902188 0.00015869973 0.00083805465 -0.00151906168 0.00016253256 0.00086752844 -0.00151840498 0.00016622718 0.00089594962 -0.00151705365 0.00016970036 0.00092323755 -0.00151500958 0.00017286886 0.00094931161 -0.00151227465 0.00014695807 0.00066895254 -0.00146924726 0.00015043734 0.00070303890 -0.00147214944 0.00015415318 0.00073650565 -0.00147432957 0.00015803535 0.00076926166 -0.00147578940 0.00016201357 0.00080121578 -0.00147653065 0.00016601757 0.00083227688 -0.00147655506 0.00016997710 0.00086235380 -0.00147586436 0.00017382188 0.00089135541 -0.00147446028 0.00017748165 0.00091919057 -0.00147234457 0.00018088614 0.00094576814 -0.00146951895 0.00015354047 0.00065969936 -0.00142545152 0.00015723936 0.00069429551 -0.00142840221 0.00016113474 0.00072831480 -0.00143062309 0.00016516871 0.00076165135 -0.00143211186 0.00016928338 0.00079419928 -0.00143286625 0.00017342084 0.00082585271 -0.00143288398 0.00017752320 0.00085650575 -0.00143216276 0.00018153256 0.00088605252 -0.00143070032 0.00018539104 0.00091438714 -0.00142849436 0.00018904072 0.00094140373 -0.00142554262 0.00009414339 0.00075987383 -0.00178625396 0.00009671423 0.00078841798 -0.00179168760 0.00009989731 0.00081594411 -0.00179574024 0.00010350017 0.00084228773 -0.00179843959 0.00010733037 0.00086728439 -0.00179981338 0.00011119547 0.00089076962 -0.00179988934 0.00011490302 0.00091257896 -0.00179869519 0.00011826057 0.00093254793 -0.00179625867 0.00012107569 0.00095051206 -0.00179260750 0.00012315591 0.00096630690 -0.00178776941 0.00010042613 0.00075363986 -0.00175280288 0.00010297880 0.00078293456 -0.00175806232 0.00010620261 0.00081128399 -0.00176201231 0.00010989003 0.00083850251 -0.00176466492 0.00011383352 0.00086440449 -0.00176603222 0.00011782556 0.00088880433 -0.00176612629 0.00012165861 0.00091151637 -0.00176495921 0.00012512512 0.00093235501 -0.00176254304 0.00012801758 0.00095113461 -0.00175888987 0.00013012844 0.00096766955 -0.00175401177 0.00010683339 0.00074731351 -0.00171809014 0.00010939737 0.00077734539 -0.00172323362 0.00011266332 0.00080646970 -0.00172711163 0.00011641658 0.00083448912 -0.00172972698 0.00012044251 0.00086120631 -0.00173108253 0.00012452646 0.00088642396 -0.00173118111 0.00012845379 0.00090994474 -0.00173002555 0.00013200985 0.00093157131 -0.00172761871 0.00013498000 0.00095110636 -0.00172396341 0.00013714958 0.00096835256 -0.00171906249 0.00011334920 0.00074082477 -0.00168213618 0.00011595225 0.00077157643 -0.00168721457 0.00011926377 0.00080143077 -0.00169104860 0.00012306889 0.00083018609 -0.00169363687 0.00012715279 0.00085764071 -0.00169497797 0.00013130061 0.00088359294 -0.00169507053 0.00013529751 0.00090784107 -0.00169391312 0.00013892864 0.00093018342 -0.00169150436 0.00014197916 0.00095041829 -0.00168784285 0.00014423423 0.00096834399 -0.00168292720 0.00011995760 0.00073410362 -0.00164496145 0.00012262573 0.00076555364 -0.00165001824 0.00012598828 0.00079609670 -0.00165383366 0.00012983604 0.00082553196 -0.00165640568 0.00013395983 0.00085365856 -0.00165773224 0.00013815045 0.00088027566 -0.00165781130 0.00014219869 0.00090518239 -0.00165664080 0.00014589537 0.00092817791 -0.00165421870 0.00014903130 0.00094906137 -0.00165054295 0.00015139727 0.00096763191 -0.00164561151 0.00012664262 0.00072708006 -0.00160658637 0.00012940010 0.00075920298 -0.00161165768 0.00013282118 0.00079039702 -0.00161547724 0.00013670710 0.00082046524 -0.00161804453 0.00014085909 0.00084921072 -0.00161935901 0.00014507840 0.00087643652 -0.00161942017 0.00014916627 0.00090194572 -0.00161822748 0.00015292393 0.00092554138 -0.00161578041 0.00015615263 0.00094702659 -0.00161207844 0.00015865361 0.00096620442 -0.00160712104 0.00013338830 0.00071968407 -0.00156703140 0.00013625766 0.00075245043 -0.00157214598 0.00013974680 0.00078426125 -0.00157598977 0.00014367113 0.00081492447 -0.00157856451 0.00014784604 0.00084424804 -0.00157987197 0.00015208693 0.00087203992 -0.00157991389 0.00015620918 0.00089810807 -0.00157869205 0.00016002821 0.00092226042 -0.00157620818 0.00016335940 0.00094430494 -0.00157246406 0.00016601815 0.00096404957 -0.00156746142 0.00014017867 0.00071184563 -0.00152631697 0.00014318069 0.00074522195 -0.00153149620 0.00014674947 0.00077761890 -0.00153538166 0.00015071721 0.00080884817 -0.00153797673 0.00015491614 0.00083872141 -0.00153928479 0.00015917845 0.00086705028 -0.00153930922 0.00016333636 0.00089364646 -0.00153805340 0.00016722208 0.00091832160 -0.00153552072 0.00017066781 0.00094088738 -0.00153171455 0.00017350577 0.00096115545 -0.00152663828 0.00014699777 0.00070349474 -0.00148446352 0.00015015149 0.00073744349 -0.00148972141 0.00015381350 0.00077039950 -0.00149366335 0.00015783441 0.00080217487 -0.00149629229 0.00016206484 0.00083258167 -0.00149761116 0.00016635541 0.00086143199 -0.00149762289 0.00017055673 0.00088853791 -0.00149633043 0.00017451942 0.00091371152 -0.00149373670 0.00017809410 0.00093676489 -0.00148984466 0.00018113139 0.00095751012 -0.00148465722 0.00015382963 0.00069456139 -0.00144149148 0.00015715235 0.00072904102 -0.00144683467 0.00016092322 0.00076253256 -0.00145084527 0.00016501179 0.00079484309 -0.00145352230 0.00016928762 0.00082577969 -0.00145486476 0.00017362025 0.00085514945 -0.00145487166 0.00017787924 0.00088275945 -0.00145354202 0.00018193414 0.00090841676 -0.00145087483 0.00018565450 0.00093192847 -0.00144686912 0.00018890989 0.00095310166 -0.00144152388 0.00009343056 0.00079021707 -0.00179938065 0.00009561820 0.00081897516 -0.00180829577 0.00009888846 0.00084647774 -0.00181494755 0.00010291849 0.00087239378 -0.00181936496 0.00010738541 0.00089639222 -0.00182157696 0.00011196636 0.00091814204 -0.00182161251 0.00011633846 0.00093731218 -0.00181950057 0.00012017885 0.00095357162 -0.00181527011 0.00012316466 0.00096658931 -0.00180895009 0.00012497303 0.00097603422 -0.00180056946 0.00009977673 0.00078443776 -0.00176605697 0.00010197552 0.00081375951 -0.00177485366 0.00010528297 0.00084195742 -0.00178144123 0.00010937027 0.00086866348 -0.00178583513 0.00011390859 0.00089350967 -0.00178805086 0.00011856913 0.00091612798 -0.00178810388 0.00012302308 0.00093615038 -0.00178600967 0.00012694161 0.00095320888 -0.00178178371 0.00012999592 0.00096693544 -0.00177544148 0.00013185720 0.00097696206 -0.00176699845 0.00010626398 0.00077862192 -0.00173149543 0.00010849188 0.00080851875 -0.00174019423 0.00011183177 0.00083737414 -0.00174672203 0.00011595489 0.00086479561 -0.00175108618 0.00012053246 0.00089039070 -0.00175329402 0.00012523571 0.00091376691 -0.00175335292 0.00012973585 0.00093453178 -0.00175127021 0.00013370412 0.00095229283 -0.00174705325 0.00013681173 0.00096665758 -0.00174070939 0.00013872992 0.00097723355 -0.00173224598 0.00011287812 0.00077268458 -0.00169572329 0.00011515133 0.00080316349 -0.00170434466 0.00011852034 0.00083264186 -0.00171081955 0.00012266168 0.00086071329 -0.00171515137 0.00012725187 0.00088697138 -0.00171734349 0.00013196746 0.00091100976 -0.00171739930 0.00013648497 0.00093242201 -0.00171532220 0.00014048094 0.00095080177 -0.00171111557 0.00014363188 0.00096574262 -0.00170478280 0.00014561435 0.00097683818 -0.00169632728 0.00011960490 0.00076654077 -0.00165876778 0.00012193791 0.00079760435 -0.00166733212 0.00012533412 0.00082767454 -0.00167376339 0.00012947991 0.00085633960 -0.00167806397 0.00013406167 0.00088318780 -0.00168023628 0.00013876579 0.00090780742 -0.00168028270 0.00014327866 0.00092978672 -0.00167820565 0.00014728666 0.00094871398 -0.00167400750 0.00015047619 0.00096417746 -0.00166769068 0.00015253362 0.00097576544 -0.00165925756 0.00012643013 0.00076010551 -0.00162065617 0.00012883569 0.00079175194 -0.00162918382 0.00013225858 0.00082238614 -0.00163558312 0.00013639889 0.00085159765 -0.00163985726 0.00014095670 0.00087897603 -0.00164200942 0.00014563208 0.00090411081 -0.00164204278 0.00015012511 0.00092659154 -0.00163996054 0.00015413587 0.00094600776 -0.00163576588 0.00015736444 0.00096194902 -0.00162946199 0.00015951090 0.00097400485 -0.00162105205 0.00013333956 0.00075329383 -0.00158141569 0.00013582869 0.00078551685 -0.00158992694 0.00013927918 0.00081669061 -0.00159630836 0.00014340792 0.00084641056 -0.00160056450 0.00014793180 0.00087427215 -0.00160269994 0.00015256770 0.00089987085 -0.00160271921 0.00015703252 0.00092280211 -0.00160062689 0.00016104314 0.00094266140 -0.00159642754 0.00016431644 0.00095904418 -0.00159012570 0.00016656932 0.00097154590 -0.00158172595 0.00014031900 0.00074602075 -0.00154107358 0.00014290098 0.00077880972 -0.00154958865 0.00014638138 0.00081050192 -0.00155596867 0.00015049629 0.00084070141 -0.00156021897 0.00015498182 0.00086901223 -0.00156234485 0.00015957406 0.00089503844 -0.00156235166 0.00016400910 0.00091838408 -0.00156024470 0.00016802305 0.00093865320 -0.00155602931 0.00017135200 0.00095544985 -0.00154971080 0.00017373204 0.00096837808 -0.00154129449 0.00014735420 0.00073820131 -0.00149965710 0.00015003659 0.00077154114 -0.00150819616 0.00015355063 0.00080373403 -0.00151459367 0.00015765330 0.00083439332 -0.00151885392 0.00016210160 0.00086313236 -0.00152098120 0.00016665252 0.00088956450 -0.00152097979 0.00017106305 0.00091330307 -0.00151885397 0.00017509018 0.00093396143 -0.00151460802 0.00017849091 0.00095115293 -0.00150824623 0.00018102221 0.00096449091 -0.00149977288 0.00015443097 0.00072975052 -0.00145719350 0.00015721959 0.00076362173 -0.00146577664 0.00016077240 0.00079630090 -0.00147221294 0.00016486825 0.00082740940 -0.00147650264 0.00016928600 0.00085656862 -0.00147864601 0.00017380449 0.00088339994 -0.00147864328 0.00017820258 0.00090752474 -0.00147649470 0.00018225912 0.00092856441 -0.00147220052 0.00018575297 0.00094614032 -0.00146576099 0.00018846298 0.00095987387 -0.00145717635 0.00009310909 0.00081956390 -0.00181445555 0.00009419147 0.00084879652 -0.00182814801 0.00009713955 0.00087636616 -0.00183836179 0.00010142179 0.00090176960 -0.00184512904 0.00010650665 0.00092450365 -0.00184848191 0.00011186257 0.00094406509 -0.00184845256 0.00011695802 0.00095995072 -0.00184507315 0.00012126146 0.00097165734 -0.00183837583 0.00012424134 0.00097868173 -0.00182839276 0.00012536613 0.00098052070 -0.00181515608 0.00009962672 0.00081416438 -0.00178115720 0.00010089339 0.00084377941 -0.00179489240 0.00010391999 0.00087193962 -0.00180516074 0.00010820533 0.00089808396 -0.00181198309 0.00011324820 0.00092165139 -0.00181538034 0.00011854741 0.00094208085 -0.00181537335 0.00012360176 0.00095881129 -0.00181198302 0.00012791005 0.00097128169 -0.00180523023 0.00013097109 0.00097893097 -0.00179513584 0.00013228367 0.00098119811 -0.00178172075 0.00010625204 0.00080877502 -0.00174658176 0.00010768918 0.00083877917 -0.00176030247 0.00011078547 0.00086749381 -0.00177057354 0.00011506736 0.00089430950 -0.00177740876 0.00012006132 0.00091861677 -0.00178082189 0.00012529380 0.00093980617 -0.00178082671 0.00013029128 0.00095726824 -0.00177743698 0.00013458019 0.00097039355 -0.00177066649 0.00013768702 0.00097857262 -0.00176052901 0.00013913822 0.00098119600 -0.00174703831 0.00011298189 0.00080330700 -0.00171077121 0.00011457415 0.00083370939 -0.00172443174 0.00011773012 0.00086294593 -0.00173466442 0.00012200161 0.00089036839 -0.00174147913 0.00012694042 0.00091532852 -0.00174488576 0.00013209834 0.00093717809 -0.00174489418 0.00013702718 0.00095526885 -0.00174151431 0.00014127873 0.00096895256 -0.00173475601 0.00014440481 0.00097758098 -0.00172462917 0.00014595720 0.00098050586 -0.00171114370 0.00011981311 0.00079767149 -0.00167376752 0.00012154359 0.00082848365 -0.00168733377 0.00012474809 0.00085821316 -0.00169749761 0.00012900180 0.00088618282 -0.00170426730 0.00013387991 0.00091171540 -0.00170765113 0.00013895760 0.00093413366 -0.00170765736 0.00014381008 0.00095276039 -0.00170429427 0.00014801252 0.00096691837 -0.00169757013 0.00015114012 0.00097593037 -0.00168749322 0.00015276806 0.00097911916 -0.00167407181 0.00012674254 0.00079177967 -0.00163561266 0.00012859280 0.00082301554 -0.00164906209 0.00013183350 0.00085321271 -0.00165913733 0.00013606163 0.00088167498 -0.00166584637 0.00014087419 0.00090770611 -0.00166919720 0.00014586818 0.00093060991 -0.00166919779 0.00015064058 0.00094969015 -0.00166585614 0.00015478839 0.00096425061 -0.00165918023 0.00015790862 0.00097359509 -0.00164917805 0.00015959824 0.00097702737 -0.00163585757 0.00013376703 0.00078554271 -0.00159634863 0.00013571709 0.00081721866 -0.00160967024 0.00013898050 0.00084786177 -0.00161964782 0.00014317484 0.00087676704 -0.00162628943 0.00014791769 0.00090322941 -0.00162960316 0.00015282665 0.00092654387 -0.00162959706 0.00015751929 0.00094600539 -0.00162627921 0.00016161321 0.00096090893 -0.00161965768 0.00016472598 0.00097054946 -0.00160974055 0.00016647520 0.00097422196 -0.00159653589 0.00014088341 0.00077887180 -0.00155601738 0.00014291175 0.00081100658 -0.00156921176 0.00014618321 0.00084207754 -0.00157909330 0.00015033512 0.00087138118 -0.00158566958 0.00015500481 0.00089821403 -0.00158894819 0.00015982960 0.00092187259 -0.00158893671 0.00016444682 0.00094165340 -0.00158564274 0.00016849381 0.00095685296 -0.00157907385 0.00017160787 0.00096676779 -0.00156923764 0.00017342635 0.00097069441 -0.00155614169 0.00014808853 0.00077167809 -0.00151466090 0.00015017207 0.00080429291 -0.00152774020 0.00015343577 0.00083577721 -0.00153753801 0.00015753620 0.00086543960 -0.00154405991 0.00016212995 0.00089258869 -0.00154731149 0.00016687362 0.00091653311 -0.00154729833 0.00017142378 0.00093658145 -0.00154402600 0.00017543704 0.00095204234 -0.00153750010 0.00017856997 0.00096222438 -0.00152772620 0.00018047916 0.00096643620 -0.00151470989 0.00015537923 0.00076387278 -0.00147232118 0.00015749337 0.00079699123 -0.00148530909 0.00016073231 0.00082887797 -0.00149504617 0.00016477179 0.00085886446 -0.00150153352 0.00016928753 0.00088628214 -0.00150477225 0.00017395528 0.00091046245 -0.00150476347 0.00017845078 0.00093073683 -0.00150150829 0.00018244975 0.00094643672 -0.00149500781 0.00018562793 0.00095689356 -0.00148526314 0.00018766106 0.00096143879 -0.00147227539 </DataArray>
</PointData>
<Points>
<DataArray type="Float32" NumberOfComponents="3">
-0.45587581718 0.72561845496 0.49012131892 -0.42527582708 0.72561931882 0.48225407932 -0.40232700777 0.72562937371 0.47315587413 -0.38702892798 0.72564702945 0.46317876283 -0.37938115640 0.72567069583 0.45267480491 -0.37938326174 0.72569878267 0.44199605983 -0.38703481273 0.72572969975 0.43149458709 -0.40233537807 0.72576185690 0.42152244616 -0.42528452647 0.72579366391 0.41243169652 -0.45588182665 0.72582353059 0.40457439765 -0.45144651168 0.74151441866 0.49016256294 -0.42086474250 0.74151547422 0.48229781882 -0.39792906446 0.74152639888 0.47320153338 -0.38263921949 0.74154542564 0.46322575181 -0.37499494953 0.74157078749 0.45272251926 -0.37499599651 0.74160071742 0.44204388089 -0.38264210238 0.74163344844 0.43154188188 -0.39793300906 0.74166721353 0.42156856739 -0.42086845849 0.74170024569 0.41247598258 -0.45144819262 0.74173077791 0.40461617262 -0.44546672767 0.75741068353 0.49020575903 -0.41484713250 0.75741212714 0.48234339238 -0.39188260714 0.75742380116 0.47324892635 -0.37657304522 0.75744385015 0.46327439522 -0.36891834039 0.75747041871 0.45277183326 -0.36891838631 0.75750165141 0.44209327474 -0.37657307662 0.75753569282 0.43159075393 -0.39188230497 0.75757068753 0.42161630509 -0.41484596501 0.75760478011 0.41252196251 -0.44546395037 0.75763611514 0.40465976045 -0.43801989067 0.77330718397 0.49025071503 -0.40731971930 0.77330916251 0.48239058453 -0.38429433420 0.77332147266 0.47329782181 -0.36894375888 0.77334224296 0.46332445322 -0.36126801684 0.77336960199 0.45282250512 -0.36126713158 0.77340167829 0.44214400390 -0.36894112663 0.77343660043 0.43164097589 -0.38429002546 0.77347249695 0.42166544748 -0.40731385161 0.77350749642 0.41256944502 -0.43801262856 0.77353972740 0.40470499488 -0.42918942619 0.78920385434 0.49029723877 -0.39837922509 0.78920646523 0.48243917981 -0.37527094403 0.78921930548 0.47334798853 -0.35986471418 0.78924054403 0.46337568593 -0.35216066670 0.78926834981 0.45287429305 -0.35215893276 0.78930089175 0.44219583088 -0.35985964354 0.78933633879 0.43169232044 -0.37526293020 0.78937285985 0.42171578275 -0.39836892390 0.78940862388 0.41261823882 -0.42917775582 0.78944179979 0.40475170966 -0.41905875975 0.80510062904 0.49034513808 -0.38812237210 0.80510392022 0.48248896273 -0.36491913503 0.80511719174 0.47339919528 -0.34944926484 0.80513869333 0.46342785352 -0.34171297783 0.80516667467 0.45292695523 -0.34171049029 0.80519938547 0.44224851821 -0.34944201852 0.80523507544 0.43174456024 -0.36490777882 0.80527199429 0.42176709911 -0.38810798749 0.80530839172 0.41266815262 -0.41904286081 0.80534251743 0.40479973855 -0.40771131684 0.82099744242 0.49039422080 -0.37664588252 0.82100141238 0.48253971784 -0.35334560558 0.82101502355 0.47345121085 -0.33781076458 0.82103663081 0.46348071611 -0.33004163807 0.82106458904 0.45298024988 -0.33003850461 0.82109725311 0.44230182840 -0.33780164273 0.82113297791 0.43179746794 -0.35333133100 0.82117011831 0.42181918477 -0.37662784797 0.82120702920 0.41271899513 -0.40769147218 0.82124206544 0.40484891529 -0.39523052300 0.83689422889 0.49044429476 -0.36404647856 0.83689882663 0.48259122964 -0.34065705407 0.83691269300 0.47350380402 -0.32506256711 0.83693429644 0.46353403387 -0.31726333528 0.83696210541 0.45303393519 -0.31725967615 0.83699458836 0.44235552398 -0.32505190733 0.83703021373 0.43185081622 -0.34064034640 0.83706744998 0.42187182792 -0.36402531094 0.83710476556 0.41277057506 -0.39520711856 0.83714062892 0.40489907363 -0.38169980372 0.85279092280 0.49049516778 -0.35042088244 0.85279604788 0.48264328268 -0.32696017889 0.85281009220 0.47355674354 -0.31131802615 0.85283163019 0.46358756692 -0.30349475728 0.85285923628 0.45308776937 -0.30349070537 0.85289148488 0.44240936745 -0.31130620347 0.85292695042 0.43190437773 -0.32694158466 0.85296420734 0.42192481676 -0.35039718202 0.85300183005 0.41282270111 -0.38167332861 0.85303839298 0.40495004733 -0.36720258453 0.86868745855 0.49054664771 -0.33586581636 0.86869296105 0.48269566149 -0.31236167844 0.86870711327 0.47360979821 -0.29669049541 0.86872857203 0.46364107541 -0.28885259194 0.86875599412 0.45314151061 -0.28884829269 0.86878803635 0.44246312135 -0.29667792230 0.86882335553 0.43195792513 -0.31234180545 0.86886060845 0.42197793951 -0.33584026679 0.86889845192 0.41287518199 -0.36717363097 0.86893554275 0.40500167011 -0.49384279389 0.72562747863 0.49646234367 -0.47239377530 0.72563789205 0.48670164229 -0.45630756631 0.72565401347 0.47607474621 -0.44558395224 0.72567493698 0.46482938511 -0.44022271840 0.72569975666 0.45321328863 -0.44022365010 0.72572756661 0.44147418646 -0.44558653264 0.72575746093 0.42985980826 -0.45631115134 0.72578853370 0.41861788368 -0.47239729151 0.72581987902 0.40799614240 -0.49384473845 0.72585059097 0.39824231408 -0.48939077928 0.74152336187 0.49650139804 -0.46795423362 0.74153441564 0.48674224687 -0.45187712444 0.74155161613 0.47611652859 -0.44115930640 0.74157394183 0.46487197132 -0.43580063418 0.74160037120 0.45325630320 -0.43580096245 0.74162988271 0.44151725236 -0.44116014588 0.74166145484 0.42990254692 -0.45187803916 0.74169406607 0.41865991502 -0.46795449694 0.74172669486 0.40803708478 -0.48938937390 0.74175831969 0.39828178434 -0.48345775677 0.75741930005 0.49654235319 -0.46199442247 0.75743101870 0.48678469730 -0.44589696809 0.75744916712 0.47616011494 -0.43516531360 0.75747265187 0.46491633175 -0.42979937893 0.75750037948 0.45330107337 -0.42979908406 0.75753125652 0.44156206544 -0.43516434894 0.75756418953 0.42994703359 -0.44589509353 0.75759808505 0.41870370345 -0.46199123778 0.75763184964 0.40807980068 -0.48345270165 0.75766438984 0.39832305090 -0.47611067688 0.77331527745 0.49658506479 -0.45459061279 0.77332766855 0.48682883585 -0.43845036391 0.77334664109 0.47620533710 -0.42768991027 0.77337106645 0.46496229115 -0.42230923189 0.77339981603 0.45334742060 -0.42230830883 0.77343176121 0.44160844807 -0.42768712110 0.77346577338 0.42999309616 -0.43844564876 0.77350072393 0.41874908749 -0.45458387183 0.77353548425 0.40812414466 -0.47610177034 0.77356892573 0.39836599028 -0.46741649014 0.78921127834 0.49662938849 -0.44581907554 0.78922433253 0.48687450479 -0.42962057851 0.78924401272 0.47625202690 -0.41882103283 0.78926918497 0.46500967426 -0.41342047228 0.78929871535 0.45339516635 -0.41341893063 0.78933146994 0.44165622263 -0.41881644166 0.78936631479 0.43004056257 -0.42961303915 0.78940211599 0.41879590564 -0.44580875688 0.78943773959 0.40816997129 -0.46740362862 0.78947205167 0.39841047900 -0.45744214707 0.80510728698 0.49667517995 -0.43575608166 0.80512097795 0.48692154640 -0.41949087852 0.80514125666 0.47630001615 -0.40864661773 0.80516700678 0.46505830583 -0.40322337932 0.80519711196 0.45344413207 -0.40322124336 0.80523045587 0.44170521149 -0.40864028991 0.80526592216 0.43008926072 -0.41948059902 0.80530239449 0.41884399640 -0.43574225074 0.80533875653 0.40821713514 -0.45742532513 0.80537389194 0.39845639357 -0.44625459820 0.82100328766 0.49672229485 -0.42447790210 0.82101757214 0.48696980293 -0.40814453057 0.82103834760 0.47634913668 -0.39725460137 0.82106453126 0.46510801060 -0.39180823223 0.82109504037 0.45349413921 -0.39180554091 0.82112879216 0.44175523702 -0.39724664513 0.82116470386 0.43013901854 -0.40813166265 0.82120169273 0.41889319829 -0.42446071120 0.82123867598 0.40826549078 -0.44623390853 0.82127457086 0.39850361053 -0.43392079406 0.83689926465 0.49677058883 -0.41206080780 0.83691408243 0.48701911667 -0.39566480128 0.83693526018 0.47639922032 -0.38473292019 0.83696175777 0.46515861333 -0.37926531025 0.83699253508 0.45354500923 -0.37926211715 0.83702655197 0.44180612158 -0.38472348662 0.83706276831 0.43018966393 -0.39564956435 0.83710014396 0.41894334981 -0.41204049606 0.83713763881 0.40831489278 -0.43389642745 0.83717421271 0.39855200637 -0.42050768516 0.85279520222 0.49681991756 -0.39858106973 0.85281047613 0.48706932988 -0.38213495728 0.85283196908 0.47645009890 -0.37116951062 0.85285868570 0.46520993875 -0.36568489258 0.85288963062 0.45359656359 -0.36568126598 0.85292380847 0.44185768756 -0.37115879366 0.85296022388 0.43024102481 -0.38211763843 0.85299788148 0.41899428947 -0.39855796311 0.85303578592 0.40836519570 -0.42047993054 0.85307294181 0.39860145763 -0.40608222204 0.86869108464 0.49687013670 -0.38411495883 0.86870672058 0.48712028483 -0.36763826519 0.86872844897 0.47650160423 -0.35665230907 0.86875531441 0.46526181162 -0.35115725845 0.86878636149 0.45364862374 -0.35115328128 0.86882063481 0.44190975733 -0.35664054554 0.86885717897 0.43029292909 -0.36761921918 0.86889503856 0.41904585578 -0.38408947016 0.86893325819 0.40841625411 -0.40605146645 0.86897088245 0.39865184082 -0.53775957530 0.72564257950 0.50121629172 -0.52369801064 0.72566001314 0.49003559554 -0.51315193385 0.72568061062 0.47826225365 -0.50612126659 0.72570394179 0.46606574950 -0.50260593054 0.72572957653 0.45361556656 -0.50260584738 0.72575708469 0.44108118830 -0.50612093879 0.72578603613 0.42863209818 -0.51315112644 0.72581600071 0.41643777967 -0.52369633201 0.72584654829 0.40466771623 -0.53775647718 0.72587724872 0.39349139133 -0.53328152650 0.74153857222 0.50125359546 -0.51922791629 0.74155693173 0.49007380562 -0.50868771175 0.74157871586 0.47830113571 -0.50166084408 0.74160342459 0.46610507671 -0.49814724450 0.74163055787 0.45365511964 -0.49814684423 0.74165961567 0.44112075549 -0.50165957449 0.74169009797 0.42867147526 -0.50868536649 0.74172150473 0.41647676997 -0.51922415145 0.74175333592 0.40470613060 -0.53327586059 0.74178509150 0.39352904817 -0.52740276786 0.75743445603 0.50129270827 -0.51333138672 0.75745366541 0.49011379656 -0.50277773979 0.75747650628 0.47834178461 -0.49574177232 0.75750242423 0.46614616689 -0.49222342955 0.75753086489 0.45369643786 -0.49222265672 0.75756127387 0.44116209199 -0.49573939910 0.75759309676 0.42871262376 -0.50277360191 0.75762577917 0.41651752762 -0.51332521040 0.75765876673 0.40474629804 -0.52739416983 0.75769150502 0.39356842949 -0.52017119428 0.77333024057 0.50133352594 -0.50606242727 0.77335022574 0.49015545957 -0.49548061138 0.77337400046 0.47838408627 -0.48842570914 0.77340096994 0.46618890092 -0.48489768303 0.77343053937 0.45373939840 -0.48489649559 0.77346211396 0.44120507359 -0.48842210931 0.77349509891 0.42875542136 -0.49547448670 0.77352889942 0.41655993662 -0.50605359028 0.77356292069 0.40478811422 -0.52015938254 0.77359656792 0.39360944905 -0.51163470062 0.78922593544 0.50137594424 -0.49747504326 0.78924662425 0.49019868588 -0.48685491992 0.78927121701 0.47842792661 -0.47977431236 0.78929909089 0.46623315971 -0.47623320232 0.78932962305 0.45378387843 -0.47623157156 0.78936219065 0.44124957603 -0.47976940184 0.78939617087 0.42879974579 -0.48684667490 0.78943094086 0.41660388096 -0.49746337249 0.78946587779 0.40483147482 -0.51161947638 0.78950035882 0.39365202062 -0.50184118176 0.80512155028 0.50141985893 -0.48762324004 0.80514287250 0.49024336671 -0.47695925881 0.80516817453 0.47847319157 -0.46984923981 0.80519681629 0.46627882416 -0.46629318476 0.80522815768 0.45382975512 -0.46629109537 0.80526155863 0.44129547509 -0.46984297338 0.80529637906 0.42884547472 -0.47694882050 0.80533197888 0.41664924465 -0.48760863847 0.80536771801 0.40487627552 -0.50182242899 0.80540295637 0.39369605797 -0.49083853257 0.82101709469 0.50146516580 -0.47656102293 0.82103898204 0.49028939328 -0.46585222146 0.82106489162 0.47851976706 -0.45871214933 0.82109417532 0.46632577517 -0.45514082771 0.82112618502 0.45387690565 -0.45513827775 0.82116027259 0.44134264654 -0.45870452064 0.82119578991 0.42889248587 -0.46583957754 0.82123208887 0.41669591168 -0.47654346962 0.82126852134 0.40492241200 -0.49081621803 0.82130443920 0.39374147488 -0.47867464792 0.83691257831 0.50151176062 -0.46434239727 0.83693496440 0.49033665683 -0.45359240126 0.83696138687 0.47856753901 -0.44642469874 0.83699119719 0.46637389365 -0.44283932852 0.83702374681 0.45392520720 -0.44283632944 0.83705838722 0.44139096614 -0.44641574033 0.83709446986 0.42894065693 -0.45357760003 0.83713134623 0.41674376604 -0.46432194736 0.83716836776 0.40496977995 -0.47864882115 0.83720488595 0.39378818512 -0.46539742268 0.85280801075 0.50155953916 -0.45102136839 0.85283083115 0.49038504856 -0.44023839163 0.85285767889 0.47861639335 -0.43304854586 0.85288791108 0.46642306049 -0.42945188455 0.85292088482 0.45397453693 -0.42944846116 0.85295595721 0.44144030965 -0.43303832915 0.85299248534 0.42898986560 -0.44022154198 0.85302982633 0.41679269174 -0.45099815311 0.85306733726 0.40501827504 -0.46536821600 0.85310437525 0.39383610245 -0.45105475174 0.86870340163 0.50160839720 -0.43665194162 0.86872659382 0.49043445971 -0.42584878595 0.86875378628 0.47866621600 -0.41864534853 0.86878434620 0.46647315659 -0.41504169316 0.86881764079 0.45402477203 -0.41503788365 0.86885303725 0.44149055284 -0.41863398380 0.86888990277 0.42903998957 -0.42583005741 0.86892760456 0.41684257276 -0.43662616828 0.86896550982 0.40506779295 -0.45102238022 0.86900298574 0.39388514066 -0.58592616516 0.72566274706 0.50438330310 -0.57799241319 0.72568507012 0.49225593061 -0.57204185595 0.72570879335 0.47971828048 -0.56807449389 0.72573378283 0.46688767231 -0.56609032747 0.72575990468 0.45388142566 -0.56608935712 0.72578702498 0.44081686014 -0.56807158331 0.72581500983 0.42781129532 -0.57203700648 0.72584372533 0.41498205079 -0.57798562709 0.72587303757 0.40244644613 -0.58591744559 0.72590281266 0.39032180092 -0.58141971568 0.74155900136 0.50441924709 -0.57349028517 0.74158239681 0.49229238038 -0.56754295298 0.74160733039 0.47975508735 -0.56357770316 0.74163363004 0.46692470103 -0.56159451975 0.74166112372 0.45391855443 -0.56159338678 0.74168963939 0.44085398057 -0.56357428830 0.74171900500 0.42784831245 -0.56753720834 0.74174904850 0.41501888310 -0.57348213095 0.74177959785 0.40248302554 -0.58140904016 0.74181048100 0.39035807276 -0.57560058743 0.75745505222 0.50445688283 -0.56766096758 0.75747940041 0.49233049490 -0.56170595278 0.75750542463 0.47979355086 -0.55773551705 0.75753291537 0.46696339105 -0.55574963443 0.75756166310 0.45395735581 -0.55574827895 0.75759145831 0.44089278551 -0.55773142465 0.75762209149 0.42788702050 -0.56169904557 0.75765335312 0.41505740112 -0.56765111573 0.75768503369 0.40252126773 -0.57558760917 0.75771692368 0.39039596068 -0.56849577563 0.77335091517 0.50449613844 -0.56053490359 0.77337610659 0.49237020509 -0.55456388825 0.77340310820 0.47983360115 -0.55058269914 0.77343167455 0.46700366964 -0.54859130576 0.77346156018 0.45399775355 -0.54858967766 0.77349251965 0.44093319589 -0.55057778434 0.77352430749 0.42792733965 -0.55455559533 0.77355667826 0.41509752785 -0.56052308015 0.77358938650 0.40256110348 -0.56848020832 0.77362218675 0.39043540954 -0.56013227552 0.78924660573 0.50453694208 -0.55214253632 0.78927254099 0.49241144182 -0.54614979229 0.78930041319 0.47987516837 -0.54215401299 0.78932994331 0.46704546410 -0.54015516801 0.78936085236 0.45403967139 -0.54015322694 0.78939286132 0.44097513260 -0.54214815935 0.78942569120 0.42796919012 -0.54613993482 0.78945906298 0.41513918631 -0.55212852295 0.78949269766 0.40260246354 -0.56011389330 0.78952631623 0.39047636420 -0.55053708230 0.80514213940 0.50457922188 -0.54251430892 0.80516872927 0.49245413600 -0.53649669778 0.80519737171 0.47991818266 -0.53248422218 0.80522775740 0.46708870173 -0.53047685542 0.80525957702 0.45408303308 -0.53047457081 0.80529252126 0.44101851658 -0.53247734164 0.80532628081 0.42801249210 -0.53648514122 0.80536054635 0.41518229951 -0.54249794285 0.80539500858 0.40264527869 -0.55051571983 0.80542935817 0.39051876950 -0.53973719121 0.82103753170 0.50462290599 -0.53168066453 0.82106469709 0.49249821853 -0.52563763763 0.82109401588 0.47996257417 -0.52160809028 0.82112515253 0.46713330981 -0.51959200225 0.82115777154 0.45412776236 -0.51958935330 0.82119153737 0.44106326871 -0.52160012320 0.82122611451 0.42805716578 -0.52562429170 0.82126116744 0.41522679047 -0.53166183858 0.82129636064 0.40268947967 -0.53971274359 0.82133135858 0.39056257030 -0.52775959746 0.83693279815 0.50466792255 -0.51967204628 0.83696047011 0.49254362030 -0.51360564473 0.83699037780 0.48000827304 -0.50956038087 0.83702216446 0.46717921564 -0.50753624276 0.83705547331 0.45417378298 -0.50753321846 0.83708994758 0.44110930993 -0.50955129600 0.83712523051 0.42810313138 -0.51359046345 0.83716096532 0.41527258220 -0.51965070886 0.83719679524 0.40273499727 -0.52773202028 0.83723236352 0.39060771146 -0.51463129628 0.85282795427 0.50471419969 -0.50651889731 0.85285607398 0.49259027221 -0.50043375197 0.85288648959 0.48005520942 -0.49637585752 0.85291882890 0.46722634650 -0.49434521121 0.85295271971 0.45422101868 -0.49434181029 0.85298778981 0.44115656114 -0.49636565202 0.85302366699 0.42815030908 -0.50041673364 0.85305997905 0.41531959771 -0.50649505242 0.85309635379 0.40278176223 -0.51460060561 0.85313241900 0.39065413783 -0.50037928289 0.86872301557 0.50476166557 -0.49225166077 0.86875153435 0.49263810516 -0.48615499226 0.86878238335 0.48010331344 -0.48208928380 0.86881518160 0.46727462970 -0.48005454184 0.86884954813 0.45426939321 -0.48005077284 0.86888510197 0.44120494325 -0.48207798323 0.86892146215 0.42819861909 -0.48613617947 0.86895824771 0.41536776003 -0.49222536800 0.86899507767 0.40282970533 -0.50034555527 0.86903157106 0.39070179427 -0.63664256720 0.72568697079 0.50596351788 -0.63408086301 0.72571245105 0.49336263904 -0.63215907820 0.72573818987 0.48044271079 -0.63087725705 0.72576419902 0.46729496983 -0.63023544384 0.72579049031 0.45401065292 -0.63023368283 0.72581707554 0.44068099676 -0.63087201832 0.72584396648 0.42739723811 -0.63215049457 0.72587117495 0.41425061368 -0.63406915585 0.72589871273 0.40133236020 -0.63662804645 0.72592659162 0.38873371441 -0.63210630917 0.74158360094 0.50599844487 -0.62954583489 0.74161018521 0.49339785642 -0.62762497472 0.74163709204 0.48047811611 -0.62634375427 0.74166431433 0.46733047732 -0.62570219916 0.74169184499 0.45404619345 -0.62570033500 0.74171967694 0.44071651789 -0.62633818740 0.74174780309 0.42743270405 -0.62761578197 0.74177621634 0.41428600531 -0.62953314433 0.74180490961 0.40136767507 -0.63209030008 0.74183387581 0.38876896673 -0.62635004192 0.75747998937 0.50603493541 -0.62378610738 0.75750755683 0.49343459707 -0.62186263761 0.75753552819 0.48051502919 -0.62057964345 0.75756387336 0.46736749465 -0.61993713577 0.75759256224 0.45408325633 -0.61993512539 0.75762156472 0.44075357711 -0.62057362317 0.75765085072 0.42746971987 -0.62185263996 0.75768039013 0.41432294751 -0.62377218660 0.75771015286 0.40140452290 -0.62633227393 0.75774010881 0.38880570893 -0.61937875368 0.77337614312 0.50607294223 -0.61680778263 0.77340458363 0.49347282179 -0.61487900615 0.77343352173 0.48055341359 -0.61359242391 0.77346290141 0.46740598443 -0.61294803558 0.77349266663 0.45412180111 -0.61294584083 0.77352276137 0.44079213043 -0.61358583931 0.77355312960 0.42750823919 -0.61486803069 0.77358371531 0.41436139419 -0.61679241464 0.77361446246 0.40144286223 -0.61935899083 0.77364531504 0.38884391012 -0.61119743268 0.78927206925 0.50611241807 -0.60861696278 0.78930128333 0.49351249138 -0.60668101962 0.78933109605 0.48059323286 -0.60538959496 0.78936142375 0.46744590927 -0.60474268055 0.78939218274 0.45416178736 -0.60474026814 0.78942328937 0.44083213388 -0.60538234949 0.78945465997 0.42754821560 -0.60666891635 0.78948621087 0.41440129925 -0.60859996047 0.78951785840 0.40148265160 -0.61117547360 0.78954951889 0.38888353941 -0.60181106718 0.80516777482 0.50615331567 -0.59921974999 0.80519767367 0.49355356663 -0.59727561730 0.80522827456 0.48063445055 -0.59597865590 0.80525946566 0.46748723176 -0.59532885259 0.80529113516 0.45420317463 -0.59532619416 0.80532317124 0.44087354349 -0.59597066740 0.80535546206 0.42758960270 -0.59726225910 0.80538789581 0.41444261661 -0.59920095607 0.80542036066 0.40152384956 -0.60178674507 0.80545274478 0.38892456591 -0.59122464540 0.82106326687 0.50619558774 -0.58862224640 0.82109377235 0.49359600834 -0.58666973846 0.82112508064 0.48067703020 -0.58536710605 0.82115705244 0.46752991451 -0.58471433365 0.82118954848 0.45424592247 -0.58471140572 0.82122242946 0.44091631527 -0.58535830672 0.82125555611 0.42763235411 -0.58665502114 0.82128878912 0.41448530017 -0.58860153344 0.82132198922 0.40156641465 -0.59119782808 0.82135501712 0.38896695873 -0.57944315559 0.83695855247 0.50623918704 -0.57683055416 0.83698959711 0.49363977730 -0.57487032238 0.83702153770 0.48072093536 -0.57356244473 0.83705420937 0.46757392012 -0.57290690566 0.83708744727 0.45428999045 -0.57290368964 0.83712108654 0.44096040526 -0.57355278114 0.83715496234 0.42767642342 -0.57485416463 0.83718890980 0.41452930384 -0.57680782458 0.83722276408 0.40161030540 -0.57941374544 0.83725636031 0.38901068700 -0.56647158598 0.85285363865 0.50628406628 -0.56385077542 0.85288516567 0.49368483431 -0.56188430835 0.85291766914 0.48076612960 -0.56057217124 0.85295096172 0.46761921118 -0.55991435055 0.85298485611 0.45433533812 -0.55991083276 0.85301916497 0.44100576946 -0.56056160434 0.85305370099 0.42772176424 -0.56186665176 0.85308827684 0.41457458153 -0.56382596148 0.85312270521 0.40165548037 -0.56643952000 0.85315679876 0.38905571981 -0.55231492481 0.86874853249 0.50633017821 -0.54968901234 0.86878049576 0.49373114018 -0.54771863564 0.86881349835 0.48081257645 -0.54640378490 0.86884733479 0.46766575032 -0.54574445026 0.86888179959 0.45438192504 -0.54574062191 0.86891668726 0.44105236390 -0.54639228999 0.86895179230 0.42776833018 -0.54769944469 0.86898690925 0.41462108715 -0.54966207615 0.86902183260 0.40170189809 -0.55228017456 0.86905635687 0.38910202628 -0.68820878515 0.72571424017 0.50595707610 -0.69076724015 0.72574154398 0.49335571239 -0.69268534615 0.72576842837 0.48043542861 -0.69396317894 0.72579492928 0.46728745838 -0.69460081431 0.72582108266 0.45400303529 -0.69459832805 0.72584692445 0.44067339296 -0.69395579595 0.72587249058 0.42738976499 -0.69267329380 0.72589781699 0.41424338499 -0.69075089739 0.72592293963 0.40132548656 -0.68818868250 0.72594789443 0.38872730332 -0.68364226933 0.74161132262 0.50599128069 -0.68619906011 0.74163967126 0.49339011905 -0.68811590354 0.74166763314 0.48046995457 -0.68939286803 0.74169523359 0.46732203861 -0.69003002199 0.74172249790 0.45403762255 -0.69002743381 0.74174945141 0.44070795776 -0.68938517190 0.74177611941 0.42742429560 -0.68810330466 0.74180252724 0.41427788746 -0.68618190050 0.74182870019 0.40135998471 -0.68362102783 0.74185466359 0.38876183870 -0.67794995780 0.75750816821 0.50602692458 -0.68050974842 0.75753746779 0.49342590781 -0.68242882482 0.75756642297 0.48050583511 -0.68370724719 0.75759504633 0.46735796812 -0.68434507575 0.75762335047 0.45407356850 -0.68434237068 0.75765134797 0.44074389789 -0.68369919221 0.75767905142 0.42746021795 -0.68241560053 0.75770647342 0.41431379034 -0.68049165585 0.75773362656 0.40139587669 -0.67792741838 0.75776052342 0.38879773867 -0.67111446116 0.77340476626 0.50606397727 -0.67368080524 0.77343492939 0.49346305909 -0.67560477671 0.77346479851 0.48054305544 -0.67688642712 0.77349437165 0.46739523242 -0.67752580799 0.77352364687 0.45411085613 -0.67752297087 0.77355262221 0.44078119267 -0.67687796730 0.77358129571 0.42749750814 -0.67559084881 0.77360966541 0.41435106863 -0.67366166694 0.77363772935 0.40143314026 -0.67109047324 0.77366548559 0.38883498911 -0.66311838999 0.78930110609 0.50610240828 -0.66569373069 0.78933205188 0.49350155332 -0.66762442594 0.78936276044 0.48058160077 -0.66891051850 0.78939321371 0.46743381703 -0.66955205112 0.78942339365 0.45414946845 -0.66954906655 0.78945328222 0.44081982140 -0.66890160755 0.78948286136 0.42753614226 -0.66760971687 0.78951211303 0.41438969738 -0.66567343726 0.78954101919 0.40147175314 -0.66309281148 0.78956956179 0.38887357591 -0.65394435488 0.80519717703 0.50614218715 -0.65653002491 0.80522883109 0.49354137093 -0.65846843924 0.80526030943 0.48062145633 -0.65975963205 0.80529157664 0.46747370747 -0.66040363754 0.80532259732 0.45418938845 -0.66040048991 0.80535333606 0.44085976340 -0.65975022337 0.80538375747 0.42757609641 -0.65845287210 0.80541382614 0.41442965160 -0.65650847030 0.80544350668 0.40151169307 -0.65391705217 0.80547276368 0.38891348495 -0.64357496641 0.82109296841 0.50618328338 -0.64617118805 0.82112526285 0.49358249235 -0.64811748333 0.82115744616 0.48066260731 -0.64941387845 0.82118946458 0.46751488925 -0.65006039965 0.82122126439 0.45423059914 -0.65005707315 0.82125279182 0.44090099796 -0.64940392515 0.82128399314 0.42761734669 -0.64810098188 0.82131481459 0.41447090631 -0.64614826956 0.82134520244 0.40155293780 -0.64354581441 0.82137510293 0.38895470212 -0.63199283518 0.83698846955 0.50622566650 -0.63459872025 0.83702134297 0.49362489801 -0.63655222494 0.83705417129 0.48070503893 -0.63785336842 0.83708688169 0.46755734789 -0.63850216986 0.83711940139 0.45427308351 -0.63849864843 0.83715165758 0.44094350441 -0.63784282329 0.83718357746 0.42765986921 -0.63653471360 0.83721508823 0.41451343655 -0.63457433853 0.83724611708 0.40159546504 -0.63196171725 0.83727659122 0.38899721332 -0.61918057177 0.85288366977 0.50626930603 -0.62179412163 0.85291706728 0.49366856835 -0.62375333080 0.85295048549 0.48074873641 -0.62505821265 0.85298383211 0.46760106891 -0.62570878057 0.85301701485 0.45431682455 -0.62570504796 0.85304994142 0.44098726203 -0.62504702819 0.85308251953 0.42770364006 -0.62373473464 0.85311465689 0.41455721734 -0.62176818071 0.85314626122 0.40163925256 -0.61914737979 0.85317724022 0.38904100442 -0.60512078677 0.86877855840 0.50631417149 -0.60773889235 0.86881243161 0.49371348380 -0.60970146763 0.86884638945 0.48079368495 -0.61100852183 0.86888031998 0.46764603782 -0.61166006419 0.86891411128 0.45436180527 -0.61165610391 0.86894765140 0.44103225016 -0.61099665024 0.86898082843 0.42774863534 -0.60968171239 0.86901353043 0.41460222369 -0.60771129960 0.86904564547 0.40168427807 -0.60508542108 0.86907706161 0.38908606133 -0.73892482276 0.72574354469 0.50436411781 -0.74685542469 0.72577173694 0.49223514218 -0.75280240537 0.72579913705 0.47969631802 -0.75676588244 0.72582571254 0.46686495424 -0.75874597354 0.72585143095 0.45385835977 -0.75874279630 0.72587625979 0.44079384352 -0.75675646834 0.72590016658 0.42778871442 -0.75278710730 0.72592311885 0.41496028138 -0.74683483082 0.72594508412 0.40242585333 -0.73889975652 0.72596602991 0.39030273919 -0.73432855849 0.74164111806 0.50439784649 -0.74225445547 0.74167022928 0.49226905357 -0.74819786604 0.74169858603 0.47973033533 -0.75215891507 0.74172614395 0.46689901795 -0.75413772747 0.74175285867 0.45389242760 -0.75413442810 0.74177868585 0.44082789045 -0.75214914188 0.74180358113 0.42782273268 -0.74818199367 0.74182750015 0.41499428045 -0.74223310837 0.74185039854 0.40245985994 -0.73430261087 0.74187223197 0.39033679731 -0.72869916153 0.75753848950 0.50443290889 -0.73663483304 0.75756846642 0.49230423186 -0.74258554497 0.75759771496 0.47976558410 -0.74655142393 0.75762618237 0.46693430187 -0.74853259656 0.75765381593 0.45392772141 -0.74852918948 0.75768056291 0.44086317897 -0.74654132934 0.75770637059 0.42785801080 -0.74256914275 0.75773118623 0.41502955314 -0.73661275635 0.75775495711 0.40249514225 -0.72867229677 0.75777763049 0.39037211437 -0.72199723082 0.77343562643 0.50446928349 -0.72995371229 0.77346641639 0.49234066636 -0.73592001157 0.77349649595 0.47980205853 -0.73989625239 0.77352580642 0.46697080071 -0.74188255849 0.77355428910 0.45396423365 -0.74187905358 0.77358188528 0.44089969805 -0.73988586142 0.77360853629 0.42789453466 -0.73590310573 0.77363418341 0.41506608418 -0.72993091025 0.77365876795 0.40253168734 -0.72196939870 0.77368223122 0.39040868488 -0.71418336529 0.78933249630 0.50450694877 -0.72216824811 0.78936404723 0.49237834638 -0.72815583527 0.78939490116 0.47983975280 -0.73214624386 0.78942499472 0.46700850921 -0.73413959093 0.78945426455 0.45400195678 -0.73413599356 0.78948264728 0.44093743669 -0.73213556883 0.78951007955 0.42793229012 -0.72813843380 0.78953649798 0.41510385826 -0.72214470554 0.78956183923 0.40256948228 -0.71415450114 0.78958603991 0.39044650337 -0.70521816388 0.80522906651 0.50454588319 -0.71323559538 0.80526132696 0.49241726123 -0.71924758548 0.80529290269 0.47987866113 -0.72325424170 0.80532372587 0.46704742207 -0.72525567156 0.80535372866 0.45404088324 -0.72525198257 0.80538284321 0.44097638385 -0.72324328225 0.80541100170 0.42797126307 -0.71922967814 0.80543813626 0.41514286010 -0.71321127773 0.80546417908 0.40260851414 -0.70518818856 0.80548906229 0.39048556437 -0.69506222552 0.82112530450 0.50458606524 -0.70311290900 0.82115822362 0.49245740022 -0.70914983162 0.82119047269 0.47991877770 -0.71317308931 0.82122197850 0.46708753402 -0.71518277804 0.82125266781 0.45408100551 -0.71517899375 0.82128246741 0.44101652851 -0.71316183240 0.82131130406 0.42801143937 -0.70913138993 0.82133910455 0.41518307441 -0.70308776230 0.82136579565 0.40264876998 -0.69503104546 0.82139130413 0.39052586241 -0.68367614914 0.83702117769 0.50462747337 -0.69175734386 0.83705470524 0.49249875264 -0.69781714310 0.83708758329 0.47996009671 -0.70185563008 0.83711973121 0.46712883977 -0.70387288806 0.83715106838 0.45412231603 -0.70386900027 0.83718151418 0.44105785967 -0.70184404996 0.83721098798 0.42805280490 -0.69779812037 0.83723940915 0.41522448590 -0.69173129474 0.83726669708 0.40269023687 -0.68364365632 0.83729277115 0.39056739202 -0.67102053367 0.85291665350 0.50467008608 -0.67912605485 0.85295073986 0.49254130781 -0.68520408933 0.85298420661 0.48000261236 -0.68925470739 0.85301696262 0.46717133406 -0.69127797928 0.85304891675 0.45416480726 -0.69127397528 0.85307997784 0.44110036630 -0.68924276564 0.85311005476 0.42809534552 -0.68518442064 0.85313905637 0.41526707927 -0.67909901054 0.85316689153 0.40273290189 -0.67098660560 0.85319346910 0.39061014772 -0.65705597805 0.86881169936 0.50471388182 -0.66517619685 0.86884629551 0.49258505504 -0.67126523974 0.86888031480 0.48004631884 -0.67532316462 0.86891365135 0.46721501160 -0.67735002938 0.86894619928 0.45420847165 -0.67734589192 0.86897785271 0.44114403737 -0.67531081013 0.86900850575 0.42813904711 -0.67124484192 0.86903805252 0.41531083923 -0.66514804518 0.86906638714 0.40277675209 -0.65702047780 0.86909340373 0.39065412405 -0.78709068377 0.72577387383 0.50118478308 -0.80114929669 0.72580241798 0.49000091998 -0.81169200144 0.72582994411 0.47822526306 -0.81871899046 0.72585628773 0.46602727372 -0.82223045620 0.72588128439 0.45357641332 -0.82222659110 0.72590476962 0.44104214323 -0.81870758761 0.72592657896 0.42859392483 -0.81167363817 0.72594654793 0.41640121951 -0.80112493524 0.72596451206 0.40463348862 -0.78706167125 0.72598030690 0.39346019355 -0.78246613900 0.74167193890 0.50121823416 -0.79651651563 0.74170123360 0.49003454526 -0.80705298879 0.74172958303 0.47825899099 -0.81407576602 0.74175680155 0.46606104838 -0.81758505484 0.74178270353 0.45361019447 -0.81758106281 0.74180710336 0.44107590627 -0.81406399744 0.74182981541 0.42862766082 -0.80703406627 0.74185065405 0.41643493514 -0.79649147684 0.74186943365 0.40466720625 -0.78243643669 0.74188596859 0.39349395119 -0.77689647957 0.75756985397 0.50125294690 -0.79096430356 0.75759988586 0.49006937396 -0.80151382859 0.75762901017 0.47829389168 -0.80854526932 0.75765702958 0.46609598632 -0.81205884038 0.75768374678 0.45364514416 -0.81205475643 0.75770896443 0.44111085146 -0.80853323211 0.75773248520 0.42866259447 -0.80149448206 0.75775411178 0.41646985947 -0.79093872093 0.75777364683 0.40470213271 -0.77686616337 0.75779089302 0.39352890047 -0.77032139540 0.77346756551 0.50128890086 -0.78442624465 0.77349831717 0.49010539301 -0.79500352237 0.77352817151 0.47832995470 -0.80205344339 0.77355692683 0.46613207644 -0.80557622257 0.77358438146 0.45368124872 -0.80557207475 0.77361033368 0.44114696204 -0.80204121478 0.77363458181 0.42869870691 -0.79498385749 0.77365692416 0.41650597382 -0.78440021774 0.77367715903 0.40473825327 -0.77029051038 0.77369508473 0.39356503577 -0.76268057646 0.78936501994 0.50132607559 -0.77683592310 0.78939646996 0.49014258934 -0.78745107163 0.78942701302 0.47836716964 -0.79452623126 0.78945644828 0.46616930762 -0.79806161116 0.78948457488 0.45371849445 -0.79805742055 0.78951119198 0.44118422127 -0.79451386861 0.78953609871 0.42873597923 -0.78743116454 0.78955909424 0.41654325948 -0.77680951753 0.78957997769 0.40477555317 -0.76264913679 0.78959854824 0.39360235146 -0.75391371267 0.80526216373 0.50136445066 -0.76812692307 0.80529428666 0.49018094990 -0.77878547791 0.80532548070 0.47840552606 -0.78588957593 0.80535554892 0.46620766878 -0.78943941591 0.80538429439 0.45375686768 -0.78943519660 0.80541152019 0.44122261240 -0.78587711676 0.80543702939 0.42877439255 -0.77876537516 0.80546062506 0.41658169777 -0.76810017054 0.80548211027 0.40481401769 -0.75388170168 0.80550128809 0.39364084192 -0.74396049398 0.82115894333 0.50140400564 -0.75823282876 0.82119170969 0.49022046160 -0.76893574271 0.82122352051 0.47844501354 -0.77606942045 0.82125418373 0.46624714880 -0.77963404658 0.82128350730 0.45379635473 -0.77962980569 0.82131129918 0.44126211867 -0.77605688240 0.82133736732 0.42881392798 -0.76891546131 0.82136151968 0.41662127000 -0.75820572702 0.82138356419 0.40485363207 -0.74392786414 0.82140330883 0.39368050154 -0.73276061034 0.83705530517 0.50144472007 -0.74708722434 0.83708868148 0.49026111138 -0.75783086757 0.83712107844 0.47848562164 -0.76499170783 0.83715230770 0.46628773658 -0.76856991291 0.83718218094 0.45383694190 -0.76856565060 0.83721050982 0.44130272335 -0.76497908869 0.83723710599 0.42885456663 -0.75781039496 0.83726178114 0.41666195746 -0.74705973722 0.83728434691 0.40489438157 -0.73272728324 0.83730461498 0.39372132469 -0.72025375168 0.85295119571 0.50148657352 -0.73462369399 0.85298514445 0.49030288617 -0.74539985400 0.85301810046 0.47852733995 -0.75258238110 0.85304987583 0.46632942101 -0.75617142467 0.85308028263 0.45387861553 -0.75616713410 0.85310913295 0.44134440967 -0.75256965877 0.85313623887 0.42889628960 -0.74537914807 0.85316141248 0.41670374148 -0.73459575137 0.85318446585 0.40493625147 -0.72021961807 0.85320521108 0.39376330574 -0.70637960796 0.86884656139 0.50152954555 -0.72077582189 0.86888104102 0.49034577291 -0.73157170351 0.86891453256 0.47857015803 -0.73876738327 0.86894684309 0.46637219101 -0.74236299161 0.86897777969 0.45392136193 -0.74235865898 0.86900714945 0.44138716090 -0.73875451583 0.86903475945 0.42893907801 -0.73155069260 0.86906041676 0.41674660335 -0.72074731974 0.86908392847 0.40497922700 -0.70634452770 0.86910510166 0.39380643908 -0.83100637191 0.72580421707 0.49641921194 -0.85245273622 0.72583297516 0.48665303731 -0.86853587991 0.72586047774 0.47602214781 -0.87925612586 0.72588639378 0.46477423312 -0.88461379693 0.72591039222 0.45315698291 -0.88460921598 0.72593214204 0.44141808688 -0.87924270589 0.72595131218 0.42980523468 -0.86851458952 0.72596757162 0.41856611601 -0.85242518975 0.72598058931 0.40794842054 -0.83097482944 0.72599003422 0.39819983795 -0.82635597322 0.74170273680 0.49645253563 -0.84778973523 0.74173205855 0.48668647942 -0.86386339838 0.74176025646 0.47605565413 -0.87457729149 0.74178696252 0.46480776295 -0.87993174336 0.74181180871 0.45319050902 -0.87992708282 0.74183442702 0.44145159551 -0.87456363868 0.74185444942 0.42983872559 -0.86384173974 0.74187150792 0.41859960241 -0.84776171483 0.74188523448 0.40798192915 -0.82632389275 0.74189526110 0.39823340896 -0.82084073838 0.75760116239 0.49648709716 -0.84230110229 0.75763105922 0.48672113885 -0.85839470625 0.75765991461 0.47609037333 -0.86912187904 0.75768733608 0.46484251190 -0.87448294942 0.75771293116 0.45322526585 -0.87447824618 0.75773630738 0.44148634647 -0.86910809808 0.75775707225 0.42987346504 -0.85837283391 0.75777483330 0.41863433287 -0.84227278244 0.75778919804 0.40801666123 -0.82080827244 0.75779977402 0.39826816142 -0.81438128766 0.77349942533 0.49652286931 -0.83589814319 0.77352990424 0.48675698842 -0.85203412073 0.77355938260 0.47612627581 -0.86278954376 0.77358745403 0.46487844671 -0.86816473575 0.77361371212 0.45326121638 -0.86816002016 0.77363775050 0.44152230008 -0.86277572047 0.77365916275 0.42990941305 -0.85201216013 0.77367754251 0.41867027055 -0.83586966263 0.77369248336 0.40805258782 -0.81434855143 0.77370357892 0.39830408012 -0.80689824135 0.78939745710 0.49655982481 -0.82849216372 0.78942852068 0.48679400095 -0.84468595904 0.78945859086 0.47616333197 -0.85547994094 0.78948725592 0.46491553411 -0.86087442302 0.78951410412 0.45329832359 -0.86086971890 0.78953872374 0.44155941668 -0.85546614219 0.78956070304 0.42994652961 -0.84466400650 0.78957963030 0.41870737862 -0.82846362544 0.78959509379 0.40808967995 -0.80686531264 0.78960668177 0.39834114984 -0.79831221973 0.80529518919 0.49659793642 -0.81999446966 0.80532683561 0.48683214926 -0.83625453839 0.80535746981 0.47620151224 -0.84709272582 0.80538668133 0.46495374082 -0.85250933189 0.80541405970 0.45333655046 -0.85250465651 0.80543919449 0.44159765660 -0.84707899961 0.80546167522 0.42998477471 -0.83623266110 0.80548109144 0.41874562024 -0.81996594091 0.80549703269 0.40812790864 -0.79827913896 0.80550908853 0.39837935536 -0.78854384308 0.82119255309 0.49663717691 -0.81031636683 0.82122477611 0.48687140614 -0.82664417599 0.82125594987 0.47624078701 -0.83752755369 0.82128566981 0.46499303358 -0.84296678303 0.82131353141 0.45337585994 -0.84296214712 0.82133913011 0.44163698017 -0.83751392909 0.82136206137 0.43002410836 -0.82662241204 0.82138192066 0.41878495858 -0.81028787908 0.82139830344 0.40816724492 -0.78851061332 0.82141080516 0.39841868146 -0.77751373168 0.83708948028 0.49667751901 -0.79936916099 0.83712226925 0.48691174443 -0.81575918906 0.83715396146 0.47628112669 -0.82668407979 0.83718416094 0.46503337911 -0.83214409709 0.83721247177 0.45341621502 -0.83213950485 0.83723849797 0.44167734773 -0.82667056699 0.83726184361 0.43006449055 -0.81573754739 0.83728211273 0.41882535681 -0.79934070998 0.83729890938 0.40820765983 -0.77748031864 0.83731183761 0.39845911292 -0.76514250582 0.85298590227 0.49671893549 -0.78706415796 0.85301924210 0.48695313692 -0.80350389482 0.85305143499 0.47632250169 -0.81446195941 0.85308209428 0.46507474416 -0.81993859474 0.85311083332 0.45345757867 -0.81993404382 0.85313726546 0.44171871959 -0.81444854966 0.85316100403 0.43010588128 -0.80348235526 0.85318166239 0.41886677810 -0.78703570364 0.85319885389 0.40824912439 -0.76510883781 0.85321219187 0.39850063452 -0.75135078577 0.86888175052 0.49676139910 -0.77331266351 0.86891562173 0.48699555644 -0.78978261047 0.86894830090 0.47636488243 -0.80076084780 0.86897940940 0.46511709544 -0.80624759664 0.86900856862 0.45349991386 -0.80624307815 0.86903539994 0.44176105611 -0.80074751347 0.86905952474 0.43014824055 -0.78976112374 0.86908056441 0.41890918560 -0.77328413012 0.86909814032 0.40829160964 -0.75131675375 0.86911187387 0.39854323105 -0.86897189091 0.72583356390 0.49006754445 -0.89956962334 0.72586279652 0.48219148573 -0.92251578637 0.72589036616 0.47308685632 -0.93781091154 0.72591576960 0.46310564874 -0.94545553039 0.72593850365 0.45259985554 -0.94545017447 0.72595806509 0.44192146925 -0.93779537531 0.72597395072 0.43142248240 -0.92249166446 0.72598565734 0.42145488754 -0.89953957347 0.72599268173 0.41237067720 -0.86893963387 0.72599452070 0.40452184392 -0.86429902349 0.74173246342 0.49010084280 -0.89487860892 0.74176207845 0.48222474134 -0.91781122140 0.74179023866 0.47312005736 -0.93309736212 0.74181638300 0.46313879468 -0.94073753227 0.74183995043 0.45263295711 -0.94073223306 0.74186037989 0.44195454846 -0.93308196568 0.74187711033 0.43145557253 -0.91778723134 0.74188958073 0.42148803315 -0.89484853122 0.74189723001 0.41240393412 -0.86426636653 0.74189949715 0.40455527925 -0.85883076442 0.75763131549 0.49013541824 -0.88944817156 0.75766131964 0.48225933128 -0.91240920849 0.75769003428 0.47315464456 -0.92771434873 0.75771684996 0.46317336902 -0.93536406585 0.75774115723 0.45266751556 -0.93535883336 0.75776234663 0.44198909511 -0.92769912482 0.75777980871 0.43149011857 -0.91238541376 0.75779293401 0.42152259688 -0.88941817372 0.75780111308 0.41243854095 -0.85879787824 0.75780373647 0.40458996169 -0.85247124033 0.77353004774 0.49017122879 -0.88316914876 0.77356045013 0.48229520200 -0.90619061830 0.77358968667 0.47319055368 -0.92153609715 0.77361710913 0.46320929865 -0.92920603352 0.77364206926 0.45270345169 -0.92920087560 0.77366391883 0.44202502763 -0.92152107159 0.77368200959 0.43152604125 -0.90616706969 0.77369569330 0.42155850737 -0.88313931810 0.77370432172 0.41247444079 -0.85243826503 0.77370724660 0.40462585630 -0.84512457784 0.78942858781 0.49020823248 -0.87593237802 0.78945939997 0.48233229997 -0.89903632151 0.78948912949 0.47322772050 -0.91443683313 0.78951709915 0.46324651047 -0.92213433769 0.78954263172 0.45274068632 -0.92212926000 0.78956504998 0.44206226445 -0.91442202486 0.78958367672 0.43156326129 -0.89901305709 0.78959783469 0.42159569325 -0.87590278149 0.78960684669 0.41251157674 -0.84509162289 0.78961003548 0.40466292819 -0.83669490355 0.80532686335 0.49024638734 -0.86762869684 0.80535809922 0.48237057165 -0.89082718880 0.80538829639 0.47326608078 -0.90629078244 0.80541675865 0.46328493140 -0.91401988077 0.80544278979 0.45277914025 -0.91401488679 0.80546569358 0.44210072402 -0.90627620350 0.80548477382 0.43160169941 -0.89080423391 0.80549933429 0.42163408314 -0.86759938102 0.80550867877 0.41254989191 -0.83666204785 0.80551211104 0.40470114243 -0.82708634408 0.82122480197 0.49028565137 -0.85814894272 0.82125647792 0.48240996350 -0.88144409083 0.82128712103 0.47330557029 -0.89697217084 0.82131602630 0.46332448834 -0.90473356516 0.82134248867 0.45281873429 -0.90472865621 0.82136580313 0.44214032476 -0.89695782639 0.82138526465 0.43164127635 -0.88142145812 0.82140016819 0.42167360569 -0.85811993383 0.82140980872 0.41258932941 -0.82705363592 0.82141348122 0.40474046411 -0.81620302606 0.83712233133 0.49032598262 -0.84738395316 0.83715446612 0.48245042198 -0.87076789829 0.83718553707 0.47334612480 -0.88635522410 0.83721484072 0.46336510820 -0.89414629327 0.83724167356 0.45285938926 -0.89414146848 0.83726533213 0.44218098510 -0.88634111239 0.83728511293 0.43168191282 -0.87074558769 0.83730031249 0.42171418952 -0.84735525704 0.83731022732 0.41262983232 -0.81617048311 0.83731415395 0.40478085831 -0.80394907608 0.85301937905 0.49036733910 -0.83522456567 0.85305199387 0.48249189354 -0.85867948183 0.85308347817 0.47338768010 -0.87431416797 0.85311314056 0.46340671786 -0.88212896749 0.85314028965 0.45290102596 -0.88212422383 0.85316423407 0.44222262348 -0.87430028038 0.85318428241 0.43172352955 -0.85865748056 0.85319974330 0.42175576327 -0.83519616778 0.85320992534 0.41267134376 -0.80391668545 0.85321413716 0.40482229011 -0.79022862077 0.86891587278 0.49040967882 -0.82156161774 0.86894899123 0.48253432465 -0.84505971213 0.86898087797 0.47343017193 -0.86072322821 0.86901086446 0.46344924425 -0.86855249025 0.86903828214 0.45294356519 -0.86854782249 0.86906246245 0.44226515834 -0.86070954922 0.86908273683 0.43176604727 -0.84503799470 0.86909843672 0.42179825557 -0.82153348318 0.86910889356 0.41271380682 -0.79019633894 0.86911343879 0.40486472461 </DataArray>
</Points>
</Piece>
</StructuredGrid>
</VTKFile>
