<?xml version="1.0"?>
<VTKFile type="StructuredGrid" version="0.1">
<StructuredGrid WholeExtent="0 9 0 9 0 9">
<Piece Extent="0 9 0 9 0 9">
<PointData>
<DataArray type="Float32" Name="Deformation" format="ascii" NumberOfComponents="3">
0.00122663029 -0.03678849366 0.11148289655 0.00117530128 -0.03456491593 0.11184215695 0.00114485831 -0.03206698172 0.11214063453 0.00113370015 -0.02936715572 0.11233143607 0.00114022556 -0.02653790265 0.11236766831 0.00116283333 -0.02365168720 0.11220243804 0.00119992221 -0.02078097410 0.11178885201 0.00124989098 -0.01799822804 0.11108001697 0.00131113840 -0.01537591374 0.11002903971 0.00138206324 -0.01298649589 0.10858902696 0.00138063422 -0.03567907731 0.11293275052 0.00133303054 -0.03378549190 0.11326519283 0.00131116245 -0.03156360525 0.11355129655 0.00131223928 -0.02910091076 0.11375597094 0.00133347035 -0.02648490180 0.11384412526 0.00137206498 -0.02380307177 0.11378066878 0.00142523249 -0.02114291406 0.11353051077 0.00149018221 -0.01859192206 0.11305856047 0.00156412345 -0.01623758915 0.11232972717 0.00164426555 -0.01416740873 0.11130892011 0.00152252589 -0.03477294165 0.11473926457 0.00147779265 -0.03313681407 0.11505569457 0.00146424057 -0.03114673596 0.11533465662 0.00147740111 -0.02889684713 0.11555052053 0.00151280570 -0.02648128739 0.11567765610 0.00156598577 -0.02399419655 0.11569043316 0.00163247278 -0.02152971443 0.11556322152 0.00170779816 -0.01918198083 0.11527039098 0.00178749335 -0.01704513558 0.11478631136 0.00186708980 -0.01521331847 0.11408535248 0.00165504648 -0.03405219952 0.11683714328 0.00161260666 -0.03260983542 0.11714462692 0.00160669704 -0.03081096629 0.11741933788 0.00163095828 -0.02874959975 0.11764303172 0.00167903105 -0.02651974338 0.11779746402 0.00174455600 -0.02421540478 0.11786439033 0.00182117377 -0.02193059156 0.11782556624 0.00190252504 -0.01975931130 0.11766274729 0.00198225045 -0.01779557161 0.11735768906 0.00205399066 -0.01613338007 0.11689214712 0.00178093719 -0.03349896379 0.11916109125 0.00174049161 -0.03219550891 0.11946295462 0.00174113619 -0.03055088869 0.11973396345 0.00177468344 -0.02865380351 0.11996145141 0.00183294586 -0.02659295372 0.12013275219 0.00190773593 -0.02445703970 0.12023519946 0.00199086616 -0.02233476180 0.12025612690 0.00207414905 -0.02031482040 0.12018286820 0.00214939710 -0.01848591585 0.12000275704 0.00220842279 -0.01693674852 0.11970312709 0.00190293920 -0.03309534729 0.12164581305 0.00186446655 -0.03188478751 0.12194164244 0.00187016240 -0.03036109561 0.12220715648 0.00191034923 -0.02860409332 0.12243372650 0.00197534955 -0.02669360238 0.12261272380 0.00205548586 -0.02470944453 0.12273551970 0.00214108065 -0.02273144151 0.12279348550 0.00222245641 -0.02083941505 0.12277799251 0.00228993565 -0.01911318690 0.12268041206 0.00233384085 -0.01763257879 0.12249211545 0.00202379370 -0.03282346288 0.12422601328 0.00198755053 -0.03166862421 0.12451165512 0.00199638000 -0.03023617950 0.12476754011 0.00203972829 -0.02859510408 0.12498780388 0.00210704159 -0.02681437331 0.12516658204 0.00218776608 -0.02496296251 0.12529801021 0.00227134793 -0.02310984703 0.12537622400 0.00234723333 -0.02132400220 0.12539535902 0.00240486846 -0.01967440336 0.12534955090 0.00243369950 -0.01823002586 0.12523293524 0.00214624187 -0.03266542341 0.12683639654 0.00211276258 -0.03153797196 0.12710395741 0.00212239335 -0.03017073280 0.12734373747 0.00216459327 -0.02862147070 0.12755163044 0.00222882141 -0.02694795047 0.12772353009 0.00230453686 -0.02520793688 0.12785533015 0.00238119870 -0.02345919472 0.12794292438 0.00244826601 -0.02175948878 0.12798220652 0.00249519789 -0.02016658385 0.12796907032 0.00251145339 -0.01873824471 0.12789940953 0.00227302491 -0.03260334173 0.12941166739 0.00224312176 -0.03148378375 0.12964951408 0.00225080681 -0.03015934797 0.12986437169 0.00228671680 -0.02867782809 0.13005315308 0.00234148845 -0.02708701782 0.13021277112 0.00240575849 -0.02543471086 0.13034013868 0.00247016365 -0.02376870093 0.13043216862 0.00252534067 -0.02213678173 0.13048577380 0.00256192628 -0.02058674695 0.13049786710 0.00257055720 -0.01916639031 0.13046536137 0.00240688399 -0.03261933069 0.13188653045 0.00238164710 -0.03149701254 0.13207928988 0.00238422473 -0.03019661745 0.13225806592 0.00240787153 -0.02875881113 0.13242031870 0.00244584216 -0.02722425932 0.13256350834 0.00249139126 -0.02563362771 0.13268509496 0.00253777349 -0.02402758202 0.13278253870 0.00257824352 -0.02244678797 0.13285329967 0.00260605599 -0.02093191127 0.13289483800 0.00261446556 -0.01952361764 0.13290461381 0.00147036070 -0.03728441965 0.11119009542 0.00144165540 -0.03462716868 0.11096546298 0.00143053052 -0.03186998759 0.11078914623 0.00143465104 -0.02904903011 0.11061965437 0.00145168196 -0.02620044997 0.11041549658 0.00147928825 -0.02336040090 0.11013518205 0.00151513491 -0.02056503663 0.10973721997 0.00155688692 -0.01785051089 0.10918011954 0.00160220927 -0.01525297740 0.10842238994 0.00164876695 -0.01280858991 0.10742254037 0.00157285101 -0.03621829054 0.11262847722 0.00155400332 -0.03390066366 0.11258706117 0.00155250331 -0.03142202486 0.11256477049 0.00156611707 -0.02883221512 0.11253207860 0.00159261071 -0.02618107540 0.11245945894 0.00162975033 -0.02351844664 0.11231738495 0.00167530203 -0.02089416983 0.11207633005 0.00172703191 -0.01835808591 0.11170676769 0.00178270607 -0.01596003585 0.11117917130 0.00184009062 -0.01374986062 0.11046401431 0.00167647496 -0.03536041553 0.11442993898 0.00166424281 -0.03331140324 0.11452197460 0.00167010960 -0.03106394719 0.11461242929 0.00169153913 -0.02867536942 0.11468090762 0.00172599519 -0.02620299202 0.11470701417 0.00177094158 -0.02370413705 0.11467035351 0.00182384207 -0.02123612658 0.11455053020 0.00188216047 -0.01885628267 0.11432714883 0.00194336057 -0.01662192738 0.11397981396 0.00200490615 -0.01459038280 0.11348813017 0.00178138056 -0.03469095426 0.11652897213 0.00177307827 -0.03284803403 0.11671133007 0.00178417764 -0.03078885698 0.11687869102 0.00181158886 -0.02857316218 0.11701735842 0.00185222214 -0.02626068872 0.11711363572 0.00190298764 -0.02391117568 0.11715382635 0.00196079558 -0.02158436214 0.11712423378 0.00202255614 -0.01933998720 0.11701116143 0.00208517951 -0.01723778994 0.11680091275 0.00214557588 -0.01533750943 0.11647979120 0.00188771581 -0.03419006639 0.11886006811 0.00188121412 -0.03249920262 0.11909625441 0.00189553567 -0.03058985665 0.11931012406 0.00192693791 -0.02852026254 0.11949264797 0.00197167826 -0.02634865432 0.11963479703 0.00202601418 -0.02413326606 0.11972754212 0.00208620309 -0.02193233180 0.11976185413 0.00214850243 -0.01980408558 0.11972870396 0.00220916965 -0.01780676147 0.11961906250 0.00226446218 -0.01599859349 0.11942390064 0.00199562871 -0.03383791158 0.12135771835 0.00198935477 -0.03225355560 0.12161787441 0.00200501194 -0.03046004863 0.12185329680 0.00203825789 -0.02851133966 0.12205799326 0.00208475030 -0.02646137771 0.12222597155 0.00214014681 -0.02436411176 0.12235123942 0.00220010512 -0.02227349081 0.12242780462 0.00226028287 -0.02024346386 0.12244967491 0.00231633774 -0.01832797992 0.12241085803 0.00236392740 -0.01658098798 0.12230536174 0.00210526729 -0.03361464947 0.12395641429 0.00209820464 -0.03209973956 0.12421731690 0.00211343469 -0.03039253532 0.12445477760 0.00214622046 -0.02854106272 0.12466461126 0.00219182496 -0.02659334772 0.12484263273 0.00224551120 -0.02459741631 0.12498465689 0.00230254220 -0.02260129444 0.12508649861 0.00235818098 -0.02065300810 0.12514397275 0.00240769053 -0.01880058325 0.12515289417 0.00244633389 -0.01709204586 0.12510907775 0.00221677953 -0.03350043971 0.12659064736 0.00220846813 -0.03202640109 0.12683570869 0.00222163216 -0.03038041914 0.12706113486 0.00225149724 -0.02860410085 0.12726371895 0.00229328898 -0.02673905322 0.12744025403 0.00234223299 -0.02482688326 0.12758753317 0.00239355488 -0.02290919797 0.12770234945 0.00244248027 -0.02102760435 0.12778149596 0.00248423477 -0.01922370940 0.12782176576 0.00251404400 -0.01753912013 0.12781995193 0.00233031345 -0.03347544197 0.12919490899 0.00232084967 -0.03202218680 0.12941417659 0.00233043261 -0.03041680251 0.12961893695 0.00235475988 -0.02869512322 0.12980653331 0.00238952908 -0.02689298306 0.12997430887 0.00243043782 -0.02504621617 0.13011960687 0.00247318368 -0.02319065666 0.13023977051 0.00251346429 -0.02136213867 0.13033214302 0.00254697722 -0.01959649633 0.13039406761 0.00256942009 -0.01792956376 0.13042288750 0.00244601706 -0.03351981589 0.13170369063 0.00243605365 -0.03207574327 0.13189384740 0.00244066426 -0.03049478783 0.13207475225 0.00245668000 -0.02880879898 0.13224427132 0.00248093199 -0.02704962610 0.13240027073 0.00251025133 -0.02524911857 0.13254061663 0.00254146914 -0.02343912578 0.13266317514 0.00257141654 -0.02165149712 0.13276581241 0.00259692463 -0.01991808198 0.13284639456 0.00261482452 -0.01827072974 0.13290278774 0.00168653029 -0.03752992782 0.11090348249 0.00166862674 -0.03455130887 0.11021269582 0.00166529158 -0.03159945382 0.10965694533 0.00167406278 -0.02868477324 0.10919820153 0.00169247826 -0.02581767769 0.10879843493 0.00171807599 -0.02300857775 0.10841961602 0.00174839392 -0.02026788397 0.10802371531 0.00178096999 -0.01760600693 0.10757270331 0.00181334216 -0.01503335719 0.10702855051 0.00184304837 -0.01256034531 0.10635322742 0.00175271143 -0.03650729621 0.11235006329 0.00174907467 -0.03387669500 0.11200774369 0.00175660085 -0.03120596349 0.11173813204 0.00177365264 -0.02851821911 0.11151538783 0.00179859269 -0.02583657930 0.11131367054 0.00182978368 -0.02318416149 0.11110713966 0.00186558827 -0.02058408312 0.11086995467 0.00190436912 -0.01805946162 0.11057627505 0.00194448890 -0.01563341444 0.11020026030 0.00198431027 -0.01332905900 0.10971606989 0.00182797729 -0.03569752237 0.11416125293 0.00183373441 -0.03334353519 0.11407096143 0.00184853905 -0.03090330717 0.11400979953 0.00187122879 -0.02840796188 0.11396092607 0.00190064119 -0.02588862287 0.11390749988 0.00193561385 -0.02337641372 0.11383267983 0.00197498433 -0.02090245800 0.11371962474 0.00201759020 -0.01849787928 0.11355149347 0.00206226905 -0.01619380113 0.11331144487 0.00210785845 -0.01402134710 0.11298263776 0.00191099100 -0.03507875776 0.11627184974 0.00192202332 -0.03293855138 0.11635159412 0.00194098597 -0.03068349210 0.11643260898 0.00196692124 -0.02834883112 0.11650435625 0.00199887143 -0.02596981964 0.11655629787 0.00203587881 -0.02358170889 0.11657789576 0.00207698569 -0.02121975005 0.11655861186 0.00212123435 -0.01891919435 0.11648790811 0.00216766708 -0.01671529300 0.11635524642 0.00221532618 -0.01464329719 0.11615008875 0.00200041569 -0.03462915386 0.11861665208 0.00201335877 -0.03264846551 0.11879888681 0.00203382142 -0.03053852549 0.11896722154 0.00206086003 -0.02833565641 0.11911521837 0.00209353105 -0.02607618085 0.11923643938 0.00213089087 -0.02379642141 0.11932444668 0.00217199594 -0.02153270069 0.11937280235 0.00221590265 -0.01932134130 0.11937506849 0.00226166744 -0.01719866581 0.11932480719 0.00230834671 -0.01520099683 0.11921558055 0.00209491451 -0.03432686212 0.12113045829 0.00210715815 -0.03245999950 0.12136208457 0.00212692518 -0.03046041457 0.12157429839 0.00215317518 -0.02836326731 0.12176305242 0.00218486772 -0.02620371771 0.12192429934 0.00222096236 -0.02401692573 0.12205399182 0.00226041867 -0.02183805135 0.12214808253 0.00230219622 -0.01970225456 0.12220252416 0.00234525458 -0.01764469532 0.12221326939 0.00238855331 -0.01570053360 0.12217627087 0.00219315059 -0.03415003402 0.12374806671 0.00220283880 -0.03235987529 0.12399043248 0.00222017706 -0.03044116655 0.12421450070 0.00224399671 -0.02842649342 0.12441739841 0.00227312910 -0.02634844146 0.12459625264 0.00230640557 -0.02423959628 0.12474819040 0.00234265748 -0.02213254346 0.12487033873 0.00238071616 -0.02005986859 0.12495982466 0.00241941297 -0.01805415727 0.12501377522 0.00245757924 -0.01614799508 0.12502931743 0.00229378706 -0.03407682102 0.12640427568 0.00229981811 -0.03233481481 0.12663317559 0.00231345685 -0.03047278867 0.12684848964 0.00233345465 -0.02852016428 0.12704779634 0.00235856285 -0.02650636333 0.12722867418 0.00238753283 -0.02446080749 0.12738870166 0.00241911595 -0.02241291844 0.12752545728 0.00245206357 -0.02039211786 0.12763651953 0.00248512706 -0.01842782743 0.12771946692 0.00251705777 -0.01654946883 0.12777187794 0.00239548706 -0.03408537459 0.12903388355 0.00239751345 -0.03237154000 0.12923955897 0.00240664436 -0.03054728814 0.12943692637 0.00242167901 -0.02863910949 0.12962378619 0.00244141663 -0.02667349455 0.12979793886 0.00246465645 -0.02467693380 0.12995718482 0.00249019768 -0.02267591772 0.13009932449 0.00251683956 -0.02069693680 0.13022215830 0.00254338131 -0.01876648154 0.13032348669 0.00256862215 -0.01691104242 0.13040111009 0.00249691373 -0.03415384619 0.13157168866 0.00249534219 -0.03245677279 0.13175882768 0.00249961937 -0.03065667218 0.13194047206 0.00250879983 -0.02877815862 0.13211490797 0.00252193811 -0.02684584635 0.13228042160 0.00253808874 -0.02488434963 0.13243529911 0.00255630627 -0.02291828272 0.13257782669 0.00257564523 -0.02097225988 0.13270629051 0.00259516018 -0.01907089537 0.13281897676 0.00261390565 -0.01723880343 0.13291417160 0.00187246465 -0.03753529823 0.11057467507 0.00185655531 -0.03434494408 0.10953799694 0.00185247423 -0.03126395347 0.10869925049 0.00185808120 -0.02828686600 0.10802296444 0.00187123598 -0.02540822126 0.10747366749 0.00188979838 -0.02262255883 0.10701588837 0.00191162818 -0.01992441831 0.10661415579 0.00193458516 -0.01730833927 0.10623299844 0.00195652911 -0.01476886131 0.10583694506 0.00197531981 -0.01230052401 0.10539052434 0.00191562581 -0.03655684705 0.11206288310 0.00191671584 -0.03372076191 0.11149450157 0.00192461050 -0.03092283916 0.11103944334 0.00193828076 -0.02816959359 0.11067434514 0.00195669758 -0.02546754003 0.11037584372 0.00197883194 -0.02282319330 0.11012057581 0.00200365481 -0.02024306821 0.10988517816 0.00203013716 -0.01773367958 0.10964628751 0.00205724995 -0.01530154222 0.10938054060 0.00208396416 -0.01295317096 0.10906457417 0.00197149305 -0.03579455520 0.11390934989 0.00198380206 -0.03323966121 0.11367992936 0.00199937981 -0.03067107329 0.11350446101 0.00201799235 -0.02810352708 0.11336836697 0.00203940572 -0.02555175817 0.11325706942 0.00206338595 -0.02303050220 0.11315599052 0.00208969909 -0.02055449477 0.11305055243 0.00211811118 -0.01813847150 0.11292617731 0.00214838826 -0.01579716801 0.11276828733 0.00218029636 -0.01354531992 0.11256230464 0.00203812788 -0.03522477273 0.11605008479 0.00205673925 -0.03288696204 0.11605008492 0.00207633733 -0.03050005351 0.11606576301 0.00209721233 -0.02808387224 0.11608853666 0.00211965447 -0.02565824334 0.11610982346 0.00214395394 -0.02324299194 0.11612104100 0.00217040098 -0.02085794315 0.11611360687 0.00219928577 -0.01852292207 0.11607893867 0.00223089854 -0.01625775382 0.11600845399 0.00226552949 -0.01408226352 0.11589357043 0.00211359176 -0.03482384965 0.11842109718 0.00213445266 -0.03264798451 0.11856077285 0.00215503819 -0.03040117743 0.11869480889 0.00217593704 -0.02810583485 0.11881836094 0.00219773790 -0.02578436321 0.11892658467 0.00222102946 -0.02345916894 0.11901463572 0.00224640043 -0.02115265849 0.11907766974 0.00227443948 -0.01888723829 0.11911084239 0.00230573531 -0.01668531478 0.11910930933 0.00234087662 -0.01456929439 0.11906822619 0.00219594619 -0.03456813601 0.12095839641 0.00221586758 -0.03250804869 0.12116779776 0.00223503755 -0.03036584268 0.12136305815 0.00225416282 -0.02816462068 0.12154134654 0.00227395009 -0.02592748541 0.12169983189 0.00229510605 -0.02367753960 0.12183568316 0.00231833740 -0.02143788595 0.12194606931 0.00234435085 -0.01923162719 0.12202815929 0.00237385309 -0.01708186602 0.12207912206 0.00240755082 -0.01501170516 0.12209612659 0.00228325267 -0.03443398184 0.12359799186 0.00229990926 -0.03245247469 0.12382696426 0.00231589057 -0.03038544689 0.12404197033 0.00233188603 -0.02825543551 0.12424100019 0.00234858511 -0.02608497763 0.12442204398 0.00236667724 -0.02389661033 0.12458309182 0.00238685186 -0.02171287069 0.12472213384 0.00240979842 -0.01955629577 0.12483716017 0.00243620638 -0.01744942267 0.12492616094 0.00246676516 -0.01541478845 0.12498712628 0.00237357267 -0.03439773716 0.12627589288 0.00238550297 -0.03246658259 0.12649407696 0.00239715238 -0.03045138769 0.12670300495 0.00240910302 -0.02837348512 0.12690082862 0.00242193703 -0.02625420752 0.12708569977 0.00243623656 -0.02411488754 0.12725577017 0.00245258376 -0.02197685784 0.12740919160 0.00247156075 -0.01986145107 0.12754411585 0.00249374969 -0.01778999987 0.12765869470 0.00251973272 -0.01578383691 0.12775107993 0.00246496768 -0.03443575201 0.12892810884 0.00247157399 -0.03253569248 0.12912494047 0.00247837814 -0.03055506271 0.12931762153 0.00248581011 -0.02851397527 0.12950433856 0.00249429992 -0.02643254273 0.12968327810 0.00250427757 -0.02433087764 0.12985262669 0.00251617305 -0.02222909257 0.13001057085 0.00253041638 -0.02014730009 0.13015529713 0.00254743755 -0.01810561276 0.13028499207 0.00256766657 -0.01612414315 0.13039784219 0.00255549919 -0.03452437642 0.13149064910 0.00255704758 -0.03264512445 0.13167535939 0.00255912300 -0.03068786958 0.13185727960 0.00256200368 -0.02867211176 0.13203503675 0.00256596786 -0.02661735092 0.13220725783 0.00257129379 -0.02454308703 0.13237256987 0.00257825971 -0.02246882003 0.13252959987 0.00258714385 -0.02041404985 0.13267697484 0.00259822446 -0.01839827646 0.13281332179 0.00261177978 -0.01644099980 0.13293726774 0.00202548932 -0.03731081097 0.11015529046 0.00200578111 -0.03401568189 0.10889550782 0.00199541118 -0.03087205962 0.10787128038 0.00199285215 -0.02786778932 0.10704982997 0.00199657663 -0.02499071614 0.10639837841 0.00200505725 -0.02222868526 0.10588414753 0.00201676663 -0.01956954183 0.10547435915 0.00203017740 -0.01700113102 0.10513623511 0.00204376217 -0.01451129798 0.10483699723 0.00205599356 -0.01208788788 0.10454386733 0.00205700445 -0.03637769581 0.11173231102 0.00205539806 -0.03344004040 0.11101459602 0.00205768765 -0.03058006991 0.11043676651 0.00206343618 -0.02779700945 0.10997739704 0.00207220665 -0.02509008413 0.10961506212 0.00208356201 -0.02245851907 0.10932833629 0.00209706524 -0.01990153937 0.10909579408 0.00211227933 -0.01741837015 0.10889601002 0.00212876724 -0.01500823650 0.10870755863 0.00214609195 -0.01267036356 0.10850901444 0.00210148244 -0.03566180708 0.11365037334 0.00211198036 -0.03300623258 0.11332615268 0.00212248277 -0.03037350292 0.11307410736 0.00213335210 -0.02777096762 0.11288102144 0.00214495078 -0.02520597618 0.11273367896 0.00215764124 -0.02268587811 0.11261886398 0.00217178591 -0.02021802293 0.11252336057 0.00218774723 -0.01780976014 0.11243395276 0.00220588762 -0.01546843926 0.11233742461 0.00222656952 -0.01320140979 0.11222056019 0.00215704127 -0.03513816186 0.11584798595 0.00217452348 -0.03269884058 0.11579146834 0.00218944700 -0.03024372304 0.11576282441 0.00220271904 -0.02778555120 0.11575441112 0.00221524680 -0.02533706700 0.11575858550 0.00222793751 -0.02291101238 0.11576770451 0.00224169835 -0.02052012928 0.11577412517 0.00225743653 -0.01817715966 0.11577020446 0.00227605927 -0.01589484545 0.11574829938 0.00229847377 -0.01368592859 0.11570076692 0.00222179892 -0.03478177725 0.11826365740 0.00224202286 -0.03250244656 0.11837183354 0.00225823076 -0.03018209467 0.11848243911 0.00227165614 -0.02783664759 0.11859127405 0.00228353251 -0.02548203132 0.11869413830 0.00229509338 -0.02313417185 0.11878683179 0.00230757227 -0.02080899519 0.11886515446 0.00232220269 -0.01852242733 0.11892490626 0.00234021814 -0.01629039428 0.11896188711 0.00236285215 -0.01412882203 0.11897189696 0.00229387337 -0.03456767034 0.12083589625 0.00231347397 -0.03240163268 0.12102853881 0.00232848451 -0.03017998220 0.12121247296 0.00234028256 -0.02792014418 0.12138531817 0.00235024568 -0.02563954386 0.12154469394 0.00235975144 -0.02335560652 0.12168821973 0.00237017740 -0.02108575742 0.12181351502 0.00238290113 -0.01884742181 0.12191819928 0.00239930019 -0.01665802496 0.12199989200 0.00242075214 -0.01453499213 0.12205621264 0.00237138259 -0.03447085821 0.12350321104 0.00238787225 -0.03238098108 0.12372287467 0.00239985867 -0.03022875001 0.12393244741 0.00240871743 -0.02803192833 0.12413025145 0.00241582409 -0.02580827935 0.12431460899 0.00242255424 -0.02357556637 0.12448384224 0.00243028346 -0.02135155273 0.12463627340 0.00244038731 -0.01915400173 0.12477022466 0.00245424137 -0.01700067669 0.12488401823 0.00247322122 -0.01490934093 0.12497597630 0.00245244455 -0.03446635796 0.12620411031 0.00246421317 -0.03242507393 0.12641613167 0.00247200369 -0.03031976251 0.12662188394 0.00247707989 -0.02816788745 0.12681978182 0.00248070553 -0.02598691250 0.12700824002 0.00248414436 -0.02379430140 0.12718567324 0.00248866015 -0.02160751790 0.12735049617 0.00249551665 -0.01944402575 0.12750112352 0.00250597764 -0.01732128869 0.12763596999 0.00252130687 -0.01525677048 0.12775345027 0.00253517724 -0.03452918667 0.12887710262 0.00254149217 -0.03251849338 0.12906960033 0.00254457001 -0.03044438408 0.12926030402 0.00254548910 -0.02832390892 0.12944761726 0.00254532777 -0.02617411804 0.12962994361 0.00254516435 -0.02401206158 0.12980568664 0.00254607719 -0.02185478968 0.12997324992 0.00254914462 -0.01971935250 0.13013103700 0.00255544496 -0.01762280016 0.13027745147 0.00256605655 -0.01558218281 0.13041089687 0.00261769863 -0.03463436144 0.13146069651 0.00261870471 -0.03264582158 0.13164457119 0.00261720806 -0.03059397911 0.13182722913 0.00261406418 -0.02849588012 0.13200746571 0.00261012859 -0.02636857069 0.13218407632 0.00260625680 -0.02422909690 0.13235585635 0.00260330431 -0.02209450486 0.13252160119 0.00260212663 -0.01998184063 0.13268010623 0.00260357928 -0.01790815030 0.13283016685 0.00260851775 -0.01589047997 0.13297057845 0.00214292988 -0.03686674609 0.10959694595 0.00211664415 -0.03357112990 0.10823936994 0.00209743515 -0.03043234535 0.10712825367 0.00208452148 -0.02744002410 0.10623468501 0.00207712171 -0.02458379781 0.10552975179 0.00207445443 -0.02185329814 0.10498454190 0.00207573822 -0.01923815674 0.10457014317 0.00208019168 -0.01672800528 0.10425764348 0.00208703338 -0.01431247542 0.10401813067 0.00209548192 -0.01198119881 0.10382269261 0.00217225767 -0.03598059524 0.11132372142 0.00216359257 -0.03304170644 0.11053528821 0.00215698770 -0.03018507378 0.10989816368 0.00215255369 -0.02741113757 0.10939299003 0.00215040116 -0.02472033814 0.10900040941 0.00215064077 -0.02211311581 0.10870106401 0.00215338316 -0.01958991089 0.10847559599 0.00215873894 -0.01715116372 0.10830464754 0.00216681878 -0.01479731460 0.10816886083 0.00217773330 -0.01252880388 0.10804887803 0.00221240562 -0.03530957104 0.11336046675 0.00221580391 -0.03264970059 0.11298690567 0.00221769881 -0.03001685343 0.11269643226 0.00221883030 -0.02741918609 0.11247668057 0.00221993839 -0.02486485514 0.11231528467 0.00222176306 -0.02236201711 0.11219987861 0.00222504433 -0.01991882855 0.11211809644 0.00223052217 -0.01754344602 0.11205757221 0.00223893659 -0.01524402607 0.11200593998 0.00225102758 -0.01302872524 0.11195083380 0.00226198126 -0.03482808788 0.11564986188 0.00227267345 -0.03237976157 0.11556041025 0.00227953027 -0.02991968256 0.11550846443 0.00228369828 -0.02746113369 0.11548649110 0.00228632399 -0.02501739779 0.11548695697 0.00228855395 -0.02260175772 0.11550232875 0.00229153469 -0.02022749632 0.11552507313 0.00229641274 -0.01790789644 0.11554765681 0.00230433465 -0.01565624091 0.11556254650 0.00231644694 -0.01348581258 0.11556220889 0.00231959209 -0.03451056013 0.11813458677 0.00233359645 -0.03221653861 0.11822198990 0.00234244390 -0.02988555946 0.11831966522 0.00234750456 -0.02753394439 0.11842315605 0.00235014857 -0.02517801511 0.11852800569 0.00235174607 -0.02283409334 0.11862975746 0.00235366718 -0.02051850080 0.11872395469 0.00235728204 -0.01824755918 0.11880614068 0.00236396078 -0.01603759021 0.11887185876 0.00237507352 -0.01390491560 0.11891665223 0.00238384564 -0.03433140219 0.12075732134 0.00239796821 -0.03214468093 0.12093783255 0.00240640148 -0.02990648238 0.12111543969 0.00241059611 -0.02763458222 0.12128740987 0.00241200276 -0.02534675609 0.12145101021 0.00241207209 -0.02306077965 0.12160350779 0.00241225476 -0.02079442856 0.12174216974 0.00241400145 -0.01856547848 0.12186426315 0.00241876280 -0.01639170507 0.12196705513 0.00242798949 -0.01429088399 0.12204781279 0.00245334941 -0.03426502843 0.12346074555 0.00246518401 -0.03214883775 0.12367412612 0.00247136484 -0.02997444961 0.12388119285 0.00247331988 -0.02776001121 0.12407998703 0.00247247715 -0.02552366971 0.12426854991 0.00247026464 -0.02328357232 0.12444492277 0.00246811037 -0.02105786621 0.12460714689 0.00246744234 -0.01886469857 0.12475326353 0.00246968855 -0.01672221658 0.12488131398 0.00247627701 -0.01464856744 0.12498933950 0.00252671093 -0.03428585324 0.12618753934 0.00253463913 -0.03221365830 0.12639705856 0.00253729575 -0.03008145942 0.12660232975 0.00253602281 -0.02790719538 0.12680162195 0.00253216235 -0.02570880499 0.12699320417 0.00252705639 -0.02350422704 0.12717534544 0.00252204697 -0.02131140033 0.12734631476 0.00251847612 -0.01914826367 0.12750438117 0.00251768586 -0.01703275583 0.12764781368 0.00252101822 -0.01498281564 0.12777488132 0.00260253771 -0.03436829099 0.12888038265 0.00260572885 -0.03232379181 0.12907281779 0.00260415603 -0.03021951007 0.12926425542 0.00259905187 -0.02807309878 0.12945304911 0.00259164898 -0.02590221092 0.12963755239 0.00258317998 -0.02372449950 0.12981611884 0.00257487750 -0.02155761753 0.12998710199 0.00256797414 -0.01941921800 0.13014885539 0.00256370254 -0.01732695392 0.13029973261 0.00256329530 -0.01529847828 0.13043808719 0.00267943727 -0.03448675608 0.13148195543 0.00267784845 -0.03246388750 0.13166759175 0.00267190748 -0.03038059985 0.13185237489 0.00266275400 -0.02825468541 0.13203500294 0.00265152765 -0.02610393649 0.13221417395 0.00263936807 -0.02394614538 0.13238858600 0.00262741491 -0.02179910439 0.13255693717 0.00261680781 -0.01968060580 0.13271792553 0.00260868642 -0.01760844192 0.13287024914 0.00260419039 -0.01560040505 0.13301260608 0.00222211189 -0.03621338366 0.10885125883 0.00218948442 -0.03301889568 0.10752372478 0.00216187886 -0.02995338372 0.10642538905 0.00213923503 -0.02701605125 0.10553341644 0.00212149272 -0.02420610171 0.10482497179 0.00210859173 -0.02152273855 0.10427721990 0.00210047189 -0.01896516522 0.10386732560 0.00209707298 -0.01653258517 0.10357245370 0.00209833481 -0.01422420185 0.10336976903 0.00210419719 -0.01203921870 0.10323643639 0.00225679579 -0.03537629807 0.11080248865 0.00223977063 -0.03253293603 0.11002383933 0.00222366607 -0.02974526880 0.10939169699 0.00220906803 -0.02702264883 0.10888957062 0.00219656241 -0.02437442858 0.10850096923 0.00218673514 -0.02180996050 0.10820940184 0.00218017214 -0.01933859704 0.10799837743 0.00217745931 -0.01696969067 0.10785140503 0.00217918258 -0.01471259383 0.10775199363 0.00218592787 -0.01257665898 0.10768365224 0.00229872279 -0.03474814012 0.11301577359 0.00229280732 -0.03217651654 0.11263946261 0.00228487881 -0.02960738219 0.11234912934 0.00227594923 -0.02705708509 0.11213313549 0.00226703057 -0.02454197329 0.11197984274 0.00225913479 -0.02207839481 0.11187761279 0.00225327389 -0.01968269769 0.11181480734 0.00225045984 -0.01737122996 0.11177978807 0.00225170461 -0.01516033966 0.11176091668 0.00225802019 -0.01306637481 0.11174655486 0.00234719791 -0.03430371347 0.11544002127 0.00234848659 -0.03193529960 0.11534157651 0.00234580245 -0.02953311391 0.11528735434 0.00234040696 -0.02711788536 0.11526928804 0.00233356156 -0.02471034291 0.11527931089 0.00232652772 -0.02233121551 0.11530935616 0.00232056689 -0.02000123213 0.11535135712 0.00231694051 -0.01774112172 0.11539724707 0.00231691005 -0.01557161324 0.11543895927 0.00232173696 -0.01351343565 0.11546842700 0.00240152618 -0.03401782176 0.11802413928 0.00240670052 -0.03179494760 0.11810116295 0.00240672236 -0.02951585399 0.11819604023 0.00240296951 -0.02720357496 0.11830320528 0.00239681978 -0.02488114450 0.11841709225 0.00238965096 -0.02257159661 0.11853213530 0.00238284087 -0.02029796531 0.11864276859 0.00237776730 -0.01808328460 0.11874342626 0.00237580808 -0.01595058849 0.11882854247 0.00237834100 -0.01392291097 0.11889255139 0.00246101260 -0.03386526865 0.12071703523 0.00246734122 -0.03174112293 0.12088920382 0.00246792393 -0.02954899247 0.12106485524 0.00246416522 -0.02731267922 0.12124006419 0.00245746959 -0.02505598512 0.12141090541 0.00244924154 -0.02280271213 0.12157345362 0.00244088557 -0.02057666219 0.12172378354 0.00243380617 -0.01840163727 0.12185796989 0.00242940785 -0.01630143930 0.12197208739 0.00242909511 -0.01429987024 0.12206221077 0.00252496220 -0.03382085778 0.12346761671 0.00253030079 -0.03175948800 0.12367668103 0.00252969252 -0.02962591937 0.12388346760 0.00252452238 -0.02744372346 0.12408504178 0.00251617538 -0.02523647184 0.12427846895 0.00250603649 -0.02302773607 0.12446081449 0.00249549072 -0.02084108773 0.12462914378 0.00248592307 -0.01870009838 0.12478052219 0.00247871854 -0.01662833959 0.12491201510 0.00247526210 -0.01464938292 0.12502068787 0.00259268000 -0.03385939282 0.12622479134 0.00259547133 -0.03183570520 0.12643457649 0.00259231351 -0.02974002472 0.12664154555 0.00258456932 -0.02759523302 0.12684331503 0.00257360151 -0.02542421172 0.12703750144 0.00256077285 -0.02324984246 0.12722172131 0.00254744608 -0.02109500687 0.12739359113 0.00253498398 -0.01898258659 0.12755072741 0.00252474930 -0.01693546325 0.12769074668 0.00251810480 -0.01497651849 0.12781126544 0.00266347102 -0.03395567740 0.12893746671 0.00266274492 -0.03195543693 0.12913387209 0.00265607228 -0.02988469855 0.12932875732 0.00264483435 -0.02776573321 0.12952006094 0.00263041238 -0.02562081182 0.12970572147 0.00261418764 -0.02347220530 0.12988367744 0.00259754137 -0.02134218457 0.13005186737 0.00258185484 -0.01925302057 0.13020822979 0.00256850930 -0.01722698421 0.13035070323 0.00255888601 -0.01528634641 0.13047722622 0.00273664028 -0.03408451519 0.13155455043 0.00273201368 -0.03210434557 0.13174554973 0.00272125420 -0.03005333089 0.13193477115 0.00270584578 -0.02795374936 0.13212045651 0.00268727236 -0.02582787920 0.13230084761 0.00266701790 -0.02369799860 0.13247418628 0.00264656634 -0.02158638579 0.13263871433 0.00262740163 -0.01951531897 0.13279267358 0.00261100771 -0.01750707635 0.13293430584 0.00259886854 -0.01558393615 0.13306185293 0.00226036091 -0.03536100377 0.10786984641 0.00222464192 -0.03236658682 0.10670271382 0.00219207503 -0.02944374783 0.10571790516 0.00216313864 -0.02660835170 0.10490191115 0.00213831117 -0.02387626333 0.10424122251 0.00211807101 -0.02126334762 0.10372232995 0.00210289657 -0.01878546947 0.10333172419 0.00209326626 -0.01645849379 0.10305589595 0.00208965849 -0.01429828548 0.10288133594 0.00209255166 -0.01232070944 0.10279453489 0.00230602913 -0.03457555706 0.11013398708 0.00228240347 -0.03192090516 0.10944751058 0.00225887816 -0.02926807301 0.10888542854 0.00223641397 -0.02664221411 0.10843558532 0.00221597166 -0.02406848198 0.10808582525 0.00219851201 -0.02157203014 0.10782399268 0.00218499578 -0.01917801210 0.10763793197 0.00217638374 -0.01691158138 0.10751548745 0.00217363667 -0.01479789149 0.10744450347 0.00217771532 -0.01286209595 0.10741282438 0.00235489413 -0.03398780737 0.11259243735 0.00234052519 -0.03159313171 0.11226109779 0.00232387366 -0.02915134657 0.11200989227 0.00230623116 -0.02669356721 0.11182817728 0.00228888933 -0.02425090888 0.11170530934 0.00227313978 -0.02185448686 0.11163064493 0.00226027415 -0.01953541641 0.11159354057 0.00225158405 -0.01732481278 0.11158335275 0.00224836112 -0.01525379124 0.11158943798 0.00225189698 -0.01335346704 0.11160115275 0.00240694132 -0.03357420134 0.11520277278 0.00239926033 -0.03137102922 0.11511963298 0.00238747881 -0.02908919893 0.11508416544 0.00237310199 -0.02676307188 0.11508731342 0.00235763508 -0.02442700952 0.11512002024 0.00234258329 -0.02211537327 0.11517322917 0.00232945185 -0.01986252456 0.11523788352 0.00231974597 -0.01770282482 0.11530492656 0.00231497087 -0.01567063548 0.11536530160 0.00231663176 -0.01380031797 0.11540995192 0.00246215609 -0.03331118561 0.11792256895 0.00245886215 -0.03124236046 0.11799927370 0.00245011093 -0.02907726050 0.11810111714 0.00243753822 -0.02685138904 0.11822062010 0.00242277981 -0.02460024940 0.11835030340 0.00240747149 -0.02235934486 0.11848268787 0.00239324904 -0.02016417875 0.11861029432 0.00238174825 -0.01805025436 0.11872564358 0.00237460491 -0.01605307501 0.11882125647 0.00237345479 -0.01420814399 0.11888965381 0.00252052386 -0.03317520681 0.12070940144 0.00251958389 -0.03119488818 0.12087617747 0.00251218729 -0.02911116171 0.12105361648 0.00250005161 -0.02695917959 0.12123572369 0.00248489444 -0.02477409400 0.12141650429 0.00246843335 -0.02259105712 0.12158996349 0.00245238591 -0.02044522113 0.12175010650 0.00243846969 -0.01837173822 0.12189093850 0.00242840226 -0.01640576057 0.12200646472 0.00242390120 -0.01458244036 0.12209069034 0.00258203001 -0.03314271157 0.12352084582 0.00258167882 -0.03121637514 0.12372650183 0.00257412519 -0.02918653298 0.12393453256 0.00256115394 -0.02708710443 0.12414025055 0.00254454988 -0.02495200884 0.12433896836 0.00252609783 -0.02281516554 0.12452599851 0.00250758261 -0.02071049390 0.12469665356 0.00249078904 -0.01867191325 0.12484624603 0.00247750193 -0.01673334295 0.12497008848 0.00246950609 -0.01492870233 0.12506349344 0.00264665997 -0.03319014654 0.12631447767 0.00264540019 -0.03129458411 0.12652640431 0.00263634194 -0.02929900472 0.12673673446 0.00262135696 -0.02723582446 0.12694182707 0.00260231703 -0.02513745939 0.12713804106 0.00258109389 -0.02303632562 0.12732173539 0.00255955932 -0.02096483922 0.12748926901 0.00253958508 -0.01895541629 0.12763700086 0.00252304292 -0.01704047290 0.12776128988 0.00251180462 -0.01525242515 0.12785849502 0.00271439912 -0.03329395834 0.12904787256 0.00271100126 -0.03141727785 0.12925204246 0.00269925482 -0.02944420736 0.12945309130 0.00268117245 -0.02740600057 0.12964807959 0.00265876679 -0.02533391117 0.12983406785 0.00263405050 -0.02325919284 0.13000811661 0.00260903621 -0.02121309928 0.13016728638 0.00258573659 -0.01922688417 0.13030863769 0.00256616426 -0.01733180121 0.13042923106 0.00255233189 -0.01555910408 0.13052612700 0.00278523287 -0.03343059362 0.13167860606 0.00277873527 -0.03157221911 0.13187957381 0.00276328113 -0.02961777132 0.13207647216 0.00274111216 -0.02759829369 0.13226663450 0.00271447008 -0.02554482966 0.13244739419 0.00268559661 -0.02348842270 0.13261608463 0.00265673345 -0.02146011624 0.13277003918 0.00263012233 -0.01949095374 0.13290659122 0.00260800495 -0.01761197863 0.13302307415 0.00259262303 -0.01585423437 0.13311682132 0.00225500250 -0.03431988647 0.10660432597 0.00222245666 -0.03162181091 0.10573047853 0.00219135638 -0.02891201074 0.10496102070 0.00216237817 -0.02622940634 0.10429605603 0.00213619857 -0.02361291811 0.10373568810 0.00211349408 -0.02110146643 0.10328002047 0.00209494122 -0.01873397168 0.10292915671 0.00208121651 -0.01654935425 0.10268320038 0.00207299648 -0.01458653453 0.10254225506 0.00207095763 -0.01288443291 0.10250642431 0.00231536800 -0.03358912494 0.10928359108 0.00228996233 -0.03121278983 0.10877356314 0.00226377938 -0.02876090444 0.10834742048 0.00223802628 -0.02628050429 0.10799948063 0.00221391019 -0.02381862489 0.10772406110 0.00219263827 -0.02142230174 0.10751547943 0.00217541767 -0.01913857035 0.10736805314 0.00216345555 -0.01701446623 0.10727609975 0.00215795905 -0.01509702490 0.10723393679 0.00216013532 -0.01343328185 0.10723588177 0.00237537981 -0.03303886583 0.11206660149 0.00235649212 -0.03090599740 0.11182908550 0.00233453424 -0.02865500395 0.11165641469 0.00231119837 -0.02633753503 0.11153959707 0.00228817669 -0.02400524016 0.11146964064 0.00226716139 -0.02170976890 0.11143755342 0.00224984464 -0.01950277076 0.11143434342 0.00223791864 -0.01743589528 0.11145101866 0.00223307557 -0.01556079201 0.11147858714 0.00223700762 -0.01392911047 0.11150805687 0.00243546154 -0.03264871421 0.11492242509 0.00242229211 -0.03069252503 0.11487924554 0.00240377466 -0.02859311947 0.11488356897 0.00238204029 -0.02640395893 0.11492507870 0.00235922008 -0.02417850482 0.11499345802 0.00233744510 -0.02197021853 0.11507839025 0.00231884645 -0.01983256148 0.11516955869 0.00230555521 -0.01781899506 0.11525664664 0.00229970246 -0.01598298067 0.11532933742 0.00230341930 -0.01437797972 0.11537731433 0.00249603675 -0.03239827516 0.11782012979 0.00248760841 -0.03056346414 0.11790624317 0.00247165435 -0.02857406120 0.11802444896 0.00245069790 -0.02648323638 0.11816459886 0.00242726237 -0.02434415973 0.11831654456 0.00240387110 -0.02221000128 0.11847013773 0.00238304742 -0.02013393110 0.11861523007 0.00236731465 -0.01816911921 0.11874167325 0.00235919612 -0.01636873567 0.11883931896 0.00236121516 -0.01478595053 0.11889801888 0.00255752901 -0.03226715376 0.12072878352 0.00255268712 -0.03050990615 0.12089227832 0.00253832700 -0.02859663935 0.12107462031 0.00251731703 -0.02657882776 0.12126683092 0.00249252559 -0.02450794576 0.12145993157 0.00246682108 -0.02243546778 0.12164494368 0.00244307188 -0.02041286819 0.12181288869 0.00242414637 -0.01849162140 0.12195478800 0.00241291294 -0.01672320182 0.12206166305 0.00241223998 -0.01515908384 0.12212453526 0.00262036192 -0.03223495508 0.12361745419 0.00261777435 -0.03052294247 0.12381955092 0.00260394631 -0.02865966412 0.12402964866 0.00258204354 -0.02669419344 0.12424044821 0.00255523176 -0.02467560381 0.12444465036 0.00252667672 -0.02265296864 0.12463495592 0.00249954415 -0.02067536134 0.12480406568 0.00247699977 -0.01879185529 0.12494468045 0.00246220933 -0.01705152391 0.12504950102 0.00245833856 -0.01550344058 0.12511122819 0.00268495904 -0.03228128421 0.12645520969 0.00268311618 -0.03059366452 0.12667026089 0.00266866598 -0.02876194572 0.12688509966 0.00264502327 -0.02683279380 0.12709412408 0.00261560290 -0.02485287474 0.12729173225 0.00258381971 -0.02286885452 0.12747232225 0.00255308855 -0.02092739912 0.12763029218 0.00252682427 -0.01907517453 0.12776004012 0.00250844169 -0.01735884673 0.12785596417 0.00250135568 -0.01582508170 0.12791246240 0.00275174396 -0.03238574622 0.12921111795 0.00274895873 -0.03071316371 0.12942660816 0.00273263971 -0.02890229435 0.12963653895 0.00270640207 -0.02699808923 0.12983653189 0.00267386102 -0.02504549943 0.13002220855 0.00263863174 -0.02308947603 0.13018919051 0.00260432942 -0.02117497012 0.13033309932 0.00257456925 -0.01934693278 0.13044955657 0.00255296643 -0.01765031509 0.13053418381 0.00254313614 -0.01613006814 0.13058260262 0.00282114025 -0.03252794620 0.13185424688 0.00281554810 -0.03087253145 0.13207079265 0.00279602120 -0.02907952021 0.13227953217 0.00276632580 -0.02719354009 0.13247634498 0.00273022815 -0.02525921875 0.13265711058 0.00269149449 -0.02332118381 0.13281770849 0.00265389107 -0.02142406291 0.13295401823 0.00262118414 -0.01961248369 0.13306191932 0.00259713993 -0.01793107378 0.13313729127 0.00258552471 -0.01642446082 0.13317601359 0.00220336224 -0.03310031183 0.10500631482 0.00218326864 -0.03079217553 0.10456116040 0.00216305562 -0.02836674553 0.10410995432 0.00214309946 -0.02589169610 0.10367173795 0.00212377642 -0.02343470153 0.10326555267 0.00210546276 -0.02106343608 0.10291043986 0.00208853477 -0.01884557403 0.10262544090 0.00207336870 -0.01684878965 0.10242959716 0.00206034082 -0.01514075722 0.10234195002 0.00204982740 -0.01378915101 0.10238154087 0.00228022271 -0.03242775447 0.10821667502 0.00226091846 -0.03041576601 0.10796925821 0.00223952512 -0.02823118113 0.10774573493 0.00221733972 -0.02594819025 0.10754970306 0.00219565928 -0.02364098382 0.10738476046 0.00217578084 -0.02138375228 0.10725450498 0.00215900141 -0.01925068606 0.10716253451 0.00214661803 -0.01731597561 0.10711244689 0.00213992773 -0.01565381136 0.10710784001 0.00214022753 -0.01433838375 0.10715231172 0.00235464003 -0.03191160854 0.11141440948 0.00233824271 -0.03012156488 0.11132070003 0.00231671144 -0.02812461170 0.11126639027 0.00229237312 -0.02599789115 0.11124518595 0.00226755467 -0.02381854538 0.11125079283 0.00224458297 -0.02166371655 0.11127691666 0.00222578492 -0.01961054680 0.11131726319 0.00221348744 -0.01773617830 0.11136553819 0.00221001741 -0.01611775319 0.11141544741 0.00221770174 -0.01483241364 0.11146069660 0.00242700866 -0.03153641477 0.11458328686 0.00241487936 -0.02990536159 0.11460508003 0.00239390529 -0.02805005738 0.11467023622 0.00236747877 -0.02604781217 0.11476709533 0.00233899211 -0.02397593598 0.11488399724 0.00231183761 -0.02191173883 0.11500928183 0.00228940759 -0.01993253074 0.11513128900 0.00227509436 -0.01811562174 0.11523835865 0.00227229023 -0.01653832184 0.11531883064 0.00228438750 -0.01527794106 0.11536104489 0.00249772305 -0.03128671387 0.11770707581 0.00249046640 -0.02976294559 0.11781199237 0.00247039741 -0.02801053831 0.11795558870 0.00244193576 -0.02610496670 0.11812433992 0.00240950114 -0.02412170541 0.11830472113 0.00237751323 -0.02213622908 0.11848320745 0.00235039171 -0.02022401237 0.11864627398 0.00233255627 -0.01846052992 0.11878039585 0.00232842658 -0.01692125639 0.11887204814 0.00234242233 -0.01568166643 0.11890770598 0.00256717767 -0.03114704658 0.12076954501 0.00256464182 -0.02969010633 0.12093103121 0.00254547851 -0.02800907463 0.12112076360 0.00251502319 -0.02617636812 0.12132582843 0.00247861130 -0.02426440345 0.12153331196 0.00244157828 -0.02234559725 0.12173030046 0.00240925956 -0.02049236618 0.12190388018 0.00238699060 -0.01877712687 0.12204113738 0.00238010683 -0.01727229598 0.12212915832 0.00239394369 -0.01605029015 0.12215502927 0.00263576698 -0.03110195360 0.12375446311 0.00263704361 -0.02968263329 0.12395179073 0.00261843933 -0.02804868649 0.12416407682 0.00258602017 -0.02626902981 0.12438046958 0.00254585212 -0.02441257987 0.12459011718 0.00250400121 -0.02254825328 0.12478216781 0.00246653343 -0.02074496665 0.12494576963 0.00243951482 -0.01907163659 0.12507007084 0.00242901137 -0.01759717971 0.12514421962 0.00244108909 -0.01639051263 0.12515736413 0.00270388542 -0.03113597567 0.12664559878 0.00270730975 -0.02973631591 0.12686386507 0.00268857059 -0.02813239401 0.12708384427 0.00265420578 -0.02638996515 0.12729717209 0.00261075314 -0.02457478447 0.12749548424 0.00256475048 -0.02275260713 0.12767041644 0.00252273561 -0.02098918828 0.12781360440 0.00249124637 -0.01935028308 0.12791668383 0.00247682057 -0.01790164669 0.12797129044 0.00248599602 -0.01670903426 0.12796905995 0.00277192748 -0.03123365349 0.12942672067 0.00277507823 -0.02984694364 0.12965684841 0.00275516302 -0.02826321735 0.12987838184 0.00271885915 -0.02654618752 0.13008484466 0.00267284389 -0.02475956702 0.13026976058 0.00262379454 -0.02296706874 0.13042665330 0.00257838839 -0.02123240556 0.13054904651 0.00254330272 -0.01961929036 0.13063046392 0.00252521481 -0.01819143603 0.13066442922 0.00253080195 -0.01701255546 0.13064446613 0.00284028760 -0.03137952779 0.13208159745 0.00283998703 -0.03001030594 0.13232033491 0.00281750734 -0.02844417665 0.13254600544 0.00277925935 -0.02674471030 0.13275239603 0.00273165391 -0.02497547731 0.13293329366 0.00268110186 -0.02320004807 0.13308248533 0.00263401405 -0.02148199297 0.13319375801 0.00259680130 -0.01988488244 0.13326089870 0.00257587447 -0.01847228685 0.13327769439 0.00257764439 -0.01730777661 0.13323793205 </DataArray>
</PointData>
<Points>
<DataArray type="Float32" NumberOfComponents="3">
-0.33189036971 0.56315050634 1.39542889655 -0.30687596347 0.56576846678 1.38309356024 -0.28813514855 0.56833078371 1.36941519420 -0.27569644800 0.57054284428 1.35473532495 -0.26958838486 0.57211003563 1.33939547901 -0.26983948217 0.57273774490 1.32373718290 -0.27647826298 0.57213135923 1.30810196312 -0.28953325031 0.56999626579 1.29283134619 -0.30903296723 0.56603785170 1.27826685864 -0.33500593676 0.55996150411 1.26475002696 -0.36272067168 0.57250240691 1.39130579716 -0.33724926890 0.57467297991 1.38054786416 -0.31815157803 0.57694008460 1.36818125820 -0.30544929778 0.57906020584 1.35463276533 -0.29916412689 0.58078982851 1.34032917159 -0.29931776409 0.58188543747 1.32569726301 -0.30593190809 0.58210351758 1.31116382566 -0.31902825762 0.58120055372 1.29715564556 -0.33862851142 0.57893303074 1.28409950877 -0.36475436820 0.57505743352 1.27242220132 -0.38879677315 0.58391141363 1.38851852657 -0.36266418230 0.58573310125 1.37895292443 -0.34305793600 0.58775347192 1.36764241701 -0.32999516974 0.58977386343 1.35505959308 -0.32349301898 0.59159561361 1.34167704137 -0.32356861921 0.59302006025 1.32796735064 -0.33023910589 0.59384854117 1.31440310964 -0.34352161450 0.59388239418 1.30145690712 -0.36343328052 0.59292295708 1.28960133182 -0.38999123942 0.59077156768 1.27930897250 -0.41030154611 0.59703254122 1.38691540254 -0.38337386959 0.59859175946 1.37820863027 -0.36316050115 0.60040970495 1.36772428514 -0.34967577697 0.60232654840 1.35594917164 -0.34293403322 0.60418246055 1.34337009426 -0.34294960607 0.60581761213 1.33047385749 -0.34973683171 0.60707217387 1.31774726582 -0.36331004632 0.60778631650 1.30567712376 -0.38368358606 0.60780021074 1.29475023578 -0.41087178712 0.60695402734 1.28545340638 -0.42741786253 0.61152080439 1.38634474282 -0.39963149673 0.61289188319 1.37821487093 -0.37876555217 0.61454754297 1.36835247710 -0.36483283259 0.61636099210 1.35723486446 -0.35784614169 0.61820543899 1.34533933613 -0.35781828321 0.61995409201 1.33314319525 -0.36476206088 0.62148015955 1.32112374495 -0.37869027842 0.62265685001 1.30975828835 -0.39961573954 0.62335737178 1.29952412859 -0.42755124799 0.62345493324 1.29089856879 -0.44032859440 0.62703121787 1.38665486518 -0.41169022966 0.62827640109 1.37887153565 -0.39017936775 0.62980574525 1.36945260742 -0.37580804969 0.63151992589 1.35885003499 -0.36858831649 0.63331961854 1.34751577289 -0.36853220916 0.63510549876 1.33590177564 -0.37565176871 0.63677824208 1.32445999777 -0.38995903615 0.63823852405 1.31364239379 -0.41146605249 0.63938702022 1.30390091822 -0.44018485874 0.64012440612 1.29568752560 -0.44921661371 0.64321879638 1.38769408736 -0.41980323431 0.64438824182 1.38007851367 -0.39770822657 0.64582307108 1.37095029061 -0.38294314139 0.64744608110 1.36072804668 -0.37551952971 0.64918006885 1.34983041042 -0.37544894245 0.65094783127 1.33867601036 -0.38274293053 0.65267216532 1.32768347502 -0.39741304488 0.65427586794 1.31727143294 -0.41947083641 0.65568173610 1.30785851264 -0.44892785606 0.65681256673 1.29986334265 -0.45426479242 0.65973855464 1.38931072713 -0.42422367664 0.66087033402 1.38173569423 -0.40165840731 0.66223827972 1.37277114118 -0.38657982080 0.66378218910 1.36280226297 -0.37899875345 0.66544185955 1.35221425461 -0.37892604162 0.66715708844 1.34139231111 -0.38637252167 0.66886767314 1.33072162747 -0.40134902995 0.67051341101 1.32058739870 -0.42386640283 0.67203409945 1.31137481981 -0.45393547665 0.67336953581 1.30346908580 -0.45565600253 0.67624550738 1.39135310224 -0.42520472258 0.67736560635 1.38374296657 -0.40233618868 0.67869013045 1.37484077365 -0.38705980101 0.68017098124 1.36500604731 -0.37938495978 0.68176006029 1.35459831135 -0.37932106519 0.68340926915 1.34397708959 -0.38687751744 0.68507050940 1.33350190585 -0.40206371673 0.68669568260 1.32353228395 -0.42488906325 0.68823669031 1.31442774769 -0.45536295721 0.68964543411 1.30654782090 -0.45357311601 0.69239466931 1.39366953045 -0.42299953808 0.69351698746 1.38600021992 -0.40004784934 0.69481738255 1.37708480255 -0.38472479513 0.69625518887 1.36727276314 -0.37703712081 0.69778974068 1.35691358653 -0.37699157171 0.69938037229 1.34635675751 -0.38459489317 0.70098641798 1.33595176092 -0.39985383055 0.70256721203 1.32604808156 -0.42277512919 0.70408208873 1.31699520425 -0.45336553444 0.70549038236 1.30914261381 -0.39720961324 0.56304263796 1.40008939994 -0.38246659391 0.56281128992 1.38516455607 -0.37140652030 0.56299151199 1.36972775920 -0.36403908975 0.56333664067 1.35396814901 -0.36037399956 0.56360001244 1.33807486515 -0.36042094706 0.56353496379 1.32223704728 -0.36418962956 0.56289483122 1.30664383507 -0.37168974437 0.56143295122 1.29148436817 -0.38293098881 0.55890266027 1.27694778626 -0.39792306021 0.55505729487 1.26322322898 -0.41949019995 0.57223573895 1.39606310358 -0.40434096007 0.57272540478 1.38290964420 -0.39296863632 0.57354561098 1.36891627419 -0.38537770223 0.57449923633 1.35434844192 -0.38157263135 0.57538915961 1.33947159572 -0.38155789720 0.57601825963 1.32455118396 -0.38533797333 0.57618941516 1.30985265498 -0.39291733327 0.57570550498 1.29564145715 -0.40430045056 0.57436940790 1.28218303880 -0.41949179873 0.57198400268 1.26974284830 -0.43901369073 0.58350652379 1.39343023402 -0.42314839829 0.58450389480 1.38161820002 -0.41123322648 0.58577077708 1.36876422263 -0.40326968721 0.58715167109 1.35517832351 -0.39925929240 0.58849107730 1.34117052435 -0.39920355396 0.58963349618 1.32705084681 -0.40310398380 0.59042342821 1.31312931259 -0.41096209384 0.59070537384 1.29971594334 -0.42277939600 0.59032383356 1.28712076075 -0.43855740218 0.58912330783 1.27565378649 -0.45569699078 0.59650876651 1.39202182916 -0.43890241340 0.59783464603 1.38117952460 -0.42628618640 0.59938584832 1.36919600174 -0.41784863470 0.60104121867 1.35640021710 -0.41359008323 0.60267960239 1.34312112723 -0.41351085693 0.60417984476 1.32968768867 -0.41761128071 0.60542079109 1.31642885795 -0.42589167950 0.60628128667 1.30367359161 -0.43835237823 0.60664017679 1.29175084619 -0.45499370182 0.60637630676 1.28098957822 -0.46945700529 0.61089624115 1.39166892696 -0.45161651020 0.61240554450 1.38148291904 -0.43821341165 0.61410966270 1.37013600877 -0.42924813468 0.61591515278 1.35795654600 -0.42472110435 0.61772857176 1.34527288058 -0.42463274571 0.61945647666 1.33241336234 -0.42898348379 0.62100542450 1.31970634114 -0.43777374365 0.62228197231 1.30748016682 -0.45100395033 0.62319267710 1.29606318922 -0.46867452888 0.62364409590 1.28578375818 -0.48021063947 0.62632272174 1.39220256534 -0.46130419351 0.62790447624 1.38241768440 -0.44710079782 0.62966105823 1.37150864097 -0.43760177716 0.63152074712 1.35978973353 -0.43280845626 0.63341182230 1.34757526059 -0.43272215989 0.63526256317 1.33517952066 -0.43734421279 0.63700124915 1.32291681224 -0.44667593971 0.63855615963 1.31110143382 -0.46071866540 0.63985557401 1.30004768393 -0.47947371462 0.64082777170 1.29006986105 -0.48787479851 0.64244198230 1.39345378222 -0.46797896815 0.64401932730 1.38387312178 -0.45303424052 0.64575887293 1.37323829556 -0.44304315212 0.64760527540 1.36184220298 -0.43800823947 0.64950319089 1.34997774347 -0.43793203907 0.65139727561 1.33793781644 -0.44281708745 0.65323218574 1.32601532130 -0.45266592110 0.65495257749 1.31450315749 -0.46748107654 0.65650310704 1.30369422442 -0.48726509029 0.65782843059 1.29388142150 -0.49236638760 0.65890779686 1.39525361554 -0.47165433894 0.66043798370 1.38573853224 -0.45609963533 0.66212194481 1.37524936979 -0.44570584958 0.66391601134 1.36405637768 -0.44047655449 0.66577651444 1.35242980542 -0.44041532286 0.66765978527 1.34063990250 -0.44552572751 0.66952215498 1.32895691842 -0.45581134123 0.67131995474 1.31765110268 -0.47127573683 0.67300951570 1.30699270478 -0.49192248712 0.67454716902 1.29725197422 -0.49360231196 0.67537393945 1.39743310323 -0.47234381070 0.67684833150 1.38790321688 -0.45638287785 0.67846911189 1.37746626090 -0.44572345952 0.68020022864 1.36637468094 -0.44036950182 0.68200562981 1.35488092264 -0.44032495085 0.68384926344 1.34323743166 -0.44559375271 0.68569507757 1.33169665364 -0.45617985352 0.68750702025 1.32051103424 -0.47208719937 0.68924903952 1.30993301910 -0.49331973638 0.69088508343 1.30021505387 -0.49149947676 0.69149418411 1.39982328322 -0.47006088823 0.69293825673 1.39025647678 -0.45396986366 0.69451921217 1.37981336613 -0.44322957194 0.69620520102 1.36873953606 -0.43784318197 0.69796437390 1.35728057134 -0.43781386263 0.69976488143 1.34568205675 -0.44314478280 0.70157487422 1.33418957706 -0.45383911138 0.70336250288 1.32304871704 -0.46990001725 0.70509591802 1.31250506148 -0.49133066930 0.70674327026 1.30280419514 -0.46867596491 0.56281723679 1.40351110389 -0.46060135448 0.56027762815 1.38662030884 -0.45450298598 0.55853322208 1.36985003564 -0.45035286493 0.55736858753 1.35327436853 -0.44812299682 0.55656829347 1.33696739173 -0.44778538715 0.55591690885 1.32100318947 -0.44931204143 0.55519900263 1.30545584598 -0.45267496516 0.55419914378 1.29039944549 -0.45784616384 0.55270190124 1.27590807222 -0.46479764298 0.55049184399 1.26205581041 -0.48394822746 0.57196085507 1.39957619585 -0.47558104042 0.57106807111 1.38460927223 -0.46926146355 0.57070856674 1.36938743324 -0.46495925785 0.57071698618 1.35405415279 -0.46264418435 0.57092797361 1.33875290479 -0.46228600405 0.57117617326 1.32362716316 -0.46385447798 0.57129622934 1.30882040181 -0.46731936714 0.57112278604 1.29447609465 -0.47265043256 0.57049048758 1.28073771560 -0.47981743524 0.56923397817 1.26774873855 -0.49772553627 0.58317887744 1.39707418844 -0.48875678173 0.58347586814 1.38356627980 -0.48198731985 0.58411699556 1.36955089232 -0.47738792676 0.58497735837 1.35521511505 -0.47492937861 0.58593205526 1.34074603702 -0.47458245155 0.58685618491 1.32633074728 -0.47631792169 0.58762484599 1.31215633485 -0.48010656519 0.58811313718 1.29840988878 -0.48591915819 0.58819615717 1.28527849810 -0.49372647682 0.58774900464 1.27294925185 -0.50980617448 0.59612692064 1.39582368132 -0.50001938368 0.59722650574 1.38337326204 -0.49264006775 0.59854249631 1.37026467678 -0.48764246560 0.59998185434 1.35670758214 -0.48500081612 0.60145154180 1.34291163473 -0.48468935823 0.60285852070 1.32908649115 -0.48668233082 0.60410975301 1.31544180801 -0.49095397280 0.60511220073 1.30218724191 -0.49747852307 0.60577282584 1.28953244947 -0.50623022054 0.60599859033 1.27768708727 -0.51998842523 0.61046060139 1.39564327415 -0.50925965158 0.61204547041 1.38391214946 -0.50117922016 0.61376905679 1.37145305050 -0.49572646832 0.61556262429 1.35848188088 -0.49288073339 0.61735743663 1.34521454421 -0.49262135271 0.61908475757 1.33186694412 -0.49492766362 0.62067585085 1.31865498422 -0.49977900345 0.62206198021 1.30579456812 -0.50715470953 0.62317440941 1.29350159944 -0.51703411922 0.62394440218 1.28199198179 -0.52807057170 0.62583553642 1.39635156660 -0.51636839071 0.62765824864 1.38506487255 -0.50756428993 0.62958066480 1.37304027736 -0.50164352885 0.63155181844 1.36048833808 -0.49859136691 0.63352074313 1.34761961178 -0.49839306359 0.63543647244 1.33464465554 -0.50103387834 0.63724803993 1.32177402640 -0.50649907063 0.63890447916 1.30921828145 -0.51477389992 0.64035482370 1.29718797775 -0.52584362568 0.64154810712 1.28589367236 -0.53385089702 0.64190734244 1.39776715831 -0.52123640636 0.64379032694 1.38671336181 -0.51175478997 0.64576130811 1.37495062124 -0.50539724115 0.64778158700 1.36267728057 -0.50215495321 0.64981246469 1.35009168374 -0.50201911948 0.65181524223 1.33739217473 -0.50498093325 0.65375122067 1.32477709749 -0.51103158784 0.65558170109 1.31244479597 -0.52016227657 0.65726798455 1.30059361414 -0.53236419274 0.65877137209 1.28942189595 -0.53712768434 0.65833163620 1.39970864896 -0.52375450384 0.66016719180 1.38873954773 -0.51371023313 0.66209497452 1.37710834603 -0.50699119915 0.66408408021 1.36499903516 -0.50359372879 0.66610360470 1.35259560640 -0.50351414897 0.66812264386 1.34008205105 -0.50674878659 0.67011029353 1.32764236040 -0.51329396857 0.67203564955 1.31546052573 -0.52314602181 0.67386780777 1.30372053835 -0.53630127322 0.67557586403 1.29260638954 -0.53769921683 0.67476403442 1.40199463820 -0.52381348842 0.67651432972 1.39102536082 -0.51339013232 0.67836565183 1.37943771562 -0.50642899681 0.68029144826 1.36740392868 -0.50292993017 0.68226516656 1.35509622606 -0.50289278068 0.68426025427 1.34268683383 -0.50631739664 0.68625015892 1.33034797805 -0.51320362631 0.68820832804 1.31825188480 -0.52355131798 0.69010820919 1.30657078012 -0.53736031994 0.69192324988 1.29547689009 -0.53536377763 0.69086015381 1.40444372570 -0.52130416541 0.69255722721 1.39345273156 -0.51075400040 0.69435732782 1.38186299388 -0.50371422806 0.69623584138 1.36984228795 -0.50018579384 0.69816815365 1.35755838903 -0.50016964321 0.70012965037 1.34517907242 -0.50366672163 0.70209571728 1.33287211338 -0.51067797454 0.70404174012 1.32080528721 -0.52120434742 0.70594310463 1.30914636918 -0.53524678571 0.70777519657 1.29806313457 -0.54389949832 0.56220392399 1.40563923063 -0.53982332631 0.55792265812 1.38741280251 -0.53667075571 0.55472404790 1.36974342206 -0.53436175968 0.55241340560 1.35262831972 -0.53281631139 0.55079604349 1.33606472592 -0.53195438401 0.54967727381 1.32004987110 -0.53169595069 0.54886240885 1.30458098569 -0.53196098462 0.54815676087 1.28965530012 -0.53266945895 0.54736564212 1.27527004484 -0.53374134686 0.54629436488 1.26142245027 -0.55345374416 0.57148432686 1.40180595687 -0.54927159436 0.56952776619 1.38561306070 -0.54604366133 0.56826646213 1.36956917277 -0.54369246014 0.56755611531 1.35373536040 -0.54214050586 0.56725242634 1.33817269090 -0.54131031355 0.56721109586 1.32294223160 -0.54112439828 0.56728782450 1.30810504980 -0.54150527511 0.56733831287 1.29372221284 -0.54237545911 0.56721826161 1.27985478802 -0.54365746535 0.56678337134 1.26656384267 -0.56220834046 0.58279580313 1.39942352440 -0.55768213078 0.58253182715 1.38477429047 -0.55420511655 0.58268349487 1.36998614351 -0.55170701322 0.58314616534 1.35516265378 -0.55011753622 0.58381519762 1.34040739153 -0.54936640101 0.58458595077 1.32582392701 -0.54938332303 0.58535378384 1.31151583048 -0.55009801772 0.58601405589 1.29758667218 -0.55144020052 0.58646212598 1.28414002238 -0.55333958689 0.58659335315 1.27127945132 -0.56995340436 0.59580077460 1.39830337286 -0.56491250930 0.59669243552 1.38477482526 -0.56106189585 0.59781126620 1.37092024666 -0.55834181886 0.59908283955 1.35686809323 -0.55669253320 0.60043272847 1.34274682116 -0.55605429369 0.60178650589 1.32868488661 -0.55636735521 0.60306974471 1.31481074577 -0.55757197259 0.60420801784 1.30125285481 -0.55960840070 0.60512689820 1.28813966991 -0.56241689438 0.60575195870 1.27559964725 -0.57647905301 0.61016166307 1.39825694187 -0.57082030364 0.61176718585 1.38549299853 -0.56652077371 0.61348589624 1.37229739461 -0.56353327704 0.61526542178 1.35880957214 -0.56181062749 0.61705339004 1.34516897316 -0.56130563888 0.61879742857 1.33151503969 -0.56197112506 0.62044516492 1.31798721376 -0.56375989987 0.62194422663 1.30472493740 -0.56662477714 0.62324224127 1.29186765264 -0.57051857072 0.62428683638 1.27955480151 -0.58157540355 0.62554089035 1.39909567107 -0.57526308753 0.62751367267 1.38680714372 -0.57048852460 0.62954350507 1.37404349975 -0.56721778770 0.63159319590 1.36094498389 -0.56541694981 0.63362555349 1.34765184090 -0.56505208387 0.63560338618 1.33430431552 -0.56608926285 0.63748950230 1.32104265250 -0.56849455969 0.63924671018 1.30800709661 -0.57223404737 0.64083781816 1.29533789257 -0.57727379882 0.64222563458 1.28317528515 -0.58503257312 0.64160087824 1.40063100009 -0.57809843469 0.64368949051 1.38859559431 -0.57287192300 0.64582021281 1.37608447447 -0.56933175081 0.64796544576 1.36323222186 -0.56745663088 0.65009758997 1.35017341773 -0.56722527596 0.65218904607 1.33704264338 -0.56861639881 0.65421221467 1.32397448008 -0.57160871220 0.65613949639 1.31110350910 -0.57618092887 0.65794329185 1.29856431172 -0.58231176159 0.65959600167 1.28649146922 -0.58664067887 0.65800404854 1.40267436857 -0.57918391884 0.66005223392 1.39073668374 -0.57357774339 0.66215213955 1.37834623117 -0.56981156631 0.66428145520 1.36562917942 -0.56787480140 0.66641787062 1.35271169703 -0.56775686243 0.66853907559 1.33971995255 -0.56944716321 0.67062275986 1.32678011454 -0.57293511752 0.67264661318 1.31401835153 -0.57821013916 0.67458832532 1.30156083209 -0.58526164192 0.67642558605 1.28953372475 -0.58618983794 0.67441282305 1.40503721614 -0.57837711371 0.67635949742 1.39310874546 -0.57251276025 0.67837540538 1.38075468223 -0.56859363417 0.68044050808 1.36809374996 -0.56661659208 0.68253476661 1.35524467216 -0.56657849059 0.68463814211 1.34232617232 -0.56847618629 0.68673059568 1.32945697396 -0.57230653581 0.68879208846 1.31675580058 -0.57806639575 0.69080258156 1.30434137569 -0.58575262272 0.69274203609 1.29233242280 -0.58347016748 0.69048962358 1.40753098244 -0.57553559302 0.69236887555 1.39559011294 -0.56958374806 0.69432613042 1.38323574005 -0.56561435435 0.69634188824 1.37058382687 -0.56362713365 0.69839664908 1.35775033648 -0.56362180772 0.70047091297 1.34485123196 -0.56559809832 0.70254517997 1.33200247641 -0.56955572720 0.70459995015 1.31932003291 -0.57549441614 0.70661572354 1.30691986455 -0.58341388689 0.70857300020 1.29491793440 -0.62049028709 0.56093232072 1.40641900240 -0.61867559054 0.55550155647 1.38749402103 -0.61715603961 0.55133212340 1.36936931700 -0.61578976016 0.54824581562 1.35200433878 -0.61443487806 0.54606442726 1.33535853488 -0.61294951920 0.54460975244 1.31939135380 -0.61119180945 0.54370358528 1.30406224403 -0.60901987468 0.54316771990 1.28933065407 -0.60629184077 0.54282395042 1.27515603241 -0.60286583360 0.54249407097 1.26149782755 -0.62536573997 0.57061272590 1.40271326956 -0.62371470626 0.56793127731 1.38588732208 -0.62232883126 0.56605680738 1.36943593024 -0.62107580459 0.56485928364 1.35337752721 -0.61982331584 0.56420867364 1.33773054615 -0.61843905460 0.56397494492 1.32251342023 -0.61679071047 0.56402806501 1.30774458261 -0.61474597304 0.56423800145 1.29344246646 -0.61217253191 0.56447472178 1.27962550495 -0.60893807668 0.56460819354 1.26631213124 -0.62973813398 0.58222462937 1.40045137645 -0.62811724362 0.58155457770 1.38521935874 -0.62677151706 0.58136164252 1.37005369360 -0.62558407142 0.58155333205 1.35501362577 -0.62443802383 0.58203715451 1.34015839999 -0.62321649141 0.58272061813 1.32554726099 -0.62180259129 0.58351123110 1.31123945351 -0.62007944059 0.58431650166 1.29729422230 -0.61793015644 0.58504393803 1.28377081208 -0.61523785596 0.58560104841 1.27072846760 -0.63346298759 0.59544409938 1.39944331760 -0.63176951910 0.59615753229 1.38536919692 -0.63039142129 0.59712377525 1.37115264776 -0.62923124368 0.59827855845 1.35687857686 -0.62819153575 0.59955761205 1.34263189094 -0.62717484704 0.60089666625 1.32849749674 -0.62608372704 0.60223145122 1.31456030100 -0.62482072527 0.60349769714 1.30090521046 -0.62328839123 0.60463113418 1.28761713183 -0.62138927444 0.60556749253 1.27478097187 -0.63639581926 0.60994720417 1.39949908756 -0.63455784917 0.61152621573 1.38621590255 -0.63309586828 0.61322035199 1.37266283343 -0.63193400441 0.61498556042 1.35893832287 -0.63099638534 0.61677778844 1.34514081355 -0.63020713889 0.61855298350 1.33136874814 -0.62949039284 0.62026709303 1.31772056934 -0.62877027499 0.62187606447 1.30429471980 -0.62797091315 0.62333584526 1.29118964223 -0.62701643511 0.62460238284 1.27850377928 -0.63839214748 0.62541001200 1.40042868085 -0.63636855027 0.62744670267 1.38763854155 -0.63479218232 0.62952851918 1.37451429131 -0.63360903666 0.63162493557 1.36115880621 -0.63276510632 0.63370542585 1.34767496236 -0.63220638435 0.63573946404 1.33416563585 -0.63187886379 0.63769652416 1.32073370277 -0.63172853768 0.63954608023 1.30748203922 -0.63170139906 0.64125760625 1.29451352129 -0.63174344097 0.64280057627 1.28193102508 -0.63930749070 0.64150859111 1.40204209200 -0.63708793889 0.64370506776 1.38951617983 -0.63538768772 0.64592542324 1.37663706209 -0.63417302346 0.64814728150 1.36350596929 -0.63341023241 0.65034826647 1.35022413193 -0.63306560083 0.65250600209 1.33689278051 -0.63310541502 0.65459811229 1.32361314556 -0.63349596125 0.65660222101 1.31048645757 -0.63420352582 0.65849595219 1.29761394705 -0.63519439499 0.66025692976 1.28509684451 -0.63899736742 0.65791900974 1.40414931555 -0.63660233149 0.66008738565 1.39172788332 -0.63478970878 0.66228821059 1.37896118648 -0.63354264787 0.66450319580 1.36594575449 -0.63284429733 0.66671405247 1.35277811678 -0.63267780573 0.66890249181 1.33955480280 -0.63302632164 0.67105022506 1.32637234197 -0.63387299364 0.67313896340 1.31332726373 -0.63520097030 0.67515041807 1.30051609753 -0.63699340019 0.67706630026 1.28803537281 -0.63731729609 0.67431733615 1.40656034604 -0.63479804452 0.67637973099 1.39415271792 -0.63290556982 0.67849402767 1.38141670518 -0.63163459293 0.68064327606 1.36844410423 -0.63097983482 0.68281052602 1.35532671149 -0.63093601645 0.68497882742 1.34215632335 -0.63149785878 0.68713123012 1.32902473625 -0.63266008277 0.68925078400 1.31602374658 -0.63441740937 0.69132053890 1.30324515077 -0.63676455956 0.69332354470 1.29078074522 -0.63412279519 0.69037963856 1.40908517799 -0.63156139446 0.69236817842 1.39666974957 -0.62964259512 0.69442002089 1.38393365889 -0.62836554167 0.69651811988 1.37096696091 -0.62772937859 0.69864542931 1.35785971057 -0.62773325039 0.70078490310 1.34470196284 -0.62837630154 0.70291949514 1.33158377266 -0.62965767655 0.70503215937 1.31859519499 -0.63157651990 0.70710584970 1.30582628477 -0.63413197608 0.70912352003 1.29336709697 -0.69605840483 0.55873204815 1.40579564142 -0.69570122831 0.55276949985 1.38681594838 -0.69520504780 0.54812558249 1.36868911900 -0.69436085250 0.54464053832 1.35137676193 -0.69295963160 0.54215460957 1.33484048578 -0.69079237429 0.54050803848 1.31904189921 -0.68765006978 0.53954106731 1.30394261084 -0.68332370727 0.53909393829 1.28950422930 -0.67760427594 0.53900689366 1.27568836324 -0.67028276499 0.53912017567 1.26245662128 -0.69704320484 0.56915262376 1.40225901681 -0.69721246051 0.56610539175 1.38539836882 -0.69713057496 0.56391711271 1.36896214309 -0.69660778670 0.56246915110 1.35296611567 -0.69545433425 0.56164287135 1.33742606263 -0.69348045611 0.56131963791 1.32235776002 -0.69049639080 0.56138081523 1.30777698388 -0.68631237681 0.56170776774 1.29369951027 -0.68073865266 0.56218185989 1.28014111525 -0.67358545686 0.56268445613 1.26711757487 -0.69759094753 0.58133268469 1.40013087912 -0.69825491843 0.58042692567 1.38487861131 -0.69857142183 0.58004280603 1.36973726000 -0.69837622621 0.58009409858 1.35476071710 -0.69750510003 0.58049457608 1.34000287453 -0.69579381179 0.58115801132 1.32551762419 -0.69307812995 0.58199817710 1.31135885800 -0.68919382299 0.58292884620 1.29758046787 -0.68397665939 0.58386379139 1.28423634571 -0.67726240762 0.58471678547 1.27138038343 -0.69765923131 0.59497066597 1.39922592940 -0.69877814194 0.59554689295 1.38514135971 -0.69946839471 0.59641164073 1.37095181648 -0.69959528922 0.59750339518 1.35673585948 -0.69902412511 0.59876064222 1.34257204848 -0.69762020199 0.60012186774 1.32853894322 -0.69524881948 0.60152555763 1.31471510346 -0.69177527721 0.60291019778 1.30117908898 -0.68706487479 0.60421427409 1.28800945953 -0.68098291185 0.60537627247 1.27528477486 -0.69720565463 0.60976500267 1.39935886870 -0.69873167092 0.61127808495 1.38607129787 -0.69976229988 0.61293259504 1.37254315929 -0.70019409396 0.61468505535 1.35886683612 -0.69992360564 0.61649198826 1.34513471150 -0.69884738738 0.61830991618 1.33143916858 -0.69686199163 0.62009536150 1.31787259052 -0.69386397086 0.62180484662 1.30452736047 -0.68974987754 0.62339489394 1.29149586159 -0.68441626412 0.62482202585 1.27887047702 -0.69618781593 0.62541412982 1.40034439805 -0.69806504523 0.62743329299 1.38755310966 -0.69939394362 0.62951464725 1.37444863519 -0.70010175864 0.63162709350 1.36112894029 -0.70011573780 0.63373953267 1.34769199060 -0.69936312862 0.63582086567 1.33423575177 -0.69777117864 0.63783999342 1.32085818942 -0.69526713536 0.63976581685 1.30765726922 -0.69177824632 0.64156723686 1.29473095680 -0.68723175902 0.64321315438 1.28217721779 -0.69456331365 0.64161648247 1.40199721850 -0.69672780473 0.64382530843 1.38947147892 -0.69830413223 0.64606677560 1.37660559092 -0.69924740146 0.64831752407 1.36349746529 -0.69951271774 0.65055419392 1.35024501281 -0.69905518639 0.65275342523 1.33694614427 -0.69782991274 0.65489185809 1.32369877043 -0.69579200210 0.65694613259 1.31060080210 -0.69289655979 0.65889288880 1.29775015005 -0.68909869114 0.66070876681 1.28524472506 -0.69228974621 0.65807049567 1.40413203110 -0.69466948930 0.66026692260 1.39171108951 -0.69643367198 0.66249795837 1.37895137324 -0.69756014063 0.66474436149 1.36594770441 -0.69802674163 0.66698689049 1.35279490514 -0.69781132135 0.66920630390 1.33958779756 -0.69689172617 0.67138336022 1.32642120380 -0.69524580247 0.67349881797 1.31338994599 -0.69285139664 0.67553343569 1.30058884624 -0.68968635504 0.67746797188 1.28811272670 -0.68932471207 0.67447460448 1.40656353689 -0.69183963881 0.67657092684 1.39415662530 -0.69372336917 0.67871717379 1.38142332890 -0.69496909437 0.68089562019 1.36845495093 -0.69557000563 0.68308854087 1.35534279460 -0.69551929416 0.68527821068 1.34217816314 -0.69481015117 0.68744690449 1.32905235979 -0.69343576789 0.68957689714 1.31605668776 -0.69138933553 0.69165046347 1.30328245028 -0.68866404531 0.69364987834 1.29082095058 -0.68562580965 0.69052724392 1.40910643691 -0.68818779312 0.69255011250 1.39669277013 -0.69011403008 0.69463340015 1.38395880466 -0.69140338089 0.69675931459 1.37099449814 -0.69205470591 0.69891006351 1.35788980820 -0.69206686548 0.70106785462 1.34473469249 -0.69143871998 0.70321489561 1.33161910864 -0.69016912975 0.70533339420 1.31863301428 -0.68825695514 0.70740555808 1.30586636705 -0.68570105652 0.70941359495 1.29340912459 -0.76821392515 0.55533272745 1.40371436994 -0.76944332075 0.54948166491 1.38533056850 -0.77006399042 0.54487255912 1.36766422662 -0.76979902286 0.54137229443 1.35071992536 -0.76837150678 0.53884775517 1.33450224578 -0.76550453086 0.53716582569 1.31901576895 -0.76092118381 0.53619339033 1.30426507594 -0.75434455432 0.53579733344 1.29025474781 -0.74549773109 0.53584453935 1.27698936563 -0.73410380281 0.53620189241 1.26447351047 -0.76584512871 0.56691059204 1.40040408155 -0.76806694150 0.56387689680 1.38411251337 -0.76946249401 0.56168488837 1.36812224874 -0.76978690196 0.56022837759 1.35248658824 -0.76879528106 0.55940117531 1.33725883245 -0.76624274700 0.55909709234 1.32249228193 -0.76188441551 0.55920993954 1.30824023727 -0.75547540230 0.55963352774 1.29455599903 -0.74677082306 0.56026166776 1.28149286779 -0.73552579352 0.56098817046 1.26910414413 -0.76304281178 0.57998729762 1.39843516698 -0.76628795338 0.57903167694 1.38372917488 -0.76848973133 0.57861835293 1.36902056011 -0.76944060242 0.57866370498 1.35439661384 -0.76893302344 0.57908411245 1.33994462727 -0.76675945119 0.57979595472 1.32575189159 -0.76271234247 0.58071561118 1.31190569799 -0.75658415408 0.58175946119 1.29849333765 -0.74816734279 0.58284388413 1.28560210177 -0.73725436542 0.58388525939 1.27331928153 -0.75986644269 0.59429424538 1.39763362209 -0.76412610668 0.59478561445 1.38407629628 -0.76713256671 0.59560647990 1.37030768921 -0.76871850469 0.59669173391 1.35643676759 -0.76871660257 0.59797626864 1.34257249819 -0.76695954226 0.59939497627 1.32882384772 -0.76328000569 0.60088274897 1.31529978292 -0.75751067478 0.60237447890 1.30210927054 -0.74948423148 0.60380505825 1.28936127729 -0.73903335769 0.60510937916 1.27716476993 -0.75637548978 0.60956283652 1.39782544274 -0.76160115168 0.61097831843 1.38504962080 -0.76537786449 0.61258279636 1.37193216453 -0.76757898926 0.61432592172 1.35859381496 -0.76807788708 0.61615734594 1.34515531313 -0.76674791902 0.61802672045 1.33173740010 -0.76346244615 0.61988369666 1.31846081689 -0.75809482956 0.62167792600 1.30544630455 -0.75051843030 0.62335905989 1.29281460412 -0.74060660947 0.62487674975 1.28068645664 -0.75262942138 0.62552447225 1.39883662477 -0.75873283868 0.62744939801 1.38654489167 -0.76321248901 0.62948082940 1.37384251456 -0.76598043659 0.63157972575 1.36085452138 -0.76694874562 0.63370704640 1.34770594005 -0.76602948031 0.63582375069 1.33452179852 -0.76313470487 0.63789079797 1.32142712471 -0.75817648352 0.63986914758 1.30854694655 -0.75106688047 0.64171975885 1.29600629198 -0.74171795992 0.64340359112 1.28393018892 -0.74868770584 0.64191055374 1.40049316404 -0.75554091796 0.64403846229 1.38845785212 -0.76062330463 0.64623410610 1.37598726779 -0.76388122715 0.64846660332 1.36320565230 -0.76526104682 0.65070507206 1.35023724689 -0.76470912495 0.65291863046 1.33720629277 -0.76217182285 0.65507639665 1.32423703120 -0.75759550181 0.65714748876 1.31145370340 -0.75092652316 0.65910102491 1.29898055061 -0.74211124818 0.66090612325 1.28694181408 -0.74460981149 0.65845248220 1.40262105639 -0.75204513981 0.66058512037 1.39068424538 -0.75759717567 0.66277615357 1.37831495272 -0.76123974140 0.66500001177 1.36563397319 -0.76294665932 0.66723112498 1.35276210157 -0.76269175177 0.66944392320 1.33982013264 -0.76044884107 0.67161283642 1.32692886118 -0.75619174957 0.67371229465 1.31420908196 -0.74989429957 0.67571672788 1.30178158977 -0.74153031343 0.67760056610 1.28976717938 -0.74045520667 0.67488165883 1.40504629768 -0.74826525452 0.67692898139 1.39311981469 -0.75412096649 0.67904049887 1.38077409783 -0.75801435982 0.68119340843 1.36812624948 -0.75993745177 0.68336490721 1.35529337205 -0.75988225960 0.68553219236 1.34239256791 -0.75784080056 0.68767246103 1.32954093946 -0.75380509191 0.68976291037 1.31685558909 -0.74776715091 0.69178073752 1.30445361918 -0.73971899480 0.69370313964 1.29245213212 -0.73628335972 0.69092948481 1.40759488376 -0.74422101238 0.69290965443 1.39566030328 -0.75018154141 0.69496066911 1.38331323160 -0.75416346287 0.69706025064 1.37066924663 -0.75616529280 0.69918612080 1.35784392626 -0.75618554726 0.70131600140 1.34495284837 -0.75422274230 0.70342761421 1.33211159087 -0.75027539398 0.70549868103 1.31943573165 -0.74434201835 0.70750692365 1.30704084859 -0.73642113146 0.70943006385 1.29504251959 -0.83456692167 0.55046397977 1.40012041019 -0.83844494898 0.54539322828 1.38298986537 -0.84097907757 0.54134118721 1.36625603839 -0.84182825738 0.53821580468 1.35000816528 -0.84065143836 0.53592502884 1.33433548204 -0.83710757046 0.53437680781 1.31932722467 -0.83085560361 0.53347908974 1.30507262918 -0.82155448776 0.53313982276 1.29166093159 -0.80886317285 0.53326695500 1.27918136790 -0.79244060883 0.53376843459 1.26772317412 -0.82913050152 0.56369320230 1.39710934667 -0.83458023362 0.56107257974 1.38199606819 -0.83833819004 0.55919764458 1.36689068465 -0.84011164587 0.55797962305 1.35192440738 -0.83960787621 0.55732974135 1.33722844770 -0.83653415618 0.55715922569 1.32293401694 -0.83059776087 0.55737930231 1.30917232643 -0.82150596538 0.55790119740 1.29607458749 -0.80896604481 0.55863613720 1.28377201145 -0.79268527427 0.55949534790 1.27239580964 -0.82336975743 0.57805579668 1.39533737457 -0.83040914666 0.57725163739 1.38174817617 -0.83541134602 0.57697965073 1.36788731134 -0.83813432489 0.57715739131 1.35391400207 -0.83833605265 0.57770241376 1.33998747035 -0.83577449867 0.57853227267 1.32626693817 -0.83020763234 0.57956452266 1.31291162751 -0.82139342302 0.58071671834 1.30008076037 -0.80908984010 0.58190641432 1.28793355874 -0.79305485295 0.58305116521 1.27662924461 -0.81740892888 0.59332860859 1.39464880951 -0.82600114216 0.59379879368 1.38215898932 -0.83222368791 0.59463991004 1.36921020233 -0.83588543927 0.59577795876 1.35597812767 -0.83679526944 0.59713894098 1.34263844448 -0.83476205156 0.59864885779 1.32936683193 -0.82959465882 0.60023371032 1.31633896914 -0.82110196438 0.60181949966 1.30373053526 -0.80909284141 0.60333222695 1.29171720944 -0.79337616308 0.60469789327 1.28047467082 -0.81137225533 0.60928848372 1.39488796715 -0.82142567423 0.61058244109 1.38314130767 -0.82880035811 0.61213112691 1.37082364145 -0.83335413385 0.61387017468 1.35811796245 -0.83494482834 0.61573521792 1.34520726459 -0.83343026847 0.61766189013 1.33227454180 -0.82866828110 0.61958582482 1.31950278802 -0.82051669313 0.62144265550 1.30707499718 -0.80883333143 0.62316801567 1.29517416321 -0.79347602288 0.62469753885 1.28398328006 -0.80538397627 0.62571226774 1.39589916313 -0.81675219692 0.62747097207 1.38460793121 -0.82516649901 0.62940600574 1.37269191257 -0.83052955344 0.63146288836 1.36033468471 -0.83274403113 0.63358713950 1.34771982514 -0.83171260301 0.63572427875 1.33503091135 -0.82733793997 0.63781982571 1.32245152085 -0.81952271294 0.63981929996 1.31016523114 -0.80816959283 0.64166822108 1.29835561973 -0.79318125055 0.64331210868 1.28720626412 -0.79956833116 0.64237680634 1.39752671307 -0.81205016433 0.64433277908 1.38647165997 -0.82134725301 0.64641725094 1.37477929953 -0.82740084287 0.64858494907 1.36262947276 -0.83015217958 0.65079060062 1.35020202063 -0.82954250880 0.65298893272 1.33767678416 -0.82551307622 0.65513467251 1.32523360435 -0.81800512749 0.65718254715 1.31305232218 -0.80695990830 0.65908728377 1.30131277866 -0.79231866431 0.66080360952 1.29019481478 -0.79404955948 0.65905894519 1.39961493262 -0.80738903054 0.66103625458 1.38864529396 -0.81736776252 0.66311756690 1.37705008619 -0.82395714697 0.66526520611 1.36500350487 -0.82712857544 0.66744149619 1.35267974555 -0.82685343948 0.66960876109 1.34025300381 -0.82310313064 0.67172932477 1.32789747521 -0.81584904047 0.67376551119 1.31578735530 -0.80506256052 0.67567964432 1.30409683966 -0.79071508235 0.67743404812 1.29300012384 -0.78895190070 0.67553552998 1.40200813741 -0.80283824962 0.67744979103 1.39104163319 -0.81325316992 0.67945965801 1.37946855639 -0.82018761056 0.68153250877 1.36745795934 -0.82363252049 0.68363572113 1.35517889439 -0.82357884866 0.68573667293 1.34280041388 -0.82001754403 0.68780274200 1.33049157015 -0.81293955555 0.68980130619 1.31842141555 -0.80233583219 0.69169974333 1.30675900241 -0.78819732288 0.69346543124 1.29567338308 -0.78439959429 0.69158340638 1.40455064310 -0.79846727565 0.69344178089 1.39357347769 -0.80902861762 0.69539622868 1.38199899398 -0.81608137847 0.69741570631 1.36999401447 -0.81962331649 0.69946917034 1.35772536163 -0.81965218996 0.70152557730 1.34535985793 -0.81616575718 0.70355388376 1.33306432587 -0.80916177642 0.70552304626 1.32100558792 -0.79863800597 0.70740202137 1.30935046657 -0.78459220413 0.70915976563 1.29826578429 -0.89272746800 0.54385542629 1.39495898441 -0.90124919415 0.54025936662 1.37974582293 -0.90719651939 0.53729960069 1.36442595287 -0.91017254222 0.53494578982 1.34921581790 -0.90978036114 0.53316759534 1.33433186172 -0.90562307466 0.53193467861 1.31999052799 -0.89730378128 0.53121670093 1.30640826040 -0.88442557952 0.53098332366 1.29380150262 -0.86659156787 0.53120420812 1.28238669835 -0.84340484484 0.53184901565 1.27238029125 -0.88425831320 0.55930702613 1.39233569509 -0.89505442126 0.55751922787 1.37901534573 -0.90277126463 0.55629289159 1.36524188824 -0.90708051391 0.55556554738 1.35126503552 -0.90765383969 0.55527472531 1.33733450048 -0.90416291255 0.55535795546 1.32369999601 -0.89627940310 0.55575276790 1.31061123502 -0.88367498192 0.55639669272 1.29831793041 -0.86602131960 0.55722725999 1.28706979510 -0.84299008674 0.55818199980 1.27711654197 -0.87584781516 0.57540551041 1.39081063643 -0.88881129642 0.57496961289 1.37891274187 -0.89822116635 0.57501806694 1.36632123111 -0.90381451846 0.57547039765 1.35330556787 -0.90532844626 0.57624613014 1.34013521589 -0.90250004328 0.57726478951 1.32707963890 -0.89506640302 0.57844590088 1.31440830062 -0.88276461900 0.57970898934 1.30239066479 -0.86533178475 0.58097358000 1.29129619514 -0.84250499376 0.58215919798 1.28139435539 -0.86761099703 0.59198752661 1.39025390550 -0.88259097725 0.59251152758 1.37937442150 -0.89358150893 0.59344354841 1.36764929223 -0.90038064215 0.59469645390 1.35535676617 -0.90278642702 0.59618310890 1.34277509178 -0.90059691363 0.59781637823 1.33018251753 -0.89361015205 0.59950912672 1.31785729188 -0.88162419238 0.60117421920 1.30607766330 -0.86443708471 0.60272452050 1.29512188026 -0.84184687913 0.60407289545 1.28526819123 -0.85966288195 0.60888972223 1.39053559940 -0.87646462132 0.61004597783 1.38033679479 -0.88888757672 0.61153775767 1.36921138241 -0.89678497128 0.61327982939 1.35743798166 -0.90001002812 0.61518696065 1.34529521198 -0.89841597038 0.61717391907 1.33306169277 -0.89185602117 0.61915547232 1.32101604347 -0.88018340364 0.62104638804 1.30943688350 -0.86325134090 0.62276143386 1.29860283227 -0.84091305609 0.62421537745 1.28879250920 -0.85211849306 0.62594874476 1.39152581522 -0.87050338624 0.62747396953 1.38173627191 -0.88417465412 0.62926911642 1.37099281239 -0.89303359213 0.63125663740 1.35956856555 -0.89698149572 0.63335898444 1.34773666029 -0.89591966033 0.63549860949 1.33577022550 -0.88974938140 0.63759796454 1.32394239008 -0.87837195438 0.63957950153 1.31252628293 -0.86168867472 0.64136567244 1.30179503294 -0.83960083786 0.64287892924 1.29202176902 -0.84509285349 0.64300124169 1.39309465004 -0.86477842961 0.64469650855 1.38350926303 -0.87947802549 0.64660604632 1.37297889298 -0.88913259099 0.64866299118 1.36176786908 -0.89368307596 0.65080047933 1.35014052055 -0.89307043026 0.65295164696 1.33836117658 -0.88723560373 0.65504963025 1.32669416637 -0.87611954622 0.65702756540 1.31540381914 -0.85966320758 0.65881858861 1.30475446408 -0.83780753768 0.66035583605 1.29501043039 -0.83870098641 0.65988386051 1.39511220096 -0.85936090901 0.66161460081 1.38559217831 -0.87483297521 0.66351696907 1.37515493493 -0.88508805416 0.66553500402 1.36405524347 -0.89009701502 0.66761274439 1.35254787657 -0.88983072697 0.66969422892 1.34088760688 -0.88426005915 0.67172349633 1.32932920703 -0.87335588074 0.67364458535 1.31812744968 -0.85708906089 0.67540153472 1.30753710747 -0.83543046878 0.67693838315 1.29781295304 -0.83305791494 0.67643324872 1.39744856508 -0.85432198205 0.67812925217 1.38792142792 -0.87027478765 0.67997030633 1.37750624903 -0.88090606791 0.68190878917 1.36645003994 -0.88620555904 0.68389707868 1.35499981218 -0.88616299723 0.68588755285 1.34340257727 -0.88076811867 0.68783258965 1.33190534673 -0.87001065955 0.68968456709 1.32075513211 -0.85388035606 0.69139586313 1.31019894491 -0.83236694440 0.69291885578 1.30048379667 -0.82827866222 0.69248605380 1.39997383947 -0.84973280632 0.69414146855 1.39043342202 -0.86583874718 0.69593447979 1.38001814605 -0.87659271855 0.69782045991 1.36897160972 -0.88199095419 0.69975478125 1.35753741119 -0.88202968785 0.70169281619 1.34595914862 -0.87670515328 0.70358993709 1.33448042015 -0.86601358424 0.70540151631 1.32334482396 -0.84995121448 0.70708292622 1.31279595819 -0.82851427776 0.70858953918 1.30307742100 -0.94030563776 0.53523668817 1.38817531482 -0.95639913740 0.53383525657 1.37555042515 -0.96796252600 0.53251593349 1.36213536858 -0.97455586351 0.53133697057 1.34831721943 -0.97573920987 0.53035661946 1.33448305199 -0.97107262503 0.52963313182 1.32101994055 -0.96011616893 0.52922475930 1.30831495942 -0.94242990153 0.52918975356 1.29675518290 -0.91757388277 0.52958636623 1.28672768528 -0.88510817260 0.53047284899 1.27861954087 -0.92858755369 0.55355863511 1.38604400972 -0.94779158880 0.55304362847 1.37513665846 -0.96177531941 0.55280813963 1.36315029697 -0.97019200159 0.55282881051 1.35049393514 -0.97269489144 0.55308228303 1.33757658288 -0.96893724503 0.55354519912 1.32480725010 -0.95857231846 0.55419420069 1.31259494669 -0.94125336780 0.55500592967 1.30134868256 -0.91663364914 0.55595702797 1.29147746760 -0.88436641856 0.55702413751 1.28339031172 -0.91775301566 0.57190376732 1.38482808712 -0.93968720087 0.57206840933 1.37519999869 -0.95580409280 0.57262496908 1.36430603681 -0.96583830797 0.57349796406 1.35256399731 -0.96952446289 0.57461191174 1.34039167602 -0.96659717406 0.57589132961 1.32820686876 -0.95679105799 0.57726073517 1.31642737136 -0.93984073119 0.57864464588 1.30547097965 -0.91548081017 0.57996757925 1.29575548945 -0.88344591143 0.58115405276 1.28769869660 -0.90779695430 0.59018477042 1.38443132389 -0.93208334078 0.59084891307 1.37570757548 -0.95004578038 0.59194901227 1.36561489532 -0.96148866252 0.59338160347 1.35456950960 -0.96621637664 0.59504322207 1.34298764449 -0.96403331216 0.59683040352 1.33128552620 -0.95474385852 0.59863968325 1.31987938091 -0.93815240515 0.60036759667 1.30918543480 -0.91406334148 0.60191067923 1.29961991407 -0.88228105694 0.60316546635 1.29159904489 -0.89871430027 0.60831433002 1.38475749694 -0.92497737574 0.60932445357 1.37662651850 -0.94449731633 0.61076285962 1.36708917971 -0.95713694510 0.61251690100 1.35655257565 -0.96275908511 0.61447393055 1.34542380143 -0.96122655941 0.61652130109 1.33410995213 -0.95240219108 0.61854636547 1.32301812284 -0.93614880315 0.62043647651 1.31255540866 -0.91232921871 0.62207898704 1.30312890467 -0.88080626080 0.62336124989 1.29514570598 -0.89049998419 0.62620513175 1.38571038315 -0.91836667293 0.62743434474 1.37792395740 -0.93915563486 0.62904910154 1.36874119718 -0.95277703559 0.63094102892 1.35855529914 -0.95914104073 0.63300175367 1.34775945993 -0.95815781588 0.63512290255 1.33674687621 -0.94973752665 0.63719610235 1.32591074463 -0.93379033864 0.63911297984 1.31564426184 -0.91022641747 0.64076516180 1.30634062451 -0.87895592873 0.64204427500 1.29839302927 -0.88314893673 0.64376986121 1.38719375941 -0.91224859954 0.64511790047 1.37956702184 -0.93401767015 0.64679032845 1.37058325494 -0.94840281385 0.64869115949 1.36061978371 -0.95535069592 0.65072440794 1.35005393312 -0.95480798162 0.65279408813 1.33926302814 -0.94672133625 0.65480421442 1.32862439378 -0.93103742508 0.65665880115 1.31851535500 -0.90770291339 0.65826186266 1.30931323679 -0.87666446646 0.65951741330 1.30139536413 -0.87665608851 0.66092120403 1.38911140262 -0.90662052276 0.66231443467 1.38152284147 -0.92908035641 0.66396913078 1.37262766021 -0.94400815976 0.66580446497 1.36278813302 -0.95137650310 0.66773960986 1.35236653409 -0.95115795671 0.66969373807 1.34172513761 -0.94332509089 0.67158602221 1.33122621777 -0.92785047592 0.67333563490 1.32123204875 -0.90470668209 0.67486174875 1.31210490475 -0.87386627970 0.67608353638 1.30420705995 -0.87101637019 0.67757184582 1.39136708967 -0.90147980977 0.67896326123 1.38375854596 -0.92434062782 0.68056809894 1.37488672018 -0.93958695318 0.68231811762 1.36510245072 -0.94720691469 0.68414507594 1.35475657596 -0.94718864120 0.68598073259 1.34419993429 -0.93952026156 0.68775684623 1.33378336409 -0.92418990461 0.68940517554 1.32385770374 -0.90118569920 0.69085747920 1.31477379163 -0.87049577418 0.69204551587 1.30688246613 -0.86622471240 0.69363447221 1.39386459745 -0.89682382778 0.69500369406 1.38624126495 -0.91979541859 0.69656982335 1.37737274206 -0.93513307398 0.69826928970 1.36760484047 -0.94283038312 0.70003852269 1.35728337185 -0.94288093517 0.70181395193 1.34675414788 -0.93527831929 0.70353200703 1.33636298024 -0.92001612462 0.70512911756 1.32645568060 -0.89708794034 0.70654171315 1.31737806064 -0.86648735561 0.70770622339 1.30947593205 </DataArray>
</Points>
</Piece>
</StructuredGrid>
</VTKFile>
