<?xml version="1.0"?>
<VTKFile type="StructuredGrid" version="0.1">
<StructuredGrid WholeExtent="0 9 0 9 0 9">
<Piece Extent="0 9 0 9 0 9">
<PointData>
<DataArray type="Float32" Name="Deformation" format="ascii" NumberOfComponents="3">
0.00528614383 -0.64628223325 0.45945501725 0.00531384444 -0.64129471832 0.46150941657 0.00536344389 -0.63536484294 0.46391776944 0.00542893810 -0.62873638936 0.46658199430 0.00550432296 -0.62165313984 0.46940400959 0.00558359437 -0.61435887664 0.47228573377 0.00566074822 -0.60709738203 0.47512908526 0.00572978042 -0.60011243824 0.47783598251 0.00578468686 -0.59364782756 0.48030834397 0.00581946344 -0.58794733223 0.48244808808 0.00541371885 -0.65059207749 0.47014995506 0.00544693569 -0.64560338605 0.47222367190 0.00550117962 -0.63968997282 0.47463857167 0.00557065867 -0.63308977819 0.47729935496 0.00564958090 -0.62604074258 0.48011072236 0.00573215435 -0.61878080638 0.48297737444 0.00581258705 -0.61154790998 0.48580401179 0.00588508706 -0.60457999380 0.48849533498 0.00594386242 -0.59811499821 0.49095604461 0.00598312118 -0.59239086364 0.49309084125 0.00554109906 -0.65458454303 0.48050549889 0.00557947950 -0.64959612026 0.48261175800 0.00563738185 -0.64372674347 0.48503285484 0.00570940700 -0.63720075043 0.48767925254 0.00579015588 -0.63024247890 0.49046141424 0.00587422939 -0.62307626665 0.49328980308 0.00595622844 -0.61592645143 0.49607488219 0.00603075395 -0.60901737101 0.49872711472 0.00609240682 -0.60257336315 0.50115696379 0.00613578797 -0.59681876562 0.50327489256 0.00566677345 -0.65819983767 0.49042676642 0.00570999896 -0.65323479001 0.49258689886 0.00577074574 -0.64744663748 0.49502252857 0.00584413001 -0.64104155185 0.49765160564 0.00592526800 -0.63422570491 0.50039208014 0.00600927593 -0.62720526844 0.50316190215 0.00609127001 -0.62018641422 0.50587902174 0.00616636647 -0.61337531405 0.50846138898 0.00622968153 -0.60697813970 0.51082695396 0.00627633142 -0.60120106296 0.51289366675 0.00578923103 -0.66137816924 0.49981887533 0.00583701715 -0.65648126439 0.50206231843 0.00589996645 -0.65082113742 0.50452950250 0.00597377462 -0.64458442823 0.50714633290 0.00605413736 -0.63795777670 0.50983871499 0.00613675037 -0.63112782275 0.51253255413 0.00621730936 -0.62428120625 0.51515375570 0.00629151001 -0.61760456710 0.51762822504 0.00635504804 -0.61128454521 0.51988186754 0.00640361915 -0.60550778045 0.52184058854 0.00590696079 -0.66405974555 0.50858694330 0.00595905717 -0.65929741245 0.51095124070 0.00602373913 -0.65382172587 0.51347568625 0.00609728773 -0.64780162535 0.51609335292 0.00617598405 -0.64140605040 0.51873731368 0.00625610914 -0.63480394057 0.52134064150 0.00633394410 -0.62816423537 0.52383640933 0.00640576997 -0.62165587433 0.52615769016 0.00646786783 -0.61544779699 0.52823755695 0.00651651876 -0.60970894288 0.53000908266 0.00601845173 -0.66618477441 0.51663608800 0.00607464211 -0.66164510326 0.51916688962 0.00614075893 -0.65641988541 0.52178298945 0.00621361627 -0.65066538899 0.52442258434 0.00629002816 -0.64453788211 0.52702387114 0.00636680866 -0.63819363289 0.52952504671 0.00644077183 -0.63178890945 0.53186430792 0.00650873172 -0.62547997992 0.53397985160 0.00656750238 -0.61942311240 0.53580987463 0.00661389786 -0.61377457502 0.53729257385 0.00612219285 -0.66769346364 0.52387142710 0.00618229504 -0.66348620589 0.52662248917 0.00624972101 -0.65858709862 0.52937332173 0.00632170714 -0.65314796494 0.53206394576 0.00639548979 -0.64732062793 0.53463438227 0.00646830535 -0.64125691071 0.53702465226 0.00653739018 -0.63510863637 0.53917477671 0.00659998066 -0.62902762802 0.54102477663 0.00665331317 -0.62316570876 0.54251467300 0.00669462407 -0.61767470168 0.54358448683 0.00621667314 -0.66852602106 0.53019807829 0.00628053906 -0.66478258942 0.53323126332 0.00634932052 -0.66029484809 0.53616859271 0.00642050726 -0.65522159897 0.53894735582 0.00649158904 -0.64972164398 0.54150484200 0.00656005561 -0.64395378502 0.54377834060 0.00662339674 -0.63807682400 0.54570514098 0.00667910218 -0.63224956283 0.54722253250 0.00672466168 -0.62663080340 0.54826780449 0.00675756500 -0.62137934763 0.54877824633 0.00630038160 -0.66862265448 0.53552115923 0.00636789727 -0.66549612290 0.53890643603 0.00643825260 -0.66151461637 0.54209071202 0.00650896354 -0.65685853687 0.54500273312 0.00657754599 -0.65170828637 0.54757124522 0.00664151588 -0.64624426682 0.54972499422 0.00669838913 -0.64064688021 0.55139272600 0.00674568166 -0.63509652850 0.55250318648 0.00678090939 -0.62977361366 0.55298512154 0.00680158825 -0.62485853767 0.55276727708 0.00527708713 -0.65014280828 0.45784654640 0.00532060080 -0.64375165784 0.46041200236 0.00537684734 -0.63669875634 0.46322930875 0.00544239304 -0.62915580881 0.46622927788 0.00551380420 -0.62129452026 0.46934272210 0.00558764711 -0.61328659568 0.47250045373 0.00566048805 -0.60530374010 0.47563328509 0.00572889332 -0.59751765852 0.47867202851 0.00578942921 -0.59010005595 0.48154749632 0.00583866201 -0.58322263740 0.48419050085 0.00539901070 -0.65446049694 0.46851910335 0.00544827797 -0.64807657135 0.47111229142 0.00551015458 -0.64104067109 0.47394558754 0.00558118879 -0.63352064960 0.47695152089 0.00565792883 -0.62568436032 0.48006262064 0.00573692294 -0.61769965667 0.48321141595 0.00581471937 -0.60973439209 0.48633043600 0.00588786634 -0.60195642001 0.48935220994 0.00595291211 -0.59453359386 0.49220926696 0.00600640491 -0.58763376709 0.49483413620 0.00552141446 -0.65847284249 0.47886919210 0.00557614342 -0.65212132882 0.48152670234 0.00564283567 -0.64514189656 0.48439529409 0.00571814161 -0.63769324519 0.48741129091 0.00579871159 -0.62993407418 0.49051101636 0.00588119600 -0.62202308301 0.49363079400 0.00596224521 -0.61411897115 0.49670694738 0.00603850960 -0.60638043807 0.49967580007 0.00610663954 -0.59896618326 0.50247367562 0.00616328542 -0.59203490618 0.50503689759 0.00564336847 -0.66209205264 0.48883030774 0.00570329499 -0.65582451839 0.49159485987 0.00577407776 -0.64895782725 0.49452383546 0.00585255477 -0.64163869682 0.49755845349 0.00593556404 -0.63401384471 0.50063993294 0.00601994356 -0.62622998851 0.50370949280 0.00610253136 -0.61843384582 0.50670835206 0.00618016543 -0.61077213425 0.50957772969 0.00624968379 -0.60339157139 0.51225884468 0.00630792443 -0.59643887484 0.51469291601 0.00576394283 -0.66523033511 0.49833594534 0.00582883053 -0.65912472819 0.50125638874 0.00590306796 -0.65244385764 0.50427661870 0.00598373154 -0.64532210574 0.50734287416 0.00606789773 -0.63789385475 0.51040139405 0.00615264294 -0.63029348696 0.51339841729 0.00623504362 -0.62265538464 0.51628018283 0.00631217619 -0.61511393006 0.51899292958 0.00638111711 -0.60780350549 0.52148289649 0.00643894279 -0.60085849322 0.52369632247 0.00588220762 -0.66779989764 0.50731960000 0.00595184787 -0.66196054638 0.51045091367 0.00602899341 -0.65555538224 0.51359905087 0.00611097520 -0.64870857318 0.51671441847 0.00619512421 -0.64154428717 0.51974742335 0.00627877141 -0.63418669217 0.52264847241 0.00635924776 -0.62675995614 0.52536797251 0.00643388423 -0.61938824704 0.52785633055 0.00650001179 -0.61219573283 0.53006395340 0.00655496141 -0.60530658148 0.53194124795 0.00599723292 -0.66971294795 0.51571476678 0.00607144486 -0.66427056109 0.51911805941 0.00615104125 -0.65824779553 0.52243653903 0.00623358901 -0.65176320040 0.52562295196 0.00631665504 -0.64493532482 0.52863004454 0.00639780626 -0.63788271794 0.53141056308 0.00647460957 -0.63072392886 0.53391725392 0.00654463188 -0.62357750672 0.53610286338 0.00660544010 -0.61656200065 0.53792013779 0.00665460114 -0.60979595977 0.53932182347 0.00610808882 -0.67088169375 0.52345494078 0.00618671933 -0.66599336046 0.52719745068 0.00626839861 -0.66047649201 0.53073449022 0.00635087624 -0.65445108863 0.53401834017 0.00643190177 -0.64803715056 0.53700128127 0.00650922478 -0.64135467805 0.53963559425 0.00658059483 -0.63452367132 0.54187355987 0.00664376149 -0.62766413063 0.54366745887 0.00669647431 -0.62089605619 0.54496957200 0.00673648288 -0.61433944826 0.54573218000 0.00621384540 -0.67121834277 0.53047361708 0.00629676911 -0.66706753264 0.53462871221 0.00638025262 -0.66219686617 0.53843831152 0.00646214015 -0.65673733912 0.54185044865 0.00654027595 -0.65081994725 0.54481315722 0.00661250427 -0.64457568631 0.54727447085 0.00667666934 -0.63813555207 0.54918242317 0.00673061541 -0.63163054029 0.55048504781 0.00677218671 -0.62519164671 0.55113037840 0.00679922749 -0.61894986711 0.55106644856 0.00631357274 -0.67063510274 0.53670429076 0.00640069206 -0.66743166578 0.54135146874 0.00648579041 -0.66336431252 0.54549340998 0.00656668402 -0.65858705312 0.54906914293 0.00664118914 -0.65325389773 0.55201769606 0.00670712202 -0.64751885652 0.55427809780 0.00676229888 -0.64153593964 0.55578937663 0.00680453598 -0.63545915723 0.55649056099 0.00683164956 -0.62944251946 0.55632067934 0.00684145586 -0.62364003648 0.55521876013 0.00527598149 -0.65285944691 0.45670830916 0.00533024490 -0.64541476404 0.45965787614 0.00539077204 -0.63752112274 0.46278048745 0.00545591266 -0.62929585210 0.46602894121 0.00552401647 -0.62085628122 0.46935603557 0.00559343319 -0.61231973917 0.47271456868 0.00566251257 -0.60380355506 0.47605733867 0.00572960431 -0.59542505797 0.47933714368 0.00579305814 -0.58730157697 0.48250678187 0.00585122380 -0.57955044118 0.48551905136 0.00539416011 -0.65717896146 0.46735732938 0.00545434005 -0.64974665359 0.47034085309 0.00552101664 -0.64186961520 0.47348640853 0.00559241390 -0.63366276971 0.47674775776 0.00566675584 -0.62524104055 0.48007866284 0.00574226648 -0.61671935112 0.48343288584 0.00581716984 -0.60821262483 0.48676418881 0.00588968992 -0.59983578511 0.49002633381 0.00595805075 -0.59170375537 0.49317308291 0.00602047634 -0.58393145902 0.49615819817 0.00551296794 -0.66120533135 0.47769637809 0.00557887430 -0.65382777070 0.48076775954 0.00565110406 -0.64601517424 0.48397023124 0.00572782039 -0.63787662711 0.48725989210 0.00580718647 -0.62952121441 0.49059284107 0.00588736547 -0.62105802127 0.49392517708 0.00596652057 -0.61259613280 0.49721299906 0.00604281494 -0.60424463413 0.50041240594 0.00611441176 -0.59611261037 0.50347949667 0.00617947419 -0.58830914665 0.50637037018 0.00563196708 -0.66482917657 0.48768036852 0.00570341804 -0.65757901562 0.49089820595 0.00578061859 -0.64990118098 0.49419519710 0.00586171840 -0.64189741610 0.49753038748 0.00594486715 -0.63366946446 0.50086282261 0.00602821450 -0.62531906955 0.50415154800 0.00610991014 -0.61694797482 0.50735560919 0.00618810373 -0.60865792375 0.51043405167 0.00626094496 -0.60055065983 0.51334592097 0.00632658350 -0.59272792651 0.51605026261 0.00575071960 -0.66794111710 0.49726421395 0.00582754167 -0.66092128862 0.50069180276 0.00590914454 -0.65347101650 0.50412454763 0.00599369421 -0.64568512851 0.50752428713 0.00607935667 -0.63765845239 0.51085285981 0.00616429790 -0.62948581588 0.51407210423 0.00624668391 -0.62126204675 0.51714385897 0.00632468067 -0.61308197272 0.52002996258 0.00639645419 -0.60504042157 0.52269225363 0.00646017045 -0.59723222103 0.52509257067 0.00586878759 -0.67043177294 0.50640282760 0.00595081558 -0.66377548993 0.51010816041 0.00603626621 -0.65666806193 0.51372152436 0.00612333410 -0.64919975616 0.51720663429 0.00621021383 -0.64146083985 0.52052720502 0.00629510002 -0.63354158020 0.52364695137 0.00637618725 -0.62553224444 0.52652958818 0.00645167012 -0.61752309978 0.52913883027 0.00651974324 -0.60960441344 0.53143839247 0.00657860120 -0.60186645264 0.53339198960 0.00598573314 -0.67219176409 0.51505112274 0.00607281016 -0.66606251982 0.51910688935 0.00616156790 -0.65943569836 0.52294936882 0.00625022433 -0.65240129088 0.52654247222 0.00633699744 -0.64504928851 0.52985011060 0.00642010518 -0.63746968242 0.53283619503 0.00649776553 -0.62975246375 0.53546463659 0.00656819645 -0.62198762365 0.53769934633 0.00662961593 -0.61426515328 0.53950423531 0.00668024191 -0.60667504379 0.54084321461 0.00610111833 -0.67311171052 0.52316401262 0.00619309580 -0.66770327853 0.52764760003 0.00628463389 -0.66171730691 0.53177132253 0.00637395119 -0.65524972447 0.53549684414 0.00645926628 -0.64839646005 0.53878582890 0.00653879773 -0.64125344246 0.54159994083 0.00661076412 -0.63391660053 0.54390084397 0.00667338404 -0.62648186308 0.54565020234 0.00672487606 -0.61904515894 0.54680967998 0.00676345877 -0.61170241692 0.54734094092 0.00621450523 -0.67308223223 0.53069641048 0.00631124290 -0.66861866632 0.53568990290 0.00640504851 -0.66345626867 0.54015062702 0.00649410096 -0.65770504877 0.54403479331 0.00657657916 -0.65147501613 0.54729861227 0.00665066200 -0.64487618026 0.54989829437 0.00671452840 -0.63801855065 0.55179005008 0.00676635725 -0.63101213681 0.55293008990 0.00680432745 -0.62396694824 0.55327462429 0.00682661792 -0.61699299446 0.55277986375 0.00632545594 -0.67199394921 0.53760322958 0.00642682185 -0.66872958345 0.54319340839 0.00652239603 -0.66459596476 0.54805052380 0.00661025990 -0.65972725559 0.55212136297 0.00668849487 -0.65425761843 0.55535271307 0.00675518234 -0.64832121572 0.55769136126 0.00680840373 -0.64205220995 0.55908409471 0.00684624045 -0.63558476357 0.55947770060 0.00686677392 -0.62905303904 0.55881896608 0.00686808553 -0.62259119884 0.55705467832 0.00528149680 -0.65445524856 0.45602572915 0.00534191256 -0.64630029910 0.45923278252 0.00540450738 -0.63784262188 0.46255773792 0.00546873030 -0.62916290060 0.46596843320 0.00553403034 -0.62034181898 0.46943270617 0.00559985654 -0.61146006074 0.47291839468 0.00566565792 -0.60259830959 0.47639333656 0.00573088351 -0.59383724925 0.47982536964 0.00579498236 -0.58525756343 0.48318233176 0.00585740347 -0.57693993586 0.48643206074 0.00539757972 -0.65877087792 0.46665132272 0.00546396039 -0.65063048154 0.46989627943 0.00553280910 -0.64218822701 0.47324863563 0.00560343670 -0.63352332171 0.47667672411 0.00567515400 -0.62471497305 0.48014887761 0.00574727185 -0.61584238842 0.48363342892 0.00581910108 -0.60698477520 0.48709871079 0.00588995250 -0.59822134078 0.49051305600 0.00595913696 -0.58963129257 0.49384479731 0.00602596529 -0.58129383795 0.49706226748 0.00551405073 -0.66280487155 0.47697516284 0.00558633558 -0.65473228672 0.48032328780 0.00566108263 -0.64635837143 0.48374673827 0.00573748207 -0.63775869463 0.48721522084 0.00581472411 -0.62900882523 0.49069844210 0.00589199897 -0.62018433219 0.49416610863 0.00596849684 -0.61136078442 0.49758792701 0.00604340795 -0.60261375087 0.50093360383 0.00611592250 -0.59401880047 0.50417284566 0.00618523069 -0.58565150214 0.50727535909 0.00563085425 -0.66643295172 0.48696657650 0.00570896396 -0.65851471772 0.49048691813 0.00578920393 -0.65028863164 0.49402737412 0.00587065498 -0.64182602487 0.49755928583 0.00595239797 -0.63319822877 0.50105399460 0.00603351374 -0.62447657472 0.50448284180 0.00611308313 -0.61573239409 0.50781716878 0.00619018699 -0.60703701826 0.51102831689 0.00626390615 -0.59846177860 0.51408762750 0.00633332148 -0.59007800648 0.51696644195 0.00574793468 -0.66953084065 0.49659489069 0.00583177133 -0.66188677758 0.50036028096 0.00591704898 -0.65391458411 0.50406587150 0.00600274403 -0.64568231797 0.50768428148 0.00608783292 -0.63725803692 0.51118813006 0.00617129205 -0.62870979869 0.51455003639 0.00625209785 -0.62010566104 0.51774261964 0.00632922673 -0.61151368171 0.52073849896 0.00640165511 -0.60300191845 0.52351029351 0.00646835942 -0.59463842899 0.52603062245 0.00586523646 -0.67197426060 0.50582943239 0.00595468350 -0.66475746938 0.50991648677 0.00604449374 -0.65717180531 0.51383755869 0.00613353779 -0.64928457946 0.51756557022 0.00622068626 -0.64116310292 0.52107344343 0.00630480976 -0.63287468677 0.52433410038 0.00638477891 -0.62448664210 0.52732046314 0.00645946431 -0.61606627998 0.53000545378 0.00652773657 -0.60768091150 0.53236199438 0.00658846631 -0.59939784774 0.53436300699 0.00598270400 -0.67363893381 0.51463952859 0.00607762628 -0.66703579618 0.51912864609 0.00617141419 -0.65999587173 0.52331776400 0.00626282483 -0.65258981487 0.52717851447 0.00635061532 -0.64488828004 0.53068252966 0.00643354274 -0.63696192164 0.53380144173 0.00651036422 -0.62888139409 0.53650688283 0.00657983684 -0.62071735182 0.53877048513 0.00664071771 -0.61254044924 0.54056388079 0.00669176394 -0.60442134076 0.54185870195 0.00610028171 -0.67440058252 0.52299450628 0.00620052547 -0.66863076102 0.52796986943 0.00629768629 -0.66232235983 0.53248181572 0.00639039374 -0.65555502974 0.53649847665 0.00647727741 -0.64840842152 0.53998798371 0.00655696687 -0.64096218596 0.54291846842 0.00662809169 -0.63329597386 0.54525806227 0.00668928145 -0.62548943599 0.54697489677 0.00673916573 -0.61762222314 0.54803710342 0.00677637409 -0.60977398611 0.54841281373 0.00621791402 -0.67413492898 0.53086369245 0.00632330689 -0.66945136699 0.53641326730 0.00642318601 -0.66408684612 0.54130504215 0.00651603310 -0.65813722958 0.54550081917 0.00660032986 -0.65169838061 0.54896240053 0.00667455801 -0.64486616242 0.55165158841 0.00673719924 -0.63773643822 0.55353018500 0.00678673527 -0.63040507124 0.55455999246 0.00682164780 -0.62296792470 0.55470281297 0.00684041855 -0.61552086181 0.55392044871 0.00633554535 -0.67271769543 0.53821641409 0.00644589634 -0.66940661712 0.54443195022 0.00654778933 -0.66522490705 0.54976277159 0.00663953148 -0.66029341995 0.55416090445 0.00671942999 -0.65473301057 0.55757837507 0.00678579202 -0.64866453368 0.55996720969 0.00683692477 -0.64220884402 0.56127943456 0.00687113542 -0.63548679634 0.56146707595 0.00688673113 -0.62861924539 0.56048216011 0.00688201910 -0.62172704592 0.55827671328 0.00529230292 -0.65495331265 0.45578423001 0.00535473962 -0.64642452523 0.45912246609 0.00541734274 -0.63767393353 0.46254749257 0.00548007933 -0.62876333569 0.46603520278 0.00554291642 -0.61975452981 0.46956149008 0.00560582105 -0.61070931400 0.47310224782 0.00566876026 -0.60168948637 0.47663336934 0.00573170107 -0.59275684505 0.48013074800 0.00579461054 -0.58397318814 0.48357027715 0.00585745568 -0.57540031375 0.48692785014 0.00540768222 -0.65925965317 0.46638777295 0.00547597743 -0.65074490398 0.46976549293 0.00554457526 -0.64200792839 0.47321986984 0.00561335986 -0.63310948879 0.47672707846 0.00568221536 -0.62411034761 0.48026329359 0.00575102593 -0.61507126726 0.48380469002 0.00581967568 -0.60605301015 0.48732744253 0.00588804878 -0.59711633870 0.49080772591 0.00595602936 -0.58832201531 0.49422171496 0.00602350157 -0.57973080240 0.49754558447 0.00552295407 -0.66329432503 0.47669365239 0.00559719071 -0.65485171772 0.48018164528 0.00567166701 -0.64618328306 0.48371388716 0.00574616533 -0.63734724621 0.48726744186 0.00582046807 -0.62840183232 0.49081937320 0.00589435761 -0.61940526655 0.49434674499 0.00596761632 -0.61041577405 0.49782662106 0.00604002660 -0.60149157998 0.50123606521 0.00611137083 -0.59269090950 0.50455214128 0.00618143138 -0.58407198776 0.50775191308 0.00563831497 -0.66692512034 0.48667855941 0.00571852862 -0.65864806065 0.49035097745 0.00579866944 -0.65013211222 0.49401112717 0.00587839857 -0.64143283832 0.49763702676 0.00595737714 -0.63260580222 0.50120669438 0.00603526629 -0.62370656720 0.50469814823 0.00611172713 -0.61479069652 0.50808940647 0.00618642080 -0.60591375345 0.51135848731 0.00625900844 -0.59713130127 0.51448340891 0.00632915118 -0.58849890324 0.51744218946 0.00575396143 -0.67001983121 0.49631918512 0.00584014029 -0.66203702701 0.50025354379 0.00592563402 -0.65378653056 0.50409317251 0.00600996240 -0.64532249554 0.50781656691 0.00609264520 -0.63669907565 0.51140222260 0.00617320216 -0.62797042457 0.51482863520 0.00625115306 -0.61919069600 0.51807430033 0.00632601766 -0.61041404363 0.52111771362 0.00639731572 -0.60169462115 0.52393737067 0.00646456701 -0.59308658224 0.52651176711 0.00587008998 -0.67244624976 0.50559222063 0.00596217487 -0.66492171102 0.50986939862 0.00605261221 -0.65707865273 0.51394160582 0.00614075964 -0.64897244824 0.51778679610 0.00622597483 -0.64065847089 0.52138292334 0.00630761542 -0.63219209402 0.52470794141 0.00638503908 -0.62362869097 0.52773980418 0.00645760344 -0.61502363508 0.53045646555 0.00652466618 -0.60643229969 0.53283587936 0.00658558493 -0.59791005815 0.53485599952 0.00598689710 -0.67407216809 0.51447435704 0.00608478151 -0.66720520689 0.51917859627 0.00617965545 -0.65994059342 0.52353800972 0.00627069311 -0.65233892683 0.52752844809 0.00635706865 -0.64446080627 0.53112576206 0.00643795627 -0.63636683090 0.53430580232 0.00651253013 -0.62811759987 0.53704441957 0.00657996442 -0.61977371234 0.53931746451 0.00663943331 -0.61139576745 0.54110078781 0.00669011097 -0.60304436437 0.54237024018 0.00610457933 -0.67476537832 0.52294228546 0.00620810935 -0.66879060886 0.52816119108 0.00630681521 -0.66230446730 0.53286396687 0.00639966562 -0.65537816169 0.53702225665 0.00648562927 -0.64808290009 0.54060770424 0.00656367489 -0.64048989056 0.54359195343 0.00663277118 -0.63267034116 0.54594664805 0.00669188686 -0.62469545994 0.54764343191 0.00673999063 -0.61663645497 0.54865394882 0.00677605120 -0.60856453429 0.54894984259 0.00622333316 -0.67439367255 0.53097269699 0.00633230755 -0.66958101115 0.53679723736 0.00643414295 -0.66410238905 0.54190105989 0.00652757999 -0.65804638322 0.54624895556 0.00661135929 -0.65150157067 0.54980571535 0.00668422148 -0.64455652836 0.55253613022 0.00674490719 -0.63729983329 0.55440499117 0.00679215703 -0.62982006244 0.55537708918 0.00682471165 -0.62220579279 0.55541721521 0.00684131166 -0.61454560133 0.55449016025 0.00634335511 -0.67282484291 0.53854228272 0.00645752525 -0.66947950798 0.54506678945 0.00656169013 -0.66526647333 0.55063087143 0.00665433905 -0.66029982182 0.55518927859 0.00673396132 -0.65469363630 0.55869676086 0.00679904624 -0.64856199965 0.56110806818 0.00684808310 -0.64201899472 0.56237795048 0.00687956122 -0.63517870437 0.56246115771 0.00689196988 -0.62815521146 0.56131243978 0.00688379840 -0.62106259887 0.55888654664 0.00530706976 -0.65437673861 0.45596923537 0.00536786191 -0.64580370458 0.45931267148 0.00542856750 -0.63702573746 0.46273618377 0.00548919311 -0.62810353876 0.46621669889 0.00554974530 -0.61909780996 0.46973114347 0.00561023066 -0.61006925258 0.47325644415 0.00567065574 -0.60107856810 0.47676952757 0.00573102712 -0.59218645805 0.48024732038 0.00579135138 -0.58345362390 0.48366674920 0.00585163508 -0.57494076717 0.48700474069 0.00542288028 -0.65866869410 0.46655336966 0.00548922963 -0.65010676971 0.46993541612 0.00555535842 -0.64134014121 0.47338771214 0.00562128606 -0.63242845414 0.47688747937 0.00568703198 -0.62343135401 0.48041193943 0.00575261558 -0.61440848635 0.48393831396 0.00581805626 -0.60541949668 0.48744382460 0.00588337345 -0.59652403053 0.49090569297 0.00594858656 -0.58778173342 0.49430114072 0.00601371499 -0.57925225088 0.49760738946 0.00553796918 -0.66269655372 0.47683995273 0.00561010312 -0.65420290452 0.48033119017 0.00568175283 -0.64550170404 0.48386074991 0.00575290889 -0.63665008029 0.48740671990 0.00582356193 -0.62770516131 0.49094718810 0.00589370253 -0.61872407512 0.49446024248 0.00596332130 -0.60976394972 0.49792397099 0.00603240885 -0.60088191316 0.50131646160 0.00610095578 -0.59213509345 0.50461580225 0.00616895269 -0.58358061862 0.50780008091 0.00565263422 -0.66632742470 0.48680594497 0.00573070786 -0.65799548043 0.49048036494 0.00580785081 -0.64944355570 0.49413721688 0.00588398324 -0.64072617165 0.49775548848 0.00595902529 -0.63189784942 0.50131416740 0.00603289714 -0.62301311015 0.50479224132 0.00610551892 -0.61412647496 0.50816869793 0.00617681080 -0.60529246500 0.51142252488 0.00624669292 -0.59656560141 0.51453270987 0.00631508545 -0.58800040531 0.51747824056 0.00576717320 -0.66942841424 0.49642830679 0.00585126929 -0.66138786882 0.50036331172 0.00593375244 -0.65309882595 0.50419903288 0.00601443073 -0.64461448264 0.50791485310 0.00609311223 -0.63598803589 0.51149015523 0.00616960502 -0.62727268271 0.51490432210 0.00624371716 -0.61852162012 0.51813673657 0.00631525675 -0.60978804511 0.52116678148 0.00638403185 -0.60112515469 0.52397383965 0.00644985054 -0.59258614587 0.52653729394 0.00588188389 -0.67186662957 0.50568399861 0.00597201289 -0.66428344111 0.50996040182 0.00605955781 -0.65640064455 0.51402811770 0.00614417302 -0.64827276768 0.51786588175 0.00622551289 -0.63995433826 0.52145242950 0.00630323179 -0.63149988408 0.52476649645 0.00637698410 -0.62296393291 0.52778681812 0.00644642419 -0.61440101252 0.53049213002 0.00651120644 -0.60586565070 0.53286116767 0.00657098523 -0.59741237522 0.53487266657 0.00599706407 -0.67350917792 0.51454998082 0.00609316413 -0.66658556869 0.51925200653 0.00618536700 -0.65928214126 0.52360639115 0.00627313174 -0.65165878119 0.52758964243 0.00635591741 -0.64377537408 0.53117826812 0.00643318307 -0.63569180551 0.53434877597 0.00650438777 -0.62746796106 0.53707767373 0.00656899058 -0.61916372632 0.53934146915 0.00662645057 -0.61083898686 0.54111666998 0.00667622678 -0.60255362827 0.54237978397 0.00611301152 -0.67422316649 0.52300321383 0.00621494846 -0.66819762297 0.52821849716 0.00631128009 -0.66167644582 0.53291577305 0.00640122854 -0.65473027761 0.53706720314 0.00648401595 -0.64742976091 0.54064494902 0.00655886448 -0.63984553828 0.54362117230 0.00662499624 -0.63204825230 0.54596803460 0.00668163340 -0.62410854554 0.54765769752 0.00672799809 -0.61609706056 0.54866232267 0.00676331245 -0.60808443995 0.54895407167 0.00623002403 -0.67387570250 0.53102065806 0.00633759136 -0.66902297535 0.53684024499 0.00643739716 -0.66351668800 0.54193818321 0.00652838505 -0.65744501136 0.54627963186 0.00660949867 -0.65089611628 0.54982975009 0.00667968163 -0.64395817365 0.55255369705 0.00673787757 -0.63671935434 0.55441663189 0.00678303011 -0.62926782924 0.55538371375 0.00681408289 -0.62169176922 0.55542010180 0.00682997952 -0.61407934516 0.55449095518 0.00634839937 -0.67233389319 0.53857927389 0.00646131828 -0.66896499722 0.54509762134 0.00656381829 -0.66473599756 0.55065554143 0.00665452292 -0.65976073685 0.55520799659 0.00673205570 -0.65415305775 0.55870994925 0.00679504015 -0.64802680289 0.56111636183 0.00684209981 -0.64149581492 0.56238219678 0.00687185819 -0.63467393649 0.56246241650 0.00688293883 -0.62767501024 0.56131198345 0.00687396525 -0.62061287883 0.55888586003 0.00532446718 -0.65274862587 0.45656616888 0.00538041525 -0.64445409936 0.45978914327 0.00543747103 -0.63590871343 0.46311024391 0.00549530498 -0.62718989118 0.46650037044 0.00555358757 -0.61837505570 0.46993042250 0.00561198926 -0.60954163010 0.47337129975 0.00567018051 -0.60076703747 0.47679390183 0.00572783180 -0.59212870092 0.48016912839 0.00578461357 -0.58370404353 0.48346787908 0.00584019631 -0.57557048841 0.48666105354 0.00544158657 -0.65702140757 0.46713480243 0.00550255543 -0.64873292749 0.47039297148 0.00556420187 -0.64019628736 0.47373976352 0.00562631800 -0.63148740094 0.47714658535 0.00568869590 -0.62268218201 0.48058484377 0.00575112768 -0.61385654436 0.48402594559 0.00581340542 -0.60508640175 0.48744129759 0.00587532122 -0.59644766795 0.49080230659 0.00593666717 -0.58801625675 0.49408037939 0.00599723537 -0.57986808191 0.49724692278 0.00555738730 -0.66103441956 0.47740216987 0.00562373625 -0.65280268796 0.48076028066 0.00569023571 -0.64432542930 0.48417639848 0.00575675146 -0.63567499535 0.48762321968 0.00582314925 -0.62692373788 0.49107344055 0.00588929487 -0.61814400866 0.49449975743 0.00595505409 -0.60940815948 0.49787486663 0.00602029268 -0.60078854210 0.50117146447 0.00608487641 -0.59235750829 0.50436224726 0.00614867105 -0.58418740983 0.50741991134 0.00567209700 -0.66466160703 0.48733836091 0.00574409754 -0.65657341302 0.49086506162 0.00581558370 -0.64823489505 0.49439640388 0.00588644303 -0.63971434005 0.49790654921 0.00595656305 -0.63108003497 0.50136965912 0.00602583130 -0.62240026674 0.50475989513 0.00609413529 -0.61374332231 0.50805141878 0.00616136258 -0.60517748861 0.51121839157 0.00622740068 -0.59677105259 0.51423497503 0.00629213712 -0.58859230119 0.51707533067 0.00578594333 -0.66777691518 0.49691346525 0.00586377911 -0.65995513493 0.50068130521 0.00594025701 -0.65186344040 0.50437603479 0.00601523042 -0.64356710070 0.50797284972 0.00608855275 -0.63513138496 0.51144694573 0.00616007740 -0.62662156230 0.51477351854 0.00622965778 -0.61810290186 0.51792776387 0.00629714729 -0.60964067274 0.52088487745 0.00636239933 -0.60130014409 0.52362005500 0.00642526732 -0.59314658502 0.52610849225 0.00589915395 -0.67025428919 0.50609757259 0.00598292080 -0.66285788594 0.51018300223 0.00606426678 -0.65514982113 0.51409154629 0.00614295129 -0.64719494293 0.51779839701 0.00621873377 -0.63905809952 0.52127874667 0.00629137363 -0.63080413908 0.52450778749 0.00636063031 -0.62249790976 0.52746071174 0.00642626321 -0.61420425975 0.53011271167 0.00648803176 -0.60598803721 0.53243897952 0.00654569539 -0.59791409033 0.53441470754 0.00601195650 -0.67196767427 0.51486077263 0.00610166243 -0.66519169830 0.51934414351 0.00618762417 -0.65803279303 0.52351919345 0.00626944334 -0.65055953240 0.52735946687 0.00634672156 -0.64284049034 0.53083850820 0.00641906045 -0.63494424078 0.53392986184 0.00648606163 -0.62693935764 0.53660707223 0.00654732672 -0.61889441487 0.53884368377 0.00660245734 -0.61087798640 0.54061324089 0.00665105510 -0.60295864616 0.54188928800 0.00612457864 -0.67279101560 0.52317315508 0.00622014381 -0.66686660427 0.52813871987 0.00631034034 -0.66045111190 0.53263523135 0.00639454425 -0.65362253476 0.53663233507 0.00647213156 -0.64645886908 0.54009967659 0.00654247831 -0.63903811112 0.54300690144 0.00660496052 -0.63143825714 0.54532365517 0.00665895422 -0.62373730338 0.54701958333 0.00670383543 -0.61601324609 0.54806433146 0.00673898018 -0.60834408153 0.54842754510 0.00623724801 -0.67259825838 0.53100480964 0.00633850478 -0.66779263609 0.53654072213 0.00643242645 -0.66234353352 0.54141591507 0.00651809170 -0.65634561564 0.54559327742 0.00659457920 -0.64989354742 0.54903569812 0.00666096765 -0.64308199384 0.55170606613 0.00671633572 -0.63600561988 0.55356727040 0.00675976208 -0.62875909051 0.55458219988 0.00679032541 -0.62143707071 0.55471374353 0.00680710440 -0.61413422546 0.55392479031 0.00635019228 -0.67126334780 0.53832582601 0.00645688515 -0.66787982604 0.54452414112 0.00655389364 -0.66364881368 0.54983749969 0.00663992337 -0.65869044070 0.55421856968 0.00671367993 -0.65312483704 0.55762001905 0.00677386894 -0.64707213265 0.55999451575 0.00681919599 -0.64065245750 0.56129472774 0.00684836670 -0.63398594153 0.56147332299 0.00686008666 -0.62719271470 0.56048296945 0.00685306149 -0.62039290697 0.55827633508 0.00534316507 -0.65009207386 0.45756045417 0.00539153549 -0.64239197175 0.46053762609 0.00544334272 -0.63433354120 0.46365610538 0.00549764832 -0.62602877433 0.46687366636 0.00555351382 -0.61758966329 0.47014808336 0.00561000078 -0.60912820019 0.47343713069 0.00566617073 -0.60075637716 0.47669858268 0.00572108522 -0.59258618633 0.47989021365 0.00577380581 -0.58472961983 0.48296979792 0.00582339403 -0.57729866978 0.48589510982 0.00546221377 -0.65434120046 0.46811876084 0.00551479329 -0.64664022612 0.47112508153 0.00557014893 -0.63858778869 0.47426362497 0.00562755835 -0.63029351238 0.47749305495 0.00568629920 -0.62186702141 0.48077203526 0.00574564911 -0.61341793999 0.48405922971 0.00580488576 -0.60505589233 0.48731330208 0.00586328677 -0.59689050264 0.49049291618 0.00592012981 -0.58903139513 0.49355673581 0.00597469252 -0.58158819402 0.49646342476 0.00557949965 -0.65833078449 0.47836840984 0.00563675354 -0.65066790887 0.48145727492 0.00569601129 -0.64266625376 0.48464990488 0.00575673172 -0.63442978981 0.48790710593 0.00581837362 -0.62606248767 0.49118968429 0.00588039578 -0.61766831797 0.49445844616 0.00594225699 -0.60935125136 0.49767419777 0.00600341605 -0.60121525848 0.50079774532 0.00606333176 -0.59336430998 0.50378989503 0.00612146291 -0.58590237651 0.50661145312 0.00569498827 -0.66194940961 0.48826543497 0.00575729352 -0.65439829443 0.49149504855 0.00582070381 -0.64651806325 0.49477944881 0.00588481203 -0.63840565870 0.49808208716 0.00594921106 -0.63015802345 0.50136641499 0.00601349377 -0.62187210014 0.50459588369 0.00607725304 -0.61364483143 0.50773394468 0.00614008176 -0.60557315996 0.51074404932 0.00620157279 -0.59775402840 0.51358964904 0.00626131902 -0.59028437939 0.51623419521 0.00580864518 -0.66508565948 0.49776587005 0.00587629052 -0.65775465726 0.50119924471 0.00594400048 -0.65009234399 0.50461676046 0.00601144287 -0.64218917113 0.50798426647 0.00607828547 -0.63413559016 0.51126761191 0.00614419609 -0.62602205252 0.51443264594 0.00620884253 -0.61793900971 0.51744521773 0.00627189256 -0.60997691316 0.52027117645 0.00633301401 -0.60222621437 0.52287637126 0.00639187465 -0.59477736479 0.52522665134 0.00592043591 -0.66762811776 0.50682574885 0.00599362181 -0.66066027178 0.51053070571 0.00606567530 -0.65333822282 0.51412634355 0.00613626782 -0.64574837918 0.51757991172 0.00620507083 -0.63797714918 0.52085865960 0.00627175575 -0.63011094114 0.52392983652 0.00633599405 -0.62223616337 0.52676069185 0.00639745716 -0.61443922419 0.52931847494 0.00645581653 -0.60680653191 0.53157043515 0.00651074361 -0.59942449485 0.53348382182 0.00603032601 -0.66946536812 0.51540110520 0.00610916468 -0.66303841244 0.51945027384 0.00618550227 -0.65620482656 0.52327270177 0.00625893049 -0.64905133491 0.52683529076 0.00632904108 -0.64166466191 0.53010494261 0.00639542575 -0.63413153200 0.53304855909 0.00645767622 -0.62653866959 0.53563304199 0.00651538422 -0.61897279912 0.53782529307 0.00656814148 -0.61152064502 0.53959221414 0.00661553971 -0.60426893171 0.54090070696 0.00613828103 -0.67048599422 0.52344797289 0.00622279641 -0.66481235367 0.52791879141 0.00630325538 -0.65864128206 0.53202033883 0.00637907447 -0.65206609040 0.53571667144 0.00644967019 -0.64518008975 0.53897184549 0.00651445908 -0.63807659111 0.54174991727 0.00657285765 -0.63084890554 0.54401494305 0.00662428244 -0.62359034406 0.54573097909 0.00666814997 -0.61639421770 0.54686208167 0.00670387676 -0.60935383750 0.54737230706 0.00624426651 -0.67057857972 0.53092238572 0.00633439428 -0.66590536992 0.53589710070 0.00641870864 -0.66059671614 0.54033375844 0.00649634334 -0.65476069774 0.54419032159 0.00656643213 -0.64850539408 0.54742475279 0.00662810875 -0.64193888451 0.54999501470 0.00668050695 -0.63516924839 0.55185906997 0.00672276049 -0.62830456509 0.55297488125 0.00675400311 -0.62145291396 0.55330041119 0.00677336857 -0.61472237436 0.55279362244 0.00634824799 -0.66963170828 0.53778037750 0.00644383557 -0.66624073562 0.54334604403 0.00653163605 -0.66202025565 0.54817746431 0.00661038071 -0.65710320899 0.55222250907 0.00667880085 -0.65162253630 0.55542904906 0.00673562776 -0.64571117820 0.55774495502 0.00677959274 -0.63950207532 0.55911809769 0.00680942707 -0.63312816831 0.55949634782 0.00682386204 -0.62672239781 0.55882757615 0.00682162895 -0.62041770444 0.55705965342 0.00536183332 -0.64643018200 0.45893751486 0.00540035845 -0.63963358392 0.46154386453 0.00544547195 -0.63231090052 0.46436020057 0.00549545647 -0.62462656961 0.46732403559 0.00554859464 -0.61674502899 0.47037288221 0.00560316912 -0.60883071647 0.47344425304 0.00565746254 -0.60104806987 0.47647566069 0.00570975754 -0.59356152698 0.47940461778 0.00575833678 -0.58653552562 0.48216863690 0.00580148289 -0.58013450360 0.48470523068 0.00548317453 -0.65065147963 0.46949193446 0.00552478165 -0.64384551436 0.47211866879 0.00557224289 -0.63652606708 0.47494689749 0.00562410980 -0.62885397166 0.47791554670 0.00567893391 -0.62099006198 0.48096354255 0.00573526675 -0.61309517193 0.48402981115 0.00579165988 -0.60533013540 0.48705327865 0.00584666481 -0.59785578626 0.48997287116 0.00589883309 -0.59083295841 0.49272751481 0.00594671626 -0.58442248572 0.49525613573 0.00560259748 -0.65460851043 0.47972677863 0.00564781842 -0.64781540807 0.48241053114 0.00569797520 -0.64053597235 0.48527034108 0.00575188840 -0.63292226215 0.48824854339 0.00580837860 -0.62512633634 0.49128747305 0.00586626637 -0.61730025379 0.49432946500 0.00592437230 -0.60959607339 0.49731685422 0.00598151694 -0.60216585400 0.50019197565 0.00603652089 -0.59516165450 0.50289716427 0.00608820471 -0.58873553377 0.50537475502 0.00571959303 -0.65821257467 0.48957679488 0.00576889165 -0.65148656065 0.49236030673 0.00582204680 -0.64430499328 0.49527711229 0.00587812430 -0.63680844281 0.49827398055 0.00593618994 -0.62913747947 0.50129768047 0.00599530956 -0.62143267352 0.50429498105 0.00605454896 -0.61383459519 0.50721265127 0.00611297395 -0.60648381473 0.50999746011 0.00616965035 -0.59952090239 0.51259617656 0.00622364398 -0.59308642840 0.51495556960 0.00583365209 -0.66137497258 0.49897673072 0.00588742426 -0.65480226773 0.50190885068 0.00594383563 -0.64779750684 0.50491379209 0.00600214949 -0.64048951538 0.50794281303 0.00606162914 -0.63300711880 0.51094717155 0.00612153788 -0.62547914257 0.51387812574 0.00618113902 -0.61803441214 0.51668693366 0.00623969586 -0.61080175298 0.51932485338 0.00629647170 -0.60390999055 0.52174314297 0.00635072984 -0.59748795030 0.52389306051 0.00594426552 -0.66400700443 0.50786133367 0.00600283914 -0.65770582492 0.51099701812 0.00606271959 -0.65097788997 0.51412696143 0.00612329598 -0.64394248158 0.51720599571 0.00618395739 -0.63671888172 0.52018895305 0.00624409292 -0.62942637240 0.52303066553 0.00630309166 -0.62218423559 0.52568596526 0.00636034270 -0.61511175328 0.52810968431 0.00641523513 -0.60832820747 0.53025665480 0.00646715804 -0.60195288014 0.53208170879 0.00605092421 -0.66601997046 0.51616535124 0.00611455918 -0.66014052784 0.51956566417 0.00617807663 -0.65381051964 0.52286320128 0.00624089580 -0.64714434315 0.52601448348 0.00630243593 -0.64025639566 0.52897603170 0.00636211626 -0.63326107448 0.53170436688 0.00641935602 -0.62627277688 0.53415600992 0.00647357447 -0.61940590017 0.53628748176 0.00652419083 -0.61277484164 0.53805530331 0.00657062435 -0.60649399859 0.53941599551 0.00615311904 -0.66732517092 0.52382353094 0.00622200728 -0.66204967211 0.52755564397 0.00628928464 -0.65625977280 0.53106909257 0.00635428094 -0.65007210182 0.53431923119 0.00641632594 -0.64360328803 0.53726141426 0.00647474946 -0.63696996026 0.53985099622 0.00652888129 -0.63028874736 0.54204333151 0.00657805121 -0.62367627818 0.54379377456 0.00662158902 -0.61724918155 0.54505767981 0.00665882452 -0.61112408633 0.54579040170 0.00625034089 -0.66783390606 0.53077062027 0.00632460634 -0.66337655335 0.53490781264 0.00639572157 -0.65829002640 0.53869121629 0.00646278341 -0.65270275932 0.54207119373 0.00652488866 -0.64674318622 0.54499810748 0.00658113412 -0.64053974121 0.54742232003 0.00663061661 -0.63422085838 0.54929419389 0.00667243293 -0.62791497184 0.55056409156 0.00670567989 -0.62175051569 0.55118237557 0.00672945430 -0.61585592404 0.55109940840 0.00634208065 -0.66745747614 0.53694136677 0.00642177926 -0.66406446716 0.54156302531 0.00649676534 -0.65986565740 0.54567615338 0.00656573523 -0.65501331739 0.54922132597 0.00662738528 -0.64965971767 0.55213911809 0.00668041180 -0.64395712878 0.55437010474 0.00672351115 -0.63805782127 0.55585486092 0.00675537965 -0.63211406568 0.55653396163 0.00677471364 -0.62627813253 0.55634798188 0.00678020947 -0.62070229238 0.55523749667 0.00537914181 -0.64178604972 0.46068277461 0.00540601997 -0.63619519807 0.46279360320 0.00544314810 -0.62985147117 0.46520896186 0.00548796279 -0.62298965838 0.46783892705 0.00553790063 -0.61584454906 0.47059357523 0.00559039820 -0.60865093257 0.47338298287 0.00564289209 -0.60164359827 0.47611722643 0.00569281889 -0.59505733553 0.47870638238 0.00573761518 -0.58912693370 0.48106052717 0.00577471754 -0.58408718215 0.48308973726 0.00550288154 -0.64597565194 0.47124101289 0.00553135896 -0.64036564102 0.47336065574 0.00556952705 -0.63402254441 0.47577718206 0.00561507502 -0.62717596195 0.47840271914 0.00566569209 -0.62005549350 0.48114939427 0.00571906748 -0.61289073888 0.48392933475 0.00577289039 -0.60591129793 0.48665466787 0.00582485004 -0.59934677050 0.48923752093 0.00587263564 -0.59342675642 0.49159002121 0.00591393641 -0.58838085554 0.49362429602 0.00562497200 -0.64989045933 0.48146538226 0.00565559433 -0.64426202640 0.48360840751 0.00569502305 -0.63794637998 0.48602677906 0.00574126019 -0.63116021080 0.48863769679 0.00579230777 -0.62412020954 0.49135836058 0.00584616780 -0.61704306691 0.49410597028 0.00590084231 -0.61014547362 0.49679772578 0.00595433331 -0.60364412035 0.49935082695 0.00600464282 -0.59775569782 0.50168247366 0.00604977287 -0.59269689672 0.50370986580 0.00574419626 -0.65347284447 0.49126206836 0.00577748780 -0.64785464766 0.49345081722 0.00581844836 -0.64160761812 0.49588015498 0.00586541389 -0.63493100755 0.49847410759 0.00591672034 -0.62802406763 0.50115670102 0.00597070366 -0.62108605004 0.50385196124 0.00602569982 -0.61431620647 0.50648391420 0.00608004477 -0.60791378861 0.50897658589 0.00613207445 -0.60207804814 0.51125400225 0.00618012484 -0.59700823674 0.51324018925 0.00585933741 -0.65666517995 0.50053725683 0.00589580112 -0.65111379825 0.50280184359 0.00593861522 -0.64499089904 0.50525971189 0.00598643167 -0.63847695484 0.50784219907 0.00603790246 -0.63175243819 0.51048064246 0.00609167954 -0.62499782161 0.51310637939 0.00614641489 -0.61839357764 0.51565074718 0.00620076047 -0.61212017880 0.51804508317 0.00625336825 -0.60635809764 0.52022072468 0.00630289021 -0.60128780667 0.52210900905 0.00596917853 -0.65940983835 0.50919713332 0.00600929600 -0.65400977163 0.51157544532 0.00605433587 -0.64808086296 0.51408785191 0.00610320913 -0.64178665531 0.51667221882 0.00615482682 -0.63529069166 0.51926641177 0.00620809993 -0.62875651499 0.52180829650 0.00626193948 -0.62234766826 0.52423573875 0.00631525648 -0.61622769447 0.52648660424 0.00636696195 -0.61056013658 0.52849875870 0.00641596689 -0.60550853757 0.53021006786 0.00607250271 -0.66164919226 0.51714788346 0.00611673419 -0.65651286123 0.51968558114 0.00616442256 -0.65086215008 0.52228697713 0.00621464184 -0.64484871157 0.52489441438 0.00626646608 -0.63862419847 0.52745023581 0.00631896930 -0.63234026352 0.52989678436 0.00637122555 -0.62614855949 0.53217640295 0.00642230886 -0.62020073913 0.53423143452 0.00647129326 -0.61464845521 0.53600422201 0.00651725279 -0.60964336048 0.53743710834 0.00616809302 -0.66332561427 0.52429569290 0.00621687742 -0.65859336050 0.52704620975 0.00626768754 -0.65331940063 0.52977948966 0.00631962538 -0.64765172628 0.53243903332 0.00637179292 -0.64173832905 0.53496834144 0.00642329215 -0.63572720058 0.53731091471 0.00647322507 -0.62976633246 0.53941025382 0.00652069366 -0.62400371633 0.54120985947 0.00656479991 -0.61858734380 0.54265323235 0.00660464582 -0.61366520648 0.54368387316 0.00625473256 -0.66438147697 0.53054674728 0.00630848742 -0.66022156290 0.53357128987 0.00636294306 -0.65543725483 0.53648779158 0.00641705532 -0.65018430205 0.53923632321 0.00646978001 -0.64461845384 0.54175695553 0.00652007296 -0.63889545951 0.54398975934 0.00656689000 -0.63317106833 0.54587480540 0.00660918695 -0.62760102959 0.54735216451 0.00664591963 -0.62234109259 0.54836190744 0.00667604387 -0.61754700662 0.54884410498 0.00633120440 -0.66475915294 0.53580723224 0.00639032592 -0.66136776186 0.53917478020 0.00644900137 -0.65720035289 0.54233428500 0.00650582724 -0.65243504152 0.54521653160 0.00655940003 -0.64724994327 0.54775230495 0.00660831622 -0.64182317367 0.54987239000 0.00665117231 -0.63633284822 0.55150757173 0.00668656479 -0.63095708244 0.55258863507 0.00671309014 -0.62587399185 0.55304636500 0.00672934486 -0.62126169196 0.55281154647 </DataArray>
</PointData>
<Points>
<DataArray type="Float32" NumberOfComponents="3">
-0.36207285617 0.22186976675 2.49114001725 -0.33071004445 0.22685728168 2.48533231369 -0.30715911166 0.23278715706 2.47864639084 -0.29142606190 0.23941561064 2.47133621652 -0.28351689926 0.24649886016 2.46365575857 -0.28343762785 0.25379312336 2.45585898480 -0.29119425178 0.26105461797 2.44819986304 -0.30679277513 0.26803956176 2.44093236111 -0.33023920203 0.27450417244 2.43431044685 -0.36153953656 0.28020466777 2.42858808808 -0.34735734700 0.23321878945 2.50173225410 -0.31587278676 0.23821111692 2.49593232212 -0.29223003529 0.24412725718 2.48926717622 -0.27643488454 0.25072926982 2.48198620143 -0.26849312646 0.25777921444 2.47433878282 -0.26841055302 0.26503915064 2.46657430544 -0.27619295616 0.27227113803 2.45894215434 -0.29184612784 0.27923723620 2.45169171458 -0.31537586003 0.28569950476 2.44507237121 -0.34678794467 0.29142000331 2.43933350929 -0.33360976103 0.24429609620 2.51176503935 -0.30198523701 0.24931360722 2.50598091693 -0.27823772698 0.25520480020 2.49937157724 -0.26237263003 0.26174533736 2.49217321220 -0.25439534526 0.26871088095 2.48462201372 -0.25431127175 0.27587709321 2.47695417372 -0.26212580859 0.28301963636 2.46940588412 -0.27784435487 0.28991417266 2.46221333683 -0.30147230969 0.29633636433 2.45561272378 -0.33301507212 0.30206187362 2.44984023687 -0.32121000433 0.25501423640 2.52112150716 -0.28964411215 0.26007745690 2.51539619617 -0.26594136537 0.26593923907 2.50889675618 -0.25010664776 0.27239341112 2.50184102814 -0.24214484311 0.27923380127 2.49444685299 -0.24206083518 0.28625423774 2.48693207169 -0.24985950777 0.29324854874 2.47951452517 -0.26554574464 0.30001056249 2.47241205438 -0.28912442958 0.30633410721 2.46584250027 -0.32060044636 0.31201301112 2.46002370379 -0.31053798296 0.26528575943 2.52968479166 -0.27944612916 0.27041537027 2.52409625788 -0.25610012911 0.27625002673 2.51777987529 -0.24050428711 0.28260308892 2.51093342856 -0.23266290745 0.28928791694 2.50375470237 -0.23258029444 0.29611787090 2.49644148139 -0.24026075237 0.30290631090 2.48919155029 -0.25570858555 0.30946659705 2.48220269374 -0.27892809828 0.31561208945 2.47567269642 -0.30992359485 0.32115614822 2.46979934300 -0.30197360299 0.27502321467 2.53733802698 -0.27198800501 0.28024005166 2.53199920010 -0.24947319686 0.28605661615 2.52595809683 -0.23443289745 0.29230396862 2.51939419278 -0.22687082574 0.29881316953 2.51248696360 -0.22679070064 0.30541527937 2.50541588489 -0.23419624109 0.31194135860 2.49836043230 -0.24909116602 0.31822246769 2.49150008144 -0.27147919435 0.32408966711 2.48501430796 -0.30136404503 0.32937401734 2.47908258746 -0.29589677049 0.28413915152 2.54396434725 -0.26786645666 0.28946420538 2.53902312089 -0.24681974724 0.29527846027 2.53336858306 -0.23275982818 0.30142564805 2.52716710011 -0.22568988542 0.30774950061 2.52058503839 -0.22561310492 0.31409374983 2.51378876424 -0.23253267261 0.32030212758 2.50694464399 -0.24645177445 0.32621836576 2.50021904400 -0.26737359639 0.33168619624 2.49377833060 -0.29530132436 0.33654935090 2.48778887015 -0.29268739151 0.29254611935 2.54944688663 -0.26767820107 0.29800053576 2.54508611828 -0.24889895892 0.30383501203 2.53994849624 -0.23635242867 0.30989772505 2.53419592986 -0.23004137395 0.31603685172 2.52799032849 -0.22996855839 0.32210056894 2.52149360148 -0.23613674562 0.32793705361 2.51486765818 -0.24854869927 0.33339448263 2.50827440794 -0.26720718295 0.33832103290 2.50187576009 -0.29211496029 0.34256488131 2.49583362400 -0.29272537213 0.30015666756 2.55366877925 -0.27201995522 0.30576174712 2.55010629032 -0.25647001053 0.31164572439 2.54563499863 -0.24607804830 0.31764979746 2.54042446134 -0.24084657877 0.32361516443 2.53464423563 -0.24077811220 0.32938302339 2.52846387868 -0.24587515882 0.33479457243 2.52205294767 -0.25614022887 0.33969100965 2.51558099977 -0.27157583261 0.34391353313 2.50921759215 -0.29218448027 0.34730334098 2.50313228199 -0.29639061840 0.30688334552 2.55651315923 -0.28148843607 0.31266054377 2.55400173507 -0.27029208073 0.31863005029 2.55036525249 -0.26280403646 0.32461146313 2.54579647386 -0.25902678734 0.33042438030 2.54048816155 -0.25896281745 0.33588839985 2.53463307789 -0.26261461087 0.34082311979 2.52842398526 -0.26998465168 0.34504813817 2.52205364601 -0.28107542394 0.34838305301 2.51571482250 -0.29588941175 0.35064746233 2.50960027708 -0.40096069613 0.21800919172 2.49586813900 -0.37895251610 0.22440034216 2.48867659882 -0.36242276979 0.23145324366 2.48086980740 -0.35137489091 0.23899619119 2.47262632041 -0.34581231316 0.24685747974 2.46412469350 -0.34573847025 0.25486540432 2.45554348233 -0.35115679590 0.26284825990 2.44706124256 -0.36207072381 0.27063434148 2.43885652986 -0.37848368769 0.27805194405 2.43110789987 -0.40039912126 0.28492936260 2.42399390826 -0.38631803942 0.22935400603 2.50645864590 -0.36413980461 0.23576095982 2.49928913639 -0.34748120234 0.24281413122 2.49151058414 -0.33634568436 0.25034566681 2.48329813259 -0.33073670243 0.25818771315 2.47482692517 -0.33065770832 0.26617241680 2.46627210531 -0.33611215378 0.27413192433 2.45780881644 -0.34710349057 0.28189838231 2.44961220199 -0.36363517047 0.28930393731 2.44185740539 -0.38571064522 0.29618073588 2.43471957008 -0.37259370860 0.24043688499 2.51651315527 -0.35009037442 0.24689505557 2.50941315740 -0.33318722825 0.25395448051 2.50172046082 -0.32188761971 0.26145646034 2.49360103967 -0.31619489842 0.26924229558 2.48522086814 -0.31611241401 0.27715328675 2.47674592036 -0.32164351611 0.28503073439 2.46834217051 -0.33279155432 0.29271593901 2.46017559274 -0.34955987829 0.30005020113 2.45241216121 -0.37195183763 0.30687482130 2.44521785009 -0.36002074716 0.25122019428 2.52589101830 -0.33722423983 0.25776043086 2.51894758338 -0.32010102147 0.26483164875 2.51142485889 -0.30865425405 0.27228713034 2.50347655149 -0.30288709958 0.27998015803 2.49525636782 -0.30280272005 0.28776401424 2.48691801453 -0.30840427746 0.29549198134 2.47861519827 -0.31969493379 0.30301734175 2.47050162568 -0.33667785104 0.31019337786 2.46273100340 -0.35935619121 0.31687337207 2.45545703810 -0.34883219863 0.26166629955 2.53445158620 -0.32596141518 0.26831488711 2.52779133584 -0.30878275594 0.27540299314 2.52054919984 -0.29729914448 0.28279623537 2.51286617788 -0.29151350436 0.29036023151 2.50488326966 -0.29142875915 0.29796059930 2.49674147487 -0.29704783241 0.30546295647 2.48858179321 -0.30837364770 0.31273292072 2.48054522437 -0.32540912860 0.31963610981 2.47277276805 -0.34815719866 0.32603814144 2.46540542393 -0.33926110649 0.27173756646 2.54205421017 -0.31672191476 0.27851622576 2.53584333632 -0.29979260561 0.28562587093 2.52901890512 -0.28847584808 0.29294233400 2.52171142867 -0.28277431120 0.30034144701 2.51405141908 -0.28269066400 0.30769904201 2.50616938843 -0.28822757552 0.31489095104 2.49819584884 -0.29938771479 0.32179300612 2.49026131240 -0.31617375084 0.32828103931 2.48249629122 -0.33858835271 0.33423088263 2.47503129739 -0.33154051427 0.28139636069 2.54855824140 -0.30992575289 0.28832224824 2.54300250634 -0.29369074442 0.29545763932 2.53675939622 -0.28283792194 0.30268398479 2.52995381372 -0.27736971855 0.30988273553 2.52271066151 -0.27728856733 0.31693534242 2.51515484226 -0.28259690138 0.32372325633 2.50741125865 -0.29329715379 0.33012792812 2.49960481333 -0.30939175765 0.33603080868 2.49186040899 -0.33088314605 0.34131334887 2.48430294829 -0.32590346546 0.29060504791 2.55382303111 -0.30599294389 0.29769075599 2.54916776741 -0.29103734631 0.30485565553 2.54369609459 -0.28103892316 0.31197974630 2.53753484285 -0.27599992485 0.31894302807 2.53081084239 -0.27592260184 0.32562550058 2.52365092341 -0.28080920456 0.33190716361 2.51618191613 -0.29066198343 0.33766801691 2.50853065074 -0.30548318891 0.34278806025 2.50082395745 -0.32527507141 0.34714729339 2.49318866646 -0.32258300357 0.29932599376 2.55770793050 -0.30534350208 0.30657955042 2.55423804108 -0.29239258524 0.31377727679 2.54975442171 -0.28373240881 0.32078817711 2.54439602589 -0.27936512856 0.32748125562 2.53830180713 -0.27929290025 0.33372551655 2.53161071893 -0.28351787962 0.33938996416 2.52446171478 -0.29204222245 0.34434360268 2.51699374819 -0.30486808448 0.34845543635 2.50934577266 -0.32199762149 0.35159446942 2.50165674170 -0.32181217211 0.30752156392 2.56007229076 -0.30839744176 0.31494643299 2.55811224886 -0.29831663514 0.32217986032 2.55485979905 -0.29157193601 0.32906783577 2.55047887270 -0.28816552813 0.33545634918 2.54513340118 -0.28809959525 0.34119139039 2.53898731586 -0.29137632115 0.34611894925 2.53220454809 -0.29799788956 0.35008501561 2.52494902926 -0.30796648426 0.35293557931 2.51738469072 -0.32128428900 0.35451663019 2.50967546383 -0.44593358092 0.21529255309 2.49948234619 -0.43147978086 0.22273723596 2.49125374710 -0.42061960122 0.23063087726 2.48260489404 -0.41335469228 0.23885614790 2.47365809896 -0.40968670431 0.24729571878 2.46453567379 -0.40961728758 0.25583226083 2.45535993046 -0.41314809237 0.26434844494 2.44625318091 -0.42028076896 0.27272694203 2.43733773709 -0.43101696762 0.28085042303 2.42873591091 -0.44535833862 0.28860155882 2.42057001432 -0.43124234480 0.22663826853 2.51006480456 -0.41661258761 0.23410814873 2.50186884412 -0.40561872808 0.24201336636 2.49325369918 -0.39826254220 0.25023899800 2.48433919339 -0.39454580595 0.25867012025 2.47524515042 -0.39447029530 0.26719180968 2.46609139396 -0.39803778626 0.27568914289 2.45699774766 -0.40525005480 0.28404719645 2.44808403519 -0.41610887691 0.29215104695 2.43947008022 -0.43061602856 0.29988577097 2.43127570643 -0.41722556782 0.23772621232 2.52012865828 -0.40220434227 0.24526860638 2.51204218670 -0.39091562311 0.25320482789 2.50353523120 -0.38336124718 0.26142579173 2.49472148269 -0.37954305130 0.26982241278 2.48571463206 -0.37946287230 0.27828560593 2.47662837022 -0.38312254700 0.28670628604 2.46757638808 -0.39052391223 0.29497536800 2.45867237653 -0.40166880481 0.30298376670 2.45003002647 -0.41655906157 0.31062239701 2.44176302882 -0.40405613357 0.24855669998 2.52951555645 -0.38856669510 0.25621046037 2.52165849910 -0.37692600392 0.26419099461 2.51336631740 -0.36913591036 0.27239655921 2.50474499211 -0.36519826474 0.28072541071 2.49590050401 -0.36511491739 0.28907580562 2.48693883388 -0.36888771863 0.29734600049 2.47796596249 -0.37651851878 0.30543425183 2.46908787061 -0.38800916818 0.31323881617 2.46041053901 -0.40336151714 0.32065795003 2.45203994848 -0.39190692565 0.25913004705 2.53806714820 -0.37601129639 0.26692556217 2.53060250561 -0.36406558813 0.27495759926 2.52266378503 -0.35607163486 0.28313133057 2.51434974688 -0.35203127061 0.29135192835 2.50575915159 -0.35194632938 0.29952456485 2.49699075955 -0.35581864517 0.30755441233 2.48814333120 -0.36365005200 0.31534664304 2.47931562694 -0.37544238387 0.32280642922 2.47060640720 -0.39119747480 0.32983894313 2.46211443238 -0.38095082764 0.26944656908 2.54562508264 -0.36484979640 0.27740576323 2.53875893049 -0.35275009333 0.28549037459 2.53134446137 -0.34465352382 0.29361013593 2.52347577226 -0.34056189327 0.30167478003 2.51524696010 -0.34047700709 0.30959403968 2.50675212187 -0.34440067067 0.31727764765 2.49808535453 -0.35233468942 0.32463533674 2.48934075505 -0.36428086874 0.33157683972 2.48061242039 -0.38024101403 0.33801188938 2.47199444751 -0.37136072314 0.27950658159 2.55203100889 -0.35539384542 0.28764291503 2.54601249803 -0.34339523715 0.29577505335 2.53932517370 -0.33536668036 0.30381300542 2.53206309346 -0.33130995707 0.31166678008 2.52432031486 -0.33122684933 0.31924638617 2.51619089546 -0.33511913916 0.32646183255 2.50776889280 -0.34298860859 0.33322312806 2.49914836444 -0.35483703965 0.33944028156 2.49042336793 -0.37066621437 0.34502330189 2.48168796083 -0.36330949574 0.28931040014 2.55712657605 -0.34795509370 0.29762886901 2.55224793249 -0.33641673718 0.30579736830 2.54652274929 -0.32869620760 0.31371996917 2.54005173575 -0.32479528638 0.32130074282 2.53293560119 -0.32471575493 0.32844376040 2.52527505494 -0.32845939467 0.33505309311 2.51717080631 -0.33602798704 0.34103281212 2.50872356462 -0.34742331344 0.34628698860 2.50003403919 -0.36264715530 0.35071969374 2.49120293934 -0.35697002903 0.29885834024 2.56075343324 -0.34284519153 0.30735547664 2.55734995816 -0.33223031105 0.31554305217 2.55285401540 -0.32512720869 0.32331105731 2.54738172435 -0.32153770553 0.33054948257 2.54104920440 -0.32146362268 0.33714831845 2.53397257495 -0.32490678124 0.34299755543 2.52626795539 -0.33186900231 0.34798718403 2.51805146511 -0.34235210698 0.35200719472 2.50943922352 -0.35635791635 0.35494757802 2.50054735000 -0.35251520661 0.30815071745 2.56275322958 -0.34037578918 0.31681458939 2.56120329931 -0.33125167636 0.32499783771 2.55823579932 -0.32514478674 0.33256629996 2.55399308451 -0.32205703889 0.33938581367 2.54861750980 -0.32199035142 0.34532221637 2.54225143010 -0.32494664291 0.35024134561 2.53503720034 -0.33092783194 0.35400903890 2.52711717542 -0.33993583712 0.35649113380 2.51863371027 -0.35197257702 0.35755346782 2.50972915980 -0.49525198469 0.21369675144 2.50196806248 -0.48706765123 0.22185170090 2.49304950314 -0.48091211813 0.23030937812 2.48383808315 -0.47678593637 0.23898909940 2.47441900110 -0.47468965690 0.24781018102 2.46487745560 -0.47462383071 0.25669193926 2.45529864525 -0.47658900875 0.26555369041 2.44576776866 -0.48058574200 0.27431475075 2.43637002442 -0.48661458143 0.28289443657 2.42719061113 -0.49467607801 0.29121206414 2.41831472741 -0.48042547784 0.22504817010 2.51253741966 -0.47209139449 0.23323583488 2.50365836783 -0.46582176876 0.24171354071 2.49448412231 -0.46161728982 0.25040208021 2.48509804235 -0.45947864684 0.25922224597 2.47558348723 -0.45940652899 0.26809483060 2.46602381622 -0.46140162544 0.27694062672 2.45650238858 -0.46546462536 0.28568042693 2.44710256360 -0.47159621791 0.29423502384 2.43790770053 -0.47979709227 0.30252521006 2.42900115866 -0.46589279386 0.23614121624 2.52259965438 -0.45719105048 0.24441741881 2.51385636302 -0.45064420955 0.25294404740 2.50480496039 -0.44625308086 0.26164553308 2.49552470598 -0.44401847418 0.27044630691 2.48609485924 -0.44394119933 0.27927079996 2.47659467964 -0.44602206608 0.28804344329 2.46710342663 -0.45026188423 0.29668866797 2.45770035968 -0.45666146357 0.30513090507 2.44846473826 -0.46522161389 0.31329458565 2.43947582182 -0.45183061352 0.24700201125 2.53198474934 -0.44262074340 0.25541110944 2.52351892438 -0.43569168313 0.26400534367 2.51471189234 -0.43104435187 0.27271338254 2.50563822821 -0.42867966878 0.28146389469 2.49637250702 -0.42859855302 0.29018554874 2.48698930377 -0.43080192373 0.29880701332 2.47756319347 -0.43529070007 0.30725695705 2.46816875112 -0.44206580121 0.31546404856 2.45888055175 -0.45112814629 0.32335695649 2.44977317034 -0.43841561762 0.25765667650 2.54052268721 -0.42863459741 0.26623156352 2.53252148764 -0.42127643210 0.27490187497 2.52411621308 -0.41634214526 0.28359955309 2.51537784527 -0.41383276049 0.29225654013 2.50637736595 -0.41374930136 0.30080477836 2.49718575687 -0.41609279145 0.30917621002 2.48787399976 -0.42086425435 0.31730277737 2.47851307636 -0.42806471363 0.32511642266 2.46917396842 -0.43769519288 0.33254908815 2.45992765766 -0.42582448695 0.26813133337 2.54804345068 -0.41548673671 0.27689343780 2.54073948848 -0.40771069907 0.28563808678 2.53292921754 -0.40249750341 0.29429796924 2.52468279336 -0.39984827914 0.30280577408 2.51607037141 -0.39976415564 0.31109419023 2.50716210719 -0.40224626230 0.31909590660 2.49802815617 -0.40729572850 0.32674361211 2.48873867385 -0.41491368364 0.33396999568 2.47936381570 -0.42510125710 0.34070774622 2.46997373721 -0.41423390231 0.27845210323 2.55437702242 -0.40343128547 0.28741138901 2.54804836260 -0.39530672664 0.29621842457 2.54106220067 -0.38986146872 0.30480255550 2.53349230871 -0.38709675459 0.31309312737 2.52541245879 -0.38701382717 0.32101948577 2.51689642298 -0.38961392934 0.32851097628 2.50801797337 -0.39489830399 0.33549694448 2.49885088202 -0.40286819404 0.34190673595 2.48946892102 -0.41352484237 0.34766969627 2.47994586245 -0.40382054448 0.28864510747 2.55935338511 -0.39272236789 0.29780007391 2.55432354571 -0.38437675744 0.30664733381 2.54842645740 -0.37878508357 0.31510723638 2.54174562754 -0.37594871669 0.32310013084 2.53436456345 -0.37586902724 0.33054636639 2.52636677250 -0.37854738562 0.33736629226 2.51783576201 -0.38398516228 0.34348025766 2.50885503933 -0.39218372763 0.34880861179 2.49950811182 -0.40314445210 0.35327170388 2.48987848680 -0.39476109426 0.29873646746 2.56280252144 -0.38361410814 0.30807414925 2.55944047350 -0.37523303408 0.31692925997 2.55493328267 -0.36961939036 0.32520593640 2.54938198606 -0.36677469529 0.33280831532 2.54288762080 -0.36670046714 0.33964053351 2.53555122399 -0.36939822422 0.34560672776 2.52747383276 -0.37486948482 0.35061103484 2.51875648423 -0.38311576722 0.35455759153 2.50950021550 -0.39413858973 0.35735053462 2.49980606371 -0.38723223243 0.30875230457 2.56455441409 -0.37636063041 0.31824827177 2.56327458168 -0.36818779915 0.32706864851 2.56049397140 -0.36271543148 0.33509258005 2.55634062050 -0.35994522022 0.34219921165 2.55094256620 -0.35987885818 0.34826768854 2.54442784572 -0.36251803819 0.35317715598 2.53692449629 -0.36786445306 0.35680675922 2.52856055515 -0.37591979562 0.35903564350 2.51946405951 -0.38668575867 0.35974295408 2.50976304661 -0.54717638158 0.21319868735 2.50331071149 -0.54449193970 0.22172747477 2.49404961155 -0.54246283269 0.23047806647 2.48455580710 -0.54108909351 0.23938866431 2.47489647576 -0.54037075512 0.24839747019 2.46513879511 -0.54030785049 0.25744268600 2.45534994278 -0.54090041258 0.26646251363 2.44559709636 -0.54214847436 0.27539515495 2.43594743347 -0.54405206878 0.28417881186 2.42646813169 -0.54661122882 0.29275168625 2.41722636865 -0.53216265326 0.22456030385 2.51386318077 -0.52937648398 0.23312716948 2.50464463003 -0.52726948060 0.24190323241 2.49518945453 -0.52584175896 0.25082773023 2.48556333802 -0.52509343494 0.25983990052 2.47583196423 -0.52502462438 0.26887898087 2.46606101690 -0.52563544314 0.27788420887 2.45631617979 -0.52692600708 0.28679482210 2.44666313663 -0.52889643205 0.29555005816 2.43716757115 -0.53154683392 0.30408915462 2.42789516710 -0.51698284187 0.23565903482 2.52391424960 -0.51391440901 0.24432465204 2.51484404453 -0.51159428556 0.25316034413 2.50551872037 -0.51002268913 0.26210788594 2.49600087428 -0.50919983733 0.27110905230 2.48635310341 -0.50912594780 0.28010561807 2.47663800493 -0.50980123814 0.28903935809 2.46691817597 -0.51122592596 0.29785204721 2.45725621371 -0.51340022890 0.30648546026 2.44771471529 -0.51632436455 0.31488137209 2.43835627786 -0.50185863697 0.24653438583 2.53328822470 -0.49833565017 0.25534594209 2.52451884025 -0.49567342948 0.26426276295 2.51545234434 -0.49387231377 0.27322928513 2.50614813802 -0.49293264191 0.28218994537 2.49666562231 -0.49285475277 0.29108918040 2.48706419825 -0.49363898521 0.29987142694 2.47740326686 -0.49528567811 0.30848112172 2.46774222919 -0.49779517034 0.31686270148 2.45814048627 -0.50116780076 0.32496060293 2.44865743912 -0.48701172814 0.25722586243 2.54180941278 -0.48287014284 0.26621705926 2.53354000239 -0.47974309427 0.27522385018 2.52489906618 -0.47763106266 0.28419208151 2.51594418271 -0.47653452826 0.29306759956 2.50673293055 -0.47645397130 0.30179625063 2.49732288826 -0.47738987201 0.31032388104 2.48777163441 -0.47934271063 0.31859633710 2.47813674755 -0.48231296740 0.32655946512 2.46847580625 -0.48630112256 0.33415911141 2.45884638907 -0.47266380496 0.26777297018 2.54930212055 -0.46774782242 0.27696402317 2.54177851614 -0.46403946185 0.28605696714 2.53376762559 -0.46153936559 0.29499642876 2.52532806182 -0.46024817599 0.30372703467 2.51651843777 -0.46016653540 0.31219341154 2.50739736638 -0.46129508616 0.32034018603 2.49802346056 -0.46363447061 0.32811198479 2.48845533325 -0.46718533111 0.33545343449 2.47875159739 -0.47194831001 0.34230916179 2.46897086590 -0.45903655699 0.27821521463 2.55559065471 -0.45319862429 0.28761285346 2.54910536670 -0.44879871412 0.29677547517 2.54196676229 -0.44583765232 0.30564248058 2.53423882882 -0.44431626470 0.31415327055 2.52598555361 -0.44423537708 0.32224724592 2.51727092399 -0.44559581529 0.32986380754 2.50815892727 -0.44839840516 0.33694235625 2.49871355079 -0.45264397249 0.34342229291 2.48899878186 -0.45833334312 0.34924301835 2.47907860781 -0.44635167382 0.28859210134 2.56049932199 -0.43945248383 0.29818956977 2.55539153926 -0.43425703301 0.30739273556 2.54940521602 -0.43076635263 0.31613039066 2.54261553719 -0.42898147398 0.32433132701 2.53509768771 -0.42890342836 0.33192433654 2.52692685250 -0.43053324706 0.33883821120 2.51817821649 -0.43387196136 0.34500174293 2.50892696462 -0.43892060256 0.35034372367 2.49924828181 -0.44568020194 0.35479294536 2.48921735298 -0.43483084500 0.29894313586 2.56385242909 -0.42673933644 0.30872019171 2.56050801902 -0.42065060041 0.31792210966 2.55599172648 -0.41656589629 0.32646031271 2.55039724039 -0.41448648344 0.33424622388 2.54381824968 -0.41441362125 0.34119126618 2.53634844330 -0.41634856909 0.34720686264 2.52808151017 -0.42029258633 0.35220443627 2.51911113923 -0.42624693234 0.35609541008 2.50953101940 -0.43421286650 0.35879120708 2.49943483962 -0.42469576012 0.30930782376 2.56547428272 -0.41528911749 0.31923073893 2.56432579118 -0.40821559824 0.32837695877 2.56163503340 -0.40347671307 0.33663240040 2.55752299189 -0.40107397268 0.34388298098 2.55211064919 -0.40100888777 0.35001461764 2.54551898781 -0.40328296902 0.35491322751 2.53786899027 -0.40789772715 0.35846472773 2.52928163909 -0.41485467286 0.36055503545 2.51987791679 -0.42415531683 0.36107006780 2.50977880590 -0.59996724574 0.21377526139 2.50349571685 -0.60252845878 0.22234829542 2.49423981693 -0.60443425707 0.23112626254 2.48474449830 -0.60568463405 0.24004846124 2.47507797186 -0.60627958315 0.24905419004 2.46530844850 -0.60621909780 0.25808274742 2.45550413911 -0.60550317142 0.26707343190 2.44573325460 -0.60413179745 0.27596554195 2.43606400584 -0.60210496930 0.28469837610 2.42656460375 -0.59942268042 0.29321123283 2.41730325921 -0.58474908576 0.22515126292 2.51402877748 -0.58726811482 0.23376530376 2.50481455321 -0.58914101983 0.24257101959 2.49535729683 -0.59036778138 0.25150876488 2.48572373892 -0.59094838007 0.26051889413 2.47598061007 -0.59088279647 0.26954176179 2.46619464085 -0.59017101119 0.27851772234 2.45643256187 -0.58881300480 0.28738713027 2.44676110369 -0.58680875789 0.29609034004 2.43724699690 -0.58415825106 0.30456770614 2.42795697209 -0.56888316701 0.23625680613 2.52406054994 -0.57123832777 0.24497346524 2.51499358942 -0.57298714910 0.25384192315 2.50566558311 -0.57412964038 0.26280505185 2.49614015231 -0.57466581103 0.27180572331 2.48648091832 -0.57459567042 0.28078680951 2.47675150242 -0.57391922797 0.28969118242 2.46701552591 -0.57263649307 0.29846171403 2.45733661009 -0.57074747511 0.30704127631 2.44777837625 -0.56825218350 0.31537274124 2.43840444569 -0.55265465389 0.24713208148 2.53341561026 -0.55466068086 0.25599852232 2.52464822774 -0.55614661335 0.26495131947 2.51557843405 -0.55711253122 0.27393595180 2.50626659974 -0.55755851431 0.28289789818 2.49677309533 -0.55748464247 0.29178263745 2.48715829134 -0.55689099554 0.30053564849 2.47748255831 -0.55577765336 0.30910241017 2.46780626676 -0.55414469579 0.31742840134 2.45818978722 -0.55199220266 0.32545910086 2.44869349022 -0.53634871081 0.25781727940 2.54191853445 -0.53775675729 0.26686621745 2.53364977032 -0.53879338107 0.27591155478 2.52500492654 -0.53945877406 0.28490009441 2.51604246890 -0.53975312820 0.29377863931 2.50682086318 -0.53967663542 0.30249399249 2.49739857517 -0.53922948763 0.31099295693 2.48783407065 -0.53841187676 0.31922233563 2.47818581541 -0.53722399473 0.32712893158 2.46851227523 -0.53566603347 0.33465954777 2.45887191590 -0.52025050218 0.26835259036 2.54939389852 -0.52074814030 0.27760229308 2.54186951934 -0.52110142072 0.28673497532 2.53385413746 -0.52131068908 0.29569610932 2.52540714747 -0.52137629100 0.30443116730 2.51658794394 -0.52129857210 0.31288562148 2.50745592142 -0.52107787800 0.32100494409 2.49807047449 -0.52071455435 0.32873460735 2.48849099773 -0.52020894675 0.33602008348 2.47877688569 -0.51956140084 0.34280684472 2.46898753295 -0.50464519240 0.27877820480 2.55566627849 -0.50385641310 0.28823249167 2.54917877695 -0.50324470081 0.29743392733 2.54203514372 -0.50281059645 0.30632262622 2.53430002317 -0.50255464097 0.31483870273 2.52603805968 -0.50247737532 0.32292227131 2.51731389764 -0.50257934042 0.33051344634 2.50819218143 -0.50286107722 0.33755234227 2.49873755543 -0.50332312667 0.34397907350 2.48901466403 -0.50396602969 0.34973375444 2.47908815160 -0.48981794587 0.28913431317 2.56056025036 -0.48730315892 0.29878255566 2.55544884534 -0.48539718979 0.30802075704 2.54945702220 -0.48410081633 0.31677827475 2.54266048367 -0.48341481642 0.32498446619 2.53513493249 -0.48333996790 0.33256868882 2.52695607136 -0.48387704863 0.33946030006 2.51819960303 -0.48502683648 0.34558865733 2.50894123022 -0.48679010930 0.35088311807 2.49925665565 -0.48916764494 0.35527303971 2.48922158206 -0.47605392701 0.29946110591 2.56390039016 -0.47130996098 0.30927822752 2.56055102665 -0.46773285615 0.31850781070 2.55602884979 -0.46532366891 0.32706168458 2.55042791668 -0.46408345562 0.33485167827 2.54384228443 -0.46401327265 0.34178962090 2.53636601013 -0.46511417639 0.34778734159 2.52809315088 -0.46738722320 0.35275666946 2.51911776380 -0.47083346945 0.35660943364 2.50953390599 -0.47545397152 0.35925746325 2.49943563455 -0.46363830022 0.30979877348 2.56551127389 -0.45609840249 0.31974524969 2.56435662307 -0.45042566838 0.32890743454 2.56165970340 -0.44662147434 0.33717148537 2.55754170990 -0.44468719686 0.34442355954 2.55212383758 -0.44462421240 0.35054981440 2.54552728146 -0.44643389745 0.35543640730 2.53787323656 -0.45011762847 0.35896949561 2.52928289788 -0.45567678194 0.36103523667 2.51987746046 -0.46311273434 0.36151978783 2.50977811929 -0.65188505134 0.21540337413 2.50250850221 -0.65995302096 0.22369790064 2.49360586390 -0.66598890345 0.23224328657 2.48439058913 -0.66999302835 0.24096210882 2.47495093834 -0.67196572519 0.24977694430 2.46537517193 -0.67190732350 0.25861036990 2.45575155032 -0.66981815282 0.26738496253 2.44616833393 -0.66569854269 0.27602329908 2.43671378317 -0.65954882264 0.28444795647 2.42747615846 -0.65136932221 0.29258151159 2.41854372020 -0.63647999007 0.22679764044 2.51302089937 -0.64456654574 0.23513338892 2.50415505989 -0.65061554269 0.24370548036 2.49497525019 -0.65462718883 0.25243800098 2.48556790359 -0.65660169206 0.26125503701 2.47601945339 -0.65653926029 0.27008067466 2.46641633289 -0.65444010141 0.27883900017 2.45684497539 -0.65030442335 0.28745409977 2.44739181419 -0.64413243400 0.29585005967 2.43814328262 -0.63592434127 0.30395096610 2.42918581395 -0.61998122445 0.23791166823 2.52302666141 -0.62802671671 0.24634701757 2.51429335588 -0.63404409816 0.25497698954 2.50523462061 -0.63803350303 0.26372923236 2.49593270482 -0.63999506554 0.27253139427 2.48646985769 -0.63992891991 0.28131112348 2.47692832844 -0.63783520039 0.28999606823 2.46739036625 -0.63371404119 0.29851387674 2.45793822033 -0.62756557655 0.30679219724 2.44865413987 -0.61938994069 0.31475867796 2.43962037407 -0.60273311425 0.24877335593 2.53235653375 -0.61054510091 0.25735241414 2.52389706787 -0.61638660514 0.26605908026 2.51508092210 -0.62025773941 0.27482506736 2.50598549159 -0.62215861619 0.28358208849 2.49668817154 -0.62208934794 0.29226185672 2.48726635710 -0.62005004715 0.30079608510 2.47779744347 -0.61604082627 0.30911648670 2.46835882580 -0.61006179777 0.31715477457 2.45902789928 -0.60211307413 0.32484266177 2.44988205907 -0.58508001923 0.25941060197 2.54084126178 -0.59233326536 0.26816320618 2.53284251189 -0.59775509890 0.27695301868 2.52442637637 -0.60134566645 0.28571477036 2.51566641351 -0.60310511460 0.29438319209 2.50663618162 -0.60303358994 0.30289301474 2.49740923902 -0.60113123909 0.31117896920 2.48805914399 -0.59739820862 0.31917578633 2.47865945486 -0.59183464514 0.32681819702 2.46928372991 -0.58444069524 0.33404093213 2.46000552746 -0.56736629914 0.26985130477 2.54831159088 -0.57360277709 0.27879302124 2.54100600393 -0.57826161473 0.28766007096 2.53318320513 -0.58134305262 0.29638760577 2.52491562015 -0.58284733135 0.30491077748 2.51627567465 -0.58277469148 0.31316473793 2.50733579431 -0.58112537361 0.32108463894 2.49816840478 -0.57789961830 0.32860563234 2.48884593173 -0.57309766613 0.33566286996 2.47944080084 -0.56671975769 0.34219150363 2.47002543777 -0.54993631374 0.28012336277 2.55459826646 -0.55456520314 0.28925548689 2.54826386001 -0.55801818790 0.29818150326 2.54126363012 -0.56029566640 0.30683283797 2.53367326111 -0.56139803701 0.31514091707 2.52556843732 -0.56132569812 0.32303716663 2.51702484310 -0.56007904811 0.33045301273 2.50811816277 -0.55765848535 0.33731988142 2.49892408066 -0.55406440823 0.34356919878 2.48951828113 -0.54929721513 0.34913239088 2.47997644850 -0.53313442279 0.29025467439 2.55953203391 -0.53543211054 0.29956423067 2.55449239614 -0.53713685370 0.30851858174 2.54857987303 -0.53824927626 0.31703973136 2.54187948597 -0.53877000218 0.32504968327 2.53447625633 -0.53869965543 0.33247044123 2.52645520552 -0.53803885999 0.33922400898 2.51790135491 -0.53678823983 0.34523239027 2.50889972589 -0.53494841892 0.35041758884 2.49953533985 -0.53252002124 0.35470160846 2.48989321817 -0.51730498605 0.30027313806 2.56294363863 -0.51641506631 0.30973288014 2.55956792833 -0.51572964741 0.31867257256 2.55504415559 -0.51524965067 0.32699755034 2.54947444431 -0.51497599742 0.33461314851 2.54296091838 -0.51490960897 0.34142470209 2.53560570170 -0.51505140665 0.34733754610 2.52751091816 -0.51540231178 0.35225701557 2.51877869165 -0.51596324567 0.35608844552 2.50951114607 -0.51673512966 0.35873717098 2.49981040531 -0.50279236327 0.31020665220 2.56466382601 -0.49772563748 0.31977506285 2.56336677258 -0.49390860430 0.32864474187 2.56056869951 -0.49134255811 0.33669555930 2.55639828573 -0.49002879332 0.34380738519 2.55098421018 -0.48996860431 0.34986008957 2.54445515178 -0.49116328549 0.35473354250 2.53693978947 -0.49361413125 0.35830761403 2.52856680219 -0.49732243597 0.36046217419 2.51946486886 -0.50228949407 0.36107709303 2.50976266841 -0.70119027251 0.21805992614 2.50033449120 -0.71554143875 0.22576002825 2.49213349704 -0.72628928401 0.23381845880 2.48348051198 -0.73343474674 0.24212322567 2.47450282411 -0.73697876540 0.25056233671 2.46532772158 -0.73692227845 0.25902379981 2.45608249248 -0.73326622433 0.26739562284 2.44689442493 -0.72601154151 0.27556581367 2.43789080706 -0.71515916843 0.28342238017 2.42919892697 -0.70071004356 0.29085333022 2.42094607278 -0.68565058088 0.22947602954 2.51082623602 -0.70007203547 0.23721457620 2.50265307257 -0.71087220542 0.24529519287 2.49403091562 -0.71805181306 0.25360825534 2.48508449058 -0.72161158074 0.26204413939 2.47593852285 -0.72155223082 0.27049322081 2.46671773783 -0.71787448565 0.27884587539 2.45754686093 -0.71057906758 0.28699247892 2.44855061756 -0.69966669895 0.29482340719 2.43985373312 -0.68513810212 0.30222903597 2.43158093302 -0.66866446934 0.24060075918 2.52080069003 -0.68314348576 0.24842846821 2.51273170208 -0.69398643073 0.25655374837 2.50421490485 -0.70119384545 0.26487262903 2.49536869652 -0.70476627113 0.27328113953 2.48631147528 -0.70470424898 0.28167530922 2.47716163931 -0.70100832019 0.28995116748 2.46803758679 -0.69367902597 0.29800474365 2.45905771590 -0.68271690753 0.30573206709 2.45034042483 -0.66812250608 0.31302916716 2.44200411176 -0.65060846801 0.25143646694 2.53010062290 -0.66493817577 0.25939118156 2.52225534170 -0.67566877523 0.26757411233 2.51395056911 -0.68280067351 0.27588831660 2.50529669179 -0.68633427774 0.28423685172 2.49640409639 -0.68626999503 0.29252277503 2.48738316957 -0.68260823250 0.30064914388 2.47834429797 -0.67534939729 0.30851901562 2.46939786826 -0.66449389650 0.31603544760 2.46065426708 -0.65004213726 0.32310149716 2.45222388108 -0.63185910698 0.26198550468 2.53856880430 -0.64563849165 0.27009219353 2.53110994756 -0.65595605420 0.27833627177 2.52315599786 -0.66281212682 0.28662728794 2.51480972623 -0.66620704171 0.29487479058 2.50617390369 -0.66614113109 0.30298832821 2.49735130126 -0.66261472716 0.31087744937 2.48844468996 -0.65562816211 0.31845170260 2.47955684081 -0.64518176816 0.32562063642 2.47079052483 -0.63127587751 0.33229379937 2.46224851305 -0.61279291635 0.27225022426 2.54604800390 -0.62542681956 0.28052098138 2.53918147579 -0.63488508290 0.28882021370 2.53174928056 -0.64116803494 0.29706151291 2.52384904969 -0.64427600421 0.30515847070 2.51557841468 -0.64420931929 0.31302467874 2.50703500702 -0.64096830871 0.32057372872 2.49831645821 -0.63455330105 0.32771921233 2.48952039972 -0.62496462484 0.33437472125 2.48074446307 -0.61220260865 0.34045384717 2.47208627973 -0.59378642622 0.28223297756 2.55238099135 -0.60448554564 0.29066702240 2.54635588251 -0.61249267663 0.29900592516 2.53964850665 -0.61780822746 0.30716296139 2.53235591201 -0.62043260640 0.31505140668 2.52457514688 -0.62036622173 0.32258453659 2.51640325952 -0.61760948173 0.32967562671 2.50793729820 -0.61216279468 0.33623795259 2.49927431119 -0.60402656885 0.34218478982 2.49051134676 -0.59320121252 0.34742941397 2.48174545318 -0.57521616668 0.29193611644 2.55741053632 -0.58299705606 0.30051979387 2.55251912387 -0.58881565067 0.30887339315 2.54677176559 -0.59267253396 0.31690360324 2.54027156304 -0.59456828943 0.32451711312 2.53312161779 -0.59450350055 0.33162061175 2.52542503139 -0.59247875078 0.33812078810 2.51728490540 -0.58849462361 0.34392433114 2.50880434138 -0.58255170251 0.34893792984 2.50008644089 -0.57465057095 0.35306827315 2.49123430549 -0.55745866785 0.30136199276 2.56097940848 -0.56114373697 0.31006877305 2.55755715597 -0.56389082028 0.31840260469 2.55303714683 -0.56570078402 0.32625540834 2.54753725262 -0.56657449446 0.33351910463 2.54117534492 -0.56651281784 0.34008561420 2.53406929528 -0.56551662041 0.34584685769 2.52633697528 -0.56358676843 0.35069475574 2.51809625647 -0.56072412814 0.35452122900 2.50946501042 -0.55692956579 0.35721819811 2.50056110870 -0.54089045983 0.31051295839 2.56293037750 -0.53910797452 0.31930343722 2.56135593495 -0.53775500075 0.32757354682 2.55836273982 -0.53683280722 0.33519034656 2.55409423060 -0.53634266264 0.34202089580 2.54869384579 -0.53628583573 0.34793225390 2.54230502386 -0.53666359519 0.35279148023 2.53507120331 -0.53747720973 0.35646563415 2.52713582264 -0.53872794805 0.35882177503 2.51864232034 -0.54041707887 0.35972696223 2.50973413490 -0.74614338341 0.22172181800 2.49695910746 -0.76806952465 0.22851841608 2.48980846098 -0.78449791092 0.23584109948 2.48200069922 -0.79543025958 0.24352543039 2.47372107812 -0.80086828800 0.25140697101 2.46515485361 -0.80081371352 0.25932128353 2.45648728165 -0.79526825351 0.26710393013 2.44790361817 -0.78423362532 0.27459047302 2.43958911912 -0.76771154632 0.28161647438 2.43172904045 -0.74570373384 0.28801749640 2.42450863809 -0.73055607291 0.23316302335 2.50743147701 -0.75258484275 0.23999201680 2.50029551376 -0.76909016423 0.24732873524 2.49251189409 -0.78007348581 0.25501234476 2.48426215840 -0.78553625594 0.26288201149 2.47572784708 -0.78547992309 0.27077690153 2.46709050051 -0.77990593573 0.27853618102 2.45853165909 -0.76881574231 0.28599901605 2.45023286320 -0.75221079131 0.29300457276 2.44237565325 -0.73009253118 0.29939201725 2.43514156961 -0.71332035685 0.24430121705 2.51737074180 -0.73545254486 0.25120097632 2.51029698620 -0.75203544479 0.25856040473 2.50259550780 -0.76307023606 0.26622744339 2.49443829216 -0.76855809809 0.27405003343 2.48599732482 -0.76850021032 0.28187611597 2.47744459136 -0.76289775216 0.28955363214 2.46895207734 -0.75175190304 0.29693052308 2.46069176832 -0.73506384239 0.30385472989 2.45283564986 -0.71283474962 0.31017419371 2.44555570752 -0.69479516513 0.25509967225 2.52663750544 -0.71678917089 0.26209838860 2.51971303024 -0.73326849402 0.26948448271 2.51217813573 -0.74423406871 0.27711738435 2.50419207855 -0.74968682916 0.28485652327 2.49591411535 -0.74962770954 0.29256132923 2.48750350278 -0.74405764405 0.30009123197 2.47911949748 -0.73297756687 0.30730566127 2.47092135610 -0.71638841219 0.31406404686 2.46306833529 -0.69429111419 0.32022581851 2.45571969168 -0.67533942766 0.26552166208 2.53509237158 -0.69671126077 0.27263734757 2.52844379779 -0.71272405337 0.28004934395 2.52118637323 -0.72337854216 0.28762882573 2.51346611675 -0.72867546383 0.29524696747 2.50542904717 -0.72861555508 0.30277494370 2.49722118332 -0.72319955262 0.31008392897 2.48898854405 -0.71242819314 0.31704509781 2.48087714817 -0.69630221333 0.32352962476 2.47303301454 -0.67482234991 0.32940868436 2.46560216196 -0.65531207433 0.27553045968 2.54259594384 -0.67533535445 0.28277094722 2.53638944077 -0.69033686429 0.29020336319 2.52954681569 -0.70031721477 0.29770842560 2.52220300592 -0.70527701679 0.30516685246 2.51449294877 -0.70521688126 0.31245936179 2.50655158156 -0.70013741909 0.31946667159 2.49851384159 -0.69003924119 0.32606949988 2.49051466617 -0.67492295846 0.33214856467 2.48268899261 -0.65478918181 0.33758458397 2.47517175823 -0.63507203505 0.28508933819 2.54900882586 -0.65277799184 0.29245228149 2.54345011110 -0.66604166821 0.29989491520 2.53718605847 -0.67486364492 0.30730284204 2.53034534524 -0.67924450273 0.31456166469 2.52305664868 -0.67918482240 0.32155698588 2.51544864606 -0.67468518470 0.32817440830 2.50765001464 -0.66574617037 0.33429953467 2.49978943171 -0.65236836018 0.33981796769 2.49199557452 -0.63455233490 0.34461531005 2.48439712034 -0.61497823970 0.29416157074 2.55419162127 -0.62915571289 0.30163444434 2.54952596071 -0.63977320659 0.30907237474 2.54403069694 -0.64683139101 0.31635873311 2.53783573387 -0.65033093636 0.32337689060 2.53107097538 -0.65027251284 0.33001021837 2.52386632538 -0.64665679066 0.33614208757 2.51635168777 -0.63948444003 0.34165586936 2.50865696642 -0.62875613114 0.34643493489 2.50091206526 -0.61447253422 0.35036265533 2.49324688816 -0.59538961819 0.30271043047 2.55800493369 -0.60458505752 0.31027052972 2.55451714151 -0.61146622086 0.31768411657 2.55000732648 -0.61603401141 0.32482275691 2.54461677098 -0.61828933235 0.33155801664 2.53848675739 -0.61823308689 0.33776146166 2.53175856811 -0.61586617821 0.34330465785 2.52457348550 -0.61118950951 0.34805917113 2.51707279195 -0.60420398396 0.35189656738 2.50939776984 -0.59491050478 0.35468841250 2.50168970155 -0.57666510042 0.31069919052 2.56030936677 -0.57918256566 0.31831363160 2.55832380543 -0.58105545246 0.32567851544 2.55504254245 -0.58228506449 0.33264157150 2.55063105574 -0.58287270541 0.33905052924 2.54525482322 -0.58281967889 0.34475311813 2.53907932279 -0.58212728858 0.34959706761 2.53227003238 -0.58079683815 0.35343010716 2.52499242990 -0.57882963127 0.35609996623 2.51741199326 -0.57622697160 0.35745437428 2.50969420037 -0.78500485819 0.22636595028 2.49236777461 -0.81631309114 0.23195680193 2.48661650032 -0.83977729635 0.23830052883 2.47993758326 -0.85540003721 0.24516234162 2.47259314927 -0.86318387715 0.25230745094 2.46484532420 -0.86313137958 0.25950106743 2.45695623390 -0.85524510791 0.26650840173 2.44918800421 -0.83952762556 0.27309466447 2.44180276098 -0.81598149594 0.27902506630 2.43506263005 -0.78460928246 0.28406481785 2.42922973726 -0.76949168087 0.23783521500 2.50282331193 -0.80090522632 0.24344886196 2.49706930597 -0.82444857537 0.24979468559 2.49040578660 -0.84012403883 0.25664308606 2.48308956560 -0.84793392748 0.26376446352 2.47537745473 -0.84788055209 0.27092921814 2.46752626575 -0.83996622347 0.27790775008 2.45979281043 -0.82419325239 0.28447045949 2.45243390053 -0.80056394964 0.29038774655 2.44570634782 -0.76908062600 0.29543001140 2.43986696406 -0.75233634213 0.24899017990 2.51272492273 -0.78381780393 0.25464770109 2.50697756644 -0.80741243831 0.26098516368 2.50036550147 -0.82312224324 0.26778587699 2.49313165646 -0.83094921669 0.27483315031 2.48551896006 -0.83089535666 0.28191029294 2.47777034092 -0.82296266112 0.28880061418 2.47012872771 -0.80715312805 0.29528742332 2.46283704907 -0.78346875544 0.30115402966 2.45613823365 -0.75191154126 0.30618374251 2.45027521010 -0.73380765559 0.25974122960 2.52195680910 -0.76504735170 0.26545759925 2.51626011453 -0.78846113189 0.27177825842 2.50975438258 -0.80405066019 0.27850395541 2.50266353008 -0.81181760065 0.28543543854 2.49521147387 -0.81176361732 0.29237345613 2.48762213077 -0.80389037425 0.29911875649 2.48011941763 -0.78819953548 0.30547208794 2.47292725128 -0.76469276505 0.31123419878 2.46626954856 -0.73337172702 0.31620583733 2.46037022629 -0.71417443488 0.26999874872 2.53040317316 -0.74459039733 0.27578283640 2.52483578303 -0.76738690285 0.28208026511 2.51851008468 -0.78256529946 0.28871056230 2.51162929474 -0.79012693522 0.29549325545 2.50439662985 -0.79007315813 0.30224787203 2.49701530665 -0.78240531625 0.30879393951 2.48968854178 -0.76712475759 0.31495098535 2.48261955187 -0.74423283019 0.32053853702 2.47601155357 -0.71373088209 0.32537612200 2.47006776351 -0.69370549362 0.27967312187 2.53794821700 -0.72244346851 0.28552769248 2.53262340473 -0.74398199792 0.29179747906 2.52657026249 -0.75832217084 0.29831893866 2.51997305868 -0.76546507625 0.30492852828 2.51301606169 -0.76541180314 0.31146270495 2.50588353990 -0.75816344049 0.31775792570 2.49875976171 -0.74372107731 0.32365064755 2.49182899552 -0.72208580257 0.32897732753 2.48527550970 -0.69325870526 0.33357442265 2.47928357266 -0.67266964544 0.28867473367 2.54447614272 -0.69860309297 0.29459644741 2.53954181241 -0.71803866386 0.30083619560 2.53387257074 -0.73097728408 0.30724232546 2.52763893016 -0.73741987960 0.31366318425 2.52101140306 -0.73736737638 0.31994711919 2.51416050188 -0.73082070038 0.32594247755 2.50725673903 -0.71778077756 0.33149760654 2.50047062692 -0.69824853390 0.33646085343 2.49397267799 -0.67222489536 0.34068056544 2.48793340464 -0.65133570396 0.29691396872 2.54987115244 -0.67306579839 0.30289338115 2.54550983886 -0.68934914739 0.30910271002 2.54035466417 -0.70018664897 0.31539396371 2.53457101742 -0.70557920114 0.32161915060 2.52832428766 -0.70552770190 0.32763027908 2.52177986393 -0.70003304928 0.33327935752 2.51510313529 -0.68909614127 0.33841839432 2.50845949078 -0.67271787590 0.34289939786 2.50201431944 -0.65089915116 0.34657437651 2.49593301033 -0.62997248281 0.30430121165 2.55401744824 -0.64582811249 0.31032277363 2.55044631687 -0.65770569525 0.31650331764 2.54595419750 -0.66560627527 0.32268709439 2.54071342873 -0.66953089671 0.32871835457 2.53489634917 -0.66948060376 0.33444134891 2.52867529742 -0.66545644059 0.33970032811 2.52222261209 -0.65745945137 0.34433954288 2.51571063178 -0.64549068028 0.34820324394 2.50931169509 -0.62955117149 0.35113568199 2.50319814065 -0.60884879560 0.31074684706 2.55679923224 -0.61688656297 0.31678890480 2.55427007924 -0.62290055419 0.32294431378 2.55060882547 -0.62689217276 0.32903495848 2.54601027234 -0.62886282219 0.33488272339 2.54066922127 -0.62881390600 0.34030949300 2.53478047368 -0.62674682769 0.34513715178 2.52853883099 -0.62266299077 0.34918758422 2.52213909461 -0.61656379875 0.35228267481 2.51577606596 -0.60845065514 0.35424430804 2.50964454647 </DataArray>
</Points>
</Piece>
</StructuredGrid>
</VTKFile>
