<?xml version="1.0"?>
<VTKFile type="StructuredGrid" version="0.1">
<StructuredGrid WholeExtent="0 9 0 9 0 9">
<Piece Extent="0 9 0 9 0 9">
<PointData>
<DataArray type="Float32" Name="Deformation" format="ascii" NumberOfComponents="3">
0.00004105327 0.04013857501 0.00379845849 0.00004599524 0.04023354086 0.00390047652 0.00004914054 0.04033530350 0.00402620763 0.00005192942 0.04044564308 0.00416449424 0.00005580212 0.04056633971 0.00430417875 0.00006219891 0.04069917351 0.00443410359 0.00007256001 0.04084592460 0.00454311118 0.00008832569 0.04100837310 0.00462004392 0.00011093619 0.04118829915 0.00465374423 0.00014183175 0.04138748285 0.00463305454 0.00004410987 0.03993031925 0.00376231495 0.00005045241 0.03999603273 0.00387605704 0.00005498860 0.04007377799 0.00401207089 0.00005886934 0.04016256559 0.00416054780 0.00006324552 0.04026140608 0.00431167908 0.00006926803 0.04036931003 0.00445565603 0.00007808776 0.04048528799 0.00458266998 0.00009085559 0.04060835051 0.00468291223 0.00010872243 0.04073750816 0.00474657409 0.00013283916 0.04087177149 0.00476384687 0.00004581501 0.03969440432 0.00373728223 0.00005304828 0.03973326534 0.00385994999 0.00005834437 0.03978470404 0.00400402656 0.00006265718 0.03984653343 0.00416065053 0.00006694057 0.03991656655 0.00432096051 0.00007214845 0.03999261642 0.00447609508 0.00007923469 0.04007249606 0.00461719284 0.00008915317 0.04015401849 0.00473539239 0.00010285779 0.04023499674 0.00482183233 0.00012130242 0.04031324384 0.00486765124 0.00004630345 0.03943923038 0.00372312418 0.00005394087 0.03945337285 0.00385193199 0.00005945594 0.03947722318 0.00400180013 0.00006367457 0.03950852930 0.00416443648 0.00006742266 0.03954503916 0.00433154892 0.00007152612 0.03958450067 0.00449484532 0.00007681084 0.03962466177 0.00464603357 0.00008410274 0.03966327038 0.00477682155 0.00009422772 0.03969807445 0.00487891713 0.00010801168 0.03972682189 0.00494402820 0.00004570997 0.03917319760 0.00371960463 0.00005328820 0.03916448941 0.00385177968 0.00005857139 0.03916047694 0.00400511711 0.00006230317 0.03915953589 0.00417153968 0.00006522717 0.03916004194 0.00434297017 0.00006808700 0.03916037078 0.00451133134 0.00007162628 0.03915889808 0.00466854597 0.00007658864 0.03915399954 0.00480653682 0.00008371770 0.03914405084 0.00491722667 0.00009375708 0.03912742766 0.00499253829 0.00004416932 0.03890470615 0.00372648740 0.00005124827 0.03887474917 0.00385926968 0.00005593880 0.03884360685 0.00401370298 0.00005892464 0.03881053588 0.00418159417 0.00006088948 0.03877479294 0.00435475013 0.00006251705 0.03873563474 0.00452497774 0.00006449105 0.03869231796 0.00468408386 0.00006749519 0.03864409931 0.00482387537 0.00007221319 0.03859023547 0.00493615914 0.00007932876 0.03852998315 0.00501274203 0.00004181627 0.03864215619 0.00374353635 0.00004797910 0.03859228631 0.00387417862 0.00005180626 0.03853575444 0.00402728323 0.00005392061 0.03847251195 0.00419423399 0.00005494498 0.03840251020 0.00436641468 0.00005550223 0.03832570055 0.00453520910 0.00005621520 0.03824203438 0.00469200105 0.00005770672 0.03815146304 0.00482817432 0.00006059966 0.03805393791 0.00493511269 0.00006551686 0.03794941035 0.00500419998 0.00003878559 0.03839394788 0.00377051530 0.00004363870 0.03832523497 0.00389628313 0.00004642186 0.03824606124 0.00404558337 0.00004767274 0.03815644680 0.00420909317 0.00004792906 0.03805641176 0.00437748968 0.00004772850 0.03794597622 0.00454145002 0.00004760877 0.03782516029 0.00469165135 0.00004810757 0.03769398408 0.00481877081 0.00004976258 0.03755246771 0.00491348553 0.00005311152 0.03740063127 0.00496647266 0.00003521203 0.03816848140 0.00380718810 0.00003838510 0.03808172932 0.00392535984 0.00004003366 0.03798366878 0.00406832889 0.00004056268 0.03787332311 0.00422580577 0.00004037708 0.03774971565 0.00438750099 0.00003988182 0.03761186972 0.00454312509 0.00003948182 0.03745880866 0.00468238858 0.00003958204 0.03728955578 0.00479500198 0.00004058742 0.03710313442 0.00487067582 0.00004290289 0.03689856791 0.00489912061 0.00003123038 0.03797415690 0.00385331857 0.00003237629 0.03786990350 0.00396118538 0.00003288977 0.03775771858 0.00409524528 0.00003297208 0.03763412358 0.00424400580 0.00003282445 0.03749563993 0.00439597449 0.00003264814 0.03733878907 0.00453965889 0.00003264440 0.03716009244 0.00466356654 0.00003301448 0.03695607148 0.00475620497 0.00003395963 0.03672324761 0.00480608174 0.00003568110 0.03645814228 0.00480170437 0.00003310610 0.04022951311 0.00375989071 0.00003637868 0.04037424321 0.00387344966 0.00003879592 0.04051239439 0.00400971983 0.00004110867 0.04064831056 0.00415875020 0.00004406777 0.04078633558 0.00431058976 0.00004842408 0.04093081337 0.00445528747 0.00005492847 0.04108608780 0.00458289233 0.00006433177 0.04125650277 0.00468345332 0.00007738484 0.04144640216 0.00474701940 0.00009483854 0.04166012987 0.00476363957 0.00003517405 0.03999839490 0.00370109752 0.00003943615 0.04010517615 0.00383170126 0.00004260199 0.04021159353 0.00398256875 0.00004527641 0.04031923573 0.00414573837 0.00004806424 0.04042969147 0.00431324854 0.00005157032 0.04054454943 0.00447713767 0.00005639950 0.04066539832 0.00462944415 0.00006315659 0.04079382684 0.00476220640 0.00007244645 0.04093142368 0.00486746282 0.00008487391 0.04107977755 0.00493725181 0.00003631735 0.03974508716 0.00365902228 0.00004114281 0.03981631767 0.00380260863 0.00004465440 0.03989004976 0.00396478551 0.00004735232 0.03996633494 0.00413902667 0.00004973677 0.04004522476 0.00431880588 0.00005230794 0.04012677074 0.00449759691 0.00005556601 0.04021102441 0.00466887351 0.00006001119 0.04029803731 0.00482610945 0.00006614365 0.04038786095 0.00496277849 0.00007446361 0.04048054688 0.00507235440 0.00003660901 0.03947626155 0.00363348429 0.00004161511 0.03951388902 0.00378600169 0.00004513325 0.03955445698 0.00395615566 0.00004759065 0.03959735469 0.00413832560 0.00004941454 0.03964197140 0.00432689089 0.00005103216 0.03968769639 0.00451623095 0.00005287074 0.03973391893 0.00470072515 0.00005535750 0.03978002827 0.00487475291 0.00005891967 0.03982541368 0.00503269360 0.00006398449 0.03986946444 0.00516892664 0.00003612205 0.03919858970 0.00362430285 0.00004096954 0.03920411144 0.00378171037 0.00004421864 0.03921150910 0.00395646476 0.00004624562 0.03922004146 0.00414334566 0.00004742673 0.03922896732 0.00433713271 0.00004813823 0.03923754547 0.00453260556 0.00004875639 0.03924503471 0.00472454385 0.00004965747 0.03925069381 0.00490772722 0.00005121772 0.03925378158 0.00507693532 0.00005381341 0.03925355680 0.00522694780 0.00003492948 0.03891874326 0.00363129727 0.00003932255 0.03889320616 0.00378956462 0.00004209068 0.03886790000 0.00396549837 0.00004357147 0.03884214177 0.00415379736 0.00004410250 0.03881524846 0.00434916046 0.00004402138 0.03878653708 0.00454628650 0.00004366570 0.03875532460 0.00473987434 0.00004337305 0.03872092803 0.00492462283 0.00004348102 0.03868266434 0.00509523082 0.00004432722 0.03863985055 0.00524639716 0.00003310431 0.03864339389 0.00365428684 0.00003679060 0.03858739443 0.00380939436 0.00003892946 0.03853032358 0.00398304203 0.00003982243 0.03847140211 0.00416939121 0.00003977104 0.03840985077 0.00436260326 0.00003907685 0.03834489030 0.00455683953 0.00003804138 0.03827574146 0.00474626139 0.00003696618 0.03820162501 0.00492503018 0.00003615280 0.03812176168 0.00508730727 0.00003590277 0.03803537225 0.00522725400 0.00003071955 0.03837921324 0.00369309086 0.00003349016 0.03829289748 0.00384102952 0.00003491509 0.03820547375 0.00400888130 0.00003525274 0.03811556899 0.00418983771 0.00003476153 0.03802181016 0.00437709025 0.00003369986 0.03792282422 0.00456383043 0.00003232616 0.03781723813 0.00474324975 0.00003089883 0.03770367884 0.00490853971 0.00002967627 0.03758077330 0.00505289184 0.00002891691 0.03744714849 0.00516949762 0.00002784823 0.03813287294 0.00374752864 0.00002953770 0.03801593657 0.00388430004 0.00003022766 0.03790004439 0.00404280174 0.00003011663 0.03778238891 0.00421484736 0.00002940313 0.03766016259 0.00439225055 0.00002828567 0.03753055795 0.00456682494 0.00002696276 0.03739076746 0.00473038417 0.00002563292 0.03723798361 0.00487474187 0.00002449466 0.03706939891 0.00499171170 0.00002374649 0.03688220584 0.00507310728 0.00002456336 0.03791104464 0.00381741946 0.00002504967 0.03776273292 0.00393903586 0.00002504727 0.03762072941 0.00408458890 0.00002466834 0.03747960836 0.00424413067 0.00002402503 0.03733394399 0.00440771328 0.00002322949 0.03717831056 0.00456538883 0.00002239390 0.03700728229 0.00470720940 0.00002163041 0.03681543343 0.00482322710 0.00002105117 0.03659733821 0.00490349403 0.00002076836 0.03634757088 0.00493806227 0.00002416881 0.04029769070 0.00373094127 0.00002619994 0.04047974278 0.00385315463 0.00002791108 0.04064518308 0.00399732691 0.00002964054 0.04080027859 0.00415441226 0.00003172663 0.04095129634 0.00431536484 0.00003450764 0.04110450335 0.00447113881 0.00003832189 0.04126616663 0.00461268832 0.00004350767 0.04144255321 0.00473096754 0.00005040330 0.04163993008 0.00481693061 0.00005934707 0.04186456429 0.00486153169 0.00002548120 0.04004942526 0.00365516053 0.00002816638 0.04018700538 0.00379840863 0.00003023430 0.04031492429 0.00396041399 0.00003196137 0.04043670446 0.00413460051 0.00003362400 0.04055586841 0.00431439206 0.00003549860 0.04067593861 0.00449321254 0.00003786158 0.04080043757 0.00466448581 0.00004098934 0.04093288776 0.00482163577 0.00004515829 0.04107681169 0.00495808631 0.00005064484 0.04123573185 0.00506726129 0.00002620125 0.03978307257 0.00360030318 0.00002922011 0.03987857763 0.00375957612 0.00003140410 0.03996902697 0.00393532577 0.00003298095 0.04005615108 0.00412277733 0.00003417840 0.04014168048 0.00431715602 0.00003522417 0.04022734566 0.00451368708 0.00003634601 0.04031487713 0.00470759572 0.00003777163 0.04040600540 0.00489410717 0.00003972879 0.04050246097 0.00506844664 0.00004244520 0.04060597436 0.00522583937 0.00002636406 0.03950400788 0.00356623009 0.00002944087 0.03955924610 0.00373652702 0.00003154224 0.03961234931 0.00392189282 0.00003285805 0.03966393781 0.00411871056 0.00003357819 0.03971463190 0.00432336329 0.00003389255 0.03976505188 0.00453223409 0.00003399102 0.03981581804 0.00474170602 0.00003406348 0.03986755070 0.00494816214 0.00003429983 0.03992087015 0.00514798554 0.00003488994 0.03997639669 0.00533755926 0.00002600470 0.03921760647 0.00355280217 0.00002890837 0.03923379736 0.00372913124 0.00003077044 0.03924974950 0.00391994576 0.00003175141 0.03926538402 0.00412216806 0.00003201174 0.03928062203 0.00433272044 0.00003171193 0.03929538466 0.00454852520 0.00003101245 0.03930959303 0.00476650466 0.00003007379 0.03932316825 0.00498358113 0.00002905642 0.03933603144 0.00519667691 0.00002812084 0.03934810373 0.00540271432 0.00002515827 0.03892924358 0.00355988033 0.00002770234 0.03890701796 0.00373725868 0.00002921047 0.03888608572 0.00392931519 0.00002981980 0.03886580908 0.00413291769 0.00002966743 0.03884555024 0.00434493403 0.00002889051 0.03882467142 0.00456223206 0.00002762615 0.03880253481 0.00478167962 0.00002601147 0.03877850262 0.00500014455 0.00002418360 0.03875193708 0.00521449470 0.00002227967 0.03872220038 0.00542159790 0.00002385988 0.03864429447 0.00358732545 0.00002590251 0.03858369447 0.00376077926 0.00002698407 0.03852621617 0.00394983169 0.00002722197 0.03847053237 0.00415072730 0.00002673363 0.03841531588 0.00435971066 0.00002563648 0.03835923952 0.00457302632 0.00002404794 0.03830097609 0.00478691886 0.00002208543 0.03823919841 0.00499763283 0.00001986638 0.03817257928 0.00520141281 0.00001750822 0.03809979152 0.00539450334 0.00002214460 0.03836813441 0.00363499843 0.00002358862 0.03826861347 0.00379956288 0.00002421298 0.03817499903 0.00398132586 0.00002411668 0.03808487325 0.00417536474 0.00002339870 0.03799581831 0.00437675687 0.00002215803 0.03790541638 0.00458057962 0.00002049366 0.03781124961 0.00478191034 0.00001850459 0.03771090019 0.00497582640 0.00001628979 0.03760195027 0.00515740517 0.00001394826 0.03748198202 0.00532172399 0.00002004753 0.03810613866 0.00370276018 0.00002084037 0.03796656151 0.00385347946 0.00002101895 0.03783729248 0.00402362832 0.00002066269 0.03771415110 0.00420659787 0.00001985102 0.03759295689 0.00439577925 0.00001866337 0.03746952938 0.00458456360 0.00001717917 0.03733968808 0.00476634203 0.00001547785 0.03719925254 0.00493450569 0.00001363885 0.03704404227 0.00508244570 0.00001174158 0.03686987679 0.00520355320 0.00001760376 0.03786368248 0.00379047158 0.00001773751 0.03768232517 0.00392239891 0.00001752373 0.03751795473 0.00407656965 0.00001701876 0.03736368529 0.00424419454 0.00001627896 0.03721263097 0.00441648437 0.00001536068 0.03705790591 0.00458464990 0.00001432029 0.03689262423 0.00473990189 0.00001321413 0.03670990005 0.00487345111 0.00001209857 0.03650284750 0.00497650834 0.00001102995 0.03626458070 0.00504028432 0.00001452476 0.04034311048 0.00371161273 0.00001562021 0.04055004205 0.00383959389 0.00001664103 0.04073367222 0.00398903157 0.00001771073 0.04090155033 0.00415148360 0.00001895280 0.04106122575 0.00431850778 0.00002049076 0.04122024782 0.00448166192 0.00002244811 0.04138616589 0.00463250384 0.00002494836 0.04156652932 0.00476259135 0.00002811502 0.04176888746 0.00486348226 0.00003207158 0.04200078967 0.00492673437 0.00001524811 0.04008341254 0.00362450615 0.00001671608 0.04024152235 0.00377618113 0.00001788072 0.04038377225 0.00394560872 0.00001884544 0.04051497404 0.00412713657 0.00001971368 0.04063993953 0.00431511230 0.00002058885 0.04076348054 0.00450388356 0.00002157439 0.04089040889 0.00468779798 0.00002277371 0.04102553640 0.00486120321 0.00002429025 0.04117367486 0.00501844687 0.00002622742 0.04133963611 0.00515387661 0.00001564392 0.03980836237 0.00356112677 0.00001728564 0.03992004675 0.00373085412 0.00001846838 0.04002163716 0.00391564897 0.00001927686 0.04011598344 0.00411190422 0.00001979580 0.04020593546 0.00431601277 0.00002010992 0.04029434307 0.00452436748 0.00002030393 0.04038405612 0.00473336125 0.00002046257 0.04047792447 0.00493938697 0.00002067055 0.04057879797 0.00513883753 0.00002101258 0.04068952648 0.00532810580 0.00001572637 0.03952247099 0.00352136322 0.00001737531 0.03958944538 0.00370350940 0.00001847429 0.03965090135 0.00389901295 0.00001909107 0.03970827985 0.00410559266 0.00001929344 0.03976302186 0.00432096738 0.00001914916 0.03981656831 0.00454285592 0.00001872601 0.03987036018 0.00476897709 0.00001809177 0.03992583840 0.00499704972 0.00001731420 0.03998444395 0.00522479264 0.00001646108 0.04004761778 0.00544992466 0.00001550966 0.03923024940 0.00350510412 0.00001703152 0.03925354836 0.00369404356 0.00001796869 0.03927519922 0.00389556128 0.00001837416 0.03929556458 0.00410800797 0.00001830087 0.03931500704 0.00432973435 0.00001780180 0.03933388921 0.00455909110 0.00001692990 0.03935257369 0.00479442894 0.00001573814 0.03937142308 0.00503409855 0.00001427949 0.03939079999 0.00527645065 0.00001260691 0.03941106702 0.00551983593 0.00001500796 0.03893620860 0.00351223810 0.00001630068 0.03891618583 0.00370235314 0.00001702187 0.03889816518 0.00390515459 0.00001721221 0.03888153891 0.00411895623 0.00001691237 0.03886569932 0.00434207186 0.00001616303 0.03885003868 0.00457281527 0.00001500485 0.03883394927 0.00480950023 0.00001347852 0.03881682337 0.00505044054 0.00001162471 0.03879805325 0.00529394998 0.00000948408 0.03877703120 0.00553834234 0.00001423547 0.03864485961 0.00354265380 0.00001522922 0.03858118793 0.00372833471 0.00001570408 0.03852343363 0.00392765351 0.00001569132 0.03846990417 0.00413824354 0.00001522222 0.03841890703 0.00435773814 0.00001432807 0.03836874966 0.00458377065 0.00001304015 0.03831773954 0.00481397441 0.00001138974 0.03826418414 0.00504598276 0.00000940813 0.03820639091 0.00527742905 0.00000712660 0.03814266733 0.00550594662 0.00001320637 0.03836071342 0.00359623985 0.00001386358 0.03825238478 0.00377188484 0.00001408558 0.03815463897 0.00396291867 0.00001389756 0.03806436165 0.00416567597 0.00001332469 0.03797843847 0.00437649137 0.00001239212 0.03789375507 0.00459169947 0.00001112505 0.03780719712 0.00480763492 0.00000954863 0.03771565026 0.00502063232 0.00000768805 0.03761600015 0.00522702631 0.00000556846 0.03750513243 0.00542315150 0.00001193484 0.03808828104 0.00367288487 0.00001225016 0.03793360652 0.00383290008 0.00001223665 0.03779541562 0.00401081070 0.00001191704 0.03766861266 0.00420105962 0.00001131405 0.03754810196 0.00439808975 0.00001045041 0.03742878784 0.00459634398 0.00000934882 0.03730557462 0.00479026519 0.00000803203 0.03717336661 0.00497429629 0.00000652274 0.03702706813 0.00514288016 0.00000484367 0.03686158351 0.00529045971 0.00001043508 0.03783207348 0.00377247750 0.00001043539 0.03762868327 0.00391127699 0.00001022754 0.03744939797 0.00407119022 0.00000983583 0.03728635850 0.00424420058 0.00000928459 0.03713170583 0.00442229150 0.00000859812 0.03697758090 0.00459744639 0.00000780074 0.03681612466 0.00476164867 0.00000691676 0.03663947805 0.00490688175 0.00000597049 0.03643978204 0.00502512905 0.00000498624 0.03620917756 0.00510837398 0.00000445733 0.04036577511 0.00370190767 0.00000480074 0.04058514346 0.00383276990 0.00000514081 0.04077786449 0.00398483654 0.00000550491 0.04095212894 0.00414996743 0.00000592039 0.04111612758 0.00432002236 0.00000641462 0.04127805114 0.00448686115 0.00000701497 0.04144609037 0.00464234360 0.00000774879 0.04162843603 0.00477832953 0.00000864344 0.04183327885 0.00488667876 0.00000972630 0.04206880960 0.00495925108 0.00000469157 0.04010035892 0.00360913654 0.00000515826 0.04026872899 0.00376502076 0.00000553644 0.04041813941 0.00393815502 0.00000584983 0.04055404671 0.00412334889 0.00000612213 0.04068190746 0.00431541192 0.00000637706 0.04080717820 0.00450915366 0.00000663831 0.04093531548 0.00469938369 0.00000692961 0.04107177585 0.00488091156 0.00000727464 0.04122201587 0.00504854682 0.00000769714 0.04139149208 0.00519709905 0.00000482255 0.03982095841 0.00354149491 0.00000534483 0.03994072657 0.00371644424 0.00000572213 0.04004788182 0.00390575674 0.00000597384 0.04014583363 0.00410640908 0.00000611931 0.04023799149 0.00431537794 0.00000617792 0.04032776488 0.00452963998 0.00000616904 0.04041856329 0.00474617187 0.00000611204 0.04051379621 0.00496195028 0.00000602629 0.04061687311 0.00517395189 0.00000593116 0.04073120349 0.00537915335 0.00000485376 0.03953165247 0.00349888531 0.00000537563 0.03960448815 0.00368695023 0.00000572079 0.03967011427 0.00388751734 0.00000590402 0.03973038200 0.00409897321 0.00000594011 0.03978714249 0.00431970444 0.00000584386 0.03984224689 0.00454809761 0.00000563003 0.03989754638 0.00478253931 0.00000531342 0.03995489209 0.00502141612 0.00000490881 0.04001613520 0.00526311463 0.00000443099 0.04008312686 0.00550602143 0.00000478869 0.03923651999 0.00348121021 0.00000526583 0.03926336566 0.00367644862 0.00000555530 0.03928785932 0.00388331245 0.00000566747 0.03931058414 0.00410086647 0.00000561275 0.03933212330 0.00432817544 0.00000540151 0.03935305997 0.00456430409 0.00000504415 0.03937397732 0.00480831719 0.00000455106 0.03939545853 0.00505927948 0.00000393262 0.03941808676 0.00531625573 0.00000319922 0.03944244520 0.00557831069 0.00000463080 0.03893963987 0.00348837212 0.00000503060 0.03892071105 0.00368484928 0.00000524856 0.03890413950 0.00389301773 0.00000529129 0.03888933235 0.00411191408 0.00000516541 0.03887569674 0.00434057494 0.00000487753 0.03886263981 0.00457803694 0.00000443428 0.03884956869 0.00482333668 0.00000384227 0.03883589051 0.00507551079 0.00000310812 0.03882101242 0.00533359588 0.00000223845 0.03880434154 0.00559662857 0.00000438359 0.03864509099 0.00352027354 0.00000468512 0.03857987626 0.00371206212 0.00000482348 0.03852197736 0.00391650881 0.00000480257 0.03846951895 0.00413194123 0.00000462629 0.03842062566 0.00435668698 0.00000429857 0.03837342215 0.00458907369 0.00000382330 0.03832603307 0.00482742898 0.00000320439 0.03827658306 0.00507008046 0.00000244576 0.03822319679 0.00531535576 0.00000155130 0.03816399889 0.00556158248 0.00000405053 0.03835695225 0.00357681695 0.00000424455 0.03824421325 0.00375799702 0.00000430294 0.03814439547 0.00395366134 0.00000422839 0.03805403624 0.00416077312 0.00000402360 0.03796967287 0.00437629556 0.00000369126 0.03788784269 0.00459719186 0.00000323408 0.03780508302 0.00482042524 0.00000265474 0.03771793118 0.00504295890 0.00000195594 0.03762292449 0.00526175604 0.00000114037 0.03751660028 0.00547377987 0.00000363512 0.03807930253 0.00365790486 0.00000372407 0.03791707394 0.00382256386 0.00000370985 0.03777441636 0.00400435096 0.00000359586 0.03764577653 0.00419823496 0.00000338553 0.03752560121 0.00439918469 0.00000308227 0.03740833716 0.00460216899 0.00000268949 0.03728843113 0.00480215665 0.00000221062 0.03716032988 0.00499411652 0.00000164908 0.03701848016 0.00517301741 0.00000100826 0.03685732872 0.00533382814 0.00000314083 0.03781622073 0.00376343977 0.00000313885 0.03760181029 0.00390567254 0.00000306709 0.03741506258 0.00406845330 0.00000293206 0.03724763213 0.00424415195 0.00000274027 0.03709117351 0.00442513841 0.00000249822 0.03693734128 0.00460378258 0.00000221242 0.03677778998 0.00477245439 0.00000188938 0.03660417417 0.00492352375 0.00000153560 0.03640814840 0.00504936056 0.00000115759 0.03618136723 0.00514233474 -0.00000575013 0.04036568727 0.00370182868 -0.00000609726 0.04058504947 0.00383268512 -0.00000643455 0.04077776255 0.00398474453 -0.00000679122 0.04095201758 0.00414986693 -0.00000719649 0.04111600560 0.00431991235 -0.00000767958 0.04127791768 0.00448674079 -0.00000826971 0.04144594487 0.00464221229 -0.00000899610 0.04162827823 0.00477818686 -0.00000988797 0.04183310880 0.00488652451 -0.00001097455 0.04206862765 0.00495908528 -0.00000597164 0.04010026661 0.00360905383 -0.00000643411 0.04026862722 0.00376492950 -0.00000680335 0.04041802774 0.00393805498 -0.00000710425 0.04055392475 0.00412323983 -0.00000736176 0.04068177483 0.00431529358 -0.00000760079 0.04080703455 0.00450902577 -0.00000784626 0.04093516049 0.00469924595 -0.00000812309 0.04107160924 0.00488076367 -0.00000845621 0.04122183737 0.00504838847 -0.00000887054 0.04139130146 0.00519692989 -0.00000608564 0.03982086251 0.00354140944 -0.00000659689 0.03994061864 0.00371634813 -0.00000695975 0.04004776244 0.00390565070 -0.00000719433 0.04014570324 0.00410629361 -0.00000732073 0.04023785032 0.00431525337 -0.00000735905 0.04032761300 0.00452950645 -0.00000732940 0.04041840056 0.00474602933 -0.00000725189 0.04051362232 0.00496179851 -0.00000714661 0.04061668756 0.00517379048 -0.00000703367 0.04073100561 0.00537898170 -0.00000609598 0.03953155392 0.00349879799 -0.00000660100 0.03960437571 0.00368685090 -0.00000692688 0.03966998927 0.00388740731 -0.00000708880 0.03973024543 0.00409885349 -0.00000710195 0.03978699500 0.00431957574 -0.00000698149 0.03984208882 0.00454796035 -0.00000674261 0.03989737770 0.00478239360 -0.00000640050 0.03995471249 0.00502126180 -0.00000597032 0.04001594401 0.00526295122 -0.00000546727 0.04008292307 0.00550584815 -0.00000600648 0.03923641974 0.00348112198 -0.00000646185 0.03926325046 0.00367634769 -0.00000672785 0.03928773086 0.00388320045 -0.00000681503 0.03931044371 0.00410074465 -0.00000673397 0.03933197177 0.00432804470 -0.00000649522 0.03935289780 0.00456416500 -0.00000610936 0.03937380456 0.00480816994 -0.00000558694 0.03939527481 0.00505912393 -0.00000493852 0.03941789133 0.00531609137 -0.00000417468 0.03944223686 0.00557813666 -0.00000582097 0.03893953890 0.00348828391 -0.00000619485 0.03892059487 0.00368474839 -0.00000638577 0.03890400983 0.00389290577 -0.00000640038 0.03888919048 0.00411179231 -0.00000624536 0.03887554355 0.00434044427 -0.00000592738 0.03886247573 0.00457789792 -0.00000545311 0.03884939376 0.00482318952 -0.00000482921 0.03883570433 0.00507535533 -0.00000406237 0.03882081416 0.00533343162 -0.00000315924 0.03880412996 0.00559645466 -0.00000554328 0.03864499031 0.00352018628 -0.00000581541 0.03857976095 0.00371196289 -0.00000592375 0.03852184880 0.00391639891 -0.00000587219 0.03846937814 0.00413182165 -0.00000566467 0.03842047325 0.00435655845 -0.00000530507 0.03837325841 0.00458893663 -0.00000479733 0.03832585792 0.00482728351 -0.00000414534 0.03827639607 0.00506992641 -0.00000335302 0.03822299712 0.00531519265 -0.00000242428 0.03816378538 0.00556140957 -0.00000517725 0.03835685290 0.00357673158 -0.00000533894 0.03824410071 0.00375790106 -0.00000536490 0.03814427041 0.00395355549 -0.00000525784 0.03805389907 0.00416065788 -0.00000502045 0.03796952378 0.00437617127 -0.00000465543 0.03788768163 0.00459705866 -0.00000416549 0.03780490970 0.00482028309 -0.00000355332 0.03771774508 0.00504280758 -0.00000282164 0.03762272486 0.00526159515 -0.00000197313 0.03751638612 0.00547360882 -0.00000472670 0.03807920559 0.00365782231 -0.00000478085 0.03791696615 0.00382247281 -0.00000473235 0.03777429727 0.00400425117 -0.00000458467 0.03764564566 0.00419812621 -0.00000434126 0.03752545805 0.00439906672 -0.00000400557 0.03740818116 0.00460204153 -0.00000358105 0.03728826171 0.00480201944 -0.00000307118 0.03716014641 0.00499396925 -0.00000247939 0.03701828199 0.00517285979 -0.00000180914 0.03685711517 0.00533365984 -0.00000419548 0.03781612729 0.00376336096 -0.00000415654 0.03760170926 0.00390558800 -0.00000404920 0.03741495201 0.00406836158 -0.00000388004 0.03724751032 0.00424405182 -0.00000365565 0.03709103899 0.00442502884 -0.00000338261 0.03693719281 0.00460366277 -0.00000306750 0.03677762659 0.00477232373 -0.00000271691 0.03660399510 0.00492338185 -0.00000233743 0.03640795315 0.00504920725 -0.00000193564 0.03618115553 0.00514217006 -0.00001581425 0.04034284965 0.00371137832 -0.00001691256 0.04054976254 0.00383934202 -0.00001793003 0.04073336908 0.00398875825 -0.00001899197 0.04090121939 0.00415118532 -0.00002022374 0.04106086359 0.00431818153 -0.00002175067 0.04121985182 0.00448130520 -0.00002369810 0.04138573419 0.00463211462 -0.00002619136 0.04156606083 0.00476216809 -0.00002935578 0.04176838186 0.00486302393 -0.00003331672 0.04200024740 0.00492624044 -0.00001652472 0.04008313779 0.00362426020 -0.00001798803 0.04024121897 0.00377590935 -0.00001914345 0.04038343925 0.00394531070 -0.00002009560 0.04051461042 0.00412681174 -0.00002094914 0.04063954426 0.00431475994 -0.00002180871 0.04076305257 0.00450350280 -0.00002277894 0.04088994711 0.00468738779 -0.00002396450 0.04102503968 0.00486076241 -0.00002547001 0.04117314205 0.00501797412 -0.00002740013 0.04133906601 0.00515337042 -0.00001690346 0.03980807652 0.00356087218 -0.00001853408 0.03991972447 0.00373056743 -0.00001970237 0.04002128052 0.00391533247 -0.00002049384 0.04011559387 0.00411155954 -0.00002099397 0.04020551374 0.00431564089 -0.00002128824 0.04029388932 0.00452396876 -0.00002146215 0.04038356984 0.00473293542 -0.00002160117 0.04047740450 0.00493893309 -0.00002179080 0.04057824250 0.00513835404 -0.00002211652 0.04068893306 0.00532759050 -0.00001696506 0.03952217694 0.00352110289 -0.00001859739 0.03958910937 0.00370321282 -0.00001967733 0.03965052753 0.00389868417 -0.00002027310 0.03970787131 0.00410523480 -0.00002045291 0.03976258060 0.00432058256 -0.00002028501 0.03981609527 0.00454244531 -0.00001983760 0.03986985521 0.00476854091 -0.00001917892 0.03992530032 0.00499658723 -0.00001837719 0.03998387047 0.00522430211 -0.00001750064 0.04004700556 0.00544940342 -0.00001672408 0.03922995013 0.00350484096 -0.00001822468 0.03925320396 0.00369374208 -0.00001913884 0.03927481492 0.00389522643 -0.00001951975 0.03929514430 0.00410764359 -0.00001942064 0.03931455342 0.00432934314 -0.00001889472 0.03933340356 0.00455867465 -0.00001799521 0.03935205605 0.00479398771 -0.00001677531 0.03937087217 0.00503363189 -0.00001528824 0.03939021323 0.00527595676 -0.00001358722 0.03941044053 0.00551931191 -0.00001619508 0.03893590720 0.00351197501 -0.00001746265 0.03891583856 0.00370205175 -0.00001815742 0.03889777731 0.00390481986 -0.00001832021 0.03888111440 0.00411859200 -0.00001799184 0.03886524078 0.00434168084 -0.00001721312 0.03884954738 0.00457239903 -0.00001602486 0.03883342516 0.00480905925 -0.00001446787 0.03881626506 0.00504997415 -0.00001258299 0.03879745802 0.00529345641 -0.00001041101 0.03877639500 0.00553781869 -0.00001539264 0.03864455925 0.00354239367 -0.00001635799 0.03858084348 0.00372803841 -0.00001680360 0.03852304936 0.00392732509 -0.00001676087 0.03846948318 0.00413788611 -0.00001626118 0.03841845126 0.00435735383 -0.00001533591 0.03836825989 0.00458336065 -0.00001401645 0.03831721538 0.00481353894 -0.00001233418 0.03826362402 0.00504552110 -0.00001032048 0.03820579212 0.00527693949 -0.00000800674 0.03814202598 0.00550542651 -0.00001433133 0.03836041738 0.00359598558 -0.00001495740 0.03825204902 0.00377159860 -0.00001514790 0.03815426568 0.00396260274 -0.00001492812 0.03806395220 0.00416533198 -0.00001432334 0.03797799344 0.00437612032 -0.00001335883 0.03789327426 0.00459130174 -0.00001205988 0.03780667953 0.00480721024 -0.00001045177 0.03771509408 0.00502017980 -0.00000855977 0.03761540279 0.00522654442 -0.00000640917 0.03750449050 0.00542263808 -0.00001302570 0.03808799268 0.00367263935 -0.00001330758 0.03793328551 0.00383262888 -0.00001326084 0.03779506092 0.00401051342 -0.00001290836 0.03766822302 0.00420073570 -0.00001227299 0.03754767590 0.00439773849 -0.00001137760 0.03742832367 0.00459596453 -0.00001024505 0.03730507042 0.00478985656 -0.00000889819 0.03717282026 0.00497385734 -0.00000735990 0.03702647728 0.00514240962 -0.00000565304 0.03686094558 0.00528995615 -0.00001149034 0.03783179625 0.00377224363 -0.00001145523 0.03762838323 0.00391102582 -0.00001121295 0.03744906971 0.00407091775 -0.00001078798 0.03728599720 0.00424390335 -0.00001020482 0.03713130721 0.00442196654 -0.00000948795 0.03697714127 0.00459709122 -0.00000866185 0.03681564088 0.00476126134 -0.00000775101 0.03663894757 0.00490646080 -0.00000677993 0.03643920285 0.00502467352 -0.00000577308 0.03620854824 0.00510788344 -0.00002545167 0.04029726491 0.00373055917 -0.00002748395 0.04047928513 0.00385274305 -0.00002919059 0.04064468673 0.00399688041 -0.00003091166 0.04079973753 0.00415392578 -0.00003298726 0.04095070532 0.00431483369 -0.00003575747 0.04110385792 0.00447055868 -0.00003956236 0.04126546312 0.00461205527 -0.00004474202 0.04144178874 0.00473027801 -0.00005163653 0.04163910258 0.00481618141 -0.00006058598 0.04186367244 0.00486072002 -0.00002675088 0.04004897468 0.00365475780 -0.00002943051 0.04018650616 0.00379796230 -0.00003148867 0.04031437590 0.00395992426 -0.00003320300 0.04043610597 0.00413406697 -0.00003485113 0.04055521839 0.00431381368 -0.00003671071 0.04067523522 0.00449258768 -0.00003905936 0.04079967850 0.00466381223 -0.00004217472 0.04093207026 0.00482091061 -0.00004633444 0.04107593257 0.00495730608 -0.00005181615 0.04123478745 0.00506642192 -0.00002745371 0.03978260227 0.00359988499 -0.00003046129 0.03987804563 0.00375910378 -0.00003263084 0.03996843754 0.00393480368 -0.00003419091 0.04005550713 0.00412220857 -0.00003537008 0.04014098350 0.00431654232 -0.00003639689 0.04022659577 0.00451302880 -0.00003749993 0.04031407305 0.00470689188 -0.00003890775 0.04040514445 0.00489335543 -0.00004084892 0.04050153909 0.00506764332 -0.00004355200 0.04060498607 0.00522497942 -0.00002759569 0.03950352312 0.00356580165 -0.00003065637 0.03955869041 0.00373603739 -0.00003273918 0.03961173023 0.00392134925 -0.00003403455 0.03966326084 0.00411811843 -0.00003473295 0.03971390049 0.00432272616 -0.00003502483 0.03976426744 0.00453155367 -0.00003510062 0.03981497996 0.00474098216 -0.00003515079 0.03986665630 0.00494739288 -0.00003536578 0.03991991471 0.00514716703 -0.00003593604 0.03997537346 0.00533668583 -0.00002721237 0.03921711266 0.00355236866 -0.00003009583 0.03923322737 0.00372863305 -0.00003193577 0.03924911255 0.00391939155 -0.00003289308 0.03926468692 0.00412156437 -0.00003312862 0.03927986920 0.00433207175 -0.00003280329 0.03929457812 0.00454783389 -0.00003207796 0.03930873242 0.00476577102 -0.00003111352 0.03932225081 0.00498280336 -0.00003007084 0.03933505202 0.00519585111 -0.00002911082 0.03934705478 0.00540183450 -0.00002633929 0.03892874631 0.00355944692 -0.00002885975 0.03890644339 0.00373676064 -0.00003034272 0.03888544310 0.00392876116 -0.00003092563 0.03886510521 0.00413231424 -0.00003074594 0.03884478948 0.00434428564 -0.00002994108 0.03882385569 0.00456154111 -0.00002864850 0.03880166360 0.00478094640 -0.00002700564 0.03877757298 0.00499936727 -0.00002514995 0.03875094359 0.00521366947 -0.00002321886 0.03872113520 0.00542071877 -0.00002501200 0.03864379951 0.00358689733 -0.00002702821 0.03858312531 0.00376029008 -0.00002808210 0.03852558044 0.00394928868 -0.00002829138 0.03846983552 0.00415013588 -0.00002777377 0.03841456117 0.00435907438 -0.00002664700 0.03835842802 0.00457234693 -0.00002502878 0.03830010669 0.00478619623 -0.00002303685 0.03823826781 0.00499686502 -0.00002078891 0.03817158200 0.00520059602 -0.00001840270 0.03809871989 0.00539363195 -0.00002326603 0.03836764768 0.00363458077 -0.00002468130 0.03826806002 0.00379909125 -0.00002527601 0.03817438317 0.00398080469 -0.00002514946 0.03808419769 0.00417479711 -0.00002440096 0.03799508412 0.00437614453 -0.00002312982 0.03790462300 0.00457992298 -0.00002143534 0.03781039488 0.00478120846 -0.00001941682 0.03770998031 0.00497507701 -0.00001717356 0.03760095984 0.00515660464 -0.00001480488 0.03748091400 0.00532086738 -0.00002113694 0.03810566626 0.00370235815 -0.00002189909 0.03796603437 0.00385303407 -0.00002204653 0.03783670987 0.00402313977 -0.00002165904 0.03771351154 0.00420606578 -0.00002081639 0.03759225816 0.00439520263 -0.00001959835 0.03746876850 0.00458394087 -0.00001808472 0.03733886134 0.00476567103 -0.00001635525 0.03719835547 0.00493378365 -0.00001448972 0.03704306967 0.00508166926 -0.00001256792 0.03686882270 0.00520271840 -0.00001866026 0.03786323068 0.00379009035 -0.00001876166 0.03768183525 0.00392198844 -0.00001851576 0.03751741913 0.00407612451 -0.00001797926 0.03736309690 0.00424370972 -0.00001720889 0.03721198313 0.00441595524 -0.00001626139 0.03705719240 0.00458407224 -0.00001519346 0.03689183926 0.00473927188 -0.00001406183 0.03670903830 0.00487276534 -0.00001292322 0.03650190408 0.00497576377 -0.00001183436 0.03626355116 0.00503947834 -0.00003437901 0.04022893574 0.00375937381 -0.00003765019 0.04037361970 0.00387289068 -0.00004006120 0.04051171819 0.00400911372 -0.00004236460 0.04064757516 0.00415809151 -0.00004531294 0.04078553456 0.00430987260 -0.00004965878 0.04092994034 0.00445450556 -0.00005615466 0.04108513646 0.00458203897 -0.00006555314 0.04125546687 0.00468252138 -0.00007860677 0.04144527551 0.00474600137 -0.00009606810 0.04165890634 0.00476252750 -0.00003643334 0.03999777946 0.00370054878 -0.00004068856 0.04010449071 0.00383109033 -0.00004384383 0.04021083970 0.00398189776 -0.00004650524 0.04031841366 0.00414500787 -0.00004927887 0.04042879984 0.00431245746 -0.00005277080 0.04054358548 0.00447628333 -0.00005758711 0.04066435783 0.00462852229 -0.00006433389 0.04079270412 0.00476121113 -0.00007361720 0.04093021160 0.00486638667 -0.00008604314 0.04107846752 0.00493608569 -0.00003755917 0.03974444159 0.00365844971 -0.00004237310 0.03981558364 0.00380195880 -0.00004587025 0.03988923500 0.00396406595 -0.00004855175 0.03996544461 0.00413824243 -0.00005091871 0.04004426138 0.00431795950 -0.00005347225 0.04012573423 0.00449668844 -0.00005671350 0.04020991209 0.00466790050 -0.00006114358 0.04029684387 0.00482506695 -0.00006726360 0.04038657849 0.00496165906 -0.00007557470 0.04047916488 0.00507114811 -0.00003783007 0.03947559407 0.00363289589 -0.00004282075 0.03951312014 0.00378532601 -0.00004632104 0.03955359855 0.00395540384 -0.00004875888 0.03959641518 0.00413750568 -0.00005056224 0.03964095588 0.00432600783 -0.00005215907 0.03968660654 0.00451528660 -0.00005397735 0.03973275300 0.00469971830 -0.00005644503 0.03977878114 0.00487367922 -0.00005999006 0.03982407683 0.00503154568 -0.00006504042 0.03986802593 0.00516769397 -0.00003731960 0.03919790881 0.00362370663 -0.00004214845 0.03920332191 0.00378102189 -0.00004537675 0.03921062484 0.00395569696 -0.00004738139 0.03921907257 0.00414250808 -0.00004853926 0.03922792008 0.00433623153 -0.00004922723 0.03923642234 0.00453164355 -0.00004982220 0.03924383431 0.00472352040 -0.00005070105 0.03924941096 0.00490663834 -0.00005224066 0.03925240726 0.00507577362 -0.00005481791 0.03925207818 0.00522570251 -0.00003610134 0.03891805773 0.00363070120 -0.00004047312 0.03889241061 0.00378887634 -0.00004321797 0.03886700832 0.00396473083 -0.00004467405 0.03884116398 0.00415296012 -0.00004517957 0.03881419070 0.00434825968 -0.00004507268 0.03878540159 0.00454532499 -0.00004469159 0.03875410977 0.00473885150 -0.00004437446 0.03871962834 0.00492353469 -0.00004445947 0.03868127042 0.00509407001 -0.00004528482 0.03863834913 0.00524515295 -0.00003424886 0.03864271276 0.00365369890 -0.00003791171 0.03858660793 0.00380871929 -0.00004002525 0.03852944348 0.00398229099 -0.00004089162 0.03847043659 0.00416857226 -0.00004081295 0.03840880445 0.00436172139 -0.00004009138 0.03834376423 0.00455589664 -0.00003902904 0.03827453313 0.00474525631 -0.00003792807 0.03820032831 0.00492395866 -0.00003709060 0.03812036697 0.00508616197 -0.00003681876 0.03803386629 0.00522602452 -0.00003183571 0.03837854581 0.00369251902 -0.00003458114 0.03829213554 0.00384038066 -0.00003597918 0.03820462478 0.00400816297 -0.00003628885 0.03811463760 0.00418905499 -0.00003576921 0.03802079805 0.00437624573 -0.00003467928 0.03792173021 0.00456292424 -0.00003327810 0.03781605814 0.00474227953 -0.00003182470 0.03770240590 0.00490750064 -0.00003057811 0.03757939755 0.00505177660 -0.00002979738 0.03744565716 0.00516829644 -0.00002893548 0.03813222880 0.00374698085 -0.00003059835 0.03801521512 0.00388369036 -0.00003126031 0.03789924670 0.00404213231 -0.00003112051 0.03778151419 0.00421411877 -0.00003037814 0.03765920824 0.00439146181 -0.00002923234 0.03752951948 0.00456597348 -0.00002788229 0.03738963856 0.00472946587 -0.00002652716 0.03723675612 0.00487375103 -0.00002536610 0.03706806281 0.00499064103 -0.00002459829 0.03688074927 0.00507194794 -0.00002562172 0.03791043367 0.00381690368 -0.00002608027 0.03776206835 0.00393847831 -0.00002604922 0.03762000371 0.00408398453 -0.00002564136 0.03747881357 0.00424347409 -0.00002496952 0.03733307172 0.00440699870 -0.00002414651 0.03717735197 0.00456461010 -0.00002328516 0.03700622813 0.00470636003 -0.00002249826 0.03681427400 0.00482230020 -0.00002189865 0.03659606339 0.00490248237 -0.00002159914 0.03634617010 0.00493695824 -0.00004231293 0.04013786481 0.00379782482 -0.00004725006 0.04023276870 0.00389978737 -0.00005038684 0.04033446610 0.00402546091 -0.00005316510 0.04044473542 0.00416368570 -0.00005702668 0.04056535507 0.00430330203 -0.00006341342 0.04069810346 0.00443315017 -0.00007376717 0.04084475901 0.00454207040 -0.00008952976 0.04100710012 0.00461890298 -0.00011214304 0.04118690520 0.00465248821 -0.00014304885 0.04138595267 0.00463166635 -0.00004535530 0.03992955432 0.00376163530 -0.00005168918 0.03999517457 0.00387529544 -0.00005621373 0.04007283263 0.00401123328 -0.00006008112 0.04016153577 0.00415963679 -0.00006444349 0.04026029125 0.00431069393 -0.00007045301 0.04036810633 0.00445459267 -0.00007926182 0.04048398828 0.00458152099 -0.00009202209 0.04060694435 0.00468166683 -0.00010988597 0.04073598182 0.00474521819 -0.00013400561 0.04087010793 0.00476236301 -0.00004704264 0.03969359633 0.00373656817 -0.00005426406 0.03973234004 0.00385913414 -0.00005954572 0.03978367439 0.00400312091 -0.00006384255 0.03984540791 0.00415966284 -0.00006810952 0.03991534914 0.00431989426 -0.00007330155 0.03999130662 0.00447494954 -0.00008037359 0.04007108888 0.00461596303 -0.00009028059 0.04015250446 0.00473406907 -0.00010397750 0.04023336189 0.00482040202 -0.00012241925 0.04031146970 0.00486609623 -0.00004751040 0.03943839139 0.00372238726 -0.00005513335 0.03945239985 0.00385108009 -0.00006063152 0.03947613369 0.00400084927 -0.00006483176 0.03950733552 0.00416339784 -0.00006856093 0.03954374799 0.00433042884 -0.00007264588 0.03958311374 0.00449364529 -0.00007791348 0.03962317539 0.00464475024 -0.00008519058 0.03966167558 0.00477544673 -0.00009530403 0.03969635694 0.00487743777 -0.00010908070 0.03972496210 0.00494242643 -0.00004689403 0.03917234009 0.00371885637 -0.00005445570 0.03916348876 0.00385090988 -0.00005971987 0.03915935283 0.00400414382 -0.00006343109 0.03915830227 0.00417047580 -0.00006633391 0.03915870703 0.00434182347 -0.00006917286 0.03915893707 0.00451010444 -0.00007269250 0.03915736236 0.00466723635 -0.00007763736 0.03915235284 0.00480513683 -0.00008475199 0.03914227849 0.00491572350 -0.00009478093 0.03912550926 0.00499091399 -0.00004532899 0.03890384300 0.00372573935 -0.00005238973 0.03887374149 0.00385840014 -0.00005705948 0.03884247413 0.00401273001 -0.00006002289 0.03880929181 0.00418053071 -0.00006196462 0.03877344547 0.00435360396 -0.00006356932 0.03873418601 0.00452375150 -0.00006552165 0.03869076435 0.00468277507 -0.00006850625 0.03864243140 0.00482247641 -0.00007320778 0.03858843809 0.00493465725 -0.00008031089 0.03852803531 0.00501111933 -0.00004295073 0.03864130070 0.00374280000 -0.00004909408 0.03859129280 0.00387332746 -0.00005289907 0.03853463988 0.00402633332 -0.00005498951 0.03847128783 0.00419319655 -0.00005598925 0.03840118255 0.00436529611 -0.00005652212 0.03832426996 0.00453401098 -0.00005721194 0.03824049594 0.00469072012 -0.00005868257 0.03814980640 0.00482680250 -0.00006155782 0.03805214724 0.00493363709 -0.00006646152 0.03794746436 0.00500260286 -0.00003989471 0.03839311376 0.00376980214 -0.00004472741 0.03832427742 0.00389546845 -0.00004748736 0.03824499239 0.00404467920 -0.00004871330 0.03815527397 0.00420810732 -0.00004894396 0.03805513750 0.00437642574 -0.00004871808 0.03794459830 0.00454030740 -0.00004857439 0.03782367168 0.00469042522 -0.00004905162 0.03769237297 0.00481745213 -0.00005068851 0.03755071749 0.00491206108 -0.00005402379 0.03739872055 0.00496492498 -0.00003629639 0.03816768276 0.00380650960 -0.00003944834 0.03808083010 0.00392459972 -0.00004107308 0.03798267396 0.00406749311 -0.00004157661 0.03787223392 0.00422489701 -0.00004136494 0.03774852955 0.00438651865 -0.00004084407 0.03761058043 0.00454206526 -0.00004042000 0.03745740614 0.00468124408 -0.00004049874 0.03728802625 0.00479376234 -0.00004148628 0.03710146035 0.00486932727 -0.00004378864 0.03689672801 0.00489764610 -0.00003229121 0.03797340827 0.00385268619 -0.00003341551 0.03786908558 0.00396049787 -0.00003390494 0.03775682691 0.00409450052 -0.00003396179 0.03763315133 0.00424319962 -0.00003378835 0.03749457792 0.00439510065 -0.00003358692 0.03733762575 0.00453870909 -0.00003355978 0.03715881388 0.00466253043 -0.00003390922 0.03695466139 0.00475507014 -0.00003483754 0.03672168736 0.00480483371 -0.00003654703 0.03645641084 0.00480032662 </DataArray>
</PointData>
<Points>
<DataArray type="Float32" NumberOfComponents="3">
0.14872005327 0.66368457501 -0.16086854151 0.16212295134 0.66104503468 -0.15820213665 0.17632053011 0.65776592079 -0.15532747550 0.19173307756 0.65413797641 -0.15218606132 0.20878088168 0.65045194465 -0.14871939738 0.22788423046 0.64699856857 -0.14486898694 0.24946341186 0.64406859127 -0.14057633327 0.27393871389 0.64195275582 -0.13578293962 0.30173042453 0.64094180532 -0.13043030926 0.33325883175 0.64132648285 -0.12445994546 0.15940310987 0.66450505999 -0.16607773443 0.17920310104 0.66152578170 -0.16400415398 0.19788466461 0.65795432668 -0.16160996112 0.21617077743 0.65404462732 -0.15890495497 0.23478441633 0.65005061596 -0.15589893461 0.25444855813 0.64622622498 -0.15260169914 0.27588617966 0.64282538675 -0.14902304764 0.29982025777 0.64010203364 -0.14517277922 0.32697376927 0.63831009801 -0.14106069297 0.35806969101 0.63770351223 -0.13669658797 0.16741481501 0.66504070062 -0.17203077949 0.19201246630 0.66180170567 -0.17052678877 0.21405673522 0.65800270129 -0.16870536551 0.23449763523 0.65387089146 -0.16660437985 0.25428517981 0.64963348013 -0.16426170192 0.27436938246 0.64551767129 -0.16171520185 0.29570025663 0.64175066889 -0.15900274980 0.31922781582 0.63855967692 -0.15616221589 0.34590207351 0.63617189935 -0.15323147026 0.37667304316 0.63481454013 -0.15024838305 0.17275530345 0.66529989705 -0.17851220915 0.20055120516 0.66188094075 -0.17756200150 0.22483699001 0.65792018614 -0.17637996413 0.24671403260 0.65362775153 -0.17500339754 0.26728370753 0.64921375521 -0.17346960223 0.28764738940 0.64488831548 -0.17181587871 0.30890645282 0.64086155065 -0.17007952747 0.33216227238 0.63734357902 -0.16829784903 0.35851622269 0.63454451889 -0.16650814389 0.38906967835 0.63267448856 -0.16474771254 0.17542470997 0.66529104945 -0.18530655587 0.20481947562 0.66177162109 -0.18490175262 0.23022567707 0.65771592276 -0.18440003244 0.25282035119 0.65332619021 -0.18382106963 0.27378053485 0.64880465922 -0.18318453849 0.29428326492 0.64435356556 -0.18251011331 0.31550557827 0.64017514499 -0.18181746841 0.33862451177 0.63647163329 -0.18112627807 0.36481710230 0.63344526620 -0.18045621659 0.39526038671 0.63129827951 -0.17982695828 0.17542316932 0.66502255800 -0.19219835210 0.20481743569 0.66148188086 -0.19233800258 0.23022304448 0.65739905267 -0.19253184590 0.25281697265 0.65297719020 -0.19277645770 0.27377619716 0.64841941022 -0.19306841362 0.29427769497 0.64392882953 -0.19340428928 0.31549844304 0.63970856488 -0.19378066033 0.33861541832 0.63596173306 -0.19419410240 0.36480559779 0.63289145084 -0.19464119113 0.39524595839 0.63070083500 -0.19511850214 0.17275081627 0.66450282285 -0.19897213032 0.20054524339 0.66101985421 -0.19966271185 0.22482934033 0.65697871741 -0.20054167998 0.24670427863 0.65259173417 -0.20158862335 0.26727122985 0.64807122625 -0.20278313056 0.28763136551 0.64362951537 -0.20410479023 0.30888585717 0.63947892327 -0.20553319099 0.33213587636 0.63583177169 -0.20704792145 0.35848259463 0.63290038236 -0.20862857023 0.38902718353 0.63089707701 -0.21025472595 0.16740778559 0.66374024418 -0.20541242297 0.19200305673 0.66039367530 -0.20666784088 0.21404481270 0.65646405850 -0.20819581016 0.23448265079 0.65218080482 -0.20997662816 0.25426616830 0.64777332534 -0.21199059225 0.27434496251 0.64347103109 -0.21421799978 0.29566863072 0.63950333313 -0.21663914812 0.31918677022 0.63609964252 -0.21923433462 0.34584897830 0.63348937031 -0.22198385665 0.37660485226 0.63190192756 -0.22486801157 0.15939421203 0.66274322214 -0.21130376252 0.17919103373 0.65961147829 -0.21314535014 0.19786970968 0.65586421747 -0.21526051188 0.21615247077 0.65175538484 -0.21765953372 0.23476154789 0.64753892553 -0.22035270161 0.25441917191 0.64346878468 -0.22335030153 0.27584757373 0.63979890742 -0.22666261945 0.29976898422 0.63678323891 -0.23029994133 0.32690563426 0.63467572427 -0.23427255314 0.35797975474 0.63373030865 -0.23859074085 0.14871023038 0.66152015690 -0.21643068143 0.16210933239 0.65868139733 -0.21888720008 0.17630427935 0.65518833586 -0.22150206062 0.19171412022 0.65132645691 -0.22435640161 0.20875790401 0.64738124487 -0.22753136158 0.22785467969 0.64363818413 -0.23110807911 0.24942349625 0.64038275911 -0.23516769272 0.27388340269 0.63790045419 -0.23979134098 0.30165344797 0.63647675378 -0.24506016243 0.33315268110 0.63639714228 -0.25105529563 0.12112376316 0.66480425385 -0.15892636855 0.13130400667 0.66190399218 -0.15504444939 0.14292484153 0.65839294309 -0.15130847806 0.15602604272 0.65453037228 -0.14760165995 0.17064738520 0.65057554546 -0.14380720047 0.18682864392 0.64678772832 -0.13980830502 0.20460959386 0.64342618657 -0.13548817900 0.22403000998 0.64075018590 -0.13073002781 0.24512966724 0.63901899201 -0.12541705686 0.26794834060 0.63849187061 -0.11943247154 0.12838183843 0.66621167610 -0.16480522550 0.14342281507 0.66284341074 -0.16179961892 0.15819511209 0.65893453028 -0.15879270124 0.17303756107 0.65469234253 -0.15573593595 0.18828899358 0.65032415528 -0.15258078650 0.20428824119 0.64603727634 -0.14927871639 0.22137413546 0.64203901352 -0.14578118909 0.23988550796 0.63853667462 -0.14203966807 0.26016119026 0.63573756743 -0.13800561681 0.28254001393 0.63384899977 -0.13363049879 0.13382498722 0.66718727372 -0.17126719014 0.15251133492 0.66346091649 -0.16909998081 0.16964701287 0.65924477756 -0.16686760625 0.18579514995 0.65470772553 -0.16455877884 0.20151887505 0.65001862902 -0.16216221095 0.21738131707 0.64534635662 -0.15966661496 0.23394560490 0.64085977694 -0.15706070326 0.25177486742 0.63672775858 -0.15433318823 0.27143223352 0.63311917013 -0.15147278225 0.29348083210 0.63020288022 -0.14846819770 0.13745328254 0.66773771834 -0.17814106441 0.15856968270 0.66376273065 -0.17678632273 0.17728072396 0.65933037881 -0.17536196895 0.19429906358 0.65458426781 -0.17387194911 0.21033735878 0.64966800263 -0.17232020924 0.22610826681 0.64472518825 -0.17071069539 0.24232444490 0.63989942967 -0.16904735359 0.25969855030 0.63533433186 -0.16733412990 0.27894324024 0.63117349982 -0.16557497034 0.30077117196 0.62756053851 -0.16377382096 0.13926679740 0.66786968160 -0.18525565025 0.16159797486 0.66375507447 -0.18469943235 0.18109642548 0.65919802794 -0.18410456522 0.19854955620 0.65432971585 -0.18347720725 0.21474477394 0.64928131203 -0.18282351683 0.23046948564 0.64418399033 -0.18214965233 0.24651109820 0.63916892456 -0.18146177215 0.26365701856 0.63436728857 -0.18076603465 0.28269465364 0.62991025619 -0.18006859824 0.30441141038 0.62592900125 -0.17937562127 0.13926560483 0.66758983517 -0.19243974962 0.16159632786 0.66344416919 -0.19268009732 0.18109429752 0.65885441884 -0.19292417092 0.19854688205 0.65395181616 -0.19317631375 0.21474144972 0.64886759318 -0.19344086916 0.23046536878 0.64373298193 -0.19372218046 0.24650600751 0.63867921446 -0.19402459100 0.26365073414 0.63383752278 -0.19435244410 0.28268691695 0.62933913895 -0.19471008310 0.30440192419 0.62531529499 -0.19510185133 0.13744977783 0.66690485068 -0.19952216446 0.15856485818 0.66283623605 -0.20056910532 0.17727452018 0.65830624541 -0.20164956192 0.19429129536 0.65345831523 -0.20277102910 0.21032771528 0.64843588199 -0.20394100166 0.22609631149 0.64338238216 -0.20516697443 0.24230961555 0.63844125221 -0.20645644221 0.25968015899 0.63375592860 -0.20781689983 0.27892047337 0.62946984782 -0.20925584210 0.30074309024 0.62572644632 -0.21078076383 0.13381938942 0.66582139979 -0.20633169672 0.15250368228 0.66193749629 -0.20820724401 0.16963727356 0.65756020155 -0.21010951411 0.18578305036 0.65285695958 -0.21206311378 0.20150389981 0.64799521442 -0.21409264980 0.21736270900 0.64314241011 -0.21622272890 0.23392236504 0.63846599066 -0.21847795787 0.25174575505 0.63413340011 -0.22088294344 0.27139576614 0.63031208248 -0.22346229238 0.29343528540 0.62716948182 -0.22624061146 0.12837451261 0.66434615414 -0.21269714834 0.14341291661 0.66075417116 -0.21543530105 0.15818273776 0.65662298115 -0.21813280334 0.17302240130 0.65215549570 -0.22085432829 0.18827033247 0.64755462640 -0.22366454900 0.20426495653 0.64302328486 -0.22662813855 0.22134469872 0.63876438266 -0.22980977002 0.23984798428 0.63498083139 -0.23327411652 0.26011323846 0.63187554266 -0.23708585112 0.28247888651 0.62965142806 -0.24130964692 0.12111522042 0.66248578538 -0.21844732128 0.13129267765 0.65929248189 -0.22209406413 0.14291109288 0.65550127811 -0.22554820550 0.15600960239 0.65136167009 -0.22894643311 0.17062734245 0.64712315387 -0.23242543471 0.18680344933 0.64303522551 -0.23612189802 0.20457705930 0.63934738105 -0.24017251076 0.22398730862 0.63630911655 -0.24471396067 0.24507333357 0.63416992806 -0.24988293548 0.26787427042 0.63317931162 -0.25581612291 0.08943790680 0.66564398700 -0.15746976244 0.09657866987 0.66254818311 -0.15267620883 0.10518905577 0.65886318033 -0.14829425705 0.11514366305 0.65482463661 -0.14416338884 0.12631709026 0.65066820992 -0.14012308596 0.13858393596 0.64662955822 -0.13601283015 0.15181879870 0.64294433947 -0.13167210317 0.16589627702 0.63984821164 -0.12694038678 0.18069096949 0.63757683269 -0.12165716272 0.19607747465 0.63636586058 -0.11566191275 0.09405922834 0.66749161182 -0.16385086771 0.10461045309 0.66383160419 -0.16014624343 0.11529184025 0.65966965208 -0.15667978448 0.12622568883 0.65517809506 -0.15335920247 0.13753429785 0.65052927267 -0.15009220900 0.14933996631 0.64589552449 -0.14678651569 0.16176499323 0.64144919009 -0.14334983414 0.17493167764 0.63736260903 -0.13968987596 0.18896231853 0.63380812087 -0.13571435275 0.20397921492 0.63095806518 -0.13133097612 0.09752495525 0.66879717682 -0.17069452226 0.11063386941 0.66470529531 -0.16802990133 0.12286835600 0.66017630267 -0.16548931575 0.13453648713 0.65533531610 -0.16302460952 0.14594633490 0.65030745275 -0.16058762661 0.15740597142 0.64521782980 -0.15813021099 0.16922346880 0.64019156442 -0.15560420665 0.18170689915 0.63535377379 -0.15296145757 0.19516433457 0.63082957508 -0.15015380772 0.20990384717 0.62674408547 -0.14713310109 0.09983512263 0.66956605727 -0.17786273013 0.11464899856 0.66517404302 -0.17620459059 0.12791872477 0.66038799029 -0.17459850205 0.14007621670 0.65530161911 -0.17302339466 0.15155338979 0.65000864951 -0.17145819858 0.16278215949 0.64460280152 -0.16988184398 0.17419444124 0.63917779518 -0.16827326101 0.18622215047 0.63382735051 -0.16661137983 0.19929720263 0.62864518755 -0.16487513060 0.21385151317 0.62372502632 -0.16304344348 0.10098976556 0.66980362841 -0.18521749539 0.11665592025 0.66524263389 -0.18454771930 0.13044306829 0.66030957311 -0.18388299454 0.14284503630 0.65508232346 -0.18321934255 0.15435565090 0.64963876232 -0.18255278477 0.16546873872 0.64405676707 -0.18187934262 0.17667812639 0.63841421509 -0.18119503755 0.18847764052 0.63278898377 -0.18049589098 0.20136110775 0.62725895049 -0.17977792436 0.21582235469 0.62190199262 -0.17903715912 0.10098891913 0.66951526552 -0.19262082211 0.11665471423 0.66491585449 -0.19293669552 0.13044150832 0.65994590934 -0.19321844440 0.14284310469 0.65468274852 -0.19347623786 0.15435330659 0.64920369053 -0.19372024497 0.16546591730 0.64358605382 -0.19396063485 0.17667474008 0.63790715687 -0.19420757657 0.18847357820 0.63224431814 -0.19447123925 0.20135623493 0.62667485612 -0.19476179197 0.21581651353 0.62127608927 -0.19508940383 0.09983261845 0.66870634385 -0.19993471433 0.11464546020 0.66419849139 -0.20124892732 0.12791416660 0.65930185715 -0.20248050282 0.14007058062 0.65410821367 -0.20365786524 0.15154654523 0.64870933350 -0.20480943903 0.16277390342 0.64319698917 -0.20596364861 0.17418449816 0.63766295323 -0.20714891841 0.18621017242 0.63219899822 -0.20839367286 0.19928276919 0.62689689668 -0.20972633639 0.21383413145 0.62184842115 -0.21117533342 0.09752089860 0.66738223867 -0.20702117614 0.11062823792 0.66309533115 -0.20936182279 0.12286116488 0.65838227473 -0.21154482096 0.13452762285 0.65336403827 -0.21362800937 0.14593555520 0.64816159059 -0.21566922677 0.15739290528 0.64289590052 -0.21772631186 0.16920761646 0.63768793691 -0.21985710337 0.18168763210 0.63265866858 -0.22211944004 0.19514089557 0.62792906438 -0.22457116058 0.20987535024 0.62362009313 -0.22727010373 0.09405379467 0.66554832522 -0.21374221158 0.10460312709 0.66161116033 -0.21715278998 0.11528262490 0.65719202028 -0.22028705000 0.12621439015 0.65245554169 -0.22325045491 0.13752052486 0.64756636115 -0.22614846800 0.14932313107 0.64268911526 -0.22908655253 0.16174431083 0.63798844061 -0.23217017178 0.17490616615 0.63362897381 -0.23550478902 0.18893079909 0.62977535145 -0.23919586752 0.20394031167 0.62659221012 -0.24334887057 0.08943134176 0.66320997877 -0.21995982471 0.09657020745 0.65975076550 -0.22449923696 0.10517866842 0.65573595198 -0.22858284112 0.11513104126 0.65138804331 -0.23238898653 0.12630164259 0.64692954455 -0.23609602256 0.13856478900 0.64258296078 -0.23988229858 0.15179479710 0.63857079707 -0.24392616395 0.16586598348 0.63511555848 -0.24840596803 0.18065266475 0.63243975010 -0.25350006018 0.19602915752 0.63076587700 -0.25938678976 0.05483093217 0.66620377714 -0.15649872061 0.05906305358 0.66297760995 -0.15109741252 0.06435320126 0.65917663518 -0.14628480976 0.07056460922 0.65502077256 -0.14187124479 0.07756051145 0.65072994180 -0.13766705006 0.08520414198 0.64652406263 -0.13348255801 0.09335873481 0.64262305478 -0.12912810109 0.10188752394 0.63924683796 -0.12441401176 0.11065374338 0.63661533191 -0.11915062245 0.11952062714 0.63494845633 -0.11314826563 0.05737851972 0.66834486933 -0.16321465891 0.06363232311 0.66449036398 -0.15904402551 0.07009305521 0.66015969408 -0.15527120874 0.07678620585 0.65550188716 -0.15177475219 0.08373726485 0.65066597076 -0.14843319945 0.09097172203 0.64580097241 -0.14512509411 0.09851506720 0.64105591964 -0.14172897978 0.10639279019 0.63657983999 -0.13812340003 0.11463038083 0.63252176100 -0.13418689847 0.12325332893 0.62903071019 -0.12979801868 0.05928906367 0.66987041175 -0.17031277400 0.06705902291 0.66553484367 -0.16731654867 0.07439760358 0.66079727813 -0.16457049239 0.08145198372 0.65575366474 -0.16200187018 0.08836934136 0.65049995307 -0.15953794706 0.09529685455 0.64513209272 -0.15710598806 0.10238170133 0.63974603325 -0.15463325818 0.10977105973 0.63443772428 -0.15204702246 0.11761210780 0.62930311537 -0.14927454591 0.12605202356 0.62443815611 -0.14624309356 0.06056257823 0.67078491544 -0.17767720468 0.06934319941 0.66611487915 -0.17581680367 0.07726691661 0.66109302175 -0.17408956210 0.08456202888 0.65577980660 -0.17245773290 0.09145683526 0.65023569706 -0.17088356899 0.09817963477 0.64452115648 -0.16932932331 0.10495872647 0.63869664824 -0.16775724879 0.11202240939 0.63282263569 -0.16612959836 0.11959898256 0.62695958219 -0.16440862496 0.12791674503 0.62116795111 -0.16255658151 0.06119907756 0.67109289138 -0.18519208976 0.07048489903 0.66623430057 -0.18444661219 0.07870106459 0.66105055934 -0.18373531925 0.08611642745 0.65558401405 -0.18304747444 0.09299984082 0.64987701104 -0.18237234130 0.09962015790 0.64397189664 -0.18169918334 0.10624623189 0.63791101722 -0.18101726408 0.11314691599 0.63173671911 -0.18031584705 0.12059106341 0.62549134865 -0.17958419577 0.12884752735 0.61921725220 -0.17881157376 0.06119857586 0.67079885058 -0.19274156803 0.07048416819 0.66589693804 -0.19310779590 0.07870011776 0.66067352530 -0.19341466521 0.08611526550 0.65516998839 -0.19367622893 0.09299845232 0.64942770332 -0.19390654007 0.09961851913 0.64348804612 -0.19411965161 0.10624430684 0.63739239280 -0.19432961654 0.11314465637 0.63118211939 -0.19455048784 0.12058840862 0.62489860191 -0.19479631852 0.12884440452 0.61858321638 -0.19508116155 0.06056108732 0.66990730405 -0.20020977830 0.06934105332 0.66510662170 -0.20170217647 0.07726414641 0.65996555403 -0.20303450136 0.08455862913 0.65454143092 -0.20424913049 0.09145276404 0.64889158223 -0.20538844139 0.09817481368 0.64307333783 -0.20649481160 0.10495304061 0.63714402761 -0.20761061864 0.11201570736 0.63116098142 -0.20877824005 0.11959107649 0.62518152915 -0.21004005336 0.12790741055 0.61926300067 -0.21143843610 0.05928662612 0.66842276280 -0.20748085938 0.06705560084 0.66386718169 -0.21013157559 0.07439322078 0.65893027995 -0.21250172909 0.08144660442 0.65370204295 -0.21467131322 0.08836287025 0.64827245608 -0.21672032133 0.09528913676 0.64273150472 -0.21872874677 0.10237252245 0.63716917426 -0.22077658287 0.10976014580 0.63167545007 -0.22294382299 0.11759912529 0.62634031755 -0.22531046046 0.12603657943 0.62125376206 -0.22795648865 0.05737520645 0.66634973783 -0.21443895006 0.06362785718 0.66218244814 -0.21829781492 0.07008741114 0.65757133744 -0.22172324977 0.07677927745 0.65265552578 -0.22484791125 0.08372886522 0.64757413319 -0.22780445597 0.09096158358 0.64246627970 -0.23072554058 0.09850284163 0.63747108536 -0.23374382171 0.10637804851 0.63272767020 -0.23699195597 0.11461261332 0.62837515426 -0.24060260000 0.12323194518 0.62455265758 -0.24470841043 0.05482684249 0.66369274015 -0.22096818917 0.05905786876 0.66005625118 -0.22610271615 0.06434678777 0.65589236093 -0.23060596479 0.07055673432 0.65140558072 -0.23468405868 0.07755084324 0.64680042188 -0.23854312140 0.08519224934 0.64228139571 -0.24238927652 0.09334408743 0.63805301355 -0.24642864763 0.10186949233 0.63431978670 -0.25086735831 0.11063159885 0.63128622648 -0.25591153213 0.11949354180 0.62915684422 -0.26176729269 0.01847128723 0.66648362696 -0.15601324047 0.01987327043 0.66319227514 -0.15030805798 0.02165730646 0.65933331030 -0.14528013348 0.02376755190 0.65511878327 -0.14072522462 0.02614816336 0.65076074486 -0.13643908901 0.02874329740 0.64647124593 -0.13221748428 0.03149711063 0.64246233729 -0.12785616806 0.03435375964 0.63894606977 -0.12315089797 0.03725740100 0.63613449422 -0.11789743164 0.04015219132 0.63423966145 -0.11189152670 0.01928295266 0.66877145083 -0.16289659694 0.02135473310 0.66481969202 -0.15849296318 0.02351696309 0.66040465825 -0.15456697193 0.02577015729 0.65566372110 -0.15098258275 0.02811483034 0.65073425217 -0.14760375517 0.03055149688 0.64575362305 -0.14429444873 0.03308067155 0.64085920533 -0.14091862297 0.03570286902 0.63618837061 -0.13734023744 0.03841860391 0.63187849048 -0.13342325166 0.04122839088 0.62806693652 -0.12903162518 0.01989165703 0.67040698036 -0.17012194354 0.02246574853 0.66594956311 -0.16695992122 0.02491159454 0.66110770543 -0.16411113455 0.02727197665 0.65596277307 -0.16149055911 0.02958967644 0.65059613177 -0.15901317049 0.03190747552 0.64508914728 -0.15659394429 0.03426815546 0.63952318535 -0.15414785610 0.03671449787 0.63397961172 -0.15158988150 0.03928928434 0.62853979215 -0.14883499609 0.04203529645 0.62328509238 -0.14579817546 0.02029740383 0.67139429445 -0.17758448643 0.02320633191 0.66658524035 -0.17562296058 0.02584122370 0.66144547440 -0.17383514780 0.02827303706 0.65601883147 -0.17217496252 0.03057272987 0.65034914648 -0.17059631918 0.03281125997 0.64448025433 -0.16905313219 0.03505958524 0.63845598991 -0.16749931600 0.03738866353 0.63232018812 -0.16588878503 0.03986945271 0.62611668387 -0.16417545370 0.04257291064 0.61988931204 -0.16231323646 0.02050019655 0.67173747198 -0.18517943182 0.02357649840 0.66673007570 -0.18439610974 0.02630587346 0.66142098770 -0.18366153818 0.02877336563 0.65583478863 -0.18296160184 0.03106401881 0.64999605915 -0.18228218543 0.03326287688 0.64392937992 -0.18160917366 0.03545498375 0.63765933158 -0.18092845123 0.03772538331 0.63121049481 -0.18022590287 0.04015911944 0.62460745024 -0.17948741326 0.04284123605 0.61787477854 -0.17869886713 0.02050003866 0.67144059186 -0.19280198585 0.02357626317 0.66638742109 -0.19319339718 0.02630556672 0.66103726788 -0.19351283216 0.02877298945 0.65541353684 -0.19377628590 0.03106357147 0.64953963260 -0.19399975346 0.03326235291 0.64343895976 -0.19419922992 0.03545437388 0.63713492295 -0.19439071037 0.03772467452 0.63065092679 -0.19459018988 0.04015829495 0.62401037589 -0.19481366353 0.04284027529 0.61723667487 -0.19507712640 0.02029693366 0.67050773297 -0.20034735472 0.02320564140 0.66556062847 -0.20192885136 0.02584032639 0.66029733749 -0.20331155624 0.02827193561 0.65475796842 -0.20454482354 0.03057141604 0.64898262965 -0.20567800747 0.03280971468 0.64301142958 -0.20676046221 0.03505777851 0.63688447660 -0.20784154196 0.03738655450 0.63064187909 -0.20897060092 0.03986698966 0.62432374545 -0.21019699327 0.04257003095 0.61797018408 -0.21157007321 0.01989088501 0.66894297419 -0.20771074460 0.02246464826 0.66425304978 -0.21051650078 0.02491017535 0.65920421908 -0.21298023689 0.02727023120 0.65387097568 -0.21519302362 0.02958758073 0.64832781315 -0.21724593167 0.03190498886 0.64264922509 -0.21923003176 0.03426522050 0.63690970508 -0.22123639458 0.03671104057 0.63118374670 -0.22335609084 0.03928521398 0.62554584354 -0.22568019124 0.04203050566 0.62007048917 -0.22829976649 0.01928189621 0.66675039443 -0.21478736166 0.02135329891 0.66246803697 -0.21887037391 0.02351513650 0.65776093520 -0.22244140059 0.02576790332 0.65275545092 -0.22564669496 0.02811209373 0.64757794592 -0.22863251027 0.03054820208 0.64235478202 -0.23154509979 0.03307672273 0.63721232099 -0.23453071678 0.03569815003 0.63227692464 -0.23773561450 0.03841297834 0.62767495477 -0.24130604622 0.04122170201 0.62353277316 -0.24538826519 0.01846997074 0.66393407258 -0.22147241209 0.01987160854 0.66020894198 -0.22690449923 0.02165523274 0.65597050839 -0.23161757383 0.02376497906 0.65141428645 -0.23583164641 0.02614498323 0.64673579080 -0.23976672747 0.02873938100 0.64213053607 -0.24364282754 0.03149230809 0.63779403689 -0.24767995713 0.03434790023 0.63392180791 -0.25209812676 0.03725029316 0.63070936376 -0.25711734696 0.04014362261 0.62835221908 -0.26295762823 -0.01847258004 0.66648353913 -0.15601331947 -0.01987456695 0.66319218116 -0.15030814275 -0.02165860020 0.65933320837 -0.14528022549 -0.02376883822 0.65511867190 -0.14072532511 -0.02614943946 0.65076062289 -0.13643919902 -0.02874456236 0.64647111247 -0.13221760463 -0.03149836538 0.64246219179 -0.12785629937 -0.03435500696 0.63894591197 -0.12315104065 -0.03725864554 0.63613432416 -0.11789758589 -0.04015343957 0.63423947950 -0.11189169250 -0.01928423273 0.66877135851 -0.16289667964 -0.02135600896 0.66481959025 -0.15849305443 -0.02351823000 0.66040454659 -0.15456707197 -0.02577141171 0.65566359914 -0.15098269181 -0.02811606996 0.65073411954 -0.14760387351 -0.03055272061 0.64575347940 -0.14429457663 -0.03308187950 0.64085905035 -0.14091876071 -0.03570406250 0.63618820400 -0.13734038532 -0.03841978548 0.63187831198 -0.13342341001 -0.04122956428 0.62806674591 -0.12903179434 -0.01989292012 0.67040688446 -0.17012202901 -0.02246700059 0.66594945517 -0.16696001733 -0.02491283216 0.66110758605 -0.16411124059 -0.02727319714 0.65596264268 -0.16149067457 -0.02959087786 0.65059599060 -0.15901329506 -0.03190865664 0.64508899540 -0.15659407782 -0.03426931582 0.63952302262 -0.15414799863 -0.03671563772 0.63397943783 -0.15159003327 -0.03929040465 0.62853960661 -0.14883515750 -0.04203639896 0.62328489450 -0.14579834711 -0.02029864605 0.67139419589 -0.17758457375 -0.02320755728 0.66658512792 -0.17562305991 -0.02584242979 0.66144534940 -0.17383525783 -0.02827422185 0.65601869490 -0.17217508224 -0.03057389170 0.65034899899 -0.17059644788 -0.03281239760 0.64448009625 -0.16905326945 -0.03506069782 0.63845582123 -0.16749946170 -0.03738975061 0.63232000852 -0.16588893935 -0.03987051422 0.62611649267 -0.16417561712 -0.04257394692 0.61988910826 -0.16231340974 -0.02050141434 0.67173737173 -0.18517952004 -0.02357769442 0.66672996050 -0.18439621066 -0.02630704601 0.66142085924 -0.18366165018 -0.02877451319 0.65583464820 -0.18296172366 -0.03106514003 0.64999590762 -0.18228231616 -0.03326397060 0.64392921775 -0.18160931275 -0.03545604896 0.63765915882 -0.18092859848 -0.03772641919 0.63121031109 -0.18022605842 -0.04016012535 0.62460725480 -0.17948757763 -0.04284221152 0.61787457019 -0.17869904116 -0.02050122883 0.67144049089 -0.19280207406 -0.02357742742 0.66638730491 -0.19319349807 -0.02630670393 0.66103713821 -0.19351294413 -0.02877409854 0.65541339497 -0.19377640767 -0.03106465142 0.64953947940 -0.19399988413 -0.03326340275 0.64343879568 -0.19419936895 -0.03545539271 0.63713474802 -0.19439085754 -0.03772566146 0.63065074060 -0.19459034534 -0.04015924919 0.62401017763 -0.19481382779 -0.04284119607 0.61723646329 -0.19507730031 -0.02029809335 0.67050763229 -0.20034744198 -0.02320677169 0.66556051316 -0.20192895060 -0.02584142666 0.66029720893 -0.20331166615 -0.02827300524 0.65475782761 -0.20454494312 -0.03057245442 0.64898247724 -0.20567813600 -0.03281072119 0.64301126585 -0.20676059927 -0.03505875253 0.63688430145 -0.20784168743 -0.03738749545 0.63064169209 -0.20897075497 -0.03986789692 0.62432354579 -0.21019715637 -0.04257090393 0.61796997057 -0.21157024613 -0.01989201173 0.66894287485 -0.20771082997 -0.02246574265 0.66425293725 -0.21051659674 -0.02491123731 0.65920409402 -0.21298034274 -0.02727126065 0.65387083851 -0.21519313885 -0.02958857758 0.64832766406 -0.21724605596 -0.03190595302 0.64264906403 -0.21923016496 -0.03426615191 0.63690953176 -0.22123653673 -0.03671193915 0.63118356060 -0.22335624216 -0.03928607968 0.62554564390 -0.22568035213 -0.04203133842 0.62007027501 -0.22829993754 -0.01928298779 0.66675029749 -0.21478744422 -0.02135435569 0.66246792918 -0.21887046497 -0.02351615900 0.65776081611 -0.22244150038 -0.02576889213 0.65275532005 -0.22564680371 -0.02811304946 0.64757780277 -0.22863262824 -0.03054912538 0.64235462602 -0.23154522724 -0.03307761429 0.63721215156 -0.23453085400 -0.03569901059 0.63227674117 -0.23773576177 -0.03841380865 0.62767475660 -0.24130620384 -0.04122250289 0.62353255961 -0.24538843349 -0.01847102538 0.66393397914 -0.22147249090 -0.01987262623 0.66020884095 -0.22690458377 -0.02165621485 0.65597039782 -0.23161766555 -0.02376592704 0.65141416464 -0.23583174654 -0.02614589861 0.64673565627 -0.23976683704 -0.02874026539 0.64213038760 -0.24364294735 -0.03149316317 0.63779387350 -0.24768008779 -0.03434872776 0.63392162884 -0.25209826866 -0.03725109499 0.63070916851 -0.25711750026 -0.04014440066 0.62835200738 -0.26295779290 -0.05483222166 0.66620351632 -0.15649895501 -0.05906434593 0.66297733044 -0.15109766439 -0.06435449026 0.65917633204 -0.14628508309 -0.07056589047 0.65502044161 -0.14187154308 -0.07756178240 0.65072957964 -0.13766737631 -0.08520540190 0.64652366664 -0.13348291474 -0.09335998479 0.64262262308 -0.12912849032 -0.10188876693 0.63924636947 -0.12441443502 -0.11065498414 0.63661482630 -0.11915108078 -0.11952187227 0.63494791407 -0.11314875956 -0.05737979632 0.66834459458 -0.16321490487 -0.06363359506 0.66449006059 -0.15904429729 -0.07009431794 0.66015936107 -0.15527150676 -0.07678745601 0.65550152354 -0.15177507702 -0.08373850031 0.65066557549 -0.14843355180 -0.09097294188 0.64580054443 -0.14512547487 -0.09851627176 0.64105545785 -0.14172938997 -0.10639398098 0.63657934327 -0.13812384083 -0.11463156059 0.63252122818 -0.13418737122 -0.12325450164 0.62903014009 -0.12979852487 -0.05929032322 0.66987012591 -0.17031302860 -0.06706027134 0.66553452139 -0.16731683536 -0.07439883757 0.66079692150 -0.16457080889 -0.08145320070 0.65575327517 -0.16200221487 -0.08837053953 0.65049953135 -0.15953831894 -0.09529803288 0.64513163897 -0.15710638677 -0.10238285955 0.63974554698 -0.15463368402 -0.10977219833 0.63443720431 -0.15204747634 -0.11761322805 0.62930255990 -0.14927502940 -0.12605312749 0.62443756269 -0.14624360886 -0.06056381691 0.67078462138 -0.17767746501 -0.06934442149 0.66611454314 -0.17581710026 -0.07726811966 0.66109264794 -0.17408989088 -0.08456321091 0.65577939806 -0.17245809076 -0.09145799473 0.65023525580 -0.17088395381 -0.09818077062 0.64452068344 -0.16932973392 -0.10495983806 0.63869614328 -0.16775768497 -0.11202349654 0.63282209761 -0.16613006086 -0.11960004555 0.62695900871 -0.16440911549 -0.12791778459 0.62116733889 -0.16255710275 -0.06120029198 0.67109259210 -0.18519235292 -0.07048609219 0.66623395617 -0.18444691367 -0.07870223473 0.66105017504 -0.18373565409 -0.08611757305 0.65558359378 -0.18304783882 -0.09300096059 0.64987655741 -0.18237273250 -0.09962125082 0.64397141100 -0.18169959978 -0.10624729719 0.63791049958 -0.18101770531 -0.11314795315 0.63173616819 -0.18031631372 -0.12059207215 0.62549076189 -0.17958468966 -0.12884850766 0.61921662572 -0.17881209778 -0.06119976298 0.67079854918 -0.19274183112 -0.07048533016 0.66589659077 -0.19310809729 -0.07870125332 0.66067313744 -0.19341499993 -0.08611637351 0.65516956388 -0.19367659317 -0.09299953179 0.64942724478 -0.19390693110 -0.09961956922 0.64348755482 -0.19412006785 -0.10624532684 0.63739186869 -0.19433005752 -0.11314564572 0.63118156108 -0.19455095423 -0.12058936690 0.62489800669 -0.19479681208 -0.12884533144 0.61858258018 -0.19508168519 -0.06056224449 0.66990700370 -0.20021003843 -0.06934218208 0.66510627725 -0.20170247278 -0.07726524593 0.65996516976 -0.20303482978 -0.08455969869 0.65454100993 -0.20424948792 -0.09145380300 0.64889112646 -0.20538882570 -0.09817582152 0.64307284807 -0.20649522160 -0.10495401691 0.63714350345 -0.20761105411 -0.11201665179 0.63116042131 -0.20877870172 -0.11959198884 0.62518093036 -0.21004054292 -0.12790829069 0.61926235932 -0.21143895621 -0.05928775108 0.66842246676 -0.20748111365 -0.06705669466 0.66386684594 -0.21013186183 -0.07439428310 0.65892990665 -0.21250204503 -0.08144763498 0.65370163350 -0.21467165722 -0.08836386890 0.64827201105 -0.21672069238 -0.09529010347 0.64273102391 -0.21872914450 -0.10237345728 0.63716865666 -0.22077700755 -0.10976104893 0.63167489389 -0.22294427550 -0.11759999702 0.62633972019 -0.22531094235 -0.12603742015 0.62125312013 -0.22795700206 -0.05737629731 0.66634944947 -0.21443919558 -0.06362891460 0.66218212713 -0.21829808612 -0.07008843534 0.65757098275 -0.22172354705 -0.07678026877 0.65265513614 -0.22484823517 -0.08372982417 0.64757370713 -0.22780480724 -0.09096251077 0.64246581553 -0.23072592003 -0.09850373786 0.63747058116 -0.23374423033 -0.10637891468 0.63272712385 -0.23699239491 -0.11461345049 0.62837456341 -0.24060307054 -0.12323275455 0.62455201966 -0.24470891399 -0.05482789775 0.66369246292 -0.22096842304 -0.05905888860 0.66005595113 -0.22610296732 -0.06434777318 0.65589203267 -0.23060623725 -0.07055768648 0.65140521942 -0.23468435591 -0.07755176348 0.64680002326 -0.23854344636 -0.08519313917 0.64228095608 -0.24238963168 -0.09334494854 0.63805252977 -0.24642903496 -0.10187032658 0.63431925621 -0.25086777926 -0.11063240829 0.63128564730 -0.25591198765 -0.11949432863 0.62915621491 -0.26176778323 -0.08943918966 0.66564356121 -0.15747014453 -0.09657995388 0.66254772546 -0.15267662041 -0.10519033528 0.65886268399 -0.14829470355 -0.11514493417 0.65482409555 -0.14416387532 -0.12631835090 0.65066761890 -0.14012361711 -0.13858518579 0.64662891279 -0.13601341028 -0.15182003916 0.64294363596 -0.13167273622 -0.16589751136 0.63984744718 -0.12694107631 -0.18069220272 0.63757600518 -0.12165791191 -0.19607871355 0.63636496874 -0.11566272442 -0.09406049802 0.66749116124 -0.16385127045 -0.10461171723 0.66383110497 -0.16014668976 -0.11529309463 0.65966910370 -0.15668027421 -0.12622693046 0.65517749656 -0.15335973601 -0.13753552498 0.65052862265 -0.15009278738 -0.14934117841 0.64589482110 -0.14678714055 -0.16176619102 0.64144843102 -0.14335050772 -0.17493286303 0.63736179153 -0.13969060112 -0.18896349469 0.63380724175 -0.13571513297 -0.20398038624 0.63095712079 -0.13133181549 -0.09752620771 0.66879670652 -0.17069494044 -0.11063511059 0.66470476330 -0.16803037367 -0.12286958274 0.66017571325 -0.16548983784 -0.13453769709 0.65533467214 -0.16302517827 -0.14594752658 0.65030675577 -0.16058824031 -0.15740714414 0.64521707991 -0.15813086927 -0.16922462273 0.64019076034 -0.15560491049 -0.18170803527 0.63535291284 -0.15296220930 -0.19516545470 0.63082865320 -0.15015461104 -0.20990495397 0.62674309718 -0.14713396104 -0.09983635426 0.66956557250 -0.17786315857 -0.11465021406 0.66517348733 -0.17620508022 -0.12791992171 0.66038737121 -0.17459904563 -0.14007739321 0.65530094214 -0.17302398679 -0.15155454456 0.65000791810 -0.17145883571 -0.16278329177 0.64460201709 -0.16988252440 -0.17419555084 0.63917695710 -0.16827398486 -0.18622323778 0.63382645611 -0.16661214910 -0.19929826859 0.62864423211 -0.16487594911 -0.21385255927 0.62372400309 -0.16304431691 -0.10099097323 0.66980313460 -0.18521792891 -0.11665710772 0.66524206391 -0.18454821749 -0.13044423362 0.66030893617 -0.18388354876 -0.14284617797 0.65508162636 -0.18321994624 -0.15435676778 0.64963800948 -0.18255343345 -0.16546983008 0.64405596053 -0.18188003393 -0.17667919189 0.63841335448 -0.18119577119 -0.18847868025 0.63278806632 -0.18049666876 -0.20136212217 0.62725797106 -0.17977875017 -0.21582334467 0.62190094367 -0.17903803894 -0.10099010015 0.66951476825 -0.19262125551 -0.11665587164 0.66491527992 -0.19293719356 -0.13044264057 0.65994526671 -0.19321899843 -0.14284421052 0.65468204465 -0.19347684130 -0.15435438510 0.64920292976 -0.19372089337 -0.16546696787 0.64358523809 -0.19396132580 -0.17667576243 0.63790628566 -0.19420830980 -0.18847457237 0.63224338850 -0.19447201653 -0.20135720127 0.62667386263 -0.19476261719 -0.21581745272 0.62127502409 -0.19509028296 -0.09983377057 0.66870584889 -0.19993514245 -0.11464658590 0.66419792223 -0.20124941651 -0.12791526463 0.65930122142 -0.20248104582 -0.14007165003 0.65410751682 -0.20365845666 -0.15154758537 0.64870857878 -0.20481007530 -0.16277491394 0.64319617767 -0.20596432801 -0.17418547900 0.63766208383 -0.20714964104 -0.18621112384 0.63219806762 -0.20839444067 -0.19928369172 0.62689589940 -0.20972715318 -0.21383502593 0.62184734952 -0.21117620482 -0.09752202003 0.66738175193 -0.20702159379 -0.11062933060 0.66309477769 -0.20936229441 -0.12286222791 0.65838165888 -0.21154534213 -0.13452865564 0.65336336270 -0.21362857700 -0.14593655746 0.64816085639 -0.21566983911 -0.15739387707 0.64289510714 -0.21772696850 -0.16920855813 0.63768708217 -0.21985780525 -0.18168854433 0.63265774870 -0.22212018943 -0.19514177934 0.62792807395 -0.22457196111 -0.20987620685 0.62361902511 -0.22727096034 -0.09405488408 0.66554785282 -0.21374261360 -0.10460418580 0.66161063319 -0.21715323537 -0.11528365248 0.65719143767 -0.22028753854 -0.12621538650 0.65245490213 -0.22325098701 -0.13752149023 0.64756566242 -0.22614904462 -0.14932406606 0.64268835438 -0.22908717526 -0.16174521637 0.63798761387 -0.23217084278 -0.17490704355 0.63362807674 -0.23550551106 -0.18893164996 0.62977437885 -0.23919664397 -0.20394113801 0.62659115604 -0.24334970537 -0.08943239825 0.66320952698 -0.21996020595 -0.09657123160 0.65975027558 -0.22449964744 -0.10517966044 0.65573541638 -0.22858328625 -0.11513200177 0.65138745493 -0.23238947135 -0.12630257253 0.64692889671 -0.23609655169 -0.13856568970 0.64258224727 -0.23988287624 -0.15179567026 0.63857001210 -0.24392679396 -0.16586683118 0.63511469674 -0.24840665381 -0.18065348941 0.63243880668 -0.25350080474 -0.19602996194 0.63076484746 -0.25938759574 -0.12112503608 0.66480367648 -0.15892688545 -0.13130527817 0.66190336867 -0.15504500837 -0.14292610681 0.65839226688 -0.15130908416 -0.15602729866 0.65452963688 -0.14760231864 -0.17064863037 0.65057474443 -0.14380791763 -0.18682987862 0.64678685529 -0.13980908693 -0.20461082005 0.64342523523 -0.13548903236 -0.22403123135 0.64074914999 -0.13073095974 -0.24513088916 0.63901786536 -0.12541807489 -0.26794957016 0.63849064708 -0.11943358361 -0.12838309772 0.66621106066 -0.16480577424 -0.14342406747 0.66284272531 -0.16180022986 -0.15819635393 0.65893377646 -0.15879337223 -0.17303878991 0.65469152046 -0.15573666645 -0.18829020822 0.65032326365 -0.15258157759 -0.20428944167 0.64603631240 -0.14927957073 -0.22137532307 0.64203797303 -0.14578211095 -0.23988668525 0.63853555190 -0.14204066334 -0.26016236101 0.63573635535 -0.13800669296 -0.28254118316 0.63384768974 -0.13363166490 -0.13382622903 0.66718662815 -0.17126776271 -0.15251256521 0.66346018245 -0.16910063064 -0.16964822872 0.65924396280 -0.16686832581 -0.18579634937 0.65470683520 -0.16455956307 -0.20152005699 0.65001766564 -0.16216305732 -0.21738248138 0.64534532011 -0.15966752343 -0.23394675238 0.64085866462 -0.15706167627 -0.25177599981 0.63672656514 -0.15433423073 -0.27143335347 0.63311788767 -0.15147390168 -0.29348194319 0.63020149821 -0.14846940399 -0.13745450359 0.66773705086 -0.17814165280 -0.15857088833 0.66376196176 -0.17678699841 -0.17728191175 0.65932952038 -0.17536272077 -0.19430023181 0.65458332830 -0.17387276903 -0.21033850647 0.64966698711 -0.17232109230 -0.22610939372 0.64472409840 -0.17071163973 -0.24232555152 0.63989826374 -0.16904836045 -0.25969963783 0.63533308474 -0.16733520358 -0.27894431063 0.63117216296 -0.16557611827 -0.30077222789 0.62755910000 -0.16377505363 -0.13926799496 0.66786900072 -0.18525624648 -0.16159915376 0.66375428493 -0.18470012083 -0.18109758359 0.65919714368 -0.18410533302 -0.19855069197 0.65432874696 -0.18347804483 -0.21474588648 0.64928026480 -0.18282441801 -0.23047057464 0.64418286719 -0.18215061435 -0.24651216401 0.63916772416 -0.18146279560 -0.26365806214 0.63436600572 -0.18076712354 -0.28269567658 0.62990888186 -0.18006975994 -0.30441241487 0.62592752262 -0.17937686656 -0.13926677670 0.66758914964 -0.19244034570 -0.16159747844 0.66344337364 -0.19268078560 -0.18109542480 0.65885352716 -0.19292493846 -0.19854798464 0.65395083837 -0.19317715100 -0.21474252678 0.64886653541 -0.19344176993 -0.23046642009 0.64373184644 -0.19372314197 -0.24650703340 0.63867799962 -0.19402561384 -0.26365173555 0.63383622310 -0.19435353225 -0.28268789540 0.62933774503 -0.19471124391 -0.30440288178 0.62531379357 -0.19510309554 -0.13745092238 0.66690416955 -0.19952275241 -0.15856597929 0.66283544955 -0.20056978038 -0.17727561596 0.65830536530 -0.20165031296 -0.19429236455 0.65345734971 -0.20277184805 -0.21032875719 0.64843483567 -0.20394188354 -0.22609732603 0.64338125609 -0.20516791732 -0.24231060321 0.63844004387 -0.20645744729 -0.25968112087 0.63375463191 -0.20781797135 -0.27892141117 0.62946845310 -0.20925698740 -0.30074400623 0.62572494036 -0.21078199331 -0.13382050558 0.66582073236 -0.20633226857 -0.15250477326 0.66193673435 -0.20820789287 -0.16963833764 0.65755935258 -0.21011023244 -0.18578408648 0.65285602819 -0.21206389651 -0.20150490749 0.64799420231 -0.21409349431 -0.21736368841 0.64314131609 -0.21622363509 -0.23392331698 0.63846481067 -0.21847892808 -0.25174668092 0.63413212717 -0.22088398251 -0.27139666798 0.63031070673 -0.22346340762 -0.29343616587 0.62716799050 -0.22624181264 -0.12837559986 0.66434551001 -0.21269769613 -0.14341397727 0.66075344971 -0.21543591074 -0.15818377041 0.65662218345 -0.21813347277 -0.17302340518 0.65215462098 -0.22085505688 -0.18827130748 0.64755367205 -0.22366533774 -0.20426590320 0.64302224639 -0.22662899000 -0.22134561825 0.63876325376 -0.22981068832 -0.23984887852 0.63497960390 -0.23327510737 -0.26011410991 0.63187420656 -0.23708692180 -0.28247973831 0.62964997149 -0.24131080627 -0.12111627878 0.66248517441 -0.21844783706 -0.13129370826 0.65929181732 -0.22209462168 -0.14291209483 0.65550055241 -0.22554880986 -0.15601057542 0.65136087530 -0.22894708970 -0.17062828695 0.64712228160 -0.23242614930 -0.18680436635 0.64303426692 -0.23612267674 -0.20457795055 0.63934632689 -0.24017336014 -0.22398817647 0.63630795713 -0.24471488757 -0.24507418105 0.63416865324 -0.24988394714 -0.26787510119 0.63317791084 -0.25581722695 -0.14872131293 0.66368386481 -0.16086917518 -0.16212420617 0.66104426253 -0.15820282580 -0.17632177642 0.65776508339 -0.15532822222 -0.19173431325 0.65413706876 -0.15218686985 -0.20878210624 0.65045096001 -0.14872027410 -0.22788544497 0.64699749853 -0.14486994036 -0.24946461902 0.64406742568 -0.14057737405 -0.27393991797 0.64195148283 -0.13578408056 -0.30173163138 0.64094041137 -0.13043156529 -0.33326004885 0.64132495267 -0.12446133365 -0.15940435530 0.66450429506 -0.16607841408 -0.17920433781 0.66152492354 -0.16400491558 -0.19788588974 0.65795338132 -0.16161079874 -0.21617198921 0.65404359749 -0.15890586598 -0.23478561430 0.65004950112 -0.15589991976 -0.25444974311 0.64622502128 -0.15260276250 -0.27588735373 0.64282408704 -0.14902419664 -0.29982142427 0.64010062748 -0.14517402462 -0.32697493281 0.63830857167 -0.14106204887 -0.35807085746 0.63770184867 -0.13669807183 -0.16741604264 0.66503989262 -0.17203149356 -0.19201368209 0.66180078037 -0.17052760463 -0.21405793656 0.65800167164 -0.16870627116 -0.23449882061 0.65386976593 -0.16660536755 -0.25428634876 0.64963226272 -0.16426276816 -0.27437053556 0.64551636149 -0.16171634739 -0.29570139554 0.64174926172 -0.15900397961 -0.31922894325 0.63855816289 -0.15616353921 -0.34590319322 0.63617026449 -0.15323290057 -0.37667415999 0.63481276600 -0.15024993806 -0.17275651040 0.66529905806 -0.17851294608 -0.20055239764 0.66187996775 -0.17756285341 -0.22483816559 0.65791909665 -0.17638091499 -0.24671518979 0.65362655774 -0.17500443618 -0.26728484579 0.64921246404 -0.17347072231 -0.28764850917 0.64488692855 -0.17181707873 -0.30890755545 0.64086006428 -0.17008081080 -0.33216336021 0.63734198422 -0.16829922385 -0.35851729900 0.63454280138 -0.16650962324 -0.38907074737 0.63267262877 -0.16474931431 -0.17542589403 0.66529019194 -0.18530730412 -0.20482064312 0.66177062045 -0.18490262241 -0.23022682554 0.65771479865 -0.18440100573 -0.25282147910 0.65332495659 -0.18382213351 -0.27378164158 0.64880332431 -0.18318568519 -0.29428435078 0.64435213186 -0.18251134021 -0.31550664448 0.64017360927 -0.18181877802 -0.33862556049 0.63646998659 -0.18112767806 -0.36481813658 0.63344349386 -0.18045771977 -0.39526141056 0.63129636112 -0.17982858258 -0.17542432899 0.66502169485 -0.19219910016 -0.20481857715 0.66148087318 -0.19233887212 -0.23022416515 0.65739791994 -0.19253281886 -0.25281807090 0.65297594613 -0.19277752117 -0.27377727230 0.64841806275 -0.19306955980 -0.29427874724 0.64392738080 -0.19340551553 -0.31549947364 0.63970701126 -0.19378196912 -0.33861642938 0.63596006515 -0.19419550136 -0.36480659237 0.63288965345 -0.19464269301 -0.39524694052 0.63069888716 -0.19512012484 -0.17275195073 0.66450196737 -0.19897286667 -0.20054635837 0.66101886070 -0.19966356301 -0.22483043313 0.65697760284 -0.20054262990 -0.24670534754 0.65259051005 -0.20158966079 -0.26727227412 0.64806989860 -0.20278424913 -0.28763238540 0.64362808477 -0.20410598836 -0.30888685392 0.63947738483 -0.20553447192 -0.33213685220 0.63583011504 -0.20704929327 -0.35848355279 0.63289859168 -0.20863004583 -0.38902812819 0.63089513103 -0.21025632307 -0.16740889471 0.66373941006 -0.20541313613 -0.19200414543 0.66039271775 -0.20666865556 -0.21404587820 0.65646298964 -0.20819671433 -0.23448369135 0.65217963200 -0.20997761402 -0.25426718321 0.64777205108 -0.21199165618 -0.27434595209 0.64346965317 -0.21421914241 -0.29566959634 0.63950184452 -0.21664037425 -0.31918771428 0.63609803140 -0.21923565330 -0.34584990423 0.63348762009 -0.22198528110 -0.37660576453 0.63190001685 -0.22486955925 -0.15939529639 0.66274242350 -0.21130444102 -0.17919209697 0.65961057907 -0.21314611026 -0.19787074909 0.65586322266 -0.21526134766 -0.21615348470 0.65175429565 -0.21766044247 -0.23476253575 0.64753773943 -0.22035368395 -0.25442013417 0.64346749538 -0.22335136136 -0.27584851191 0.63979750490 -0.22666376395 -0.29976990091 0.63678170938 -0.23030118097 -0.32690653313 0.63467405020 -0.23427390169 -0.35798064049 0.63372846875 -0.23859221536 -0.14871129121 0.66151940827 -0.21643131381 -0.16211037162 0.65868057941 -0.21888788759 -0.17630529451 0.65518744419 -0.22150280538 -0.19171510994 0.65132548467 -0.22435720779 -0.20875886791 0.64738018286 -0.22753223543 -0.22785561847 0.64363702081 -0.23110902890 -0.24942441163 0.64038148054 -0.23516872883 -0.27388429742 0.63789904411 -0.23979247581 -0.30165432588 0.63647519353 -0.24506141046 -0.33315354703 0.63639541084 -0.25105667338 </DataArray>
</Points>
</Piece>
</StructuredGrid>
</VTKFile>
