<?xml version="1.0"?>
<VTKFile type="StructuredGrid" version="0.1">
<StructuredGrid WholeExtent="0 9 0 9 0 9">
<Piece Extent="0 9 0 9 0 9">
<PointData>
<DataArray type="Float32" Name="Deformation" format="ascii" NumberOfComponents="3">
0.00099491069 -0.55177784003 -0.22516399981 0.00075129346 -0.55179965329 -0.22786206936 0.00052458487 -0.55181603714 -0.22988566538 0.00030995310 -0.55182698710 -0.23123478456 0.00010256634 -0.55183249867 -0.23190942355 -0.00010240723 -0.55183256736 -0.23190957902 -0.00030979943 -0.55182718870 -0.23123524765 -0.00052444206 -0.55181635818 -0.22988642610 -0.00075116695 -0.55180007132 -0.22786311104 -0.00099480590 -0.55177832363 -0.22516529915 0.00120668760 -0.55213534822 -0.22182508432 0.00086169114 -0.55282301981 -0.22395862048 0.00057434069 -0.55333879948 -0.22555881745 0.00032816507 -0.55368268232 -0.22662567410 0.00010669305 -0.55385466345 -0.22715918929 -0.00010654655 -0.55385473798 -0.22715936191 -0.00032802495 -0.55368290099 -0.22662619083 -0.00057421336 -0.55333914761 -0.22555967491 -0.00086158297 -0.55282347293 -0.22395981304 -0.00120660499 -0.55213587207 -0.22182660407 0.00135408390 -0.55299798835 -0.21784463505 0.00093178157 -0.55418753401 -0.21957560003 0.00060053763 -0.55507972097 -0.22087386940 0.00033433436 -0.55567454387 -0.22173944384 0.00010715406 -0.55597199735 -0.22217232403 -0.00010702098 -0.55597207605 -0.22217251065 -0.00033420846 -0.55567477462 -0.22174000437 -0.00060042610 -0.55508008768 -0.22087480588 -0.00093169159 -0.55418800990 -0.21957691585 -0.00135402265 -0.55299853589 -0.21784633497 0.00144069902 -0.55435262488 -0.21325355606 0.00096439440 -0.55589964865 -0.21470422600 0.00060521293 -0.55705994561 -0.21579227475 0.00032968974 -0.55783350989 -0.21651770442 0.00010435995 -0.55822033567 -0.21688051713 -0.00010424130 -0.55822041707 -0.21688071500 -0.00032957890 -0.55783374826 -0.21651830014 -0.00060511773 -0.55706032339 -0.21579327469 -0.00096432266 -0.55590013660 -0.21470564075 -0.00144065856 -0.55435318205 -0.21325540044 0.00147013244 -0.55618612230 -0.20808275139 0.00096235923 -0.55796581651 -0.20933571638 0.00059040382 -0.55930061737 -0.21027548699 0.00031545994 -0.56019051854 -0.21090206643 0.00009872132 -0.56063551370 -0.21121545793 -0.00009861831 -0.56063559650 -0.21121566472 -0.00031536522 -0.56019076061 -0.21090269001 -0.00059032569 -0.55930099970 -0.21027653702 -0.00096230599 -0.55796630743 -0.20933720899 -0.00147011237 -0.55618667746 -0.20808470914 0.00144598360 -0.55848534508 -0.20236312509 0.00092850570 -0.56039249034 -0.20346128916 0.00055814756 -0.56182288023 -0.20428495963 0.00029287373 -0.56277650796 -0.20483414050 0.00009064876 -0.56325336675 -0.20510883582 -0.00009056279 -0.56325344981 -0.20510904959 -0.00029279637 -0.56277675035 -0.20483478583 -0.00055808743 -0.56182326160 -0.20428604858 -0.00092847142 -0.56039297677 -0.20346284185 -0.00144598377 -0.55848588906 -0.20236516966 0.00137185197 -0.56123715768 -0.19612558121 0.00086566344 -0.56318612292 -0.19707216233 0.00051048138 -0.56464787819 -0.19778214616 0.00026315984 -0.56562241631 -0.19825553725 0.00008055285 -0.56610973013 -0.19849234013 -0.00008048554 -0.56610981247 -0.19849255936 -0.00026310131 -0.56562265618 -0.19825619949 -0.00051044040 -0.56464825408 -0.19778326504 -0.00086564878 -0.56318659900 -0.19707376058 -0.00137187242 -0.56123768379 -0.19612769065 0.00125133700 -0.56442842458 -0.18940102381 0.00077666206 -0.56635316701 -0.19015955388 0.00044944253 -0.56779675522 -0.19072850010 0.00022754703 -0.56875918174 -0.19110786728 0.00006884419 -0.56924043914 -0.19129766024 -0.00006879735 -0.56924051997 -0.19129788382 -0.00022750896 -0.56875941677 -0.19110854283 -0.00044942203 -0.56779712211 -0.19072964210 -0.00077666792 -0.56635362852 -0.19016118646 -0.00125137799 -0.56442892857 -0.18940318072 0.00108803814 -0.56804601026 -0.18222035692 0.00066433119 -0.56990007539 -0.18271468180 0.00037706824 -0.57129065530 -0.18308547494 0.00018726404 -0.57221774240 -0.18333274121 0.00005593337 -0.57268132909 -0.18345648551 -0.00005590900 -0.57268140776 -0.18345671273 -0.00018724830 -0.57221797082 -0.18333342774 -0.00037706978 -0.57129101067 -0.18308663545 -0.00066435865 -0.56990051972 -0.18271634074 -0.00108810015 -0.56804649035 -0.18222254850 0.00088555486 -0.57207677919 -0.17461448460 0.00053150047 -0.57383330082 -0.17472876409 0.00029539576 -0.57515072243 -0.17481452419 0.00014353963 -0.57602903645 -0.17487176967 0.00004223098 -0.57646823527 -0.17490050530 -0.00004223128 -0.57646831132 -0.17490073584 -0.00014354827 -0.57602925701 -0.17487246608 -0.00029542108 -0.57515106475 -0.17481570077 -0.00053155081 -0.57383372696 -0.17473044469 -0.00088563857 -0.57207723605 -0.17461670260 0.00095248413 -0.58275549585 -0.24099688306 0.00073013235 -0.58264463572 -0.24367879145 0.00051580322 -0.58256151205 -0.24569026515 0.00030720384 -0.58250612059 -0.24703130099 0.00010204130 -0.58247845710 -0.24770189578 -0.00010197730 -0.58247851734 -0.24770204634 -0.00030714487 -0.58250629706 -0.24703174949 -0.00051575432 -0.58256179202 -0.24569100206 -0.00073009856 -0.58264499798 -0.24367980085 -0.00095247048 -0.58275591070 -0.24099814270 0.00114251517 -0.58316239197 -0.23763975032 0.00083233267 -0.58371953663 -0.23974454641 0.00056437318 -0.58413741857 -0.24132318677 0.00032657214 -0.58441603304 -0.24237567039 0.00010686499 -0.58455537528 -0.24290199626 -0.00010681283 -0.58455544054 -0.24290216339 -0.00032652587 -0.58441622405 -0.24237617075 -0.00056433869 -0.58413772107 -0.24132401736 -0.00083231584 -0.58371992683 -0.23974570220 -0.00114252189 -0.58316283658 -0.23764122427 0.00127559515 -0.58391686428 -0.23360496671 0.00089803381 -0.58502819421 -0.23530299111 0.00059104868 -0.58586171680 -0.23657655340 0.00033447419 -0.58641742674 -0.23742565435 0.00010814478 -0.58669531877 -0.23785029475 -0.00010810513 -0.58669538760 -0.23785047538 -0.00033444111 -0.58641762795 -0.23742619702 -0.00059102871 -0.58586203454 -0.23657746045 -0.00089803353 -0.58502860207 -0.23530426645 -0.00127562112 -0.58391732528 -0.23360661581 0.00135613785 -0.58502579455 -0.22897771300 0.00093031462 -0.58659171212 -0.23038325094 0.00059783920 -0.58776617676 -0.23143744896 0.00033203979 -0.58854918268 -0.23214030926 0.00010624456 -0.58894072409 -0.23249183404 -0.00010621828 -0.58894079519 -0.23249202552 -0.00033202056 -0.58854939019 -0.23214088588 -0.00059783409 -0.58776650331 -0.23143841735 -0.00093033067 -0.58659212874 -0.23038462213 -0.00135618214 -0.58502626070 -0.22897950241 0.00138855706 -0.58649606458 -0.22384316996 0.00093225396 -0.58843119399 -0.22501445132 0.00058675423 -0.58988256849 -0.22589295741 0.00032039871 -0.59085018181 -0.22647869153 0.00010152823 -0.59133402772 -0.22677165696 -0.00010151635 -0.59133409993 -0.22677185700 -0.00032039420 -0.59085039220 -0.22647929496 -0.00058676448 -0.58988289828 -0.22589397411 -0.00093228635 -0.58843161189 -0.22501589775 -0.00138861895 -0.58649652678 -0.22384506918 0.00137726656 -0.58833455616 -0.21828651836 0.00090693072 -0.59056774346 -0.21922571765 0.00055980327 -0.59224266200 -0.21993016269 0.00030068075 -0.59335930512 -0.22039985755 0.00009435968 -0.59391766616 -0.22063480631 -0.00009436342 -0.59391773848 -0.22063501305 -0.00030069201 -0.59335951542 -0.22040048183 -0.00055982958 -0.59224299033 -0.21993121674 -0.00090697960 -0.59056815656 -0.21922722185 -0.00137734555 -0.58833500744 -0.21828850123 0.00132668015 -0.59054815107 -0.21239293896 0.00085742374 -0.59302246418 -0.21304617534 0.00051899579 -0.59487822732 -0.21353614874 0.00027401569 -0.59611543355 -0.21386286374 0.00008510278 -0.59673407593 -0.21402632492 -0.00008512355 -0.59673414749 -0.21402653684 -0.00027404396 -0.59611564129 -0.21386350410 -0.00051903906 -0.59487855037 -0.21353723127 -0.00085748950 -0.59302286779 -0.21304772293 -0.00132677591 -0.59054858660 -0.21239498365 0.00124121160 -0.59314373111 -0.20624761253 0.00078681189 -0.59581645977 -0.20650494980 0.00046634130 -0.59782103448 -0.20669799952 0.00024153332 -0.59915744810 -0.20682676650 0.00007412144 -0.59982569351 -0.20689125558 -0.00007416083 -0.59982576360 -0.20689147160 -0.00024158001 -0.59915765123 -0.20682741937 -0.00046640260 -0.59782134928 -0.20669910374 -0.00078689511 -0.59581685064 -0.20650652952 -0.00124132405 -0.59314414817 -0.20624970155 0.00112527471 -0.59612817806 -0.19993571984 0.00069817405 -0.59897083390 -0.19963116644 0.00040384927 -0.60110285350 -0.19940279895 0.00020436342 -0.60252422972 -0.19925062222 0.00006177954 -0.60323495542 -0.19917464113 -0.00006183933 -0.60323502345 -0.19917486051 -0.00020443015 -0.60252442668 -0.19925128524 -0.00040392989 -0.60110315795 -0.19940392016 -0.00069827549 -0.59897121014 -0.19963277014 -0.00112540393 -0.59612857610 -0.19993784002 0.00098328326 -0.59950837370 -0.19354244166 0.00059458907 -0.60250669019 -0.19245395066 0.00033352920 -0.60475545441 -0.19163763098 0.00016363579 -0.60625465939 -0.19109348732 0.00004844097 -0.60700429814 -0.19082152436 -0.00004852312 -0.60700436370 -0.19082174679 -0.00016372435 -0.60625484907 -0.19109415930 -0.00033363059 -0.60475574728 -0.19163876658 -0.00059470971 -0.60250705134 -0.19245557331 -0.00098342956 -0.59950875428 -0.19354458418 0.00090873635 -0.61419686888 -0.25691482601 0.00070350106 -0.61396349772 -0.25959572899 0.00050073446 -0.61378848841 -0.26160644721 0.00029973054 -0.61367183696 -0.26294697764 0.00009978331 -0.61361353943 -0.26361731727 -0.00009981324 -0.61361359183 -0.26361746306 -0.00029976510 -0.61367199021 -0.26294741200 -0.00050077827 -0.61378873061 -0.26160716106 -0.00070355876 -0.61396380904 -0.25959670722 -0.00090881256 -0.61419722156 -0.25691604745 0.00108210734 -0.61470121261 -0.25355236208 0.00079896176 -0.61511952341 -0.25564414237 0.00054782161 -0.61543327749 -0.25721301935 0.00031954172 -0.61564247032 -0.25825899214 0.00010497690 -0.61574709735 -0.25878205987 -0.00010501802 -0.61574715402 -0.25878222167 -0.00031958821 -0.61564263579 -0.25825947666 -0.00054787887 -0.61543353811 -0.25721382397 -0.00079903516 -0.61511985643 -0.25564526274 -0.00108220226 -0.61470158620 -0.25355379208 0.00120431381 -0.61549436123 -0.24951912241 0.00086100237 -0.61647128024 -0.25118791775 0.00057445212 -0.61720399209 -0.25243955663 0.00032844475 -0.61769249165 -0.25327403994 0.00010676189 -0.61793677382 -0.25369136857 -0.00010681477 -0.61793683349 -0.25369154341 -0.00032850359 -0.61769266554 -0.25327456536 -0.00057452289 -0.61720426487 -0.25244043530 -0.00086109102 -0.61647162635 -0.25118915414 -0.00120442631 -0.61549474488 -0.24952072275 0.00128032276 -0.61657766985 -0.24493125961 0.00089284773 -0.61803637563 -0.24627775230 0.00058258746 -0.61913042879 -0.24728766470 0.00032747967 -0.61985982369 -0.24796099911 0.00010546211 -0.62022455472 -0.24829775781 -0.00010552751 -0.62022461624 -0.24829794311 -0.00032755144 -0.61986000261 -0.24796155731 -0.00058267197 -0.61913070822 -0.24728860270 -0.00089295134 -0.61803672743 -0.24627908158 -0.00128045184 -0.61657805460 -0.24493299625 0.00131510118 -0.61795249359 -0.23990492630 0.00089772271 -0.61983241695 -0.24096434320 0.00057418909 -0.62124238418 -0.24175894922 0.00031768657 -0.62218238919 -0.24228874771 0.00010140138 -0.62265242591 -0.24255374205 -0.00010148022 -0.62265248826 -0.24255393561 -0.00031777200 -0.62218257015 -0.24228933174 -0.00057428772 -0.62124266552 -0.24175993383 -0.00089784114 -0.61983276829 -0.24096574524 -0.00131524601 -0.61795287237 -0.23990676933 0.00131361608 -0.61962018759 -0.23455627508 0.00087885214 -0.62187701162 -0.23529838763 0.00055121848 -0.62356965487 -0.23585501583 0.00030010548 -0.62469811089 -0.23622616383 0.00009490355 -0.62526237326 -0.23641183574 -0.00009499690 -0.62526243555 -0.23641203571 -0.00030020548 -0.62469829132 -0.23622676787 -0.00055133178 -0.62356993413 -0.23585603635 -0.00087898540 -0.62187735757 -0.23529984527 -0.00131377594 -0.61962055519 -0.23455819878 0.00128083445 -0.62158210696 -0.22900145857 0.00083946090 -0.62418776703 -0.22933058275 0.00051563710 -0.62614203745 -0.22957747019 0.00027577647 -0.62744491154 -0.22974212552 0.00008629245 -0.62809638266 -0.22982455334 -0.00008640155 -0.62809644412 -0.22982475826 -0.00027589210 -0.62744508925 -0.22974274492 -0.00051576577 -0.62614231140 -0.22957851791 -0.00083960915 -0.62418810389 -0.22933208185 -0.00128100879 -0.62158246005 -0.22900344136 0.00122172330 -0.62383960684 -0.22335662938 0.00078277383 -0.62678229057 -0.22311162575 0.00046940642 -0.62898932851 -0.22292791796 0.00024573961 -0.63046071389 -0.22280551085 0.00007589191 -0.63119643996 -0.22274440928 -0.00007601816 -0.63119649995 -0.22274461808 -0.00024587208 -0.63046088711 -0.22280614209 -0.00046955132 -0.62898959467 -0.22292898617 -0.00078293737 -0.62678261588 -0.22311315514 -0.00122191170 -0.62383994396 -0.22335865385 0.00114124962 -0.62639404235 -0.21773794012 0.00071201578 -0.62967818964 -0.21669221379 0.00041448792 -0.63214132465 -0.21590796477 0.00021103495 -0.63378344068 -0.21538519791 0.00006402576 -0.63460453104 -0.21512391803 -0.00006417073 -0.63460458906 -0.21512412999 -0.00021118564 -0.63378360805 -0.21538583863 -0.00041465005 -0.63214158131 -0.21590904878 -0.00071219508 -0.62967850217 -0.21669376530 -0.00114145181 -0.62639436393 -0.21773999301 0.00104438041 -0.62924676861 -0.21226154341 0.00063041160 -0.63289307165 -0.21012304407 0.00035284306 -0.63562782246 -0.20851921630 0.00017270255 -0.63745101465 -0.20745006474 0.00005101785 -0.63836264178 -0.20691559404 -0.00005118326 -0.63836269744 -0.20691580882 -0.00017287300 -0.63745117520 -0.20745071374 -0.00035302360 -0.63562806866 -0.20852031341 -0.00063060728 -0.63289337138 -0.21012461249 -0.00104459626 -0.62924707696 -0.21226361561 0.00086435555 -0.64603457283 -0.27294332793 0.00067233128 -0.64569002217 -0.27563700014 0.00048025644 -0.64543162594 -0.27765729386 0.00028814488 -0.64525938049 -0.27900420624 0.00009601045 -0.64517328215 -0.27967773441 -0.00009613302 -0.64517332727 -0.27967787551 -0.00028827167 -0.64525951218 -0.27900462667 -0.00048039167 -0.64543183322 -0.27765798503 -0.00067247916 -0.64569028673 -0.27563794773 -0.00086452030 -0.64603486905 -0.27294451191 0.00102578986 -0.64666688569 -0.26958144395 0.00076241419 -0.64694544000 -0.27167564967 0.00052559501 -0.64715437432 -0.27324634422 0.00030774406 -0.64729368438 -0.27429352684 0.00010127307 -0.64736336589 -0.27481719681 -0.00010140623 -0.64736341457 -0.27481735338 -0.00030788210 -0.64729382613 -0.27429399581 -0.00052574281 -0.64715459630 -0.27324712337 -0.00076257662 -0.64694572079 -0.27167673530 -0.00102597180 -0.64666719533 -0.26958283088 0.00114034038 -0.64760139433 -0.26558393991 0.00082148516 -0.64840921903 -0.26723235474 0.00055170350 -0.64901510762 -0.26846870665 0.00031697361 -0.64941905525 -0.26929299664 0.00010327370 -0.64962105706 -0.26970522573 -0.00010341801 -0.64962110818 -0.26970539490 -0.00031712331 -0.64941920375 -0.26929350516 -0.00055186398 -0.64901533892 -0.26846955751 -0.00082166182 -0.64840950880 -0.26723355295 -0.00114053860 -0.64760170856 -0.26558549249 0.00121326889 -0.64881698106 -0.26107847016 0.00085281287 -0.65008340732 -0.26236572728 0.00056047534 -0.65103324822 -0.26333121136 0.00031679303 -0.65166649839 -0.26397492478 0.00010230271 -0.65198315245 -0.26429686994 -0.00010245886 -0.65198320501 -0.26429704920 -0.00031695493 -0.65166665069 -0.26397546497 -0.00056064873 -0.65103348413 -0.26333211962 -0.00085300351 -0.65008369992 -0.26236701554 -0.00121348251 -0.64881729271 -0.26108015511 0.00124983714 -0.65029252817 -0.25619268904 0.00085966602 -0.65197005295 -0.25713437926 0.00055380397 -0.65322821853 -0.25784068857 0.00030816183 -0.65406701909 -0.25831162042 0.00009865046 -0.65448644883 -0.25854717823 -0.00009881930 -0.65448650194 -0.25854736545 -0.00030833661 -0.65406717259 -0.25831218551 -0.00055399062 -0.65322845499 -0.25784164185 -0.00085987048 -0.65197034331 -0.25713573790 -0.00125006536 -0.65029283175 -0.25619447711 0.00125530690 -0.65200691794 -0.25105425090 0.00084531327 -0.65407120398 -0.25159692263 0.00053358284 -0.65561944093 -0.25200396850 0.00029203954 -0.65665162265 -0.25227539269 0.00009260734 -0.65716774300 -0.25241119939 -0.00009278982 -0.65716779587 -0.25241139278 -0.00029222798 -0.65665177510 -0.25227597704 -0.00053378319 -0.65561967456 -0.25200495635 -0.00084553150 -0.65407148812 -0.25159833490 -0.00125554895 -0.65200720964 -0.25105611687 0.00123493994 -0.65393903268 -0.24579081009 0.00081302333 -0.65638890847 -0.24581196935 0.00050170538 -0.65822633780 -0.24582788136 0.00026938565 -0.65945131434 -0.24583855076 0.00008446370 -0.66006383174 -0.24584398220 -0.00008466093 -0.66006388369 -0.24584418034 -0.00026958868 -0.65945146385 -0.24583914982 -0.00050192000 -0.65822656590 -0.24582889529 -0.00081325533 -0.65638918350 -0.24581342139 -0.00123519511 -0.65393931034 -0.24579273278 0.00119399801 -0.65606775466 -0.24053002096 0.00076606487 -0.65892521450 -0.23983813137 0.00046006505 -0.66106833156 -0.23931925736 0.00024115969 -0.66249709945 -0.23897340376 0.00007450992 -0.66321151182 -0.23880057545 -0.00007472314 -0.66321156229 -0.23880077728 -0.00024137836 -0.66249724450 -0.23897401411 -0.00046029460 -0.66106855207 -0.23932029080 -0.00076631074 -0.65892547863 -0.23983961221 -0.00119426565 -0.65606801781 -0.24053198319 0.00113774289 -0.65837196618 -0.23539953784 0.00070770657 -0.66168217013 -0.23373402065 0.00041055528 -0.66416484458 -0.23248492671 0.00020832116 -0.66581998329 -0.23165226085 0.00006303636 -0.66664758004 -0.23123602792 -0.00006326695 -0.66664762858 -0.23123623275 -0.00020855664 -0.66582012268 -0.23165288018 -0.00041080054 -0.66416505612 -0.23248597506 -0.00070796651 -0.66168242264 -0.23373552222 -0.00113802239 -0.65837221603 -0.23540152650 0.00107143633 -0.66083054955 -0.23052701508 0.00064121714 -0.66466182343 -0.22755824915 0.00035506952 -0.66753529926 -0.22533171964 0.00017182957 -0.66945097114 -0.22384743118 0.00005033341 -0.67040883316 -0.22310538839 -0.00005058287 -0.67040887944 -0.22310559588 -0.00017208317 -0.66945110405 -0.22384805828 -0.00035533138 -0.66753550111 -0.22533278020 -0.00064149141 -0.66466206471 -0.22755976626 -0.00107172715 -0.66083078894 -0.23052902108 0.00082002992 -0.67820122147 -0.28910788807 0.00063755467 -0.67775799194 -0.29182672303 0.00045524702 -0.67742558437 -0.29386588740 0.00027305855 -0.67720399543 -0.29522537849 0.00009094082 -0.67709322178 -0.29590519359 -0.00009115461 -0.67709326008 -0.29590532999 -0.00027327616 -0.67720410699 -0.29522578500 -0.00045547227 -0.67742575918 -0.29386655589 -0.00063779137 -0.67775821330 -0.29182763998 -0.00082028189 -0.67820146602 -0.28910903455 0.00097388846 -0.67897448674 -0.28574552026 0.00072352575 -0.67911974624 -0.28785730962 0.00049860240 -0.67922870711 -0.28944119041 0.00029184941 -0.67930136539 -0.29049716199 0.00009599775 -0.67933771711 -0.29102522377 -0.00009622159 -0.67933775830 -0.29102537513 -0.00029207764 -0.67930148499 -0.29049761545 -0.00049883942 -0.67922889321 -0.28944194412 -0.00072377594 -0.67911997899 -0.28785836053 -0.00097415622 -0.67897473836 -0.28574686406 0.00108377537 -0.68010887872 -0.28179625696 0.00078028010 -0.68073443749 -0.28343827683 0.00052375833 -0.68120362416 -0.28466983097 0.00030078836 -0.68151643419 -0.28549092047 0.00009794849 -0.68167286303 -0.28590154644 -0.00009818295 -0.68167290613 -0.28590170997 -0.00030102766 -0.68151655895 -0.28549141217 -0.00052400734 -0.68120381692 -0.28467065412 -0.00078054367 -0.68073467551 -0.28343943693 -0.00108405835 -0.68010913015 -0.28179776170 0.00115499139 -0.68155245850 -0.27738361890 0.00081102919 -0.68258257535 -0.27862517306 0.00053252046 -0.68335518162 -0.27955637830 0.00030076347 -0.68387027224 -0.28017723710 0.00009705648 -0.68412784214 -0.28048775191 -0.00009730223 -0.68412788628 -0.28048792519 -0.00030101439 -0.68387039959 -0.28017775940 -0.00053278175 -0.68335537702 -0.27955725698 -0.00081130604 -0.68258281350 -0.27862642041 -0.00115528897 -0.68155270398 -0.27738525214 0.00119283728 -0.68325328716 -0.27263112683 0.00081898446 -0.68464466953 -0.27347354671 0.00052669446 -0.68568822561 -0.27410540162 0.00029266284 -0.68638394994 -0.27452669506 0.00009358517 -0.68673183704 -0.27473743051 -0.00009384298 -0.68673188144 -0.27473761146 -0.00029292602 -0.68638407765 -0.27452724139 -0.00052696839 -0.68568842020 -0.27410632381 -0.00081927451 -0.68464490362 -0.27347486219 -0.00119314881 -0.68325352244 -0.27263286004 0.00120261378 -0.68515942581 -0.26766230147 0.00080735739 -0.68690122968 -0.26803894620 0.00050808600 -0.68820760225 -0.26832147015 0.00027737455 -0.68907853772 -0.26850987752 0.00008779798 -0.68951403033 -0.26860417254 -0.00008806875 -0.68951407429 -0.26860435943 -0.00027765072 -0.68907866383 -0.26851044241 -0.00050837297 -0.68820779317 -0.26832242570 -0.00080766056 -0.68690145653 -0.26804031351 -0.00120293855 -0.68515964813 -0.26766411006 0.00118962166 -0.68721893553 -0.26260066356 0.00077935942 -0.68933276550 -0.26237691994 0.00047850073 -0.69091815764 -0.26220915308 0.00025578669 -0.69197510598 -0.26209736766 0.00007995838 -0.69250360460 -0.26204156834 -0.00008024311 -0.69250364754 -0.26204175980 -0.00025607667 -0.69197522886 -0.26209794671 -0.00047880122 -0.69091834261 -0.26221013375 -0.00077967566 -0.68933298286 -0.26237832558 -0.00118995891 -0.68721914365 -0.26260252687 0.00115916167 -0.68937987743 -0.25756973385 0.00073820202 -0.69191978667 -0.25654301634 0.00043974433 -0.69382473789 -0.25577301965 0.00022878734 -0.69509472513 -0.25525974865 0.00007032979 -0.69572974245 -0.25500320821 -0.00007062959 -0.69572978387 -0.25500340322 -0.00022909205 -0.69509484346 -0.25526033855 -0.00044005886 -0.69382491524 -0.25577401906 -0.00073853129 -0.69191999327 -0.25654444963 -0.00115951059 -0.68938007159 -0.25757163515 0.00111653455 -0.69159031259 -0.25269303306 0.00068709664 -0.69464280286 -0.25059278380 0.00039362245 -0.69693218912 -0.24901763905 0.00019726460 -0.69845846559 -0.24796760367 0.00005917567 -0.69922162648 -0.24744268249 -0.00005949175 -0.69922166599 -0.24744288037 -0.00019758504 -0.69845857835 -0.24796820217 -0.00039395163 -0.69693235775 -0.24901865273 -0.00068743891 -0.69464299841 -0.25059423690 -0.00111689428 -0.69159049454 -0.25269495954 0.00106704106 -0.69379830212 -0.24809408193 0.00062925474 -0.69748232375 -0.24458177074 0.00034194077 -0.70024535744 -0.24194758052 0.00016210655 -0.70208739776 -0.24019151589 0.00004675945 -0.70300843929 -0.23931358148 -0.00004709314 -0.70300847659 -0.23931378192 -0.00016244383 -0.70208750425 -0.24019212184 -0.00034228524 -0.70024551684 -0.24194860586 -0.00062961000 -0.69748250893 -0.24458323862 -0.00106741070 -0.69379847511 -0.24809602473 0.00077644767 -0.71062942852 -0.30543400569 0.00060010290 -0.71010118990 -0.30818901580 0.00042658405 -0.70970502342 -0.31025531012 0.00025508322 -0.70944092605 -0.31163288610 0.00008479251 -0.70930889480 -0.31232174119 -0.00008509597 -0.70930892667 -0.31232187283 -0.00025539011 -0.70944101866 -0.31163327847 -0.00042689782 -0.70970516776 -0.31025595556 -0.00060042698 -0.71010137098 -0.30818990154 -0.00077678549 -0.71062962530 -0.30543511387 0.00092672891 -0.71153909134 -0.30206311536 0.00068313222 -0.71156490198 -0.30420736354 0.00046775280 -0.71158427392 -0.30581558695 0.00027252801 -0.71159720355 -0.30688778509 0.00008939522 -0.71160368723 -0.30742395745 -0.00008970822 -0.71160372135 -0.30742410354 -0.00027284495 -0.71159730228 -0.30688822284 -0.00046807760 -0.71158442640 -0.30581631485 -0.00068346881 -0.71156509009 -0.30420837907 -0.00092708122 -0.71153928972 -0.30206441499 0.00103471928 -0.71288772953 -0.29815291131 0.00073818510 -0.71333936254 -0.29980765881 0.00049157214 -0.71367810247 -0.30104875713 0.00028061657 -0.71390394512 -0.30187620745 0.00009105457 -0.71401688630 -0.30229001095 -0.00009137769 -0.71401692182 -0.30229016879 -0.00028094405 -0.71390404749 -0.30187668215 -0.00049190832 -0.71367825912 -0.30104955220 -0.00073853433 -0.71333955253 -0.29980878012 -0.00103508591 -0.71288792352 -0.29815436708 0.00110550541 -0.71459283243 -0.29381098011 0.00076831581 -0.71538364787 -0.29503408682 0.00049974046 -0.71597677552 -0.29595145491 0.00028017462 -0.71637221068 -0.29656308688 0.00009001356 -0.71656994869 -0.29686898524 -0.00009034747 -0.71656998485 -0.29686915249 -0.00028051321 -0.71637231448 -0.29656359113 -0.00050008839 -0.71597693290 -0.29595230368 -0.00076867776 -0.71538383543 -0.29503529263 -0.00110588606 -0.71459301737 -0.29381256050 0.00114417393 -0.71657188940 -0.28914490830 0.00077657861 -0.71765683423 -0.28993083278 0.00049395615 -0.71847055951 -0.29052031453 0.00027202789 -0.71901306016 -0.29091335706 0.00008651518 -0.71928433109 -0.29110996390 -0.00008686064 -0.71928436721 -0.29111013855 -0.00027237822 -0.71901316345 -0.29091388453 -0.00049431624 -0.71847071471 -0.29052120536 -0.00077695334 -0.71765701591 -0.28993210456 -0.00114456818 -0.71657206198 -0.28914658564 0.00115581148 -0.71874238975 -0.28426228242 0.00076602778 -0.72011799789 -0.28454208188 0.00047591761 -0.72114972092 -0.28475197022 0.00025700212 -0.72183755347 -0.28489195167 0.00008080244 -0.72218149018 -0.28496203048 -0.00008116027 -0.72218152567 -0.28496221087 -0.00025736489 -0.72183765457 -0.28489249707 -0.00047629027 -0.72114987151 -0.28475289332 -0.00076641527 -0.72011817112 -0.28454340385 -0.00115621875 -0.71874254802 -0.28426403290 0.00114550469 -0.72102182285 -0.27927068902 0.00073971758 -0.72272621511 -0.27891201932 0.00044732323 -0.72400452618 -0.27864305621 0.00023592302 -0.72485675054 -0.27846380440 0.00007311833 -0.72528288265 -0.27837426855 -0.00007348947 -0.72528291699 -0.27837445335 -0.00023629900 -0.72485684805 -0.27846436348 -0.00044770889 -0.72400467028 -0.27864400362 -0.00074011777 -0.72272637817 -0.27891337845 -0.00114592426 -0.72102196619 -0.27927249265 0.00111834019 -0.72332767802 -0.27427771466 0.00070070228 -0.72544056217 -0.27308483030 0.00040987141 -0.72702524176 -0.27219020676 0.00020961634 -0.72808171127 -0.27159384893 0.00006370585 -0.72860996517 -0.27129576168 -0.00006409130 -0.72860999794 -0.27129594992 -0.00021000635 -0.72808180406 -0.27159441851 -0.00041027053 -0.72702537798 -0.27219117234 -0.00070111507 -0.72544071419 -0.27308621630 -0.00111877121 -0.72332780717 -0.27427955528 0.00107940463 -0.72557744461 -0.26939094587 0.00065203615 -0.72822011532 -0.26710470002 0.00036526054 -0.73020213410 -0.26539005609 0.00017890781 -0.73152349559 -0.26424701894 0.00005280800 -0.73218419444 -0.26367559344 -0.00005320886 -0.73218422529 -0.26367578446 -0.00017931273 -0.73152358279 -0.26424759687 -0.00036567358 -0.73020226159 -0.26539103555 -0.00065246138 -0.72822025632 -0.26710610536 -0.00107984610 -0.72557756165 -0.26939281117 0.00103378463 -0.72768861196 -0.26471796921 0.00059677347 -0.73102395085 -0.26101581369 0.00031518901 -0.73352546967 -0.25823923844 0.00014462314 -0.73519316342 -0.25638824811 0.00004066777 -0.73602702713 -0.25546284737 -0.00004108523 -0.73602705580 -0.25546304088 -0.00014504393 -0.73519324444 -0.25638883331 -0.00031561647 -0.73352558806 -0.25824022932 -0.00059721092 -0.73102408169 -0.26101723356 -0.00103423541 -0.72768872032 -0.26471985071 0.00073429700 -0.74325180773 -0.32194718005 0.00056090765 -0.74265339895 -0.32474799660 0.00039514538 -0.74220460280 -0.32684864432 0.00023483056 -0.74190541661 -0.32824912079 0.00007778362 -0.74175583772 -0.32894942360 -0.00007817507 -0.74175586348 -0.32894955034 -0.00023522511 -0.74190549122 -0.32824949860 -0.00039554608 -0.74220471828 -0.32684926596 -0.00056131761 -0.74265354201 -0.32474885002 -0.00073471928 -0.74325195974 -0.32194824835 0.00088463696 -0.74427577501 -0.31855275358 0.00064206941 -0.74420336705 -0.32074405272 0.00043395523 -0.74414907281 -0.32238756287 0.00025045012 -0.74411288903 -0.32348328362 0.00008170974 -0.74409481246 -0.32403121454 -0.00008211023 -0.74409483984 -0.32403135521 -0.00025085412 -0.74411296792 -0.32348370522 -0.00043436625 -0.74414919344 -0.32238826414 -0.00064249093 -0.74420351316 -0.32074503156 -0.00088507250 -0.74427592381 -0.31855400706 0.00099327263 -0.74580886188 -0.31465074073 0.00069599807 -0.74611642113 -0.31634247544 0.00045610047 -0.74634710333 -0.31761131266 0.00025718584 -0.74650090469 -0.31845725360 0.00008286022 -0.74657782141 -0.31888029946 -0.00008327035 -0.74657784969 -0.31888045148 -0.00025759986 -0.74650098574 -0.31845771085 -0.00045652226 -0.74634722575 -0.31761207880 -0.00069643154 -0.74611656594 -0.31634355655 -0.00099372165 -0.74580900250 -0.31465214530 0.00106482610 -0.74774683317 -0.31032482805 0.00072549187 -0.74833639303 -0.31157046577 0.00046315296 -0.74877857646 -0.31250473056 0.00025581011 -0.74907337919 -0.31312762494 0.00008146405 -0.74922079696 -0.31343915141 -0.00008188448 -0.74922082550 -0.31343931250 -0.00025623475 -0.74907346052 -0.31312811072 -0.00046358602 -0.74877869777 -0.31250554859 -0.00072593755 -0.74833653297 -0.31157162862 -0.00106528862 -0.74774696185 -0.31032635333 0.00110391945 -0.74998545372 -0.30565870209 0.00073334902 -0.75080711461 -0.30645522469 0.00045668462 -0.75142337431 -0.30705265344 0.00024709533 -0.75183422817 -0.30745099184 0.00007775021 -0.75203967153 -0.30765024341 -0.00007818166 -0.75203969973 -0.30765041165 -0.00024753122 -0.75183430812 -0.30745150006 -0.00045712939 -0.75142349205 -0.30705351216 -0.00073380710 -0.75080724685 -0.30645645146 -0.00110439528 -0.74998556788 -0.30566032145 0.00111517474 -0.75242048837 -0.30073604940 0.00072236772 -0.75347241775 -0.30102395319 0.00043826732 -0.75426137902 -0.30123991816 0.00023181387 -0.75478736725 -0.30138394852 0.00007194767 -0.75505037751 -0.30145604848 -0.00007239096 -0.75505040487 -0.30145622227 -0.00023226171 -0.75478744440 -0.30138447409 -0.00043872426 -0.75426149116 -0.30124080816 -0.00072283830 -0.75347254021 -0.30102522871 -0.00111566351 -0.75242058663 -0.30073773994 0.00110321408 -0.75494770195 -0.29564055651 0.00069534619 -0.75627613429 -0.29530385227 0.00040947296 -0.75727247268 -0.29505136160 0.00021073812 -0.75793671205 -0.29488308918 0.00006428541 -0.75826884732 -0.29479903966 -0.00006474142 -0.75826887339 -0.29479921772 -0.00021119864 -0.75793678520 -0.29488362803 -0.00040994250 -0.75727257764 -0.29505227525 -0.00069582927 -0.75627624565 -0.29530516404 -0.00110371520 -0.75494778413 -0.29564229908 0.00107265952 -0.75746285931 -0.29045590998 0.00065508266 -0.75916209609 -0.28932212291 0.00037187343 -0.76043653742 -0.28847182063 0.00018464048 -0.76128617820 -0.28790500802 0.00005499242 -0.76171101334 -0.28762168998 -0.00005546210 -0.76171103776 -0.28762187138 -0.00018511445 -0.76128624637 -0.28790555711 -0.00037235601 -0.76043663407 -0.28847275206 -0.00065557814 -0.75916219578 -0.28932346111 -0.00107317222 -0.75746292642 -0.29045768915 0.00102813316 -0.75986172528 -0.28526579634 0.00060437532 -0.76207413503 -0.28310596610 0.00032704062 -0.76373345535 -0.28148613211 0.00015429332 -0.76483968132 -0.28040629926 0.00004429768 -0.76539280800 -0.27986647246 -0.00004478204 -0.76539283046 -0.27986665659 -0.00015478158 -0.76483974377 -0.28040685656 -0.00032753667 -0.76373354300 -0.28148707726 -0.00060488304 -0.76207422322 -0.28310732358 -0.00102865644 -0.75986177951 -0.28526760043 0.00097425706 -0.76204006469 -0.28015390216 0.00054602241 -0.76495608295 -0.27668258284 0.00027654643 -0.76714310859 -0.27407913291 0.00012046904 -0.76860113703 -0.27234355710 0.00003243016 -0.76933016368 -0.27147586013 -0.00003293031 -0.76933018395 -0.27147604672 -0.00012097244 -0.76860119324 -0.27234412160 -0.00027705634 -0.76714318699 -0.27408008949 -0.00054654208 -0.76495616058 -0.27668395512 -0.00097478975 -0.76204010945 -0.28015572321 0.00069426610 -0.77600097283 -0.33867291041 0.00052090059 -0.77534840195 -0.34152778357 0.00036180885 -0.77485898223 -0.34366897228 0.00021291227 -0.77453271137 -0.34509647425 0.00007013223 -0.77436958703 -0.34581028720 -0.00007060989 -0.77436960691 -0.34581040884 -0.00021339270 -0.77453276869 -0.34509683687 -0.00036229481 -0.77485907003 -0.34366956902 -0.00052139486 -0.77534850863 -0.34152860299 -0.00069477144 -0.77600108215 -0.33867393651 0.00084793834 -0.77709961332 -0.33523295926 0.00060117308 -0.77695760131 -0.33748561848 0.00039811872 -0.77685110185 -0.33917514721 0.00022628597 -0.77678011204 -0.34030154508 0.00007318557 -0.77674462903 -0.34086481172 -0.00007367175 -0.77674464991 -0.34086494676 -0.00022677528 -0.77678017184 -0.34030194984 -0.00039861427 -0.77685119191 -0.33917582060 -0.00060167801 -0.77695770726 -0.33748655865 -0.00084845577 -0.77709971502 -0.33523416365 0.00095953592 -0.77874319091 -0.33128658295 0.00065451693 -0.77895804016 -0.33304470151 0.00041829883 -0.77911918750 -0.33436332510 0.00023122374 -0.77922662955 -0.33524245493 0.00007363375 -0.77928036292 -0.33568209222 -0.00007412903 -0.77928038422 -0.33568223818 -0.00023172249 -0.77922669006 -0.33524289403 -0.00041880453 -0.77911927705 -0.33436406098 -0.00065503305 -0.77895814181 -0.33304574025 -0.00096006593 -0.77874328095 -0.33128793304 0.00103296861 -0.78082319100 -0.32688943699 0.00068337652 -0.78129057896 -0.32821230709 0.00042377561 -0.78164113098 -0.32920449463 0.00022845357 -0.78187484322 -0.32986600208 0.00007169809 -0.78199171184 -0.33019683193 -0.00007220312 -0.78199173300 -0.33019698664 -0.00022896238 -0.78187490288 -0.32986646871 -0.00042429199 -0.78164121762 -0.32920528060 -0.00068390425 -0.78129067339 -0.32821342480 -0.00103351146 -0.78082326636 -0.32689090379 0.00107214616 -0.78323109898 -0.32209717685 0.00069019625 -0.78389607822 -0.32299570967 0.00041597545 -0.78439482409 -0.32366964451 0.00021870346 -0.78472733239 -0.32411898482 0.00006759993 -0.78489359892 -0.32434373406 -0.00006811544 -0.78489361945 -0.32434389568 -0.00021922299 -0.78472738981 -0.32411947312 -0.00041650304 -0.78439490576 -0.32367046986 -0.00069073591 -0.78389616312 -0.32299688933 -0.00107270192 -0.78323115768 -0.32209873500 0.00108097833 -0.78585840024 -0.31696545804 0.00067742050 -0.78671539841 -0.31740218369 0.00039632479 -0.78735815862 -0.31772976343 0.00020270141 -0.78778667640 -0.31794820143 0.00006156061 -0.78800094727 -0.31805750184 -0.00006208739 -0.78800096675 -0.31805766882 -0.00020323236 -0.78778673037 -0.31794870655 -0.00039686408 -0.78735823365 -0.31773061917 -0.00067797232 -0.78671547213 -0.31740341085 -0.00108154684 -0.78585844132 -0.31696708576 0.00106337488 -0.78859658017 -0.31154993606 0.00064749367 -0.78968940003 -0.31143900359 0.00036625001 -0.79050902637 -0.31135584009 0.00018117544 -0.79105545458 -0.31130045018 0.00005380147 -0.79132868002 -0.31127283848 -0.00005434037 -0.79132869806 -0.31127300963 -0.00018171854 -0.79105550408 -0.31130096825 -0.00036680152 -0.79050909344 -0.31135671896 -0.00064805778 -0.78968946152 -0.31144026639 -0.00106395579 -0.78859660369 -0.31155161517 0.00102324557 -0.79133712417 -0.30590626640 0.00060286015 -0.79275894355 -0.30511344382 0.00032717755 -0.79382531913 -0.30451886318 0.00015485353 -0.79453624627 -0.30412252935 0.00004454383 -0.79489172030 -0.30392444721 -0.00004509579 -0.79489173658 -0.30392462163 -0.00015540956 -0.79453629046 -0.30412305748 -0.00032774174 -0.79382537729 -0.30451975963 -0.00060343657 -0.79275899242 -0.30511473296 -0.00102383830 -0.79133713120 -0.30590798234 0.00096450016 -0.79397151762 -0.30009010456 0.00054596433 -0.79586488947 -0.29843277882 0.00028053381 -0.79728492870 -0.29718982140 0.00012446368 -0.79823163079 -0.29636123724 0.00003400903 -0.79870499123 -0.29594703125 -0.00003457505 -0.79870500548 -0.29594720837 -0.00012503347 -0.79823166903 -0.29636177351 -0.00028111115 -0.79728497737 -0.29719073161 -0.00054655300 -0.79586492596 -0.29843408758 -0.00096510392 -0.79397151029 -0.30009184637 0.00089104840 -0.79639124593 -0.29415710603 0.00047925061 -0.79894809827 -0.29140428303 0.00022774521 -0.80086574687 -0.28933970345 0.00009073391 -0.80214418750 -0.28796337211 0.00002241842 -0.80278341593 -0.28727529382 -0.00002299956 -0.80278342794 -0.28727547338 -0.00009131832 -0.80214421931 -0.28796391560 -0.00022833615 -0.80086578582 -0.28934062530 -0.00047985135 -0.79894812325 -0.29140560728 -0.00089166221 -0.79639122736 -0.29415886635 0.00065704318 -0.80880953758 -0.35563669602 0.00048101338 -0.80811998177 -0.35855249484 0.00032745232 -0.80760282144 -0.36073937630 0.00018994001 -0.80725805459 -0.36219733821 0.00006205644 -0.80708567925 -0.36292637838 -0.00006261838 -0.80708569341 -0.36292649463 -0.00019050445 -0.80725809509 -0.36219768479 -0.00032802176 -0.80760288231 -0.36073994665 -0.00048159033 -0.80812005307 -0.35855327806 -0.00065763013 -0.80880960540 -0.35563767681 0.00081695880 -0.80992568181 -0.35212225675 0.00056127904 -0.80975006460 -0.35445030214 0.00036115228 -0.80961835908 -0.35619636900 0.00020070582 -0.80953056276 -0.35736045697 0.00006406700 -0.80948667314 -0.35794256569 -0.00006463689 -0.80948668770 -0.35794269481 -0.00020127852 -0.80953060394 -0.35736084397 -0.00036173058 -0.80961841937 -0.35619701281 -0.00056186576 -0.80975013148 -0.35445120098 -0.00081755674 -0.80992573776 -0.35212340813 0.00093360965 -0.81156163175 -0.34805727575 0.00061453958 -0.81175664656 -0.34991631178 0.00037912277 -0.81190291575 -0.35131062196 0.00020345785 -0.81200043636 -0.35224020746 0.00006364344 -0.81204920539 -0.35270506944 -0.00006422183 -0.81204921987 -0.35270520905 -0.00020403934 -0.81200047682 -0.35224062745 -0.00037971048 -0.81190297326 -0.35131132581 -0.00061513661 -0.81175670622 -0.34991730527 -0.00093421911 -0.81156167272 -0.34805856700 0.00100994807 -0.81363063621 -0.34346908118 0.00064278889 -0.81409597383 -0.34493760797 0.00038262602 -0.81444498564 -0.34603903649 0.00019888861 -0.81467766823 -0.34677336914 0.00006100579 -0.81479401820 -0.34714060828 -0.00006159329 -0.81479403216 -0.34714075632 -0.00019947949 -0.81467770671 -0.34677381562 -0.00038322367 -0.81444503845 -0.34603978859 -0.00064339670 -0.81409602397 -0.34493867759 -0.00101056944 -0.81363065989 -0.34347048503 0.00104892640 -0.81604594400 -0.33838500121 0.00064802086 -0.81672429260 -0.33950127494 0.00037292424 -0.81723306293 -0.34033851390 0.00018769061 -0.81757225125 -0.34089672142 0.00005637405 -0.81774185380 -0.34117590086 -0.00005697136 -0.81774186684 -0.34117605556 -0.00018829154 -0.81757228662 -0.34089718886 -0.00037353241 -0.81723310939 -0.34033930410 -0.00064863989 -0.81672433140 -0.33950240463 -0.00104955991 -0.81604594891 -0.33838649379 0.00105349699 -0.81872080393 -0.33283236400 0.00063222941 -0.81959784904 -0.33359439691 0.00035127965 -0.82025564182 -0.33416595547 0.00017055638 -0.82069417828 -0.33454704376 0.00004996823 -0.82091345439 -0.33473766583 -0.00005057613 -0.82091346615 -0.33473782573 -0.00017116806 -0.82069420954 -0.33454752753 -0.00035189891 -0.82025568056 -0.33416677529 -0.00063286001 -0.81959787519 -0.33359557305 -0.00105414272 -0.81872078941 -0.33283392489 0.00102661216 -0.82156846481 -0.32683849772 0.00059740841 -0.82267288932 -0.32720405809 0.00031895447 -0.82350121650 -0.32747826252 0.00014817842 -0.82405344218 -0.32766111559 0.00004200834 -0.82432956218 -0.32775262183 -0.00004262771 -0.82432957234 -0.32775278579 -0.00014880165 -0.82405346847 -0.32766161203 -0.00031958540 -0.82350124642 -0.32747910509 -0.00059805090 -0.82267290199 -0.32720526953 -0.00102727007 -0.82156843103 -0.32684010990 0.00097122427 -0.82450217546 -0.32043073053 0.00054555177 -0.82590565963 -0.32031734270 0.00027721092 -0.82695828115 -0.32023233635 0.00012124927 -0.82766003581 -0.32017571634 0.00003271439 -0.82801091938 -0.32014748750 -0.00003334618 -0.82801092765 -0.32014765468 -0.00012188487 -0.82766005641 -0.32017622272 -0.00027785413 -0.82695830143 -0.32023319646 -0.00054620641 -0.82590565850 -0.32031858074 -0.00097189415 -0.82450212340 -0.32043238041 0.00089028566 -0.82743518468 -0.31363639059 0.00047865338 -0.82925240615 -0.31292133496 0.00022731121 -0.83061532997 -0.31238507827 0.00009046144 -0.83152395204 -0.31202762546 0.00002230639 -0.83197826820 -0.31184898151 -0.00002295163 -0.83197827435 -0.31184915137 -0.00009111030 -0.83152396635 -0.31202813999 -0.00022796732 -0.83061534007 -0.31238595234 -0.00047932037 -0.82925239138 -0.31292259336 -0.00089096715 -0.82743511616 -0.31363806803 0.00078674867 -0.83028074130 -0.30648280607 0.00039870715 -0.83266937505 -0.30500311910 0.00017051756 -0.83446085715 -0.30389338956 0.00005650744 -0.83565518372 -0.30315362239 0.00001100435 -0.83625235086 -0.30278382250 -0.00001166415 -0.83625235467 -0.30278399480 -0.00005717052 -0.83565519128 -0.30315414422 -0.00017118720 -0.83446085678 -0.30389427566 -0.00039938663 -0.83266934730 -0.30500439406 -0.00078744126 -0.83028065893 -0.30648450432 0.00062331644 -0.84161011570 -0.37286403614 0.00044217770 -0.84090192131 -0.37584624857 0.00029295364 -0.84037078014 -0.37808293868 0.00016652546 -0.84001669055 -0.37957410436 0.00005377434 -0.83983965085 -0.38031974352 -0.00005441852 -0.83983965938 -0.38031985405 -0.00016717192 -0.84001671445 -0.37957443384 -0.00029360469 -0.84037081441 -0.37808348079 -0.00044283562 -0.84090195759 -0.37584699279 -0.00062398353 -0.84161014230 -0.37286496775 0.00079202410 -0.84266905603 -0.36923917038 0.00052322307 -0.84250321675 -0.37165634500 0.00032396493 -0.84237884258 -0.37346925727 0.00017437992 -0.84229593138 -0.37467790678 0.00005459827 -0.84225448101 -0.37528229314 -0.00005524977 -0.84225448932 -0.37528241596 -0.00017503396 -0.84229595416 -0.37467827484 -0.00032462408 -0.84237887339 -0.37346986938 -0.00052388987 -0.84250324487 -0.37165719919 -0.00079270111 -0.84266906645 -0.36924026388 0.00091559434 -0.84413509953 -0.36495965686 0.00057686393 -0.84440466726 -0.36695928102 0.00033952780 -0.84460684886 -0.36845903079 0.00017461576 -0.84474164175 -0.36945890723 0.00005315760 -0.84480904336 -0.36995891135 -0.00005381686 -0.84480905109 -0.36995904422 -0.00017527781 -0.84474166237 -0.36945930686 -0.00034019545 -0.84460687461 -0.36845970032 -0.00057753997 -0.84440468523 -0.36696022564 -0.00091628156 -0.84413509165 -0.36496088386 0.00099577965 -0.84597789909 -0.36002803490 0.00060454811 -0.84660234579 -0.36172436560 0.00034072183 -0.84707068697 -0.36299664553 0.00016789886 -0.84738291968 -0.36384487692 0.00004967728 -0.84753904093 -0.36426906198 -0.00005034484 -0.84753904776 -0.36426920294 -0.00016856944 -0.84738293719 -0.36384530201 -0.00034139844 -0.84707070625 -0.36299736144 -0.00060523377 -0.84660235197 -0.36172538342 -0.00099647737 -0.84597787137 -0.36002937019 0.00103433253 -0.84816710763 -0.35444684382 0.00060772343 -0.84909232530 -0.35592090773 0.00032862656 -0.84978624492 -0.35702648775 0.00015489510 -0.85024886316 -0.35776358707 0.00004438225 -0.85048017675 -0.35813220883 -0.00004505880 -0.85048018236 -0.35813235622 -0.00015557484 -0.85024887670 -0.35776403240 -0.00032931270 -0.84978625647 -0.35702724054 -0.00060841918 -0.84909231836 -0.35592198381 -0.00103504107 -0.84816705908 -0.35444826538 0.00103300547 -0.85067237803 -0.34821862292 0.00058783772 -0.85187067877 -0.34951821638 0.00030432157 -0.85276941069 -0.35049294374 0.00013627037 -0.85336857023 -0.35114280889 0.00003749747 -0.85366815383 -0.35146781574 -0.00003818378 -0.85366815794 -0.35146796818 -0.00013696001 -0.85336857899 -0.35114327011 -0.00030501789 -0.85276941343 -0.35049372545 -0.00058854405 -0.85187065771 -0.34951933807 -0.00103372514 -0.85067230826 -0.34822011190 0.00099355098 -0.85346336321 -0.34134591153 0.00054633881 -0.85493347916 -0.34248560054 0.00026888642 -0.85603607230 -0.34334039975 0.00011269054 -0.85677113890 -0.34391031360 0.00002924788 -0.85713867522 -0.34419534651 -0.00002994485 -0.85713867755 -0.34419550292 -0.00011339092 -0.85677114216 -0.34391078727 -0.00026959364 -0.85603606531 -0.34334120398 -0.00054705627 -0.85493344329 -0.34248675750 -0.00099428211 -0.85346327237 -0.34134745225 0.00091772156 -0.85650971606 -0.33383124896 0.00048467451 -0.85827679944 -0.33479236919 0.00022340068 -0.85960211774 -0.33551324208 0.00008482150 -0.86048566717 -0.33599387241 0.00001985843 -0.86092744394 -0.33623426497 -0.00002056708 -0.86092744424 -0.33623442456 -0.00008553357 -0.86048566428 -0.33599435595 -0.00022411960 -0.85960210027 -0.33551406396 -0.00048540372 -0.85827674840 -0.33479355335 -0.00091846447 -0.85650960488 -0.33383282894 0.00080726970 -0.85978108950 -0.32567717452 0.00040429267 -0.86189671256 -0.32640783131 0.00016894390 -0.86348343500 -0.32695585699 0.00005332912 -0.86454125307 -0.32732125653 0.00000955407 -0.86507016300 -0.32750403494 -0.00001027553 -0.86507016105 -0.32750419719 -0.00005405393 -0.86454124346 -0.32732174828 -0.00016967543 -0.86348340647 -0.32695669320 -0.00040503427 -0.86189664633 -0.32640903692 -0.00080802473 -0.85978095928 -0.32567878444 0.00066394790 -0.86324713642 -0.31688622754 0.00030664109 -0.86578929150 -0.31730129588 0.00010659565 -0.86769591209 -0.31761263075 0.00001887929 -0.86896699461 -0.31782023719 -0.00000144025 -0.86960253545 -0.31792412024 0.00000070474 -0.86960253104 -0.31792428494 -0.00001961800 -0.86896697778 -0.31782073635 -0.00010734076 -0.86769587208 -0.31761347951 -0.00030739580 -0.86578921036 -0.31730251947 -0.00066471539 -0.86324698902 -0.31688786127 </DataArray>
</PointData>
<Points>
<DataArray type="Float32" NumberOfComponents="3">
0.64218691069 -0.60459384003 1.69959000019 0.52310508221 -0.60774572736 1.69689193064 0.38630348748 -0.61010966677 1.69486833462 0.23684491607 -0.61168565376 1.69351921544 0.07979215756 -0.61247368385 1.69284457645 -0.07979199845 -0.61247375255 1.69284442098 -0.23684476239 -0.61168585536 1.69351875235 -0.38630334467 -0.61010998781 1.69486757390 -0.52310495570 -0.60774614540 1.69689088896 -0.64218680590 -0.60459432363 1.69958870085 0.73975138719 -0.60096531941 1.70293279634 0.59188981913 -0.60387048752 1.70079811035 0.43163254252 -0.60604938958 1.69919705102 0.26252118747 -0.60750202069 1.69812961946 0.08809738407 -0.60822837595 1.69759581680 -0.08809723757 -0.60822845047 1.69759564418 -0.26252104736 -0.60750223936 1.69812910272 -0.43163241519 -0.60604973771 1.69919619355 -0.59188971096 -0.60387094065 1.70079691780 -0.73975130458 -0.60096584326 1.70293127658 0.81704256949 -0.59692968382 1.70694041022 0.64646323657 -0.59965236488 1.70520024664 0.46764465404 -0.60169440339 1.70389507832 0.28294089220 -0.60305579399 1.70302490458 0.09470602134 -0.60373653132 1.70258972474 -0.09470588826 -0.60373661002 1.70258953812 -0.28294076631 -0.60305602473 1.70302434405 -0.46764454251 -0.60169477010 1.70389414184 -0.64646314659 -0.59965284077 1.70519893082 -0.81704250825 -0.59693023137 1.70693871030 0.87653358791 -0.59250051377 1.71160522172 0.68855383930 -0.59507451148 1.71012350651 0.49546998202 -0.59700503889 1.70901217381 0.29874033171 -0.59829209014 1.70827122151 0.09982320403 -0.59893565940 1.70790064748 -0.09982308538 -0.59893574080 1.70790044961 -0.29874022088 -0.59829232851 1.70827062578 -0.49546988682 -0.59700541667 1.70901117387 -0.68855376756 -0.59507499942 1.71012209176 -0.87653354745 -0.59250107094 1.71160337733 0.92069757277 -0.58769138979 1.71691961075 0.71989013210 -0.59012007937 1.71559305698 0.51623868643 -0.59194162676 1.71459809478 0.31055580745 -0.59315602563 1.71393472095 0.10365406682 -0.59376326963 1.71360293225 -0.10365396380 -0.59376335243 1.71360272547 -0.31055571273 -0.59315626770 1.71393409737 -0.51623860831 -0.59194200910 1.71459704475 -0.71989007885 -0.59012057029 1.71559156437 -0.92069755270 -0.58769194495 1.71691765300 0.95200765439 -0.58251589240 1.72287595722 0.74220061974 -0.58477222062 1.72163406505 0.53108092728 -0.58646449772 1.72070259852 0.31902362087 -0.58759271692 1.72008155360 0.10640374436 -0.58815687145 1.71977092626 -0.10640365839 -0.58815695451 1.71977071249 -0.31902354352 -0.58759295932 1.72008090827 -0.53108086716 -0.58646487909 1.72070150957 -0.74220058546 -0.58477270704 1.72163251236 -0.95200765455 -0.58251643639 1.72287391264 0.97293696308 -0.57698760212 1.72946664101 0.75721380701 -0.57901408726 1.72827169775 0.54112686455 -0.58053398244 1.72737544231 0.32478007342 -0.58154728051 1.72677787016 0.10827737133 -0.58205397430 1.72647897674 -0.10827730401 -0.58205405664 1.72647875751 -0.32478001489 -0.58154752038 1.72677720792 -0.54112682357 -0.58053435833 1.72737432343 -0.75721379236 -0.57901456334 1.72827009950 -0.97293698353 -0.57698812823 1.72946453157 0.98595862918 -0.57112009948 1.73668404204 0.76665819868 -0.57282883134 1.73553112208 0.54750665823 -0.57411041162 1.73466638345 0.32846146655 -0.57496483286 1.73408982134 0.10948008239 -0.57539208762 1.73380143090 -0.10948003554 -0.57539216845 1.73380120732 -0.32846142849 -0.57496506789 1.73408914578 -0.54750663773 -0.57411077851 1.73466524145 -0.76665820454 -0.57282929285 1.73552948951 -0.98595867017 -0.57112060347 1.73668188512 0.99354578299 -0.56492696500 1.74452054020 0.77226229952 -0.56619960494 1.74343750506 0.55135046830 -0.56715411596 1.74262517923 0.33070410172 -0.56779049046 1.74208355783 0.11021701221 -0.56810872085 1.74181263596 -0.11021698783 -0.56810879952 1.74181240875 -0.33070408598 -0.56779071888 1.74208287130 -0.55135046983 -0.56715447132 1.74262401872 -0.77226232698 -0.56620004926 1.74343584612 -0.99354584500 -0.56492744508 1.74451834862 0.99817155486 -0.55842177919 1.75296851540 0.77575461432 -0.55910956008 1.75201601369 0.55378845474 -0.55962542614 1.75130158692 0.33214428037 -0.55996936978 1.75082523033 0.11069329546 -0.56014138342 1.75058693915 -0.11069329575 -0.56014145947 1.75058670860 -0.33214428901 -0.55996959035 1.75082453392 -0.55378848006 -0.55962576846 1.75130041034 -0.77575466467 -0.55910998622 1.75201433309 -0.99817163857 -0.55842223605 1.75296629740 0.64214448413 -0.63557149585 1.72652945028 0.52308392110 -0.63859070979 1.72384754189 0.38629470582 -0.64085514167 1.72183606818 0.23684216680 -0.64236478725 1.72049503235 0.07979163252 -0.64311964228 1.71982443756 -0.07979156852 -0.64311970252 1.71982428699 -0.23684210784 -0.64236496373 1.72049458384 -0.38629465693 -0.64085542165 1.72183533127 -0.52308388731 -0.63859107206 1.72384653248 -0.64214447048 -0.63557191070 1.72652819064 0.73968693919 -0.63200084196 1.72978844916 0.59186026751 -0.63477297089 1.72771272976 0.43162244838 -0.63685209105 1.72615589692 0.26251952310 -0.63823819766 1.72511795166 0.08809753295 -0.63893128598 1.72459889496 -0.08809748079 -0.63893135123 1.72459872784 -0.26251947683 -0.63823838868 1.72511745130 -0.43162241389 -0.63685239355 1.72615506634 -0.59186025068 -0.63477336110 1.72771157397 -0.73968694591 -0.63200128656 1.72978697520 0.81696187621 -0.62791639006 1.73357439969 0.64642794351 -0.63054075752 1.73197918031 0.46763415203 -0.63250905825 1.73078272178 0.28294046049 -0.63382128696 1.72998502334 0.09470682759 -0.63447743837 1.72958608419 -0.09470678794 -0.63447750720 1.72958590357 -0.28294042740 -0.63382148817 1.72998448067 -0.46763413206 -0.63250937599 1.73078181473 -0.64642794323 -0.63054116538 1.73197790497 -0.81696190217 -0.62791685106 1.73357275059 0.87644158641 -0.62340261074 1.73787047386 0.68851454414 -0.62592767193 1.73666586821 0.49545918921 -0.62782149429 1.73576236941 0.29874075279 -0.62908407203 1.73515997525 0.09982446606 -0.62971539934 1.73485868354 -0.09982443978 -0.62971547044 1.73485849207 -0.29874073356 -0.62908427954 1.73515939863 -0.49545918410 -0.62782182084 1.73576140101 -0.68851456020 -0.62592808855 1.73666449702 -0.87644163070 -0.62340307689 1.73786868445 0.92059836105 -0.61854397455 1.74265984367 0.71984766446 -0.62096731638 1.74179176815 0.51622693236 -0.62278485019 1.74114066643 0.31055617383 -0.62399656973 1.74070653524 0.10365539798 -0.62460246873 1.74048937127 -0.10365538610 -0.62460254095 1.74048917122 -0.31055616933 -0.62399678012 1.74070593181 -0.51622694261 -0.62278517998 1.74113964974 -0.71984769684 -0.62096773428 1.74179032171 -0.92059842294 -0.61854443676 1.74265794444 0.95190449138 -0.61342495209 1.74792568109 0.74215489950 -0.61569329312 1.74737585480 0.53106675391 -0.61739457696 1.74696343951 0.31902249745 -0.61852879694 1.74668843115 0.10640457297 -0.61909594642 1.74655082564 -0.10640457671 -0.61909601875 1.74655061891 -0.31902250872 -0.61852900725 1.74668780688 -0.53106678023 -0.61739490529 1.74696238547 -0.74215494839 -0.61569370622 1.74737435061 -0.95190457036 -0.61342540337 1.74792369822 0.97283226863 -0.60813001390 1.75365115813 0.75716384431 -0.61013920441 1.75343710286 0.54110802632 -0.61164612561 1.75327651529 0.32477549747 -0.61265077055 1.75316939084 0.10827694062 -0.61315313227 1.75311572495 -0.10827696139 -0.61315320383 1.75311551302 -0.32477552574 -0.61265097828 1.75316875048 -0.54110806959 -0.61164644866 1.75327543276 -0.75716391008 -0.61013960802 1.75343555527 -0.97283236439 -0.60813044942 1.75364911344 0.98585398405 -0.60274363056 1.75981944677 0.76660209394 -0.60433865250 1.75999448699 0.54748012200 -0.60553494715 1.76012572040 0.32845094772 -0.60633250741 1.76021314216 0.10947745057 -0.60673132614 1.76025674744 -0.10947748997 -0.60673139622 1.76025653143 -0.32845099442 -0.60633271053 1.76021248928 -0.54748018331 -0.60553526195 1.76012461617 -0.76660217716 -0.60433904336 1.75999290727 -0.98585409649 -0.60274404763 1.75981735775 0.99344192888 -0.59735027265 1.76641371900 0.77219724342 -0.59832523964 1.76706698188 0.55131241342 -0.59905649261 1.76755688148 0.33068462203 -0.59954402440 1.76788341295 0.11021105243 -0.59978782788 1.76804657141 -0.11021111222 -0.59978789592 1.76804635203 -0.33068468876 -0.59954422135 1.76788274993 -0.55131249403 -0.59905679706 1.76755576027 -0.77219734487 -0.59832561589 1.76706537819 -0.99344205810 -0.59735067069 1.76641159882 0.99806839437 -0.59203441074 1.77341714681 0.77567688780 -0.59213256810 1.77467356222 0.55373427299 -0.59220621298 1.77561582520 0.33211229423 -0.59225533840 1.77624393106 0.11068269581 -0.59227993738 1.77655787512 -0.11068277796 -0.59228000293 1.77655765269 -0.33211238279 -0.59225552808 1.77624325908 -0.55373437438 -0.59220650585 1.77561468960 -0.77567700844 -0.59213292926 1.77467193957 -0.99806854067 -0.59203479132 1.77341500430 0.64210073635 -0.66701286888 1.75338384065 0.52305728981 -0.66990957180 1.75070293767 0.38627963706 -0.67208211804 1.74869221946 0.23683469350 -0.67353050363 1.74735168902 0.07978937453 -0.67425472461 1.74668134940 -0.07978940446 -0.67425477702 1.74668120360 -0.23683472806 -0.67353065688 1.74735125466 -0.38627968088 -0.67208236024 1.74869150560 -0.52305734751 -0.66990988312 1.75070195945 -0.64210081256 -0.66701322156 1.75338261921 0.73962632469 -0.66354602169 1.75662201778 0.59182675172 -0.66617743259 1.75456706321 0.43160580184 -0.66815101176 1.75302580552 0.26251243910 -0.66946675465 1.75199824559 0.08809562757 -0.67012465670 1.75148438429 -0.08809566868 -0.67012471337 1.75148422249 -0.26251248559 -0.66946692012 1.75199776107 -0.43160585909 -0.66815127238 1.75302500090 -0.59182682512 -0.66617776562 1.75456594284 -0.73962641961 -0.66354639527 1.75662058778 0.81688894146 -0.65954475975 1.76033289071 0.64638975309 -0.66201964288 1.75879643716 0.46761679568 -0.66387582782 1.75764405462 0.28293400238 -0.66511330945 1.75687574221 0.09470530635 -0.66573208265 1.75649149903 -0.09470535923 -0.66573214232 1.75649132419 -0.28293406122 -0.66511348334 1.75687521679 -0.46761686645 -0.66387610060 1.75764317595 -0.64638984175 -0.66201998899 1.75879520077 -0.81688905396 -0.65954514340 1.76033129037 0.87636019107 -0.65512618151 1.76447604735 0.68847316573 -0.65749315818 1.76339366124 0.49544137316 -0.65926841451 1.76258182877 0.29873474594 -0.66045194486 1.76204054766 0.09982321667 -0.66104374361 1.76176981560 -0.09982328207 -0.66104380513 1.76176963030 -0.29873481771 -0.66045212378 1.76203998945 -0.49544145766 -0.65926869394 1.76258089077 -0.68847326934 -0.65749350998 1.76339233196 -0.87636032016 -0.65512656626 1.76447431072 0.92051167792 -0.65040738543 1.76901107562 0.71980386142 -0.65265493399 1.76836133716 0.51620828884 -0.65434062012 1.76787398998 0.31055003240 -0.65546443773 1.76754903070 0.10365416433 -0.65602638075 1.76738645598 -0.10365424316 -0.65602644309 1.76738626242 -0.31055011784 -0.65546461869 1.76754844667 -0.51620838748 -0.65434090146 1.76787300536 -0.71980397986 -0.65265528533 1.76835993512 -0.92051182275 -0.65040776421 1.76900923259 0.95181500642 -0.64550546996 1.77389756342 0.74210871199 -0.64756192582 1.77370206663 0.53104629731 -0.64910429294 1.77355540024 0.31901522436 -0.65013256487 1.77345756012 0.10640295511 -0.65064673520 1.77340854214 -0.10640304846 -0.65064679748 1.77340834217 -0.31901532436 -0.65013274530 1.77345695607 -0.53104641062 -0.64910457220 1.77355437972 -0.74210884525 -0.64756227177 1.77370060898 -0.95181516628 -0.64550583756 1.77389563972 0.97274178095 -0.64053753358 1.77909509866 0.75711458923 -0.64227108919 1.77941845135 0.54108415313 -0.64357128126 1.77966092156 0.32476568441 -0.64443810313 1.77982250467 0.10827439482 -0.64487154813 1.77990319607 -0.10827450392 -0.64487160959 1.77990299114 -0.32476580004 -0.64443828084 1.77982188527 -0.54108428181 -0.64357155521 1.77965987385 -0.75711473747 -0.64227142604 1.77941695225 -0.97274195529 -0.64053788666 1.77909311587 0.98576360594 -0.63562067472 1.78456326925 0.76654836494 -0.63683937959 1.78551309304 0.54745061088 -0.63775343338 1.78622541595 0.32843677518 -0.63836282934 1.78670023313 0.10947328925 -0.63866756069 1.78693753975 -0.10947341550 -0.63866762069 1.78693733095 -0.32843690765 -0.63836300256 1.78669960189 -0.54745075578 -0.63775369955 1.78622434774 -0.76654852848 -0.63683970490 1.78551156365 -0.98576379434 -0.63562101184 1.78456124478 0.99335208577 -0.63087199185 1.79026166310 0.77213691093 -0.63132375254 1.79198859341 0.55127442513 -0.63166259759 1.79328374542 0.33066385926 -0.63188852032 1.79414711428 0.11020444420 -0.63200151404 1.79457869515 -0.11020458917 -0.63200157206 1.79457848319 -0.33066400995 -0.63188868769 1.79414647356 -0.55127458726 -0.63166285426 1.79328266141 -0.77213709023 -0.63132406506 1.79198704191 -0.99335228796 -0.63087231343 1.79025961021 0.99797882485 -0.62640858343 1.79614986811 0.77560709900 -0.62578116355 1.79884755417 0.55368435045 -0.62531062219 1.80087077197 0.33208229925 -0.62499695292 1.80221951688 0.11067266547 -0.62484014932 1.80289378426 -0.11067283087 -0.62484020498 1.80289356947 -0.33208246971 -0.62499711348 1.80221886788 -0.55368453099 -0.62531086838 1.80086967485 -0.77560729467 -0.62578146329 1.79884598574 -0.99797904070 -0.62640889177 1.79614779591 0.64205635555 -0.69885057283 1.78012767207 0.52302612003 -0.70163609624 1.77743399986 0.38625915905 -0.70372525557 1.77541370614 0.23682310785 -0.70511804716 1.77406679376 0.07978560167 -0.70581446734 1.77339326559 -0.07978572424 -0.70581451246 1.77339312449 -0.23682323464 -0.70511817885 1.77406637333 -0.38625929428 -0.70372546285 1.77541301497 -0.52302626791 -0.70163636081 1.77743305227 -0.64205652030 -0.69885086905 1.78012648809 0.73956986942 -0.69551593416 1.78339330350 0.59179010757 -0.69800633246 1.78132761705 0.43158351192 -0.69987414978 1.77977831196 0.26250060572 -0.70111938184 1.77874538897 0.08809191221 -0.70174202434 1.77822884882 -0.08809204537 -0.70174207302 1.77822869225 -0.26250074376 -0.70111952359 1.77874492000 -0.43158365972 -0.69987437176 1.77977753281 -0.59179027000 -0.69800661326 1.78132653142 -0.73957005136 -0.69551624379 1.78339191657 0.81682386576 -0.69168570801 1.78713952526 0.64634946324 -0.69398144789 1.78559408372 0.46759354052 -0.69570327287 1.78443496177 0.28292224547 -0.69685117810 1.78366215842 0.09470172593 -0.69742515870 1.78327567265 -0.09470187024 -0.69742520983 1.78327550348 -0.28292239517 -0.69685132660 1.78366164990 -0.46759370101 -0.69570350417 1.78443411091 -0.64634963990 -0.69398173766 1.78559288550 -0.81682406398 -0.69168602223 1.78713797268 0.87628941703 -0.68747995637 1.79129489610 0.68843052318 -0.68962073837 1.79021434527 0.49541755149 -0.69122634608 1.78940389091 0.29872309481 -0.69229677411 1.78886353063 0.09981974598 -0.69283201710 1.78859326205 -0.09981990214 -0.69283206966 1.78859308279 -0.29872325671 -0.69229692641 1.78886299045 -0.49541772489 -0.69122658198 1.78940298265 -0.68843071382 -0.68962103097 1.79021305701 -0.87628963066 -0.68748026802 1.79129321115 0.92043759571 -0.68301874125 1.79578797473 0.71975962355 -0.68498349975 1.79516934710 0.51618385148 -0.68645709062 1.79470533472 0.31053822148 -0.68743950804 1.79439593417 0.10365067553 -0.68793074621 1.79424114201 -0.10365084437 -0.68793079932 1.79424095479 -0.31053839625 -0.68743966154 1.79439536908 -0.51618403813 -0.68645732708 1.79470438145 -0.71975982802 -0.68498379011 1.79516798845 -0.92043782393 -0.68301904483 1.79578618666 0.95173947425 -0.67842212462 1.80054731989 0.74206310049 -0.68012902787 1.80044003460 0.53102074713 -0.68140922773 1.80035952855 0.31900269320 -0.68226271806 1.80030579757 0.10639921774 -0.68268949272 1.80027883748 -0.10639940022 -0.68268954558 1.80027864409 -0.31900288164 -0.68226287051 1.80030521323 -0.53102094749 -0.68140946136 1.80035854070 -0.74206331872 -0.68012931201 1.80043862232 -0.95173971630 -0.67842241631 1.80054545392 0.97266612512 -0.67381016848 1.80550149032 0.75706729016 -0.67511661858 1.80600735316 0.54105654509 -0.67609647864 1.80638670773 0.32475157770 -0.67674974232 1.80663954938 0.10827007575 -0.67707640330 1.80676587346 -0.10827027298 -0.67707645525 1.80676567532 -0.32475178073 -0.67674989183 1.80663895032 -0.54105675971 -0.67609670673 1.80638569380 -0.75706752216 -0.67511689361 1.80600590112 -0.97266638029 -0.67381044614 1.80549956764 0.98568862078 -0.66930293481 1.81057904473 0.76649852869 -0.67000556772 1.81185224819 0.54741955201 -0.67053256457 1.81280710761 0.32841994270 -0.67088391899 1.81344361813 0.10946795273 -0.67105962463 1.81376177491 -0.10946816595 -0.67105967510 1.81376157308 -0.32842016137 -0.67088406404 1.81344300778 -0.54741978156 -0.67053278508 1.81280607416 -0.76649877457 -0.67000583184 1.81185076735 -0.98568888842 -0.66930319797 1.81057708250 0.99327803370 -0.66502048562 1.81570854188 0.77208315225 -0.66485517113 1.81795566507 0.55123807454 -0.66473120675 1.81964096352 0.33064285594 -0.66464858625 1.82076443238 0.11019755183 -0.66460730339 1.82132606682 -0.11019778242 -0.66460735193 1.82132586199 -0.33064309142 -0.66464872564 1.82076381306 -0.55123831980 -0.66473141829 1.81963991518 -0.77208341219 -0.66485542364 1.81795416351 -0.99327831320 -0.66502073546 1.81570655321 0.99790543633 -0.66108288288 1.82081854047 0.77554749697 -0.65972472466 1.82429854921 0.55364041931 -0.65870612642 1.82690851081 0.33205538513 -0.65802708225 1.82864842067 0.11066357621 -0.65768758625 1.82951827416 -0.11066382567 -0.65768763252 1.82951806667 -0.33205563873 -0.65802721516 1.82864779357 -0.55364068118 -0.65870632827 1.82690745025 -0.77554777125 -0.65972496594 1.82429703209 -0.99790572715 -0.66108312227 1.82081653448 0.64201202992 -0.73101722147 1.80673544526 0.52299134342 -0.73370406601 1.80401661030 0.38623414963 -0.73571921400 1.80197744593 0.23680802151 -0.73706266210 1.80061795484 0.07978053204 -0.73773440696 1.79993813974 -0.07978074583 -0.73773444526 1.79993800334 -0.23680823912 -0.73706277366 1.80061754834 -0.38623437487 -0.73571938881 1.80197677744 -0.52299158012 -0.73370428737 1.80401569336 -0.64201228189 -0.73101746602 1.80673429879 0.73951789913 -0.72782565491 1.81006210760 0.59175117084 -0.73018213034 1.80796089764 0.43155648765 -0.73194950316 1.80638495140 0.26248469321 -0.73312776941 1.80533426952 0.08808663113 -0.73371692511 1.80480885259 -0.08808685497 -0.73371696630 1.80480870123 -0.26248492144 -0.73312788901 1.80533381606 -0.43155672467 -0.73194968926 1.80638419769 -0.59175142103 -0.73018236309 1.80795984673 -0.73951816689 -0.72782590653 1.81006076380 0.81676674961 -0.72421014997 1.81391794534 0.64630787186 -0.72631859946 1.81231418651 0.46756534209 -0.72789995417 1.81111132816 0.28290591733 -0.72895420956 1.81030936918 0.09469635460 -0.72948136109 1.80990830847 -0.09469658906 -0.72948140419 1.80990814494 -0.28290615663 -0.72895433432 1.81030887749 -0.46756559110 -0.72790014693 1.81111050501 -0.64630813542 -0.72631883748 1.81231302641 -0.81676703259 -0.72421040140 1.81391644059 0.87622927945 -0.72027266563 1.81819997399 0.68838743565 -0.72216018065 1.81703537997 0.49538874185 -0.72357583554 1.81616189482 0.29870658301 -0.72451962523 1.81557951608 0.09981434412 -0.72499154468 1.81528824131 -0.09981458986 -0.72499158882 1.81528806803 -0.29870683393 -0.72451975259 1.81557899379 -0.49538900314 -0.72357603093 1.81616101614 -0.68838771250 -0.72216041879 1.81703413261 -0.87622957704 -0.72027291111 1.81819834076 0.92037618677 -0.71611516086 1.82280520911 0.71971585141 -0.71775358121 1.82208338105 0.51615471585 -0.71898241578 1.82154197000 0.31052157939 -0.71980165910 1.82118097247 0.10364524130 -0.72021130570 1.82100038498 -0.10364549911 -0.72021135009 1.82100020403 -0.31052184257 -0.71980178680 1.82118042614 -0.51615498978 -0.71898261037 1.82154104781 -0.71971614145 -0.71775381530 1.82208206556 -0.92037649830 -0.71611539614 1.82280347590 0.95167816964 -0.71183959463 1.82763066621 0.74201910830 -0.71314550842 1.82741709278 0.53099129302 -0.71412496342 1.82725687232 0.31898579560 -0.71477795385 1.82715000059 0.10639368781 -0.71510447394 1.82709647340 -0.10639395858 -0.71510451790 1.82709628651 -0.31898607177 -0.71477807996 1.82714943570 -0.53099157999 -0.71412515434 1.82725591677 -0.74201941147 -0.71314573527 1.82741572548 -0.95167849441 -0.71183981696 1.82762885762 0.97260592619 -0.70754792593 1.83257336082 0.75702319550 -0.70838266958 1.83299541821 0.54102650228 -0.70900874698 1.83331192039 0.32473412078 -0.70942615216 1.83352286269 0.10826432527 -0.70963487920 1.83362824045 -0.10826461000 -0.70963492214 1.83362804899 -0.32473441076 -0.70942627504 1.83352228364 -0.54102680276 -0.70900893195 1.83331093972 -0.75702351174 -0.70838288694 1.83299401257 -0.97260626344 -0.70754813405 1.83257149751 0.98563015450 -0.70334211372 1.83753030848 0.76645410220 -0.70351177198 1.83877726036 0.54738837254 -0.70363903497 1.83971243283 0.32840144407 -0.70372389672 1.84033582102 0.10946179533 -0.70376635129 1.84064742004 -0.10946209513 -0.70376639271 1.84064722504 -0.32840174878 -0.70372401504 1.84033523112 -0.54738868708 -0.70363921232 1.83971143342 -0.76645443147 -0.70351197858 1.83877582707 -0.98563050342 -0.70334230788 1.83752840719 0.99322155269 -0.69932411699 1.84239852472 0.77203781757 -0.69857952291 1.84472152229 0.55120493273 -0.69802109591 1.84646372827 0.33062265461 -0.69764883020 1.84762513782 0.11019073964 -0.69746272000 1.84820574607 -0.11019105572 -0.69746275952 1.84820554819 -0.33062297505 -0.69764894296 1.84762453931 -0.55120526191 -0.69802126454 1.84646271460 -0.77203815984 -0.69857971846 1.84472006919 -0.99322191242 -0.69932429894 1.84239659824 0.99785081884 -0.69559589471 1.84707502506 0.77550033079 -0.69363262965 1.85078710702 0.55360421176 -0.69216019832 1.85357112532 0.33203264153 -0.69117859529 1.85542707533 0.11065579984 -0.69068781514 1.85635495243 -0.11065613353 -0.69068785245 1.85635475199 -0.33203297881 -0.69117870178 1.85542646938 -0.55360455624 -0.69216035772 1.85357009997 -0.77550068605 -0.69363281483 1.85078563915 -0.99785118848 -0.69559606770 1.84707308227 0.64196844767 -0.76344542852 1.83318166097 0.52295389166 -0.76604726398 1.83042665086 0.38620548666 -0.76799865305 1.82836035654 0.23679004618 -0.76929959272 1.82698278056 0.07977438373 -0.76995007999 1.82629392548 -0.07977468719 -0.76995011186 1.82629379383 -0.23679035308 -0.76929968533 1.82698238819 -0.38620580043 -0.76799879739 1.82835971111 -0.52295421573 -0.76604744505 1.83042576512 -0.64196878549 -0.76344562530 1.83318055280 0.73947073958 -0.76039025950 1.83658823138 0.59171077731 -0.76262728608 1.83443341133 0.43152563805 -0.76430506997 1.83281725901 0.26246537181 -0.76542360757 1.83173977494 0.08808002859 -0.76598289523 1.83120095960 -0.08808034159 -0.76598292935 1.83120081352 -0.26246568874 -0.76542370630 1.83173933718 -0.43152596285 -0.76430522245 1.83281653111 -0.59171111390 -0.76262747419 1.83443239579 -0.73947109188 -0.76039045789 1.83658693174 0.81671769353 -0.75698900078 1.84059179291 0.64626577686 -0.75892352452 1.83889881206 0.46753315590 -0.76037443248 1.83762903873 0.28288574554 -0.76134172049 1.83678247173 0.09468946068 -0.76182538435 1.83635910990 -0.09468978380 -0.76182541987 1.83635895206 -0.28288607302 -0.76134182286 1.83678199704 -0.46753349207 -0.76037458913 1.83762824366 -0.64626612608 -0.75892371450 1.83889769075 -0.81671806015 -0.75698919476 1.84059033715 0.87617979348 -0.75331303957 1.84506423495 0.68834472227 -0.75496125317 1.84376422501 0.49535596185 -0.75619742943 1.84278917950 0.29868599416 -0.75702156368 1.84213909592 0.09980730119 -0.75743365122 1.84181397175 -0.09980763510 -0.75743368739 1.84181380450 -0.29868633275 -0.75702166748 1.84213859166 -0.49535630978 -0.75619758682 1.84278833073 -0.68834508423 -0.75496144072 1.84376301920 -0.87618017413 -0.75331322450 1.84506265456 0.92032752342 -0.74943376309 1.84987744687 0.71967344555 -0.75076574591 1.84897102209 0.51612197754 -0.75176474968 1.84829116512 0.31050094444 -0.75243076932 1.84783787244 0.10363817132 -0.75276379974 1.84761114053 -0.10363851677 -0.75276383587 1.84761096588 -0.31050129477 -0.75243087260 1.84783734497 -0.51612233763 -0.75176490488 1.84829027429 -0.71967382028 -0.75076592759 1.84896975031 -0.92032791767 -0.74943393567 1.84987576952 0.95163136734 -0.74542255858 1.85490331806 0.74197777868 -0.74636227663 1.85446057525 0.53095912463 -0.74706708209 1.85412847940 0.31896542317 -0.74753696960 1.85390702626 0.10638669227 -0.74777193379 1.85379621162 -0.10638705010 -0.74777196928 1.85379603123 -0.31896578594 -0.74753707070 1.85390648087 -0.53095949729 -0.74706723268 1.85412755629 -0.74197816617 -0.74636244986 1.85445925328 -0.95163177461 -0.74542271684 1.85490156758 0.97256180922 -0.74135081325 1.86001373789 0.75698355366 -0.74177611919 1.86017425642 0.54099532478 -0.74209511552 1.86029460613 0.32471425712 -0.74230779672 1.86037478235 0.10825748523 -0.74241415725 1.86041478040 -0.10825785636 -0.74241419160 1.86041459560 -0.32471463310 -0.74230789423 1.86037422327 -0.54099571044 -0.74209525962 1.86029365872 -0.75698395385 -0.74177628225 1.86017289728 -0.97256222879 -0.74135095658 1.86001193427 0.98558933303 -0.73728991432 1.86508059575 0.76641660246 -0.73703254748 1.86605343752 0.54735849962 -0.73683953883 1.86678302912 0.32838227307 -0.73671088285 1.86726936565 0.10945517140 -0.73664657401 1.86751244225 -0.10945555685 -0.73664660678 1.86751225402 -0.32838266308 -0.73671097564 1.86726879607 -0.54735889874 -0.73683967506 1.86678206354 -0.76641701525 -0.73703269951 1.86605205152 -0.98558976405 -0.73729004346 1.86507875513 0.99318442277 -0.73331124901 1.86997578101 0.77200275709 -0.73215683537 1.87203949050 0.55117657081 -0.73129104089 1.87358723216 0.33060429781 -0.73071386020 1.87461900114 0.11018437197 -0.73042528796 1.87513479255 -0.11018477284 -0.73042531881 1.87513460152 -0.33060470274 -0.73071394740 1.87461842320 -0.55117698386 -0.73129116837 1.87358625270 -0.77200318231 -0.73215697637 1.87203808516 -0.99318486424 -0.73331136605 1.86997391571 0.99781756241 -0.72948620455 1.87457118305 0.77546784953 -0.72717425675 1.87807378728 0.55357746000 -0.72544031055 1.88070069907 0.33201515812 -0.72428436095 1.88245191376 0.11064970816 -0.72370640299 1.88332742667 -0.11065012562 -0.72370643165 1.88332723316 -0.33201557891 -0.72428444197 1.88245132855 -0.55357788746 -0.72544042894 1.88069970819 -0.77546828698 -0.72717438758 1.87807236741 -0.99781801319 -0.72948631291 1.87456930155 0.64192629700 -0.79606780773 1.85944081995 0.52291469640 -0.79859947302 1.85664000340 0.38617404798 -0.80049823242 1.85453935568 0.23676979353 -0.80176408327 1.85313887921 0.07976737484 -0.80239702291 1.85243857640 -0.07976776630 -0.80239704866 1.85243844966 -0.23677018807 -0.80176415788 1.85313850140 -0.38617444869 -0.80049834791 1.85453873404 -0.52291510636 -0.79859961608 1.85663914998 -0.64192671928 -0.79606795974 1.85943975165 0.73942871652 -0.79312482348 1.86293147611 0.59166976279 -0.79526425952 1.86071166447 0.43149187214 -0.79686884827 1.85904676994 0.26244331178 -0.79793858649 1.85793679295 0.08807234888 -0.79847347091 1.85738173390 -0.08807274937 -0.79847349829 1.85738159323 -0.26244371578 -0.79793866537 1.85793637135 -0.43149228315 -0.79686896890 1.85904606867 -0.59167018431 -0.79526440562 1.86071068562 -0.73942915206 -0.79312497227 1.86293022263 0.81667679801 -0.78989317555 1.86708470996 0.64622397615 -0.79168864999 1.86529002690 0.46749793749 -0.79303526858 1.86394397841 0.28286245770 -0.79393302754 1.86304656330 0.09468131245 -0.79438192305 1.86259778035 -0.09468172258 -0.79438195133 1.86259762833 -0.28286287172 -0.79393310858 1.86304610605 -0.46749835929 -0.79303539101 1.86394321227 -0.64622440961 -0.79168879480 1.86528894579 -0.81667724703 -0.78989331617 1.86708330540 0.87614097425 -0.78640980848 1.87176063285 0.68830320218 -0.78787372407 1.87030834005 0.49532022912 -0.78897167431 1.86921908395 0.29866211190 -0.78970365491 1.86849286203 0.09979890733 -0.79006966162 1.86812967179 -0.09979932775 -0.79006969015 1.86812951070 -0.29866253653 -0.78970373624 1.86849237624 -0.49532066217 -0.78897179562 1.86921826592 -0.68830364786 -0.78787386401 1.87030717720 -0.87614143676 -0.78640993715 1.87175910757 0.92029167802 -0.78271166680 1.87681935613 0.71963330655 -0.78382056141 1.87569985332 0.51608673213 -0.78465224640 1.87486018941 0.31047715497 -0.78520671712 1.87430036090 0.10362977528 -0.78548396891 1.87402036428 -0.10363020673 -0.78548399711 1.87402019604 -0.31047759086 -0.78520679707 1.87429985268 -0.51608717690 -0.78465236414 1.87485933069 -0.71963376463 -0.78382069365 1.87569862655 -0.92029215385 -0.78271178096 1.87681773677 0.95159934210 -0.77883569505 1.88212099115 0.74194015494 -0.77953024164 1.88139781608 0.53092543162 -0.78005116582 1.88085539766 0.31894246753 -0.78039846266 1.88049373166 0.10637855807 -0.78057212723 1.88031281388 -0.10637900136 -0.78057215459 1.88031264010 -0.31894291537 -0.78039853981 1.88049320609 -0.53092588855 -0.78005127796 1.88085450765 -0.74194062552 -0.77953036410 1.88139654056 -0.95159983087 -0.77883579331 1.88211930060 0.97253439926 -0.77481883776 1.88752564925 0.75694961302 -0.77500384439 1.88733547771 0.54096431267 -0.77514261351 1.88719281154 0.32469293016 -0.77523514003 1.88709764608 0.10824989746 -0.77528141888 1.88704997665 -0.10825035347 -0.77528144495 1.88704979858 -0.32469339068 -0.77523521318 1.88709710722 -0.54096478221 -0.77514271847 1.88719189790 -0.75695009610 -0.77500395576 1.88733416594 -0.97253490038 -0.77481891994 1.88752390668 0.98556728229 -0.77069803947 1.89289344180 0.76638754648 -0.77024244931 1.89344608760 0.54733136039 -0.76990077043 1.89386053393 0.32836342349 -0.76967299774 1.89413677590 0.10944843523 -0.76955912615 1.89427480863 -0.10944890491 -0.76955915057 1.89427462723 -0.32836389747 -0.76967306591 1.89413622681 -0.54733184297 -0.76990086708 1.89385960250 -0.76638804197 -0.77024254900 1.89344474940 -0.98556779499 -0.77069810657 1.89289166262 0.99316842397 -0.76651024471 1.89808448014 0.77197982100 -0.76524713603 1.89966289513 0.55115455988 -0.76429981753 1.90084666768 0.33058882810 -0.76366828427 1.90163579290 0.11017881314 -0.76335253134 1.90203026589 -0.11017929751 -0.76335255380 1.90203008176 -0.33058931635 -0.76366834672 1.90163523560 -0.55115505592 -0.76429990517 1.90084572253 -0.77198032871 -0.76524722422 1.89966153764 -0.99316894725 -0.76651029894 1.89808267605 0.99780825706 -0.76229239802 1.90295887562 0.77545230224 -0.76001898418 1.90591914967 0.55356189622 -0.75831393575 1.90813931565 0.33200402459 -0.75717724814 1.90961936882 0.11064567295 -0.75660891677 1.91035930448 -0.11064617311 -0.75660893703 1.91035911789 -0.33200452800 -0.75717730436 1.90961880433 -0.55356240613 -0.75831401415 1.90813835907 -0.77545282191 -0.76001906182 1.90591777739 -0.99780878975 -0.76229244278 1.90295705457 0.64188626610 -0.82881697283 1.88548742293 0.52287468934 -0.83129447602 1.88263254977 0.38614071145 -0.83315261186 1.88049136106 0.23674787523 -0.83439137803 1.87906385908 0.07975972345 -0.83501077222 1.87835004613 -0.07976020111 -0.83501079210 1.87834992450 -0.23674835566 -0.83439143535 1.87906349646 -0.38614119742 -0.83315269966 1.88049076431 -0.52287518361 -0.83129458270 1.88263173034 -0.64188677144 -0.82881708215 1.88548639683 0.73939215568 -0.82594442239 1.88905164310 0.59162896304 -0.82801551050 1.88676216342 0.43145609894 -0.82956883612 1.88504501936 0.26241918335 -0.83060439637 1.88390021126 0.08806383624 -0.83112218838 1.88332773951 -0.08806432242 -0.83112220927 1.88332760447 -0.26241967266 -0.83060445616 1.88389980650 -0.43145659450 -0.82956892618 1.88504434597 -0.59162946798 -0.82801561645 1.88676122325 -0.73939267312 -0.82594452409 1.88905043871 0.81664416357 -0.82279358943 1.89332033849 0.64618326765 -0.82450640280 1.89142989753 0.46746064239 -0.82579102323 1.89001203214 0.28283678137 -0.82664744735 1.88906674111 0.09467217821 -0.82707567175 1.88859402322 -0.09467267349 -0.82707569304 1.88859387725 -0.28283728012 -0.82664750785 1.88906630200 -0.46746114809 -0.82579111279 1.89001129625 -0.64618378377 -0.82450650445 1.89142885879 -0.81664469358 -0.82279367947 1.89331898840 0.87611283692 -0.81937170266 1.89816212162 0.68826369452 -0.82074736152 1.89657518477 0.49528256131 -0.82177911671 1.89538494717 0.29863571984 -0.82246696439 1.89459140634 0.09978945266 -0.82281090074 1.89419455981 -0.09978995769 -0.82281092190 1.89419440510 -0.29863622865 -0.82246702405 1.89459093972 -0.49528307768 -0.82177920334 1.89538416120 -0.68826422224 -0.82074745595 1.89657406705 -0.87611337978 -0.81937177802 1.89816065481 0.92026872290 -0.81568599081 1.90344560500 0.71959633497 -0.81671859526 1.90213745781 0.51605007521 -0.81749306003 1.90115631219 0.31045104930 -0.81800938093 1.90050216469 0.10362036288 -0.81826755375 1.90017501185 -0.10362087838 -0.81826757429 1.90017485024 -0.31045156883 -0.81800943834 1.90050167638 -0.51605060279 -0.81749314170 1.90115548684 -0.71959687462 -0.81671868016 1.90213627815 -0.92026927866 -0.81568604952 1.90344404686 0.95158236867 -0.81174368261 1.90903940116 0.74190728035 -0.81240031261 1.90805614933 0.53089140362 -0.81289279669 1.90731867495 0.31891782029 -0.81322113038 1.90682697387 0.10636961217 -0.81338530920 1.90658104191 -0.10637013894 -0.81338532868 1.90658087492 -0.31891835124 -0.81322118435 1.90682646874 -0.53089194292 -0.81289287172 1.90731781921 -0.74190783216 -0.81240038633 1.90805492217 -0.95158293718 -0.81174372369 1.90903777345 0.97252432138 -0.80755200678 1.91481212262 0.75692262200 -0.80777272218 1.91427069202 0.54093476605 -0.80793827019 1.91386458323 0.32467108338 -0.80804864617 1.91359379161 0.10824190383 -0.80810384549 1.91345831253 -0.10824244273 -0.80810386354 1.91345814139 -0.32467162648 -0.80804869567 1.91359327354 -0.54093531755 -0.80793833726 1.91386370436 -0.75692318610 -0.80777278368 1.91426942922 -0.97252490229 -0.80755203030 1.91481044351 0.98556512821 -0.80311819204 1.92063238188 0.76636845127 -0.80281603257 1.92072051855 0.54730838201 -0.80258942401 1.92078658476 0.32834588909 -0.80243836171 1.92083057563 0.10944194117 -0.80236284103 1.92085248629 -0.10944249313 -0.80236285731 1.92085231188 -0.32834644513 -0.80243840591 1.92083004751 -0.54730894620 -0.80258948217 1.92078568831 -0.76636902769 -0.80281608144 1.92071922941 -0.98556572094 -0.80311819908 1.92063066594 0.99317533631 -0.79844946712 1.92636879148 0.77197085949 -0.79751045237 1.92734506160 0.55114047102 -0.79680620165 1.92807722731 0.33057728799 -0.79633671044 1.92856528366 0.11017442747 -0.79610197422 1.92880922575 -0.11017499348 -0.79610198848 1.92880904863 -0.33057785778 -0.79633674868 1.92856474739 -0.55114104836 -0.79680625031 1.92807631710 -0.77197144815 -0.79751048886 1.92734375284 -0.99317594007 -0.79844945979 1.92636704967 0.99782549284 -0.79355306074 1.93188996393 0.77545593800 -0.79183619018 1.93408375386 0.55355925260 -0.79054854660 1.93572905863 0.33200033062 -0.78969012577 1.93682587343 0.11064406603 -0.78926092347 1.93737419346 -0.11064464718 -0.78926093549 1.93737401390 -0.33200091503 -0.78969015759 1.93682532994 -0.55355984354 -0.79054858555 1.93572813678 -0.77545653875 -0.79183621515 1.93408242961 -0.99782610665 -0.79355304217 1.93188820360 0.64184904318 -0.86162553758 1.91129597065 0.52283480213 -0.86406605585 1.90838017182 0.38610635493 -0.86589645107 1.90619329037 0.23672490297 -0.86711672126 1.90473532846 0.07975164766 -0.86772686443 1.90400628829 -0.07975220960 -0.86772687859 1.90400617203 -0.23672546741 -0.86711676176 1.90473498188 -0.38610692437 -0.86589651194 1.90619272001 -0.52283537908 -0.86406612715 1.90837938861 -0.64184963013 -0.86162560540 1.91129498986 0.73936138282 -0.85876413179 1.91490853362 0.59158921387 -0.86080349887 1.91255141454 0.43141922748 -0.86233303157 1.91078354241 0.26239365678 -0.86335272739 1.90960491760 0.08805473496 -0.86386258383 1.90901554046 -0.08805530485 -0.86386259839 1.90901541134 -0.26239422948 -0.86335276857 1.90960453060 -0.43141980578 -0.86233309185 1.91078289860 -0.59158980059 -0.86080356575 1.91255051570 -0.73936198076 -0.85876418775 1.91490738224 0.81661989071 -0.85556115753 1.91922232046 0.64614444928 -0.85726920987 1.91726049049 0.46742222612 -0.85855025721 1.91578908485 0.28280944414 -0.85940429657 1.91480810238 0.09466232626 -0.85983132498 1.91431754192 -0.09466290464 -0.85983133946 1.91431740231 -0.28281002564 -0.85940433703 1.91480768240 -0.46742281383 -0.85855031472 1.91578838101 -0.64614504631 -0.85726926953 1.91725949700 -0.81662050017 -0.85556119850 1.91922102921 0.87609539663 -0.85200745240 1.92414165514 0.68822701841 -0.85343193365 1.92247221882 0.49524397603 -0.85450030317 1.92122010815 0.29860760161 -0.85521255758 1.92038532075 0.09977922729 -0.85556869346 1.91996785422 -0.09977981478 -0.85556870742 1.91996770619 -0.29860819249 -0.85521259606 1.92038487426 -0.49524457368 -0.85450035598 1.92121935606 -0.68822762623 -0.85343198378 1.92247114920 -0.87609601800 -0.85200747607 1.92414025129 0.92025873040 -0.84809385397 1.92957086160 0.71956343136 -0.84926041499 1.92815141864 0.51601310236 -0.85013534464 1.92708680277 0.31042346573 -0.85071863917 1.92637701063 0.10361024380 -0.85101029482 1.92602203888 -0.10361084111 -0.85101030786 1.92602188418 -0.31042406666 -0.85071867454 1.92637654319 -0.51601371053 -0.85013539110 1.92708601256 -0.71956405039 -0.84926045379 1.92815028895 -0.92025936390 -0.84809385888 1.92956936902 0.95158072180 -0.84381119985 1.93541426381 0.74188019819 -0.84472339870 1.93426290908 0.53085823030 -0.84540755678 1.93339935915 0.31889237308 -0.84586367011 1.93282360996 0.10636018152 -0.84609173466 1.93253565743 -0.10636078942 -0.84609174641 1.93253549753 -0.31889298477 -0.84586370137 1.93282312618 -0.53085884955 -0.84540759552 1.93339853934 -0.74188082880 -0.84472342485 1.93426173294 -0.95158136754 -0.84381118534 1.93541270292 0.97253220064 -0.83915032764 1.94157618571 0.75690382899 -0.83978962955 1.94077150927 0.54090798499 -0.84026911479 1.94016796777 0.32464966021 -0.84058877917 1.93976555667 0.10823384618 -0.84074861853 1.93956427141 -0.10823446555 -0.84074862868 1.93956410745 -0.32465028343 -0.84058880547 1.93976506023 -0.54090861593 -0.84026914471 1.94016712520 -0.75690447148 -0.83978964223 1.94077029782 -0.97253285855 -0.83915029386 1.94157457353 0.98558399672 -0.83410207492 1.94796095126 0.76636083382 -0.83442785235 1.94764203832 0.54729099162 -0.83467219383 1.94740281908 0.32833066368 -0.83483509512 1.94724328870 0.10943604352 -0.83491655201 1.94716344234 -0.10943667531 -0.83491656028 1.94716327517 -0.32833129928 -0.83483511572 1.94724278232 -0.54729163484 -0.83467221410 1.94740195897 -0.76636148846 -0.83442785122 1.94764080027 -0.98558466659 -0.83410202286 1.94795930138 0.99320693983 -0.82865727928 1.95447288443 0.77197772276 -0.82860681189 1.95483931536 0.55113587535 -0.82856896908 1.95511410353 0.33057072005 -0.82854374671 1.95529724399 0.11017157928 -0.82853114067 1.95538873176 -0.11017222452 -0.82853114682 1.95538856191 -0.33057136891 -0.82854376103 1.95529672946 -0.55113653146 -0.82856897917 1.95511322946 -0.77197838974 -0.82860679712 1.95483805696 -0.99320762132 -0.82865721076 1.95447120699 0.99787185978 -0.82280677833 1.96101630915 0.77548100588 -0.82229525296 1.96232815952 0.55357126134 -0.82191161573 1.96331201160 0.33200516587 -0.82165586273 1.96396786046 0.11064525919 -0.82152799009 1.96429570120 -0.11064591899 -0.82152799390 1.96429552890 -0.33200582896 -0.82165587029 1.96396733864 -0.55357193098 -0.82191161536 1.96331112549 -0.77548168536 -0.82229522521 1.96232688456 -0.99787255237 -0.82280669596 1.96101461090 0.64181531644 -0.89442611570 1.93684096386 0.52279596645 -0.89684799538 1.93385875143 0.38607185624 -0.89866440977 1.93162206132 0.23670148842 -0.89987535722 1.93013089564 0.07974336556 -0.90048083604 1.92938525648 -0.07974400974 -0.90048084456 1.92938514595 -0.23670213489 -0.89987538112 1.93013056616 -0.38607250730 -0.89866444404 1.93162151921 -0.52279662438 -0.89684803166 1.93385800721 -0.64181598353 -0.89442614230 1.93684003225 0.73933672369 -0.89149902723 1.94046194897 0.59155135107 -0.89355068447 1.93804592416 0.43138216676 -0.89508943269 1.93623387427 0.26236740232 -0.89611526975 1.93502579967 0.08804528929 -0.89662819350 1.93442170076 -0.08804594079 -0.89662820181 1.93442157794 -0.26236805637 -0.89611529252 1.93502543161 -0.43138282591 -0.89508946349 1.93623326216 -0.59155201787 -0.89355071258 1.93804506998 -0.73933740070 -0.89149903764 1.94046085546 0.81660407994 -0.88806679500 1.94471429787 0.64610831893 -0.88986949813 1.94272387231 0.46738364422 -0.89122153128 1.94123102148 0.28278117360 -0.89212289187 1.94023574435 0.09465202488 -0.89257357732 1.93973803987 -0.09465268414 -0.89257358506 1.93973790701 -0.28278183565 -0.89212291249 1.94023534472 -0.46738431186 -0.89122155703 1.94123035196 -0.64610899496 -0.88986951610 1.94272292769 -0.81660476715 -0.88806678712 1.94471307087 0.87608866854 -0.88412578798 1.94957218732 0.68819399301 -0.88577720861 1.94790690189 0.49520549092 -0.88701578025 1.94665790591 0.29857854083 -0.88784149992 1.94582519716 0.09976852136 -0.88825436466 1.94540877341 -0.09976918892 -0.88825437149 1.94540863245 -0.29857921141 -0.88784151744 1.94582477206 -0.49520616753 -0.88701579953 1.94665719000 -0.68819467868 -0.88577721479 1.94790588407 -0.87608936626 -0.88412576026 1.94957085203 0.92026177286 -0.87967237512 1.95500979404 0.71953549630 -0.88124658817 1.95360931891 0.51597690917 -0.88242725432 1.95255893047 0.31039524261 -0.88321437025 1.95185862555 0.10359972774 -0.88360793268 1.95150840098 -0.10360040429 -0.88360793829 1.95150825360 -0.31039592235 -0.88321438379 1.95185818022 -0.51597759532 -0.88242726587 1.95255817769 -0.71953619204 -0.88124658123 1.95360824283 -0.92026248140 -0.87967232657 1.95500837248 0.95159467625 -0.87470292535 1.96100129478 0.74185995176 -0.87625040905 1.95984542940 0.53082710130 -0.87741102818 1.95897849812 0.31886701751 -0.87818477920 1.95840049701 0.10635059307 -0.87857165853 1.95811142219 -0.10635127937 -0.87857166264 1.95811126974 -0.31886770715 -0.87818478795 1.95840003578 -0.53082779761 -0.87741103092 1.95897771641 -0.74186065809 -0.87625038798 1.95984430771 -0.95159539592 -0.87470285558 1.96099980580 0.97255866209 -0.86921380765 1.96752086625 0.75689448238 -0.87076144350 1.96662953938 0.54088526960 -0.87192217655 1.96596101177 0.32462960412 -0.87269600309 1.96551527899 0.10822606635 -0.87308291939 1.96529233662 -0.10822676332 -0.87308292172 1.96529218021 -0.32463030451 -0.87269600635 1.96551480533 -0.54088597681 -0.87192216956 1.96596020754 -0.75689519985 -0.87076140763 1.96662838242 -0.97255939322 -0.86921371681 1.96751932553 0.98562501374 -0.86320139096 1.97454268520 0.76636621114 -0.86475246377 1.97397595484 0.54728061638 -0.86591577414 1.97355087437 0.32831874102 -0.86669131829 1.97326743898 0.10943109662 -0.86707909242 1.97312564389 -0.10943180527 -0.86707909272 1.97312548430 -0.32831945310 -0.86669131540 1.97326695543 -0.54728133530 -0.86591575667 1.97355005249 -0.76636694034 -0.86475241273 1.97397477068 -0.98562575665 -0.86320127978 1.97454110522 0.99326501455 -0.85666204423 1.98204092836 0.77200226100 -0.85819624211 1.98189898183 0.55114234396 -0.85934689566 1.98179248884 0.33057016680 -0.86011400113 1.98172144443 0.11017063290 -0.86049755476 1.98168584359 -0.11017135436 -0.86049755281 1.98168568133 -0.33057089161 -0.86011399152 1.98172095268 -0.55114307548 -0.85934686712 1.98179165264 -0.77200300260 -0.85819617587 1.98189777622 -0.99326576958 -0.85666191401 1.98203931844 0.99794994790 -0.84959213642 1.98998977246 0.77552975495 -0.85106555076 1.99041292634 0.55359965464 -0.85217061580 1.99073025814 0.33201962003 -0.85290732794 1.99094176281 0.11064962422 -0.85327568360 1.99104743532 -0.11065035973 -0.85327567919 1.99104727061 -0.33202035874 -0.85290731111 1.99094126365 -0.55360039974 -0.85217057578 1.99072940938 -0.77553050965 -0.85106546962 1.99041170275 -0.99795071539 -0.84959198902 1.98998813873 </DataArray>
</Points>
</Piece>
</StructuredGrid>
</VTKFile>
