<?xml version="1.0"?>
<VTKFile type="StructuredGrid" version="0.1">
<StructuredGrid WholeExtent="0 9 0 9 0 9">
<Piece Extent="0 9 0 9 0 9">
<PointData>
<DataArray type="Float32" Name="Deformation" format="ascii" NumberOfComponents="3">
-0.00126420405 0.04095565029 -0.00920240876 -0.00123720388 0.04085761795 -0.00922094586 -0.00122555191 0.04071962737 -0.00923453349 -0.00122533157 0.04054227670 -0.00924291938 -0.00123262626 0.04032616409 -0.00924585123 -0.00124351943 0.04007188767 -0.00924307678 -0.00125409447 0.03978004561 -0.00923434372 -0.00126043482 0.03945123604 -0.00921939978 -0.00125862389 0.03908605711 -0.00919799268 -0.00124474511 0.03868510697 -0.00916987013 -0.00137747983 0.04090239764 -0.00958216936 -0.00135452920 0.04080994007 -0.00957186704 -0.00134010135 0.04068444660 -0.00956430192 -0.00133212455 0.04052447861 -0.00955910886 -0.00132852704 0.04032859750 -0.00955592271 -0.00132723708 0.04009536466 -0.00955437834 -0.00132618294 0.03982334148 -0.00955411060 -0.00132329286 0.03951108936 -0.00955475435 -0.00131649509 0.03915716968 -0.00955594445 -0.00130371790 0.03876014385 -0.00955731576 -0.00149028830 0.04086886180 -0.00993796868 -0.00147005291 0.04078376221 -0.00989940440 -0.00145221478 0.04066935224 -0.00987090764 -0.00143636289 0.04052307818 -0.00985206264 -0.00142208620 0.04034238632 -0.00984245364 -0.00140897371 0.04012472296 -0.00984166490 -0.00139661438 0.03986753437 -0.00984928064 -0.00138459720 0.03956826686 -0.00986488513 -0.00137251113 0.03922436670 -0.00988806259 -0.00135994516 0.03883328019 -0.00991839729 -0.00160221973 0.04085343716 -0.01027138058 -0.00158346137 0.04077701862 -0.01020552089 -0.00156171972 0.04067235331 -0.01015664414 -0.00153804594 0.04053653960 -0.01012433455 -0.00151349118 0.04036667584 -0.01010817635 -0.00148910662 0.04015986040 -0.01010775375 -0.00146594340 0.03991319165 -0.01012265098 -0.00144505268 0.03962376795 -0.01015245227 -0.00142748563 0.03928868766 -0.01019674183 -0.00141429340 0.03890504916 -0.01025510389 -0.00171286438 0.04085451808 -0.01058397894 -0.00169444091 0.04078764359 -0.01049217944 -0.00166844368 0.04069145887 -0.01042380488 -0.00163717305 0.04056332708 -0.01037847840 -0.00160292941 0.04040061135 -0.01035582313 -0.00156801312 0.04020067485 -0.01035546220 -0.00153472458 0.03996088070 -0.01037701876 -0.00150536415 0.03967859207 -0.01042011595 -0.00148223220 0.03935117210 -0.01048437690 -0.00146762912 0.03897598393 -0.01056942474 -0.00182181251 0.04087049894 -0.01087733761 -0.00180267788 0.04081357138 -0.01076134300 -0.00177221416 0.04072467795 -0.01067468335 -0.00173374357 0.04060190483 -0.01061704800 -0.00169058829 0.04044333817 -0.01058812629 -0.00164607054 0.04024706414 -0.01058760755 -0.00160351252 0.04001116891 -0.01061518112 -0.00156623643 0.03973373864 -0.01067053633 -0.00153756447 0.03941285950 -0.01075336252 -0.00152081885 0.03904661765 -0.01086334903 -0.00192865440 0.04089977413 -0.01115303047 -0.00190785861 0.04085273627 -0.01101497450 -0.00187285869 0.04077001960 -0.01091157301 -0.00182775684 0.04065073705 -0.01084259717 -0.00177665527 0.04049400159 -0.01080781815 -0.00172365620 0.04029892614 -0.01080700710 -0.00167286183 0.04006462366 -0.01083993519 -0.00162837438 0.03979020710 -0.01090637358 -0.00159429606 0.03947478939 -0.01100609344 -0.00157472907 0.03911748350 -0.01113886593 -0.00203298030 0.04094073802 -0.01141263139 -0.00200966946 0.04090307254 -0.01125503689 -0.00197020478 0.04082549284 -0.01113676734 -0.00191921222 0.04070828796 -0.01105767973 -0.00186131777 0.04055174690 -0.01101763100 -0.00180114740 0.04035615868 -0.01101647814 -0.00174332709 0.04012181233 -0.01105407811 -0.00169248282 0.03984899685 -0.01113028786 -0.00165324057 0.03953800128 -0.01124496438 -0.00163022632 0.03918911462 -0.01139796463 -0.00213438047 0.04099178499 -0.01165771422 -0.00210779676 0.04096251445 -0.01148349310 -0.00206407993 0.04088910673 -0.01135255982 -0.00200810905 0.04077302175 -0.01126484948 -0.00194476320 0.04061571941 -0.01122029717 -0.00187892146 0.04041865962 -0.01121883799 -0.00181546290 0.04018330229 -0.01126040701 -0.00175926661 0.03991110734 -0.01134493935 -0.00171521164 0.03960353467 -0.01147237008 -0.00168817709 0.03926204419 -0.01164263430 -0.00223244519 0.04105130941 -0.01188985285 -0.00220192686 0.04102899628 -0.01170230608 -0.00215431166 0.04095887030 -0.01156124392 -0.00209444669 0.04084340263 -0.01146666025 -0.00202717901 0.04068506441 -0.01141854896 -0.00195735571 0.04048632680 -0.01141690393 -0.00188982387 0.04024966094 -0.01146171905 -0.00182943057 0.03997753798 -0.01155298820 -0.00178102288 0.03967242908 -0.01169070526 -0.00174944790 0.03933680537 -0.01187486413 -0.00129884843 0.04100562502 -0.00919366581 -0.00127693609 0.04081704121 -0.00920482641 -0.00126266806 0.04059378779 -0.00921236351 -0.00125428942 0.04033820901 -0.00921613304 -0.00125004524 0.04005264913 -0.00921599095 -0.00124818059 0.03973945238 -0.00921179315 -0.00124694056 0.03940096301 -0.00920339559 -0.00124457020 0.03903952529 -0.00919065420 -0.00123931461 0.03865748346 -0.00917342491 -0.00122941885 0.03825718177 -0.00915156366 -0.00140530893 0.04094987171 -0.00960082382 -0.00138308122 0.04077093372 -0.00959506976 -0.00136553556 0.04056149658 -0.00959016814 -0.00135168436 0.04032266117 -0.00958595395 -0.00134054004 0.04005552839 -0.00958226220 -0.00133111504 0.03976119914 -0.00957892791 -0.00132242177 0.03944077431 -0.00957578606 -0.00131347265 0.03909535480 -0.00957267167 -0.00130328010 0.03872604150 -0.00956941974 -0.00129085654 0.03833393532 -0.00956586528 -0.00151253095 0.04091057868 -0.00998475386 -0.00148927038 0.04074153722 -0.00996185120 -0.00146787373 0.04054464456 -0.00994426728 -0.00144808930 0.04032019790 -0.00993182380 -0.00142966537 0.04006849444 -0.00992434250 -0.00141235022 0.03978983137 -0.00992164509 -0.00139589215 0.03948450590 -0.00992355331 -0.00138003943 0.03915281522 -0.00992988888 -0.00136454036 0.03879505653 -0.00994047351 -0.00134914323 0.03841152703 -0.00995512894 -0.00162010328 0.04088682174 -0.01034649184 -0.00159515822 0.04072773845 -0.01030651096 -0.00156945518 0.04054215094 -0.01027623635 -0.00154343135 0.04032992878 -0.01025548452 -0.00151752386 0.04009094159 -0.01024407201 -0.00149216990 0.03982505895 -0.01024181532 -0.00146780662 0.03953215046 -0.01024853098 -0.00144487117 0.03921208572 -0.01026403550 -0.00142380074 0.03886473432 -0.01028814540 -0.00140503246 0.03848996586 -0.01032067721 -0.00172761471 0.04087767671 -0.01068707366 -0.00170039939 0.04072842419 -0.01063038924 -0.00167005250 0.04055293491 -0.01058765076 -0.00163763759 0.04035096338 -0.01055867805 -0.00160421819 0.04012226415 -0.01054329092 -0.00157085785 0.03986659173 -0.01054130919 -0.00153862010 0.03958370065 -0.01055255268 -0.00150856848 0.03927334545 -0.01057684121 -0.00148176654 0.03893528065 -0.01061399460 -0.00145927781 0.03856926077 -0.01066383267 -0.00183465404 0.04088221940 -0.01100753522 -0.00180464856 0.04074248119 -0.01093482626 -0.00176943829 0.04057591567 -0.01088008594 -0.00173063513 0.04038241127 -0.01084314631 -0.00168985101 0.04016185642 -0.01082383942 -0.00164869783 0.03991413957 -0.01082199732 -0.00160878751 0.03963914914 -0.01083745207 -0.00157173196 0.03933677356 -0.01087003571 -0.00153914310 0.03900690128 -0.01091958030 -0.00151263283 0.03864942072 -0.01098591789 -0.00194081005 0.04089952564 -0.01130891242 -0.00190756038 0.04076879621 -0.01122116225 -0.00186738513 0.04061001241 -0.01115511730 -0.00182235107 0.04042338200 -0.01111063123 -0.00177452497 0.04020911272 -0.01108755768 -0.00172597362 0.03996741233 -0.01108575031 -0.00167876378 0.03969848858 -0.01110506275 -0.00163496223 0.03940254922 -0.01114534866 -0.00159663574 0.03907980200 -0.01120646168 -0.00156585109 0.03873045468 -0.01128825546 -0.00204567155 0.04092867124 -0.01159224117 -0.00200878951 0.04080625601 -0.01149073741 -0.00196366562 0.04065414434 -0.01141432025 -0.00191271249 0.04047298515 -0.01136287474 -0.00185834273 0.04026342736 -0.01133628590 -0.00180296897 0.04002611988 -0.01133443877 -0.00174900381 0.03976171165 -0.01135721837 -0.00169885988 0.03947085158 -0.01140450975 -0.00165494979 0.03915418859 -0.01147619793 -0.00161968615 0.03881237160 -0.01157216794 -0.00214882731 0.04096873201 -0.01185855737 -0.00210799061 0.04085374735 -0.01174489196 -0.00205805237 0.04070723064 -0.01165927021 -0.00200164650 0.04053033028 -0.01160161876 -0.00194140696 0.04032419463 -0.01157186425 -0.00187996766 0.04008997208 -0.01156993330 -0.00181996254 0.03982881101 -0.01159575256 -0.00176402553 0.03954185979 -0.01164924866 -0.00171479056 0.03923026681 -0.01173034823 -0.00167489157 0.03889518045 -0.01183897792 -0.00224986615 0.04101878377 -0.01210889693 -0.00220481834 0.04091015698 -0.01198496613 -0.00215031795 0.04076819052 -0.01189154260 -0.00208908020 0.04059452696 -0.01182860524 -0.00202382030 0.04039080886 -0.01179613292 -0.00195725346 0.04015867880 -0.01179410452 -0.00189209489 0.03989977933 -0.01182249895 -0.00183105980 0.03961575302 -0.01188129507 -0.00177686340 0.03930824245 -0.01197047178 -0.00173222091 0.03897889017 -0.01209000796 -0.00133854801 0.04098355326 -0.00921448024 -0.00131816296 0.04071894166 -0.00921941098 -0.00130047476 0.04042551929 -0.00922194397 -0.00128505027 0.04010659445 -0.00922197882 -0.00127145635 0.03976547543 -0.00921941510 -0.00125925985 0.03940547052 -0.00921415241 -0.00124802764 0.03902988801 -0.00920609033 -0.00123732656 0.03864203620 -0.00919512846 -0.00122672349 0.03824522336 -0.00918116639 -0.00121578527 0.03784275779 -0.00916410369 -0.00143874696 0.04092835031 -0.00964472039 -0.00141559850 0.04067570790 -0.00964097756 -0.00139446459 0.04039647008 -0.00963706814 -0.00137505291 0.04009327374 -0.00963294427 -0.00135707114 0.03976875577 -0.00962855810 -0.00134022696 0.03942555306 -0.00962386176 -0.00132422806 0.03906630250 -0.00961880742 -0.00130878212 0.03869364099 -0.00961334720 -0.00129359683 0.03831020541 -0.00960743327 -0.00127837986 0.03791863266 -0.00960101776 -0.00154043851 0.04088684482 -0.01005298801 -0.00151414216 0.04064559582 -0.01003995948 -0.00148905254 0.04037947711 -0.01002918122 -0.00146505967 0.04009059483 -0.01002062722 -0.00144205358 0.03978105512 -0.01001427143 -0.00141992430 0.03945296411 -0.01001008785 -0.00139856186 0.03910842794 -0.01000805043 -0.00137785628 0.03874955276 -0.01000813316 -0.00135769758 0.03837844469 -0.01001031002 -0.00133797581 0.03799720988 -0.01001455496 -0.00164325238 0.04085860431 -0.01043985421 -0.00161347488 0.04062813007 -0.01041715378 -0.00158401453 0.04037406396 -0.01039923551 -0.00155497249 0.04009811088 -0.01038607304 -0.00152644992 0.03980197567 -0.01037764000 -0.00149854798 0.03948736321 -0.01037391002 -0.00147136781 0.03915597838 -0.01037485672 -0.00144501058 0.03880952605 -0.01038045373 -0.00141957744 0.03844971108 -0.01039067470 -0.00139516956 0.03807823834 -0.01040549323 -0.00174681831 0.04084319630 -0.01080589010 -0.00171327761 0.04062283529 -0.01077335751 -0.00167912650 0.04037975422 -0.01074818330 -0.00164469331 0.04011537502 -0.01073032714 -0.00161030639 0.03983111961 -0.01071974870 -0.00157629407 0.03952840992 -0.01071640763 -0.00154298469 0.03920866788 -0.01072026361 -0.00151070658 0.03887331542 -0.01073127630 -0.00147978809 0.03852377447 -0.01074940538 -0.00145055755 0.03816146694 -0.01077461050 -0.00185076600 0.04084018833 -0.01115166677 -0.00181323130 0.04062923616 -0.01110936772 -0.00177416437 0.04039607147 -0.01107697689 -0.00173412407 0.04014194041 -0.01105443490 -0.00169366922 0.03986808913 -0.01104168241 -0.00165335867 0.03957576378 -0.01103866004 -0.00161375126 0.03926621050 -0.01104530845 -0.00157540582 0.03894067544 -0.01106156826 -0.00153888120 0.03860040475 -0.01108738013 -0.00150473624 0.03824664459 -0.01112268470 -0.00195472518 0.04084914792 -0.01147775533 -0.00191301689 0.04064685732 -0.01142598147 -0.00186890409 0.04042253929 -0.01138656856 -0.00182316669 0.04017736020 -0.01135944171 -0.00177658464 0.03991248642 -0.01134452603 -0.00172993787 0.03962908433 -0.01134174661 -0.00168400629 0.03932832028 -0.01135102857 -0.00163956985 0.03901136066 -0.01137229701 -0.00159740847 0.03867937183 -0.01140547703 -0.00155830208 0.03833352016 -0.01145049375 -0.00205832558 0.04086964259 -0.01178472687 -0.00201231534 0.04067522343 -0.01172399579 -0.00196312157 0.04045868126 -0.01167791062 -0.00191172312 0.04022118753 -0.01164639297 -0.00185909889 0.03996391367 -0.01162936445 -0.00180622775 0.03968803111 -0.01162674670 -0.00175408856 0.03939471129 -0.01163846131 -0.00170366021 0.03908512564 -0.01166442992 -0.00165592156 0.03876044559 -0.01170457414 -0.00161185150 0.03842184257 -0.01175881558 -0.00216119692 0.04090123988 -0.01207315251 -0.00211080760 0.04071385914 -0.01200420775 -0.00205659274 0.04050402097 -0.01195195535 -0.00199969530 0.04027297556 -0.01191633405 -0.00194125821 0.04002197307 -0.01189728258 -0.00188242441 0.03975226368 -0.01189473966 -0.00182433684 0.03946509757 -0.01190864402 -0.00176813845 0.03916172493 -0.01193893440 -0.00171497218 0.03884339591 -0.01198554953 -0.00166598095 0.03851136071 -0.01204842813 -0.00226296892 0.04094350731 -0.01234360334 -0.00220817460 0.04076228911 -0.01226741438 -0.00214909355 0.04055808200 -0.01220965506 -0.00208698516 0.04033227742 -0.01217031036 -0.00202310882 0.04008626680 -0.01214936529 -0.00195872394 0.03982144157 -0.01214680484 -0.00189508991 0.03953919319 -0.01216261403 -0.00183346612 0.03924091309 -0.01219677784 -0.00177511199 0.03892799270 -0.01224928127 -0.00172128689 0.03860182347 -0.01232010932 -0.00138057614 0.04089486772 -0.00926184751 -0.00135929110 0.04056869480 -0.00926328345 -0.00133777630 0.04021958276 -0.00926300423 -0.00131631050 0.03985134733 -0.00926091121 -0.00129517250 0.03946780427 -0.00925690577 -0.00127464106 0.03907276930 -0.00925088928 -0.00125499496 0.03867005817 -0.00924276311 -0.00123651299 0.03826348661 -0.00923242863 -0.00121947391 0.03785687036 -0.00921978721 -0.00120415652 0.03745402516 -0.00920474022 -0.00147513533 0.04084259540 -0.00971134373 -0.00145011712 0.04052927964 -0.00970938163 -0.00142523936 0.04019397398 -0.00970647736 -0.00140064376 0.03984020063 -0.00970263936 -0.00137647202 0.03947148178 -0.00969787605 -0.00135286585 0.03909133965 -0.00969219588 -0.00132996693 0.03870329643 -0.00968560726 -0.00130791699 0.03831087434 -0.00967811863 -0.00128685771 0.03791759557 -0.00966973841 -0.00126693081 0.03752698233 -0.00966047504 -0.00157149727 0.04080173254 -0.01014044726 -0.00154248663 0.04050040826 -0.01013441234 -0.00151380510 0.04017807787 -0.01012847331 -0.00148551239 0.03983795760 -0.01012269075 -0.00145766823 0.03948326367 -0.01011712526 -0.00143033236 0.03911721230 -0.01011183741 -0.00140356449 0.03874301971 -0.01010688779 -0.00137742435 0.03836390212 -0.01010233697 -0.00135197168 0.03798307575 -0.01009824554 -0.00132726618 0.03760375682 -0.01009467407 -0.00166936533 0.04077217867 -0.01054934295 -0.00163614962 0.04048199076 -0.01053871866 -0.00160329574 0.04017178020 -0.01052942730 -0.00157082902 0.03984445622 -0.01052154001 -0.00153877480 0.03950292805 -0.01051512794 -0.00150715842 0.03915010490 -0.01051026225 -0.00147600521 0.03878889599 -0.01050701408 -0.00144534053 0.03842221055 -0.01050545459 -0.00141518969 0.03805295781 -0.01050565492 -0.00138557804 0.03768404697 -0.01050768623 -0.00176844288 0.04075383337 -0.01093821563 -0.00173085608 0.04047393727 -0.01092264368 -0.00169353354 0.04017496674 -0.01090977456 -0.00165650631 0.03985953444 -0.01089966173 -0.00161980540 0.03953025300 -0.01089235864 -0.00158346185 0.03918973506 -0.01088791875 -0.00154750669 0.03884059327 -0.01088639553 -0.00151197094 0.03848544025 -0.01088784243 -0.00147688563 0.03812688866 -0.01089231291 -0.00144228179 0.03776755113 -0.01089986043 -0.00186843330 0.04074659618 -0.01130725016 -0.00182635598 0.04047615790 -0.01128653048 -0.00178434075 0.04018752327 -0.01126995032 -0.00174245690 0.03988303022 -0.01125753052 -0.00170077371 0.03956501664 -0.01124929190 -0.00165936048 0.03923582044 -0.01124525529 -0.00161828649 0.03889777953 -0.01124544152 -0.00157762103 0.03855323182 -0.01124987143 -0.00153743338 0.03820451523 -0.01125856584 -0.00149779284 0.03785396765 -0.01127154559 -0.00196903995 0.04075036665 -0.01165663139 -0.00192239932 0.04048856277 -0.01163072215 -0.00187553961 0.04020933557 -0.01161038982 -0.00182859344 0.03991478151 -0.01159562099 -0.00178169341 0.03960699704 -0.01158640226 -0.00173497213 0.03928807864 -0.01158272021 -0.00168856220 0.03896012276 -0.01158456143 -0.00164259623 0.03862522587 -0.01159191252 -0.00159720682 0.03828548441 -0.01160476005 -0.00155252658 0.03794299487 -0.01162309062 -0.00206996622 0.04076504434 -0.01198654417 -0.00201873607 0.04051106201 -0.01195556176 -0.00196695237 0.04024028940 -0.01193152827 -0.00191482858 0.03995462627 -0.01191440776 -0.00186257817 0.03965597233 -0.01190416428 -0.00181041462 0.03934622731 -0.01190076189 -0.00175855140 0.03902729096 -0.01190416466 -0.00170720198 0.03870106299 -0.01191433663 -0.00165657984 0.03836944314 -0.01193124187 -0.00160689843 0.03803433114 -0.01195484444 -0.00217091548 0.04079052881 -0.01229717333 -0.00211511624 0.04054356572 -0.01226139240 -0.00205840127 0.04028027055 -0.01223380091 -0.00200107496 0.04000240246 -0.01221436542 -0.00194344167 0.03971172058 -0.01220305250 -0.00188580578 0.03940998408 -0.01219982870 -0.00182847168 0.03909895210 -0.01220466058 -0.00177174372 0.03878038380 -0.01221751471 -0.00171592630 0.03845603832 -0.01223835765 -0.00166132379 0.03812767481 -0.01226715596 -0.00227159109 0.04082671961 -0.01258870373 -0.00221128979 0.04058598403 -0.01254855715 -0.00214970857 0.04032916479 -0.01251764297 -0.00208724524 0.04005794803 -0.01249596860 -0.00202429759 0.03977401991 -0.01248354146 -0.00196126344 0.03947906658 -0.01248036898 -0.00189854060 0.03917477419 -0.01248645858 -0.00183652688 0.03886282890 -0.01250181769 -0.00177562010 0.03854491687 -0.01252645372 -0.00171621805 0.03822272423 -0.01256037410 -0.00142220617 0.04074500109 -0.00933276304 -0.00139872713 0.04037167615 -0.00933502770 -0.00137337696 0.03998073909 -0.00933527361 -0.00134676650 0.03957638198 -0.00933338473 -0.00131950659 0.03916279690 -0.00932924504 -0.00129220807 0.03874417589 -0.00932273851 -0.00126548179 0.03832471104 -0.00931374909 -0.00123993858 0.03790859439 -0.00930216076 -0.00121618929 0.03750001803 -0.00928785748 -0.00119484475 0.03710317400 -0.00927072322 -0.00151181550 0.04069736893 -0.00979817853 -0.00148467317 0.04033666598 -0.00980007314 -0.00145621078 0.03995861515 -0.00979987121 -0.00142687048 0.03956732612 -0.00979759874 -0.00139709441 0.03916690855 -0.00979328174 -0.00136732471 0.03876147211 -0.00978694622 -0.00133800351 0.03835512645 -0.00977861818 -0.00130957296 0.03795198123 -0.00976832362 -0.00128247519 0.03755614614 -0.00975608855 -0.00125715235 0.03717173081 -0.00974193897 -0.00160319356 0.04065931414 -0.01024490777 -0.00157212218 0.04031044477 -0.01024589289 -0.00154018530 0.03994467482 -0.01024496735 -0.00150768583 0.03956597485 -0.01024223227 -0.00147492669 0.03917831542 -0.01023778879 -0.00144221077 0.03878566709 -0.01023173805 -0.00140984100 0.03839200042 -0.01022418117 -0.00137812028 0.03800128596 -0.01021521927 -0.00134735153 0.03761749429 -0.01020495350 -0.00131783764 0.03724459595 -0.01019348498 -0.00169614043 0.04063093865 -0.01067283330 -0.00166092071 0.04029311784 -0.01067247492 -0.00162519678 0.03993898745 -0.01067059736 -0.00158916055 0.03957233518 -0.01066732531 -0.00155300392 0.03919694870 -0.01066278344 -0.00151691879 0.03881661570 -0.01065709643 -0.00148109706 0.03843512386 -0.01065038896 -0.00144573063 0.03805626086 -0.01064278569 -0.00141101141 0.03768381439 -0.01063441130 -0.00137713130 0.03732157212 -0.01062539047 -0.00179045616 0.04061234443 -0.01108183764 -0.00175091530 0.04028479048 -0.01107980718 -0.00171114150 0.03994162239 -0.01107679659 -0.00167124265 0.03958641410 -0.01107291786 -0.00163132661 0.03922273958 -0.01106828294 -0.00159150125 0.03885417278 -0.01106300381 -0.00155187444 0.03848428767 -0.01105719245 -0.00151255405 0.03811665819 -0.01105096082 -0.00147364794 0.03775485832 -0.01104442089 -0.00143526398 0.03740246201 -0.01103768464 -0.00188594084 0.04060363341 -0.01147180330 -0.00184195248 0.04028556801 -0.01146787764 -0.00179791573 0.03995264898 -0.01146360039 -0.00175388014 0.03960821862 -0.01145904990 -0.00170989527 0.03925561926 -0.01145430453 -0.00166601068 0.03889819319 -0.01144944263 -0.00162227594 0.03853928275 -0.01144454254 -0.00157874060 0.03818223025 -0.01143968263 -0.00153545423 0.03783037800 -0.01143494123 -0.00149246638 0.03748706831 -0.01143039671 -0.00198239452 0.04060490753 -0.01184261282 -0.00193387881 0.04029555574 -0.01183667426 -0.00188541573 0.03997213659 -0.01183104409 -0.00183702102 0.03963775576 -0.01182576144 -0.00178871039 0.03929551893 -0.01182086547 -0.00174049959 0.03894853179 -0.01181639532 -0.00169240433 0.03859990002 -0.01181239014 -0.00164444036 0.03825272929 -0.01180888907 -0.00159662339 0.03791012530 -0.01180593127 -0.00154896917 0.03757519371 -0.01180355589 -0.00207961727 0.04061626875 -0.01219414871 -0.00202654082 0.04031485896 -0.01218618501 -0.00197353779 0.04000015455 -0.01217916303 -0.00192061330 0.03967503250 -0.01217309246 -0.00186777249 0.03934236980 -0.01216798299 -0.00181502047 0.03900504343 -0.01216384432 -0.00176236239 0.03866593037 -0.01216068613 -0.00170980337 0.03832790761 -0.01215851812 -0.00165734853 0.03799385213 -0.01215734997 -0.00160500302 0.03766664091 -0.01215719139 -0.00217740917 0.04063781902 -0.01252629350 -0.00211978507 0.04034358298 -0.01251639785 -0.00206217818 0.04003677221 -0.01250799256 -0.00200460500 0.03972005585 -0.01250108296 -0.00194708206 0.03939610306 -0.01249567436 -0.00188962585 0.03906758296 -0.01249177207 -0.00183225290 0.03873716472 -0.01248938142 -0.00177497970 0.03840751748 -0.01248850772 -0.00171782276 0.03808131038 -0.01248915628 -0.00166079861 0.03776121258 -0.01249133243 -0.00227557027 0.04066966027 -0.01283892971 -0.00221345808 0.04038183312 -0.01282730074 -0.00215123315 0.04008205894 -0.01281756803 -0.00208894412 0.03977283283 -0.01280977294 -0.00202663961 0.03945664990 -0.01280395682 -0.00196436824 0.03913600524 -0.01280016102 -0.00190217863 0.03881339396 -0.01279842691 -0.00184011941 0.03849131117 -0.01279879584 -0.00177823919 0.03817225196 -0.01280130915 -0.00171658661 0.03785871143 -0.01280600822 -0.00146071143 0.04053938609 -0.00942422229 -0.00143487764 0.04013326122 -0.00943322760 -0.00140608102 0.03971374919 -0.00943848145 -0.00137511463 0.03928561272 -0.00943985389 -0.00134277153 0.03885361457 -0.00943721499 -0.00130984476 0.03842251748 -0.00943043482 -0.00127712738 0.03799708418 -0.00941938344 -0.00124541244 0.03758207741 -0.00940393092 -0.00121549300 0.03718225993 -0.00938394732 -0.00118816211 0.03680239446 -0.00935930271 -0.00154612888 0.04049743286 -0.00990270945 -0.00151730273 0.04010288393 -0.00991284328 -0.00148572976 0.03969500045 -0.00991872511 -0.00145214663 0.03927853452 -0.00992038196 -0.00141729001 0.03885823823 -0.00991784083 -0.00138189655 0.03843886366 -0.00991112876 -0.00134670291 0.03802516292 -0.00990027276 -0.00131244574 0.03762188809 -0.00988529986 -0.00127986170 0.03723379127 -0.00986623706 -0.00124968745 0.03686562455 -0.00984311140 -0.00163301369 0.04046366193 -0.01036414569 -0.00160086719 0.04008017559 -0.01037508426 -0.00156624705 0.03968349593 -0.01038148717 -0.00152981840 0.03927833521 -0.01038346963 -0.00149224633 0.03886940568 -0.01038114684 -0.00145419595 0.03846141963 -0.01037463401 -0.00141633237 0.03805908930 -0.01036404635 -0.00137932069 0.03766712697 -0.01034949906 -0.00134382602 0.03729024489 -0.01033110734 -0.00131051347 0.03693315535 -0.01030898640 -0.00172127598 0.04043827806 -0.01080820054 -0.00168552641 0.04006530860 -0.01081969186 -0.00164761564 0.03967937351 -0.01082653136 -0.00160812673 0.03928511808 -0.01082886885 -0.00156764272 0.03888718759 -0.01082685412 -0.00152674665 0.03849022732 -0.01082063698 -0.00148602157 0.03809888256 -0.01081036721 -0.00144605051 0.03771779859 -0.01079619463 -0.00140741654 0.03735162069 -0.01077826903 -0.00137070268 0.03700499415 -0.01075674020 -0.00181082588 0.04042148599 -0.01123454350 -0.00177123578 0.04005845532 -0.01124640742 -0.00172981826 0.03968277107 -0.01125362146 -0.00168706843 0.03929898644 -0.01125633159 -0.00164348142 0.03891165459 -0.01125468379 -0.00159955234 0.03852532870 -0.01124882405 -0.00155577629 0.03814456195 -0.01123889835 -0.00151264841 0.03777390751 -0.01122505267 -0.00147066379 0.03741791855 -0.01120743299 -0.00143031756 0.03708114827 -0.01118618530 -0.00190157352 0.04041349048 -0.01164284408 -0.00185795069 0.04005978812 -0.01165497229 -0.00181283763 0.03969382650 -0.01166252122 -0.00176664031 0.03932004358 -0.01166560979 -0.00171976467 0.03894287732 -0.01166435696 -0.00167261670 0.03856676570 -0.01165888164 -0.00162560234 0.03819614669 -0.01164930277 -0.00157912757 0.03783545826 -0.01163573928 -0.00153359835 0.03748913837 -0.01161831011 -0.00148942063 0.03716162499 -0.01159713419 -0.00199342903 0.04041449626 -0.01203277180 -0.00194562654 0.04006947939 -0.01204512779 -0.00189665650 0.03971267767 -0.01205299438 -0.00184683915 0.03934839279 -0.01205645542 -0.00179649471 0.03898092643 -0.01205559472 -0.00174594342 0.03861458029 -0.01205049613 -0.00169550551 0.03825365605 -0.01204124347 -0.00164550121 0.03790245540 -0.01202792056 -0.00159625076 0.03756528003 -0.01201061125 -0.00154807438 0.03724643163 -0.01198939936 -0.00208630254 0.04042470808 -0.01240399617 -0.00203421872 0.04008770150 -0.01241661525 -0.00198125760 0.03973946248 -0.01242480472 -0.00192766176 0.03938413738 -0.01242862042 -0.00187367377 0.03902587256 -0.01242811820 -0.00181953619 0.03866881440 -0.01242335393 -0.00176549159 0.03831710925 -0.01241438345 -0.00171178253 0.03797490347 -0.01240126262 -0.00165865159 0.03764634343 -0.01238404730 -0.00160634133 0.03733557548 -0.01236279332 -0.00218010418 0.04044433070 -0.01275618670 -0.00212368261 0.04011462682 -0.01276917603 -0.00206662366 0.03977431879 -0.01277771598 -0.00200910495 0.03942738063 -0.01278185675 -0.00195130409 0.03907778636 -0.01278164851 -0.00189339870 0.03872950999 -0.01277714144 -0.00183556637 0.03838652554 -0.01276838573 -0.00177798474 0.03805280702 -0.01275543156 -0.00172083139 0.03773232845 -0.01273832911 -0.00166428396 0.03742906385 -0.01271712856 -0.00227474408 0.04047356886 -0.01308901291 -0.00221397361 0.04015042773 -0.01310255143 -0.00215273742 0.03981738450 -0.01311149192 -0.00209116552 0.03947822586 -0.01311591636 -0.00202938792 0.03913673846 -0.01311590674 -0.00196753463 0.03879670901 -0.01311154506 -0.00190573566 0.03846192416 -0.01310291331 -0.00184412103 0.03813617059 -0.01309009348 -0.00178282073 0.03782323499 -0.01307316757 -0.00172196478 0.03752690403 -0.01305221758 -0.00149336527 0.04028345542 -0.00953322069 -0.00146614924 0.03985882554 -0.00955646704 -0.00143469277 0.03942337395 -0.00957235709 -0.00140005129 0.03898295387 -0.00958077319 -0.00136328022 0.03854341856 -0.00958159769 -0.00132543497 0.03811062123 -0.00957471295 -0.00128757098 0.03769041514 -0.00956000132 -0.00125074367 0.03728865353 -0.00953734516 -0.00121600844 0.03691118962 -0.00950662682 -0.00118442074 0.03656387666 -0.00946772866 -0.00157541692 0.04024754913 -0.01002242115 -0.00154604189 0.03983295053 -0.01004748324 -0.00151214720 0.03940773675 -0.01006451449 -0.00147488577 0.03897771011 -0.01007354853 -0.00143541053 0.03854867293 -0.01007461899 -0.00139487438 0.03812642752 -0.01006775947 -0.00135443024 0.03771677620 -0.01005300361 -0.00131523103 0.03732552130 -0.01003038503 -0.00127842967 0.03695846513 -0.00999993734 -0.00124517906 0.03662141002 -0.00996169418 -0.00165844396 0.04021884822 -0.01049593716 -0.00162654003 0.03981407097 -0.01052266954 -0.00159004425 0.03939876918 -0.01054085659 -0.00155014847 0.03897872730 -0.01055062068 -0.00150804454 0.03855972977 -0.01055208421 -0.00146492428 0.03814756105 -0.01054536957 -0.00142197956 0.03774800557 -0.01053059914 -0.00138040220 0.03736684779 -0.01050789532 -0.00134138405 0.03700987214 -0.01047738049 -0.00130611696 0.03668286309 -0.01043917704 -0.00174247028 0.04019759070 -0.01095331990 -0.00170770497 0.03980236034 -0.01098163880 -0.00166845029 0.03939662619 -0.01100101497 -0.00162588719 0.03898617529 -0.01101161053 -0.00158119664 0.03857679470 -0.01101358760 -0.00153555958 0.03817427148 -0.01100710830 -0.00149015698 0.03778439268 -0.01099233474 -0.00144616981 0.03741294537 -0.01096942904 -0.00140477901 0.03706571660 -0.01093855332 -0.00136716555 0.03674849342 -0.01089986970 -0.00182751974 0.04018401457 -0.01139412058 -0.00178959803 0.03979799214 -0.01142400385 -0.00174743168 0.03940146272 -0.01144462122 -0.00170214974 0.03900022391 -0.01145613898 -0.00165488123 0.03860007329 -0.01145872339 -0.00160675517 0.03820680845 -0.01145254072 -0.00155890059 0.03782622697 -0.01143775723 -0.00151244651 0.03746412644 -0.01141453921 -0.00146852196 0.03712630445 -0.01138305291 -0.00142825597 0.03681855857 -0.01134346460 -0.00191361624 0.04017835784 -0.01181789040 -0.00187228049 0.03980113983 -0.01184937753 -0.00182705478 0.03941343373 -0.01187130695 -0.00177898392 0.03902104302 -0.01188382694 -0.00172911271 0.03862977116 -0.01188708582 -0.00167848594 0.03824542163 -0.01188123189 -0.00162814842 0.03787379788 -0.01186641345 -0.00157914495 0.03752070340 -0.01184277882 -0.00153252032 0.03719194165 -0.01181047629 -0.00148931934 0.03689331609 -0.01176965418 -0.00200078365 0.04018085852 -0.01222418054 -0.00195581367 0.03981197690 -0.01225737270 -0.00190738595 0.03943269417 -0.01228070373 -0.00185643754 0.03904880245 -0.01229429531 -0.00180390548 0.03866609390 -0.01229826912 -0.00175072681 0.03829036065 -0.01229274686 -0.00169783856 0.03792739485 -0.01227785022 -0.00164617778 0.03758298863 -0.01225370088 -0.00159668151 0.03726293415 -0.01222042053 -0.00155028678 0.03697302354 -0.01217813087 -0.00208904584 0.04019175459 -0.01261254222 -0.00204025887 0.03983067684 -0.01264760220 -0.00198849155 0.03945939898 -0.01267244316 -0.00193455841 0.03908367205 -0.01268716498 -0.00187927394 0.03870924710 -0.01269186753 -0.00182345265 0.03834187517 -0.01268665070 -0.00176790905 0.03798730730 -0.01267161436 -0.00171345764 0.03765129453 -0.01264685840 -0.00166091293 0.03733958791 -0.01261248269 -0.00161108942 0.03705793847 -0.01256858712 -0.00217842671 0.04021128408 -0.01298252662 -0.00212567739 0.03985741312 -0.01301967887 -0.00207043794 0.03949370312 -0.01304615683 -0.00201339432 0.03912582167 -0.01306205686 -0.00195523249 0.03875943637 -0.01306747528 -0.00189663838 0.03840021484 -0.01306250845 -0.00183829797 0.03805382468 -0.01304725270 -0.00178089719 0.03772593348 -0.01302180438 -0.00172512201 0.03742220887 -0.01298625983 -0.00167165838 0.03714831844 -0.01294071538 -0.00226895013 0.04023968497 -0.01333368495 -0.00221213054 0.03989235924 -0.01337321555 -0.00215329149 0.03953576154 -0.01340147633 -0.00209299310 0.03917542114 -0.01341859184 -0.00203179552 0.03881686731 -0.01342468662 -0.00197025889 0.03846562931 -0.01341988518 -0.00190894337 0.03812723642 -0.01340431208 -0.00184840908 0.03780721789 -0.01337809183 -0.00178921617 0.03751110299 -0.01334134899 -0.00173192478 0.03724442100 -0.01329420808 -0.00151744104 0.03998264177 -0.00965675368 -0.00149094854 0.03955374462 -0.00970332990 -0.00145801649 0.03911437427 -0.00973662988 -0.00142027285 0.03867231976 -0.00975659715 -0.00137934556 0.03823537011 -0.00976317523 -0.00133686257 0.03781131435 -0.00975630764 -0.00129445185 0.03740794150 -0.00973593791 -0.00125374135 0.03703304060 -0.00970200956 -0.00121635901 0.03669440066 -0.00965446610 -0.00118393280 0.03639981072 -0.00959325107 -0.00159702105 0.03995247970 -0.01015479832 -0.00156892673 0.03953188281 -0.01020378419 -0.00153381401 0.03910143092 -0.01023871477 -0.00149350147 0.03866873719 -0.01025965801 -0.00144980767 0.03824141479 -0.01026668187 -0.00140455120 0.03782707689 -0.01025985432 -0.00135955064 0.03743333666 -0.01023924331 -0.00131662456 0.03706780727 -0.01020491680 -0.00127759154 0.03673810189 -0.01015694276 -0.00124427014 0.03645183368 -0.01009538914 -0.00167697070 0.03992894532 -0.01063805833 -0.00164695909 0.03951660114 -0.01068933187 -0.00160963079 0.03909472255 -0.01072589943 -0.00156691444 0.03867083976 -0.01074790329 -0.00152073868 0.03825248301 -0.01075548571 -0.00147303217 0.03784718250 -0.01074878896 -0.00142572353 0.03746246845 -0.01072795531 -0.00138074143 0.03710587109 -0.01069312702 -0.00134001450 0.03678492062 -0.01064444637 -0.00130547138 0.03650714726 -0.01058205562 -0.00175742163 0.03991227039 -0.01110606665 -0.00172519468 0.03950807038 -0.01115958505 -0.00168559871 0.03909443328 -0.01119783383 -0.00164060157 0.03867887714 -0.01122099024 -0.00159217110 0.03826891999 -0.01122923148 -0.00154227514 0.03787207986 -0.01122273480 -0.00149288154 0.03749587480 -0.01120167741 -0.00144595813 0.03714782282 -0.01116623653 -0.00140347277 0.03683544198 -0.01111658940 -0.00136739329 0.03656625029 -0.01105291324 -0.00183850549 0.03990268669 -0.01155835627 -0.00180378255 0.03950646132 -0.01161415587 -0.00176184966 0.03910074725 -0.01165416794 -0.00171465266 0.03869309897 -0.01167857609 -0.00166413742 0.03829107095 -0.01168756392 -0.00161224980 0.03790221767 -0.01168131505 -0.00156093566 0.03753409362 -0.01166001309 -0.00151214085 0.03719425327 -0.01162384164 -0.00146781123 0.03689025110 -0.01157298432 -0.00142989267 0.03662964160 -0.01150762473 -0.00192035390 0.03990042597 -0.01199446015 -0.00188287176 0.03951194475 -0.01205265647 -0.00183851550 0.03911384858 -0.01209455172 -0.00178915751 0.03871375490 -0.01212031808 -0.00173667017 0.03831928110 -0.01213012776 -0.00168292584 0.03793804461 -0.01212415295 -0.00162979691 0.03757766285 -0.01210256585 -0.00157915576 0.03724575322 -0.01206553867 -0.00153287476 0.03694993313 -0.01201324358 -0.00149282628 0.03669782002 -0.01194585281 -0.00200309852 0.03990572000 -0.01241391124 -0.00196261135 0.03952469144 -0.01247469899 -0.00191572812 0.03913392141 -0.01251863514 -0.00186420592 0.03874109458 -0.01254587347 -0.00180980183 0.03835389568 -0.01255656774 -0.00175427293 0.03798000939 -0.01255087172 -0.00169937631 0.03762712041 -0.01252893919 -0.00164686904 0.03730291345 -0.01249092391 -0.00159850822 0.03701507320 -0.01243697966 -0.00155605093 0.03677128437 -0.01236726022 -0.00208687099 0.03991880054 -0.01281624251 -0.00204315040 0.03954487220 -0.01287989556 -0.00199361941 0.03916114985 -0.01292606818 -0.00193988770 0.03877536768 -0.01295489948 -0.00188356493 0.03839525989 -0.01296652858 -0.00182626075 0.03802856068 -0.01296109458 -0.00176958485 0.03768300424 -0.01293873658 -0.00171514687 0.03736632476 -0.01289959369 -0.00166455649 0.03708625644 -0.01284380502 -0.00161942338 0.03685053348 -0.01277150967 -0.00217180294 0.03993989935 -0.01320098693 -0.00212463794 0.03957265779 -0.01326785830 -0.00207232124 0.03919571803 -0.01331650079 -0.00201629264 0.03881682384 -0.01334705337 -0.00195799196 0.03844371897 -0.01335965503 -0.00189885899 0.03808414719 -0.01335444476 -0.00184033354 0.03774585226 -0.01333156152 -0.00178385543 0.03743657794 -0.01329114431 -0.00173086445 0.03716406799 -0.01323333211 -0.00168280042 0.03693606617 -0.01315826391 -0.00225802602 0.03996924820 -0.01356767746 -0.00220722304 0.03960821901 -0.01363819937 -0.00215196549 0.03923781009 -0.01368958295 -0.00209351055 0.03886571271 -0.01372199238 -0.00203311543 0.03849961813 -0.01373559183 -0.00197203732 0.03814721760 -0.01373054548 -0.00191153340 0.03781620239 -0.01370701751 -0.00185286089 0.03751426376 -0.01366517209 -0.00179727697 0.03724909298 -0.01360517342 -0.00174603883 0.03702838129 -0.01352718565 -0.00153021206 0.03964237786 -0.00979181670 -0.00150768215 0.03922339396 -0.00987240004 -0.00147485647 0.03879151105 -0.00993102914 -0.00143447569 0.03835762470 -0.00996778026 -0.00138928045 0.03793263049 -0.00998272967 -0.00134201142 0.03752742400 -0.00997595361 -0.00129540925 0.03715290080 -0.00994752836 -0.00125221459 0.03681995648 -0.00989753015 -0.00121516810 0.03653948661 -0.00982603526 -0.00118701044 0.03632238678 -0.00973311994 -0.00160828270 0.03961698652 -0.01029732562 -0.00158399335 0.03920469780 -0.01038153733 -0.00154908111 0.03878068982 -0.01044280136 -0.00150640727 0.03835550005 -0.01048126991 -0.00145883315 0.03793966595 -0.01049709515 -0.00140922003 0.03754372500 -0.01049042927 -0.00136042922 0.03717821466 -0.01046142445 -0.00131532202 0.03685367240 -0.01041023286 -0.00127675973 0.03658063569 -0.01033700670 -0.00124760366 0.03636964200 -0.01024189814 -0.00168608021 0.03959802553 -0.01078828534 -0.00165994276 0.03919223633 -0.01087575434 -0.00162306057 0.03877558400 -0.01093943952 -0.00157835469 0.03835836123 -0.01097953532 -0.00152874615 0.03795086071 -0.01099623616 -0.00147715600 0.03756337513 -0.01098973646 -0.00142650527 0.03720619717 -0.01096023065 -0.00137971500 0.03688961953 -0.01090791316 -0.00133970624 0.03662393489 -0.01083297842 -0.00130940003 0.03641943595 -0.01073562084 -0.00176382835 0.03958571095 -0.01126431605 -0.00173573379 0.03918623600 -0.01135479992 -0.00169695888 0.03877648259 -0.01142077362 -0.00165042950 0.03836659399 -0.01146244787 -0.00159907154 0.03796671344 -0.01148003339 -0.00154581090 0.03758698418 -0.01147374090 -0.00149357346 0.03723754948 -0.01144378110 -0.00144528511 0.03692855257 -0.01139036472 -0.00140387175 0.03667013671 -0.01131370247 -0.00137225926 0.03647244514 -0.01121400507 -0.00184175083 0.03958025885 -0.01172503795 -0.00181156986 0.03918692323 -0.01181842292 -0.00177094005 0.03878367458 -0.01188663367 -0.00172274327 0.03838058405 -0.01192987896 -0.00166986141 0.03798772280 -0.01194836758 -0.00161517631 0.03761516198 -0.01194230831 -0.00156156986 0.03727297274 -0.01191190992 -0.00151192393 0.03697122624 -0.01185738120 -0.00146912038 0.03671999362 -0.01177893091 -0.00143604108 0.03652934605 -0.01167676785 -0.00192007141 0.03958188531 -0.01217007123 -0.00188765438 0.03919452448 -0.01226637221 -0.00184516810 0.03879744896 -0.01233684967 -0.00179540759 0.03840071716 -0.01238169996 -0.00174116782 0.03801438747 -0.01240111943 -0.00168524381 0.03764851832 -0.01239530440 -0.00163043055 0.03731316811 -0.01236445123 -0.00157952303 0.03701839524 -0.01230875625 -0.00153531625 0.03677425813 -0.01222841580 -0.00150060521 0.03659081518 -0.01212362623 -0.00199901382 0.03959080640 -0.01259903609 -0.00196419076 0.03920926619 -0.01269839662 -0.00191980706 0.03881809472 -0.01277125164 -0.00186853400 0.03842737903 -0.01281778228 -0.00181304288 0.03804720612 -0.01283816966 -0.00175600497 0.03768766302 -0.01283259491 -0.00170009158 0.03735883674 -0.01280123916 -0.00164797399 0.03707081431 -0.01274428354 -0.00160232349 0.03683368273 -0.01266190919 -0.00156581136 0.03665752904 -0.01255429722 -0.00207880178 0.03960723818 -0.01301155272 -0.00204138243 0.03923137478 -0.01311424503 -0.00199502094 0.03884590086 -0.01318966959 -0.00194223409 0.03846095541 -0.01323799729 -0.00188553865 0.03808667742 -0.01325939898 -0.00182745137 0.03773320588 -0.01325404553 -0.00177048903 0.03741067979 -0.01322210783 -0.00171716839 0.03712923813 -0.01316375673 -0.00167000620 0.03689901991 -0.01307916312 -0.00163151925 0.03673016411 -0.01296849786 -0.00215965905 0.03963139673 -0.01340724132 -0.00211943279 0.03926107671 -0.01351366628 -0.00207097377 0.03888115636 -0.01359193353 -0.00201661943 0.03850183202 -0.01364221638 -0.00195870722 0.03813330002 -0.01366468810 -0.00189957458 0.03778575670 -0.01365952200 -0.00184155896 0.03746939840 -0.01362689137 -0.00178699780 0.03719442143 -0.01356696949 -0.00173822853 0.03697102215 -0.01347992966 -0.00169758861 0.03680939689 -0.01336594517 -0.00224180936 0.03966349812 -0.01378572208 -0.00219854526 0.03929859841 -0.01389640922 -0.00214782956 0.03892415022 -0.01397787346 -0.00209180158 0.03855039461 -0.01403031094 -0.00203260068 0.03818757262 -0.01405391775 -0.00197236618 0.03784592531 -0.01404889003 -0.00191323744 0.03753569373 -0.01401542390 -0.00185735380 0.03726711893 -0.01395371546 -0.00180685458 0.03705044196 -0.01386396085 -0.00176387915 0.03689590388 -0.01374635618 -0.00152895170 0.03926809638 -0.00993540521 -0.00151475667 0.03887314909 -0.01006226135 -0.00148401699 0.03845954518 -0.01015528422 -0.00144135619 0.03804278302 -0.01021477705 -0.00139139781 0.03763836096 -0.01024104310 -0.00133876538 0.03726177737 -0.01023438561 -0.00128808243 0.03692853061 -0.01019510784 -0.00124397249 0.03665411905 -0.01012351302 -0.00121105910 0.03645404104 -0.01001990441 -0.00119396579 0.03634379496 -0.00988458526 -0.00160654330 0.03924583156 -0.01044748772 -0.00158927783 0.03885641253 -0.01058053383 -0.00155629940 0.03845012032 -0.01067824970 -0.00151201676 0.03804188298 -0.01074094378 -0.00146083866 0.03764662854 -0.01076892450 -0.00140717386 0.03727928505 -0.01076250030 -0.00135543110 0.03695478056 -0.01072197962 -0.00131001913 0.03668804310 -0.01064767089 -0.00127534670 0.03649400071 -0.01053988254 -0.00125582257 0.03638758144 -0.01039892302 -0.00168325881 0.03923016117 -0.01094439434 -0.00166330941 0.03884544679 -0.01108262007 -0.00162838749 0.03844558153 -0.01118430068 -0.00158270761 0.03804498033 -0.01124973463 -0.00153048431 0.03765805819 -0.01127922036 -0.00147593217 0.03729923007 -0.01127305632 -0.00142326572 0.03698291094 -0.01123154095 -0.00137669954 0.03672351578 -0.01115497272 -0.00134044818 0.03653545956 -0.01104365006 -0.00131872619 0.03643315724 -0.01089787142 -0.00175938872 0.03922130618 -0.01142594334 -0.00173706057 0.03884065450 -0.01156855272 -0.00170042877 0.03844646193 -0.01167361999 -0.00165353061 0.03805269619 -0.01174142334 -0.00160040340 0.03767332502 -0.01177224095 -0.00154508442 0.03732231615 -0.01176635101 -0.00149161098 0.03701363731 -0.01172403170 -0.00144402037 0.03676125624 -0.01164556122 -0.00140634989 0.03657914066 -0.01153121774 -0.00138263683 0.03648125831 -0.01138127946 -0.00183522350 0.03921948758 -0.01189195298 -0.00181074045 0.03884243825 -0.01203836442 -0.00177257074 0.03845329463 -0.01214639046 -0.00172458767 0.03806565162 -0.01221628365 -0.00167066457 0.03769310412 -0.01224829656 -0.00161467475 0.03734924701 -0.01224268172 -0.00156049153 0.03704767521 -0.01219969171 -0.00151198824 0.03680198361 -0.01211957908 -0.00147303818 0.03662576710 -0.01200259638 -0.00144751467 0.03653262058 -0.01184899617 -0.00191105366 0.03922492633 -0.01234224154 -0.00188455823 0.03885120065 -0.01249208783 -0.00184496091 0.03846661277 -0.01260279494 -0.00179598067 0.03808446774 -0.01267458933 -0.00174133647 0.03771807060 -0.01270769747 -0.00168474727 0.03738072641 -0.01270234581 -0.00162993205 0.03708574020 -0.01265876084 -0.00158060977 0.03684641703 -0.01257716899 -0.00154049939 0.03667606195 -0.01245779675 -0.00151331989 0.03658797999 -0.01230087057 -0.00198716968 0.03923784341 -0.01277662729 -0.00195872305 0.03886734430 -0.01292975558 -0.00191774680 0.03848694946 -0.01304301625 -0.00186781150 0.03810976563 -0.01311661410 -0.00181248774 0.03774889958 -0.01315075396 -0.00175534612 0.03741745806 -0.01314564063 -0.00169995721 0.03712854783 -0.01310147893 -0.00164989160 0.03689527565 -0.01301847366 -0.00160871988 0.03673074828 -0.01289682965 -0.00158001264 0.03664807248 -0.01273675169 -0.00206386204 0.03925845978 -0.01319492851 -0.00203344408 0.03889127181 -0.01335140033 -0.00199107590 0.03851483781 -0.01346723723 -0.00194018205 0.03814216638 -0.01354263173 -0.00188418704 0.03778626615 -0.01357777632 -0.00182651540 0.03746014570 -0.01357286353 -0.00177059166 0.03717681365 -0.01352808584 -0.00171984035 0.03694927861 -0.01344363578 -0.00167768600 0.03679054918 -0.01331970585 -0.00164755312 0.03671363397 -0.01315648855 -0.00214142124 0.03928699643 -0.01359696346 -0.00210893046 0.03892338578 -0.01375705471 -0.00206509574 0.03855081094 -0.01387564072 -0.00201319420 0.03818229110 -0.01395291595 -0.00195650300 0.03783084541 -0.01398907484 -0.00189829925 0.03750949306 -0.01398431185 -0.00184186009 0.03723125321 -0.01393882143 -0.00179046265 0.03700914504 -0.01385279805 -0.00174738408 0.03685618772 -0.01372643614 -0.00171590150 0.03678540041 -0.01355993018 -0.00222013776 0.03932367432 -0.01398255041 -0.00218539136 0.03896408881 -0.01414675138 -0.00213995381 0.03859540198 -0.01426840956 -0.00208694986 0.03823076086 -0.01434774051 -0.00202950427 0.03788331248 -0.01438495978 -0.00197074178 0.03756620388 -0.01438028295 -0.00191378715 0.03729258207 -0.01433392555 -0.00186176514 0.03707559409 -0.01424610315 -0.00181780048 0.03692838697 -0.01411703131 -0.00178501794 0.03686410773 -0.01394692558 </DataArray>
</PointData>
<Points>
<DataArray type="Float32" NumberOfComponents="3">
-0.45724420405 0.76596965029 -0.80049040876 -0.42661838907 0.76587161795 -0.80837101445 -0.40365762599 0.76573362737 -0.81747878589 -0.38835799823 0.76555627670 -0.82746143790 -0.38071558923 0.76534016409 -0.83796668525 -0.38072648239 0.76508588767 -0.84864224276 -0.38838676114 0.76479404561 -0.85913582520 -0.40369250889 0.76446523604 -0.86909514738 -0.42663980908 0.76410005711 -0.87816792409 -0.45722474511 0.76369910697 -0.88600187013 -0.45293398875 0.78182069668 -0.80087016936 -0.42233018601 0.78172823911 -0.80872193563 -0.39938011908 0.78160274564 -0.81780855432 -0.38408171622 0.78144277765 -0.82777762737 -0.37643290569 0.78124689654 -0.83827675673 -0.37643161574 0.78101366370 -0.84895354432 -0.38407577462 0.78074164052 -0.85945559208 -0.39936331059 0.78042938840 -0.86943050195 -0.42229215190 0.78007546872 -0.87852587587 -0.45286022682 0.77967844289 -0.88638931576 -0.44707265593 0.79769140227 -0.80122596868 -0.41643357626 0.79760630267 -0.80904947299 -0.39345160492 0.79749189270 -0.81811516004 -0.37812633088 0.79734561864 -0.82807058116 -0.37045734313 0.79716492679 -0.83856328766 -0.37044423063 0.79694726342 -0.84924083088 -0.37808658237 0.79669007484 -0.85975076212 -0.39338398733 0.79639080732 -0.86974063273 -0.41633603448 0.79604690716 -0.87885799401 -0.44694231279 0.79565582065 -0.88675039729 -0.43974329380 0.81358017790 -0.80155938058 -0.40902503476 0.81350375936 -0.80935558948 -0.38597866759 0.81339909405 -0.81840089654 -0.37060524347 0.81326328034 -0.82834285307 -0.36290581354 0.81309341658 -0.83882901037 -0.36288142898 0.81288660114 -0.84950691973 -0.37053314093 0.81263993239 -0.86002413247 -0.38586200055 0.81235050869 -0.87002819987 -0.40886905902 0.81201542841 -0.87916667324 -0.43955536747 0.81163178990 -0.88708710389 -0.43102899058 0.82948543440 -0.80187197894 -0.40020103645 0.82941855991 -0.80964224803 -0.37706789122 0.82932237520 -0.81866805728 -0.36163185526 0.82919424340 -0.82859699692 -0.35389522895 0.82903152768 -0.83907665714 -0.35386031267 0.82883159117 -0.84975462818 -0.36152940679 0.82859179703 -0.86027850025 -0.37690481169 0.82830950839 -0.87029586355 -0.39998882774 0.82798208842 -0.87945430831 -0.43078375532 0.82760690025 -0.88740142474 -0.42101283446 0.84540558262 -0.80216533761 -0.39005805628 0.84534865506 -0.80991141158 -0.36682585990 0.84525976163 -0.81891893575 -0.35131956753 0.84513698851 -0.82883556652 -0.34354250136 0.84497842185 -0.83930896031 -0.34349798362 0.84478214782 -0.84998677353 -0.35118933648 0.84454625259 -0.86051666260 -0.36661988217 0.84426882232 -0.87054628393 -0.38979294287 0.84394794318 -0.87972329394 -0.42071184079 0.84358170133 -0.88769534903 -0.40977791366 0.86133903339 -0.80244103047 -0.37869256918 0.86129199553 -0.81016504309 -0.35535915773 0.86120927886 -0.81915582541 -0.33978178153 0.86108999631 -0.82906111569 -0.33196454279 0.86093326084 -0.83952865216 -0.33191154371 0.86073818540 -0.85020617308 -0.33962688652 0.86050388292 -0.86074141667 -0.35511467342 0.86022946635 -0.87078212118 -0.37837900662 0.85991404865 -0.87997602485 -0.40942398833 0.85955674275 -0.88797086593 -0.39740731637 0.87728419755 -0.80270063139 -0.36620105009 0.87724653207 -0.81040510547 -0.34277436883 0.87716895238 -0.81938101974 -0.32713189855 0.87705174749 -0.82927619825 -0.31927826523 0.87689520643 -0.83973846502 -0.31921809486 0.87669961821 -0.85041564412 -0.32695601342 0.87646527186 -0.86095555959 -0.34249664687 0.87619245639 -0.87100603546 -0.36584462121 0.87588146081 -0.88021489580 -0.39700456240 0.87553257416 -0.88822996463 -0.38398413081 0.89323948595 -0.80294571422 -0.35267997397 0.89321021541 -0.81063356169 -0.32917807729 0.89313680769 -0.81959681222 -0.31348331984 0.89302072271 -0.82948336800 -0.30560058071 0.89286342037 -0.83994113119 -0.30553473897 0.89266636058 -0.85061800397 -0.31329067370 0.89243100325 -0.86116188850 -0.32887326396 0.89215880830 -0.87122068695 -0.35228738885 0.89185123563 -0.88044230149 -0.38353792743 0.89150974515 -0.88847463430 -0.36959144519 0.90920330941 -0.80317785285 -0.33822581574 0.90918099628 -0.81085237467 -0.31467686722 0.90911087030 -0.81980549632 -0.29894944669 0.90899540263 -0.82968517877 -0.29104840123 0.90883706441 -0.84013938298 -0.29097857793 0.90863832680 -0.85081606991 -0.29874482387 0.90840166094 -0.86136320053 -0.31435198612 0.90812953798 -0.87142873580 -0.33780491177 0.90782442908 -0.88066063668 -0.36910844790 0.90748880537 -0.88870686413 -0.49524434225 0.76601962502 -0.79414507322 -0.47377387797 0.76583104121 -0.80391319566 -0.45767319598 0.76560778779 -0.81454473865 -0.44694054136 0.76535220901 -0.82579183126 -0.44157415919 0.76506664913 -0.83740660254 -0.44157229455 0.76475345238 -0.84914118156 -0.44693319250 0.76441496301 -0.86074769737 -0.45765509812 0.76405352529 -0.87197827905 -0.47373625649 0.76367148346 -0.88258505566 -0.49517491268 0.76327118177 -0.89232015626 -0.49090492621 0.78186817075 -0.79455223123 -0.46944673769 0.78168923276 -0.80430343901 -0.45335222143 0.78147979561 -0.81492254328 -0.44262038982 0.78124096021 -0.82616165217 -0.43725025531 0.78097382743 -0.83777287380 -0.43724083031 0.78067949818 -0.84950831631 -0.44259112723 0.78035907335 -0.86112008784 -0.45330015851 0.78001365384 -0.87236029653 -0.46936693657 0.77964434054 -0.88298105049 -0.49079047382 0.77925223436 -0.89273445787 -0.48508505209 0.79773311914 -0.79493616127 -0.46359919971 0.79756407768 -0.80467022046 -0.44748085921 0.79736718502 -0.81527664242 -0.43672977887 0.79714273837 -0.82650752202 -0.43134570698 0.79689103491 -0.83811495409 -0.43132839184 0.79661237184 -0.84985103350 -0.43667758171 0.79630704637 -0.86146785510 -0.44739302490 0.79597535569 -0.87271751373 -0.46347446969 0.79561759700 -0.88335210426 -0.48492166436 0.79523406749 -0.89312372153 -0.47785132159 0.81361356248 -0.79529789925 -0.45630724779 0.81345447919 -0.80501488021 -0.44014219820 0.81326889168 -0.81560861149 -0.42935660999 0.81305666952 -0.82683118274 -0.42395092033 0.81281768233 -0.83843468360 -0.42392556636 0.81255179969 -0.85017120373 -0.42928098527 0.81225889120 -0.86179283276 -0.44001761419 0.81193882646 -0.87305166035 -0.45613589031 0.81159147506 -0.88369977615 -0.47763625077 0.81121670660 -0.89348926980 -0.46927033641 0.82950859303 -0.79563848106 -0.44764686571 0.82935934051 -0.80533875849 -0.43141932730 0.82918385123 -0.81592002591 -0.42058878470 0.82898187971 -0.82713437627 -0.41515630145 0.82875318047 -0.83873390252 -0.41512294111 0.82849750805 -0.85047069760 -0.42048976720 0.82821461698 -0.86209685447 -0.43125784327 0.82790426177 -0.87336446607 -0.44742823286 0.82756619697 -0.88402562535 -0.46900199951 0.82720017709 -0.89383242526 -0.45940869823 0.84541730308 -0.79595894262 -0.43769403726 0.84527756487 -0.80564319551 -0.42139533537 0.84511099934 -0.81621246109 -0.41051420447 0.84491749494 -0.82741884453 -0.40505225647 0.84469694010 -0.83901445101 -0.40501110329 0.84444922324 -0.85075138573 -0.41039235685 0.84417423281 -0.86238175385 -0.42119762904 0.84387185724 -0.87365766056 -0.43742853180 0.84354198496 -0.88433121105 -0.45908667703 0.84318450440 -0.89415451048 -0.44833300875 0.86133878490 -0.79626031983 -0.42652474621 0.86120805547 -0.80592953150 -0.41015331130 0.86104927167 -0.81648749245 -0.39922077080 0.86086264126 -0.82768632945 -0.39372919149 0.86064837198 -0.83927816928 -0.39368064013 0.86040667159 -0.85101513872 -0.39907718351 0.86013774784 -0.86264936453 -0.40992088840 0.85984180848 -0.87393297351 -0.42621382157 0.85951906126 -0.88461809243 -0.44795804979 0.85916971394 -0.89445684805 -0.43610986966 0.87727213077 -0.79654364858 -0.41421497633 0.87714971554 -0.80619910666 -0.39777634398 0.87699760387 -0.81674669540 -0.38679638520 0.87681644468 -0.82793857296 -0.38127751262 0.87660688689 -0.83952689749 -0.38122213885 0.87636957942 -0.85126382717 -0.38663267652 0.87610517118 -0.86290152016 -0.39751153823 0.87581431111 -0.87419213460 -0.41386113661 0.87549764812 -0.88488782867 -0.43568388426 0.87515583114 -0.89474076053 -0.42280588265 0.89321643297 -0.79680996478 -0.40084071142 0.89310144831 -0.80645326121 -0.38434752228 0.89295493160 -0.81699164536 -0.37332894915 0.89277803124 -0.82817731698 -0.36778762597 0.89257189559 -0.83976247584 -0.36772618668 0.89233767304 -0.85149932171 -0.37314726519 0.89207651197 -0.86314005435 -0.38405349544 0.89178956075 -0.87443687351 -0.40044751137 0.89147796777 -0.88514197898 -0.42233194691 0.89114288141 -0.89500757051 -0.40848764942 0.90917078377 -0.79706030433 -0.38647793524 0.90906215698 -0.80669333538 -0.36994993509 0.90892019052 -0.81722391775 -0.35890636415 0.90874652696 -0.82840430345 -0.35334993766 0.90854280886 -0.83998674451 -0.35328337082 0.90831067880 -0.85172349293 -0.35870937884 0.90805177933 -0.86336680073 -0.36963067693 0.90776775302 -0.87466891993 -0.38604998030 0.90746024245 -0.88538210253 -0.40797000418 0.90713089017 -0.89525860056 -0.53919923937 0.76599755326 -0.78941344321 -0.52511767055 0.76573294166 -0.80059650573 -0.51455409453 0.76543951929 -0.81237041118 -0.50750807816 0.76512059445 -0.82456556181 -0.50397918830 0.76477947543 -0.83701235987 -0.50396699180 0.76441947052 -0.84954120763 -0.50747105553 0.76404388801 -0.86198250734 -0.51449094634 0.76365603620 -0.87416666126 -0.52502623108 0.76325922336 -0.88592407163 -0.53907647662 0.76285675779 -0.89708514073 -0.53482770512 0.78184664935 -0.78984368335 -0.52075162737 0.78159400694 -0.80101807231 -0.51019079649 0.78131476912 -0.81278553535 -0.50314492016 0.78101157278 -0.82497652726 -0.49961370606 0.78068705481 -0.83742150287 -0.49959686189 0.78034385210 -0.84995091699 -0.50309409531 0.77998460154 -0.86239522443 -0.51010511402 0.77961194003 -0.87458488000 -0.52062962569 0.77922850445 -0.88635033852 -0.53466733802 0.77883693170 -0.89752205480 -0.52905675361 0.79770938529 -0.79025195097 -0.51496006929 0.79746813629 -0.80141705423 -0.50438218868 0.79720201758 -0.81317764843 -0.49732300183 0.79691313530 -0.82536421021 -0.49378239875 0.79660359558 -0.83780721621 -0.49376026947 0.79627550457 -0.85033714307 -0.49725650402 0.79593096841 -0.86278446744 -0.50427099242 0.79557209322 -0.87497966596 -0.51480362471 0.79520098515 -0.88675321526 -0.52885429091 0.79481975034 -0.89793559200 -0.52193395771 0.81358534505 -0.79063881717 -0.50779672791 0.81335487081 -0.80179424853 -0.49718667833 0.81310080471 -0.81354770272 -0.49010391014 0.81282485162 -0.82572965603 -0.48654852449 0.81252871641 -0.83817058478 -0.48652062255 0.81221410396 -0.85070096524 -0.49002030546 0.81188271912 -0.86315127373 -0.49704767438 0.81153626679 -0.87535198653 -0.50760283047 0.81117645182 -0.88713357994 -0.52168587489 0.81080497908 -0.89832653027 -0.51350689031 0.82947411262 -0.79100485306 -0.49931533483 0.82925375162 -0.80215045226 -0.48866267264 0.82901067055 -0.81389665051 -0.48154923207 0.82874629134 -0.82607391013 -0.47797534145 0.82846203593 -0.83851269347 -0.47794132913 0.82815932625 -0.85104346285 -0.48144752344 0.82783958421 -0.86349668062 -0.48849425272 0.82750423175 -0.87570280910 -0.49908184531 0.82715469079 -0.88749231063 -0.51321062955 0.82679238327 -0.89869564754 -0.50382312427 0.84537527200 -0.79135062973 -0.48956962168 0.84516431984 -0.80248646248 -0.47886857884 0.84493115515 -0.81422544409 -0.47172055459 0.84467702409 -0.82639801789 -0.46812610777 0.84440317281 -0.83883462718 -0.46808579722 0.84411084746 -0.85136571527 -0.47160018178 0.84380129418 -0.86382172546 -0.47866982029 0.84347575912 -0.87603310106 -0.48929527159 0.84313548843 -0.88783028538 -0.50347709451 0.84278172826 -0.89904372173 -0.49293023247 0.86128840717 -0.79167671829 -0.47861332005 0.86108611658 -0.80280307622 -0.46786280414 0.86086179855 -0.81453503577 -0.46067946468 0.86061661946 -0.82670302470 -0.45706408160 0.86035174568 -0.83913747080 -0.45701743482 0.86006834359 -0.85166880184 -0.46054030428 0.85976757954 -0.86412744558 -0.46763346990 0.85945061992 -0.87634382980 -0.47829771162 0.85911863109 -0.88814838228 -0.49253380937 0.85877277942 -0.89937153078 -0.48087578780 0.87721310212 -0.79198368984 -0.46650016155 0.87701868296 -0.80310109055 -0.45570375576 0.87680214080 -0.81482637783 -0.44848754931 0.87656464707 -0.82698997596 -0.44485252108 0.87630737321 -0.83942230923 -0.44479964994 0.87603149065 -0.85195380192 -0.44832991475 0.87573817082 -0.86441487832 -0.45544429441 0.87542858517 -0.87663596272 -0.46614376777 0.87510390512 -0.88844747939 -0.48042931372 0.87476530211 -0.89967985262 -0.46770736313 0.89314894084 -0.79227211548 -0.45328387778 0.89296156010 -0.80338130250 -0.44244984091 0.89275172193 -0.81510042256 -0.43520639546 0.89252067652 -0.82725991704 -0.43155468436 0.89226967403 -0.83969022735 -0.43149585056 0.89199996464 -0.85222179488 -0.43503103700 0.89171279853 -0.86468506103 -0.44216138662 0.89140942589 -0.87691046720 -0.45288804236 0.89109109687 -0.88872845478 -0.46721214716 0.89075906167 -0.89996946517 -0.45347253133 0.90909550731 -0.79254256631 -0.43901820036 0.90891428911 -0.80364450914 -0.42815946682 0.90871008200 -0.81535812226 -0.42089759010 0.90848427742 -0.82751389335 -0.41723382960 0.90823826680 -0.83994231006 -0.41716944471 0.90797344157 -0.85247386007 -0.42070569485 0.90769119319 -0.86493903104 -0.42784383939 0.90739291309 -0.87716831063 -0.43858513774 0.90707999270 -0.88899218651 -0.45293084931 0.90675382347 -0.90024114636 -0.58740624281 0.76590886772 -0.78629251418 -0.57945193171 0.76558269480 -0.79841952853 -0.57348064735 0.76523358276 -0.81095553281 -0.56949266853 0.76486534733 -0.82378308405 -0.56748827401 0.76448180427 -0.83678473933 -0.56746774257 0.76408676930 -0.84984305572 -0.56943135299 0.76368405817 -0.86284059027 -0.57337938405 0.76327748661 -0.87565990005 -0.57931211452 0.76287087036 -0.88818354212 -0.58722982318 0.76246802516 -0.90029407355 -0.58300073590 0.78176089444 -0.78674201040 -0.57504734863 0.78144757868 -0.79886562671 -0.56907619407 0.78111227302 -0.81139900594 -0.56508741394 0.78075849967 -0.82422481220 -0.56308114993 0.78038978082 -0.83722570962 -0.56305754375 0.78000963869 -0.85028436232 -0.56501673711 0.77962159547 -0.86328343442 -0.56895887169 0.77922917338 -0.87610559005 -0.57488408922 0.77883589461 -0.88863349333 -0.58279253138 0.77844528137 -0.90074980837 -0.57728420169 0.79762427300 -0.78717111393 -0.56931697216 0.79732294872 -0.79929065742 -0.56333462646 0.79700061834 -0.81182100188 -0.55933722430 0.79666049807 -0.82464486359 -0.55732482543 0.79630580414 -0.83764495882 -0.55729748955 0.79593975277 -0.85070400385 -0.55925527641 0.79556556017 -0.86370471495 -0.56319824571 0.79518644258 -0.87652980839 -0.56912645720 0.79480561621 -0.88906200045 -0.57703997060 0.79442629729 -0.90118400741 -0.57028337082 0.81349891941 -0.78758000961 -0.56229102530 0.81320873150 -0.79969496374 -0.55628882406 0.81289852094 -0.81222195587 -0.55227679244 0.81257119696 -0.82504371285 -0.55025495577 0.81222966879 -0.83804296150 -0.55022333939 0.81187684564 -0.85110242869 -0.55218196863 0.81151563673 -0.86410484124 -0.55613086885 0.81114895129 -0.87693292601 -0.56207006537 0.81077969855 -0.88946940984 -0.56999958353 0.81041078771 -0.90159701956 -0.56202497395 0.82938474969 -0.78796888230 -0.55399973105 0.82910485359 -0.80007888877 -0.54797166644 0.82880588307 -0.81260230314 -0.54394081115 0.82849045077 -0.82542183457 -0.54190719622 0.82816116933 -0.83842019220 -0.54187085267 0.82782065139 -0.85148008519 -0.54383181154 0.82747150959 -0.86448422269 -0.54779010383 0.82711635658 -0.87731531385 -0.55374576060 0.82675780498 -0.88985606783 -0.56169881286 0.82639846746 -0.90198919376 -0.55253574174 0.84528167985 -0.78833791683 -0.54447331239 0.84501124157 -0.80044277557 -0.53841603313 0.84472260695 -0.81296247890 -0.53436397327 0.84441811389 -0.82577970336 -0.53231720207 0.84410010031 -0.83877712546 -0.53227578884 0.84377090411 -0.85183742172 -0.53423980286 0.84343286320 -0.86484326868 -0.53820931341 0.84308831550 -0.87767734285 -0.54418438979 0.84273959890 -0.89022232076 -0.55216510128 0.84238905132 -0.90236087892 -0.54184240484 0.86118962591 -0.78868729806 -0.53374199232 0.86092782203 -0.80078696723 -0.52765480369 0.86064859483 -0.81330291840 -0.52358097158 0.86035404077 -0.82611779383 -0.52152062858 0.86004625630 -0.83911423582 -0.52147390730 0.85972733790 -0.85217488665 -0.52344094034 0.85939938202 -0.86518238859 -0.52742186032 0.85906448513 -0.87801938394 -0.53341679982 0.85872474367 -0.89056851496 -0.54142589147 0.85838225413 -0.90271242395 -0.52997169391 0.87710850388 -0.78901721083 -0.52183599383 0.87685452154 -0.80111180685 -0.51572085767 0.87658374894 -0.81362405685 -0.51162649892 0.87629808580 -0.82643658060 -0.50955313103 0.87599943186 -0.83943199784 -0.50950096748 0.87568968685 -0.85249292833 -0.51147022174 0.87537075049 -0.86550199182 -0.51546110729 0.87504452252 -0.87834180805 -0.52147383759 0.87471290267 -0.89089499679 -0.52950862611 0.87437779067 -0.90304417777 -0.51695033960 0.89303822977 -0.78932784000 -0.50878553992 0.89279126668 -0.80141763749 -0.50264707462 0.89252797151 -0.81392632949 -0.49853524809 0.89225010342 -0.82673653826 -0.49645036469 0.89195942154 -0.83973088606 -0.49639272880 0.89165768504 -0.85279199513 -0.49836264480 0.89134665307 -0.86580248774 -0.50236041707 0.89102808476 -0.87864498613 -0.50838634998 0.89070373928 -0.89120211256 -0.51644074791 0.89037537577 -0.90335648929 -0.50280507257 0.90897871961 -0.78961937040 -0.49462085358 0.90873798403 -0.80170480224 -0.48846633409 0.90848116479 -0.81421017155 -0.48434191190 0.90820994803 -0.82701814144 -0.48224798483 0.90792601991 -0.84001137502 -0.48218495068 0.90763106658 -0.85307253542 -0.48415320727 0.90732677419 -0.86608428574 -0.48815315240 0.90701482890 -0.87892928911 -0.49418518388 0.90669691687 -0.89149020864 -0.50224969953 0.90637472423 -0.90364970743 -0.63816269999 0.76575900109 -0.78477928156 -0.63557882630 0.76538567615 -0.79738084795 -0.63363318014 0.76499473909 -0.81029983287 -0.63232637235 0.76459038198 -0.82344485250 -0.63165901378 0.76417679690 -0.83672452300 -0.63163171526 0.76375817589 -0.85004746055 -0.63224508764 0.76333871104 -0.86332228133 -0.63349974176 0.76292259439 -0.87645760150 -0.63539628846 0.76251401803 -0.88936203723 -0.63793533857 0.76211717400 -0.90194420471 -0.63372242898 0.78161566797 -0.78524469705 -0.63113639505 0.78125496501 -0.79784589339 -0.62918876396 0.78087691419 -0.81076443047 -0.62787997786 0.78048562516 -0.82390906651 -0.62721047889 0.78008520759 -0.83718855970 -0.62718070918 0.77967977115 -0.85051166827 -0.62779111088 0.77927342549 -0.86378715041 -0.62904212613 0.77887028027 -0.87692376435 -0.63093419707 0.77847444517 -0.88983026830 -0.63346776584 0.77809002985 -0.90241542045 -0.62806383753 0.79748185460 -0.78569142629 -0.62547069550 0.79713298524 -0.79829171314 -0.62351720564 0.79676721529 -0.81120952661 -0.62220367085 0.79638851532 -0.82435370003 -0.62153039404 0.79600085589 -0.83763306675 -0.62149767812 0.79560820756 -0.85095646009 -0.62210582602 0.79521454088 -0.86423271340 -0.62335514062 0.79482382643 -0.87737066001 -0.62524592485 0.79444003476 -0.89027913325 -0.62777848161 0.79406713642 -0.90286696646 -0.62119172957 0.81335767939 -0.78611935182 -0.61858769017 0.81301985858 -0.79871829517 -0.61662535149 0.81266572819 -0.81163515662 -0.61530490543 0.81229907592 -0.82477879308 -0.61462654387 0.81192368944 -0.83805806140 -0.61459045874 0.81154335644 -0.85138181848 -0.61519684193 0.81116186460 -0.86465892119 -0.61644588534 0.81078300160 -0.87779822642 -0.61833778087 0.81041055513 -0.89070859105 -0.62087272043 0.81004831286 -0.90329887195 -0.61311090902 0.82924326075 -0.78652835616 -0.61049334158 0.82891570681 -0.79912562743 -0.60852004785 0.82857253871 -0.81204135586 -0.60719113572 0.82821733042 -0.82518438562 -0.60650671304 0.82785365590 -0.83846356090 -0.60646688768 0.82748508910 -0.85178772586 -0.60707176751 0.82711520399 -0.86506572468 -0.60832146040 0.82674757452 -0.87820640155 -0.61021607422 0.82638577465 -0.89111860064 -0.61275571683 0.82603337834 -0.90371116612 -0.60382617980 0.84513871708 -0.78691832182 -0.60119361222 0.84482065169 -0.79951369789 -0.59920814104 0.84448773266 -0.81242815965 -0.59786981584 0.84414330230 -0.82557051767 -0.59717868616 0.84379070293 -0.83884958249 -0.59713480158 0.84343327687 -0.85217416467 -0.59773821164 0.84307436643 -0.86545307478 -0.59898896592 0.84271731392 -0.87859512336 -0.60088711397 0.84236546167 -0.89150912098 -0.60343270535 0.84202215199 -0.90410387819 -0.59334234585 0.86104416679 -0.78728913134 -0.59069446461 0.86073481500 -0.79988249451 -0.58869647739 0.86041139584 -0.81279560335 -0.58734839991 0.86007701502 -0.82593722920 -0.58665024790 0.85973477819 -0.83921614342 -0.58660203709 0.85938779105 -0.85254111736 -0.58720378322 0.85903915928 -0.86582092237 -0.58845550201 0.85869198855 -0.87896432981 -0.59035720919 0.85834938456 -0.89188011102 -0.59290892050 0.85801445297 -0.90447703737 -0.58166421107 0.87695972829 -0.78764066723 -0.57900186126 0.87665831849 -0.80023200526 -0.57699190321 0.87634361408 -0.81314372230 -0.57563434204 0.87601849203 -0.82628456022 -0.57492918288 0.87568582933 -0.83956326095 -0.57487643087 0.87534850296 -0.85288856636 -0.57547609113 0.87500938991 -0.86616921836 -0.57672816878 0.87467136715 -0.87931395885 -0.57863266897 0.87433731166 -0.89223152972 -0.58118959682 0.87401010044 -0.90483067287 -0.56879657941 0.89288551998 -0.78797281202 -0.56612176469 0.89259128394 -0.80056221810 -0.56410126483 0.89228447317 -0.81347255183 -0.56273509635 0.89196775682 -0.82661255073 -0.56202327575 0.89164380402 -0.83989095232 -0.56196581955 0.89131528392 -0.85321649412 -0.56256274425 0.89098486568 -0.86649791366 -0.56381406636 0.89065521844 -0.87964394845 -0.56571980239 0.89032901134 -0.89256333603 -0.56827996885 0.89000891354 -0.90516481391 -0.55474425477 0.90882166027 -0.78828544823 -0.55206013740 0.90853383312 -0.80087312099 -0.55003140859 0.90823405894 -0.81378212729 -0.54865811696 0.90792483283 -0.82692124070 -0.54794031116 0.90760864990 -0.84019923477 -0.54787803978 0.90728800524 -0.85352488307 -0.54847135147 0.90696539396 -0.86680695915 -0.54972029484 0.90664331117 -0.87995423657 -0.55162491851 0.90632425196 -0.89287548890 -0.55418527111 0.90601071143 -0.90547948970 -0.68976595834 0.76555338609 -0.78487074081 -0.69230051920 0.76514726122 -0.79747904785 -0.69419201858 0.76472774919 -0.81040304071 -0.69544124952 0.76429961272 -0.82355132165 -0.69604900508 0.76386761457 -0.83683249295 -0.69601607831 0.76343651748 -0.85015515687 -0.69534326227 0.76301108418 -0.86342791568 -0.69403135000 0.76259607741 -0.87655937166 -0.69208113457 0.76219625993 -0.88945812707 -0.68949340902 0.76181639446 -0.90203278419 -0.68529119477 0.78141573190 -0.78534922796 -0.68782126022 0.78102118297 -0.79795866353 -0.68970885595 0.78061329949 -0.81088328438 -0.69095471863 0.78019683356 -0.82403184972 -0.69155958491 0.77977653726 -0.83731311879 -0.69152419144 0.77935716270 -0.85063585081 -0.69084927490 0.77894346196 -0.86390880500 -0.68953557193 0.77854018713 -0.87704074059 -0.68758381919 0.77815209031 -0.88994041681 -0.68499475334 0.77778392359 -0.90251659288 -0.67969210233 0.79728620239 -0.78581066421 -0.68222202648 0.79690271606 -0.79842090451 -0.68410895933 0.79650603640 -0.81134604643 -0.68535356600 0.79610087567 -0.82449493739 -0.68595651159 0.79569194615 -0.83777642480 -0.68591846121 0.79528396009 -0.85109935606 -0.68524007997 0.79488162977 -0.86437257859 -0.68392203297 0.79448966743 -0.87750493980 -0.68196498532 0.79411278536 -0.89040528709 -0.67936960212 0.79375569581 -0.90298246788 -0.67295120261 0.81316501880 -0.78625471906 -0.67548427272 0.81279204934 -0.79886551211 -0.67737297671 0.81240611425 -0.81179109063 -0.67861789764 0.81201185882 -0.82494033662 -0.67921961854 0.81161392833 -0.83822213208 -0.67917872247 0.81121696806 -0.85154535902 -0.67849579247 0.81082562330 -0.86481889945 -0.67717141158 0.81044453933 -0.87795163537 -0.67520616285 0.81007836143 -0.89085244878 -0.67260062931 0.80973173489 -0.90343022168 -0.66505101719 0.82905240231 -0.78668106201 -0.66758945366 0.82868937164 -0.79929222768 -0.66948155607 0.82831368740 -0.81221818073 -0.67072781953 0.82792990276 -0.82536779935 -0.67132873916 0.82754257091 -0.83864996175 -0.67128481007 0.82715624502 -0.85197354610 -0.67059652739 0.82677547827 -0.86524743059 -0.66926438621 0.82640482383 -0.87838049341 -0.66728888167 0.82604883488 -0.89128161274 -0.66467050887 0.82571206459 -0.90385966678 -0.65597406762 0.84494857415 -0.78708936260 -0.65851902402 0.84459487180 -0.79970079254 -0.66041534539 0.84422891018 -0.81262708048 -0.66166343767 0.84385512725 -0.82577707756 -0.66226370685 0.84347796100 -0.83905963491 -0.66221655887 0.84310184938 -0.85238360368 -0.66152239971 0.84273123037 -0.86565783500 -0.66018163532 0.84237054194 -0.87879118002 -0.65819467168 0.84202422204 -0.89169248986 -0.65556191474 0.84169670867 -0.90427061567 -0.64570287551 0.86085375552 -0.78747929032 -0.64825443855 0.86050873865 -0.80009094804 -0.65015499265 0.86015193693 -0.81301755365 -0.65140485806 0.85978765205 -0.82616792318 -0.65200435501 0.85942018569 -0.83945087268 -0.65195380372 0.85905383955 -0.85277521817 -0.65125352442 0.85869291531 -0.86604977570 -0.64990383736 0.85834171466 -0.87918336130 -0.64790506276 0.85800453929 -0.89208479100 -0.64525752086 0.85768569089 -0.90466288085 -0.63421996241 0.87676816762 -0.78785051469 -0.63677715195 0.87643116103 -0.80046243551 -0.63868114585 0.87608292201 -0.81338936398 -0.63993218670 0.87572759691 -0.82654008818 -0.64053051705 0.87536933210 -0.83982339616 -0.64047637947 0.87501227393 -0.85314807598 -0.63977001652 0.87466056878 -0.86642291569 -0.63841167079 0.87431836300 -0.87955670336 -0.63640158482 0.87398980296 -0.89245822705 -0.63374000119 0.87367903501 -0.90503627481 -0.62150784991 0.89269203166 -0.78820270522 -0.62406861895 0.89236232778 -0.80081499628 -0.62597445297 0.89202201975 -0.81374227524 -0.62722552957 0.89167508159 -0.82689332451 -0.62782202637 0.89132548732 -0.84017692646 -0.62776412097 0.89097721095 -0.85350186349 -0.62705199099 0.89063422650 -0.86677691797 -0.62568581405 0.89030050798 -0.87991087230 -0.62366576774 0.88998002941 -0.89281250886 -0.62099202968 0.88967676481 -0.90539061004 -0.60754905959 0.90862556886 -0.78853553142 -0.61011029429 0.90830242773 -0.80114837169 -0.61201556199 0.90796938450 -0.81407605118 -0.61326499268 0.90763022586 -0.82722738412 -0.61385871637 0.90728873846 -0.84051118470 -0.61379686309 0.90694870901 -0.85383626710 -0.61307956282 0.90661392416 -0.86711144555 -0.61170694560 0.90628817059 -0.88024553422 -0.60967914141 0.90597523499 -0.89314734732 -0.60699628028 0.90567890403 -0.90572569906 -0.74051336527 0.76529745542 -0.78656388735 -0.74841917530 0.76487282554 -0.79871271213 -0.75433748838 0.76443737395 -0.81126488567 -0.75826935993 0.76399695387 -0.82410294603 -0.76021584537 0.76355741856 -0.83710943126 -0.76017800013 0.76312462123 -0.85016687939 -0.75815687962 0.76270441514 -0.86315782849 -0.75415353928 0.76230265353 -0.87596481659 -0.74816903451 0.76192518962 -0.88847038174 -0.74020442074 0.76157787666 -0.90055706199 -0.73600544370 0.78116584817 -0.78705308782 -0.74390443772 0.78075124957 -0.79920372832 -0.74981681983 0.78032603579 -0.81175704307 -0.75374374294 0.77989600915 -0.82459572137 -0.75568635996 0.77946697197 -0.83760245255 -0.75564582382 0.77904472656 -0.85065992591 -0.75362328741 0.77863507524 -0.86365083077 -0.74961990367 0.77824382034 -0.87645785645 -0.74363682551 0.77787676417 -0.88896369226 -0.73567520584 0.77753970906 -0.90105102751 -0.73046543731 0.79704138869 -0.78752660383 -0.73837175226 0.79663661144 -0.79967891463 -0.74428892065 0.79622130965 -0.81223338517 -0.74821813432 0.79580126777 -0.82507279352 -0.75016058510 0.79538227024 -0.83807991777 -0.75011746485 0.79497010151 -0.85113753600 -0.74808996540 0.79457054604 -0.86412842630 -0.74407927860 0.79418938825 -0.87693536674 -0.73808659628 0.79383241261 -0.88944113540 -0.73011311030 0.79350540355 -0.90152851038 -0.72385395862 0.81292433144 -0.78798398657 -0.73177832312 0.81252910108 -0.80013788388 -0.73770841580 0.81212336693 -0.81269354355 -0.74164541760 0.81171291603 -0.82553378337 -0.74359050950 0.81130353544 -0.83854142116 -0.74354487244 0.81090101222 -0.85159927473 -0.74150968739 0.81051113342 -0.86459016190 -0.73748613531 0.81013968611 -0.87739690046 -0.73147539716 0.80979245734 -0.88990230824 -0.72347865389 0.80947523416 -0.90198920304 -0.71613162013 0.82881493090 -0.78842478725 -0.72408135451 0.82842890846 -0.80058024893 -0.73002993024 0.82803237904 -0.81313714980 -0.73397847635 0.82763114023 -0.82597831182 -0.73592812186 0.82723098962 -0.83898655695 -0.73587999580 0.82683772478 -0.85204470716 -0.73383522720 0.82645714330 -0.86503558439 -0.72979494507 0.82609504277 -0.87784201063 -0.72376027845 0.82575722077 -0.89034680782 -0.71573235637 0.82544947489 -0.90243279793 -0.70725903437 0.84471344152 -0.78884855706 -0.71523805065 0.84433622351 -0.80100562262 -0.72120808897 0.84394851741 -0.81356383553 -0.72517019412 0.84355612670 -0.82640599978 -0.72712541092 0.84316485484 -0.83941491938 -0.72707478415 0.84278050530 -0.85247339833 -0.72501935862 0.84240888156 -0.86546424061 -0.72096017913 0.84205578708 -0.87827025024 -0.71489829048 0.84172702532 -0.89077423121 -0.70683473747 0.84142839977 -0.90285898751 -0.69719681382 0.86062011777 -0.78925484721 -0.70520561573 0.86025123616 -0.80141361779 -0.71119751693 0.85987195343 -0.81397323231 -0.71517345446 0.85948806171 -0.82681646815 -0.71713436537 0.85910535316 -0.83982610268 -0.71708118670 0.85872961991 -0.85288491330 -0.71501485548 0.85836665411 -0.86587567738 -0.71093630875 0.85802224789 -0.87868117230 -0.70484648357 0.85770219341 -0.89118417545 -0.69674631696 0.85741228280 -0.90326746420 -0.68590557102 0.87653521412 -0.78964320888 -0.69394125397 0.87617413637 -0.80180384728 -0.69995283910 0.87580285851 -0.81436497174 -0.70394114092 0.87542713159 -0.82720933782 -0.70590697394 0.87505270664 -0.84021970109 -0.70585115265 0.87468533470 -0.85327881714 -0.70377449157 0.87433076683 -0.86626944152 -0.69967780519 0.87399475406 -0.87907432982 -0.69356190804 0.87368304744 -0.89157623761 -0.68542761460 0.87340139800 -0.90365792046 -0.67334591846 0.89245898504 -0.79001319329 -0.68140216958 0.89210511409 -0.80217592395 -0.68742868046 0.89174140408 -0.81473868541 -0.69142613706 0.89137352263 -0.82758422970 -0.69339522534 0.89100713733 -0.84059530884 -0.69333663123 0.89064791580 -0.85365467489 -0.69125104071 0.89030152564 -0.86664507987 -0.68713913971 0.88997363444 -0.87944927581 -0.68100161420 0.88966990983 -0.89195001474 -0.67283915012 0.88939601940 -0.90403004872 -0.65947846865 0.90839168497 -0.79036435162 -0.66754556676 0.90804435924 -0.80252946063 -0.67357966597 0.90768776154 -0.81509400491 -0.67758132643 0.90732742114 -0.82794076468 -0.67955110827 0.90696886731 -0.84095252018 -0.67948957165 0.90661762931 -0.85401205162 -0.67739727670 0.90627923642 -0.86700213924 -0.67327478356 0.90595921789 -0.87980556326 -0.66712265238 0.90566310299 -0.89230510391 -0.65894144330 0.90539642100 -0.90438354142 -0.78870226820 0.76499664177 -0.78985571664 -0.80273695946 0.76456774462 -0.80108042465 -0.81324991524 0.76412837427 -0.81288509708 -0.82024276347 0.76368631976 -0.82510018014 -0.82371713212 0.76324937011 -0.83755612000 -0.82367464914 0.76282531435 -0.85008336286 -0.82011694248 0.76242194150 -0.86251235492 -0.81304564009 0.76204704060 -0.87467354235 -0.80246236994 0.76170840066 -0.88639737135 -0.78836875996 0.76141381072 -0.89751428811 -0.78416358618 0.78087077874 -0.79035376128 -0.79818842116 0.78045018185 -0.80158087895 -0.80869300541 0.78001972996 -0.81338718197 -0.81567915751 0.77958703623 -0.82560324100 -0.81914869604 0.77915971383 -0.83805962665 -0.81910343957 0.77874537593 -0.85058690954 -0.81554520669 0.77835163570 -0.86301566032 -0.80847581596 0.77798610631 -0.87517644960 -0.79789708596 0.77765640093 -0.88689984801 -0.78381083528 0.77737013272 -0.89801642618 -0.77868028366 0.79675148578 -0.79083702129 -0.79272066002 0.79633914160 -0.80206642662 -0.80323612270 0.79591726301 -0.81387436664 -0.81022860034 0.79549338023 -0.82609148628 -0.81370002158 0.79507502348 -0.83854843049 -0.81365231506 0.79466972297 -0.85107584419 -0.81008740943 0.79428500892 -0.86350437232 -0.80300723334 0.79392841155 -0.87566465982 -0.79241371542 0.79360746108 -0.88738735162 -0.77830878433 0.79332968773 -0.89850309266 -0.77219216624 0.81263901113 -0.79130502962 -0.78626739159 0.81223481112 -0.80253667980 -0.79680838485 0.81182117402 -0.81434630104 -0.80381711386 0.81140561788 -0.82656457323 -0.80729554646 0.81099566073 -0.83902217626 -0.80724565050 0.81059882060 -0.85154979002 -0.80366939382 0.81022261554 -0.86397809442 -0.79656874427 0.80987456356 -0.87613776933 -0.78594566968 0.80956218272 -0.88785949465 -0.77180213790 0.80929299104 -0.89897395027 -0.76463903954 0.82853360301 -0.79175731924 -0.77876233138 0.82813737764 -0.80299125062 -0.78933890957 0.82773166357 -0.81480263514 -0.79637071996 0.82732401529 -0.82702215908 -0.79985970842 0.82692198727 -0.83948050870 -0.79980782080 0.82653313399 -0.85200837028 -0.79621700296 0.82616500994 -0.86443643010 -0.78908920076 0.82582516959 -0.87659537444 -0.77842636006 0.82552116743 -0.88831588957 -0.76423042672 0.82526055793 -0.89942866176 -0.75596070919 0.84443550965 -0.79219342311 -0.77013919493 0.84404702842 -0.80342975123 -0.78075681459 0.84364893226 -0.81524301893 -0.78781544055 0.84324883857 -0.82746390107 -0.79131694517 0.84285436478 -0.83992307254 -0.79126320085 0.84247312829 -0.85245120818 -0.78765607995 0.84211274652 -0.86487898286 -0.78049745485 0.84178083689 -0.87703707146 -0.76978919794 0.84148501681 -0.88875614883 -0.75553318157 0.84123290369 -0.89986688985 -0.74609698081 0.86034497926 -0.79261287420 -0.76033169777 0.85996395070 -0.80385179374 -0.77099121764 0.85957318067 -0.81566710235 -0.77807729751 0.85918035384 -0.82788945646 -0.78159169445 0.85879315494 -0.84034951251 -0.78153616555 0.85841926865 -0.85287792694 -0.77791246789 0.85806637967 -0.86530535620 -0.77072235856 0.85774217271 -0.87746245671 -0.75996759464 0.85745433246 -0.88917988491 -0.74564993321 0.85721054363 -0.90028829725 -0.73498766000 0.87626226007 -0.79301520547 -0.74927355542 0.87588833173 -0.80425699031 -0.75997123645 0.87550460938 -0.81607453538 -0.76708231274 0.87511882721 -0.82829848248 -0.77060839397 0.87473871943 -0.84075947336 -0.77055108980 0.87437202022 -0.85328814980 -0.76691200989 0.87402646377 -0.86571515359 -0.75969276391 0.87370978429 -0.87787112648 -0.74889496152 0.87342971597 -0.88958671027 -0.73452021239 0.87319399301 -0.90069254671 -0.72257255239 0.89218760031 -0.79339994989 -0.73689848342 0.89182035875 -0.80464495306 -0.74762598873 0.89144341899 -0.81646496800 -0.75475650815 0.89106452480 -0.82869063636 -0.75829148147 0.89069141993 -0.84115259981 -0.75823234850 0.89033184815 -0.85368149998 -0.75458054905 0.88999355322 -0.86610797853 -0.74733752292 0.88968427890 -0.87826267711 -0.73650470993 0.88941176895 -0.88997623736 -0.72208354987 0.88918376713 -0.90107930095 -0.70879146361 0.90812124820 -0.79376664043 -0.72314019729 0.90776021901 -0.80501529413 -0.73388459222 0.90738981009 -0.81683805016 -0.74102590562 0.90701771271 -0.82906557537 -0.74456539466 0.90665161813 -0.84152853660 -0.74450431654 0.90629921760 -0.85405760070 -0.74084392846 0.90596820239 -0.86648343452 -0.73358548762 0.90566626376 -0.87863670489 -0.72273025121 0.90540109298 -0.89034807866 -0.70827947642 0.90518038129 -0.90144822269 -0.83263001453 0.76465637786 -0.79474322411 -0.85405603657 0.76423739396 -0.80458076929 -0.87010962485 0.76380551105 -0.81526340429 -0.88079352004 0.76337162470 -0.82654347848 -0.88611046279 0.76294663049 -0.83817334126 -0.88606319376 0.76254142400 -0.84990534202 -0.88065445360 0.76216690080 -0.86149183014 -0.86988698297 0.76183395648 -0.87268515501 -0.85376352252 0.76155348661 -0.88323766601 -0.83228681291 0.76133638678 -0.89290171254 -0.82806403264 0.78053528556 -0.79524873303 -0.84947570410 0.78012299684 -0.80508990658 -0.86551776246 0.77969898886 -0.81577517651 -0.87619306903 0.77927379909 -0.82705696813 -0.88150448510 0.77885796499 -0.83868770675 -0.88145487198 0.77846202404 -0.85041981768 -0.87604709097 0.77809651370 -0.86200572623 -0.86528400337 0.77777197144 -0.87319785771 -0.84916847048 0.77749893473 -0.88374863745 -0.82770335361 0.77728794104 -0.89341049073 -0.82263308258 0.79642056600 -0.79573969275 -0.84406953693 0.79601477680 -0.80558412359 -0.86012959860 0.79559812447 -0.81627181467 -0.87081618862 0.79518090170 -0.82755523354 -0.87613222803 0.79477340118 -0.83918684775 -0.87608063788 0.79438591559 -0.85091912487 -0.87066433920 0.79402873764 -0.86250453244 -0.85988625303 0.79371216000 -0.87369553802 -0.84374930041 0.79344647536 -0.88424460916 -0.82225640239 0.79324197642 -0.89390421343 -0.81625799412 0.81231245169 -0.79621572346 -0.83774902831 0.81191297674 -0.80606316917 -0.85384959995 0.81150322333 -0.81675314876 -0.86456263494 0.81109333473 -0.82803814609 -0.86989105917 0.81069345418 -0.83967064499 -0.86983779852 0.81031372493 -0.85140312930 -0.86440577890 0.80996429022 -0.86298808289 -0.85359792618 0.80965529331 -0.87417798957 -0.83741716627 0.80939687745 -0.88472533322 -0.81586642504 0.80919918588 -0.89438259766 -0.80885959709 0.82821117518 -0.79667644535 -0.83042567149 0.82781783956 -0.80652679217 -0.84658223321 0.82741459091 -0.81721900881 -0.85733216412 0.82701150038 -0.82850557718 -0.86267834610 0.82661863913 -0.84013897917 -0.86262366100 0.82624607830 -0.85187169671 -0.85717099071 0.82590388906 -0.86345621170 -0.84632321709 0.82560214256 -0.87464500605 -0.83008322201 0.82535090995 -0.88519056166 -0.80845388734 0.82516026237 -0.89484536045 -0.80035872127 0.84411696899 -0.79712147864 -0.82201095973 0.84372960816 -0.80697474146 -0.83823196507 0.84333253264 -0.81766922482 -0.84902453230 0.84293580083 -0.82895739818 -0.85439145641 0.84254947115 -0.84059173102 -0.85433553240 0.84218360200 -0.85232469281 -0.84885955526 0.84184825179 -0.86390875301 -0.83796632000 0.84155347892 -0.87509638110 -0.82165862160 0.84130934181 -0.88564004655 -0.79993925507 0.84112589886 -0.89529221882 -0.79067619646 0.86003006566 -0.79755044349 -0.81241638628 0.85964852545 -0.80740676588 -0.82870326223 0.85925735398 -0.81810362679 -0.83953949561 0.85886663829 -0.82939348050 -0.84492775770 0.85848646538 -0.84102878125 -0.84487071980 0.85812692228 -0.85276198331 -0.83937105319 0.85779809600 -0.86434554094 -0.82843142916 0.85751007356 -0.87553190840 -0.81205451900 0.85727294199 -0.88607353993 -0.79024299401 0.85709678830 -0.89572288981 -0.77973285246 0.87595069771 -0.79796296013 -0.80155344440 0.87557483432 -0.80782261428 -0.81790059138 0.87518936039 -0.81852204474 -0.82877681018 0.87480441494 -0.82981369550 -0.83418461756 0.87443013695 -0.84145001057 -0.83412653028 0.87407666541 -0.85318343394 -0.82860506512 0.87375413932 -0.86476640961 -0.81762273883 0.87347269766 -0.87595138159 -0.80118206818 0.87324247944 -0.88649079387 -0.77928556993 0.87307362364 -0.89613709045 -0.76744951908 0.89187909769 -0.79835864872 -0.78933362734 0.89150877767 -0.80822203553 -0.80572841921 0.89112885732 -0.81892430868 -0.81663623214 0.89074953298 -0.83021791459 -0.82205940357 0.89038100099 -0.84185529970 -0.82200027093 0.89003345767 -0.85358891041 -0.81646117167 0.88971709936 -0.86517119315 -0.80544444324 0.88944212240 -0.87635459434 -0.78895242308 0.88921872311 -0.88689156040 -0.76698744863 0.88905709785 -0.89653453776 -0.75374702610 0.90781549812 -0.79873712948 -0.77566842836 0.90745059841 -0.80860477847 -0.79209121242 0.90707615022 -0.81931024861 -0.80301751763 0.90670239461 -0.83060600915 -0.80844948332 0.90633957262 -0.84224452935 -0.80838924882 0.90599792531 -0.85397827844 -0.80283895349 0.90568769373 -0.86555972568 -0.79180073667 0.90541911893 -0.87674134032 -0.77527673768 0.90520244196 -0.88727559160 -0.75326909588 0.90504790388 -0.89691494877 -0.87059395170 0.76428209638 -0.80122340521 -0.90117857148 0.76388714909 -0.80921232994 -0.92409694291 0.76347354518 -0.81839953662 -0.93935368952 0.76305678302 -0.82843329557 -0.94695343484 0.76265236096 -0.83896187712 -0.94690080241 0.76227577737 -0.84963355159 -0.93920041576 0.76194253061 -0.86009658932 -0.92385689842 0.76166811905 -0.86999926062 -0.90087487392 0.76146804104 -0.87898983582 -0.87025896579 0.76135779496 -0.88671658526 -0.86600519351 0.78016413060 -0.80173548772 -0.89656878014 0.77977471157 -0.80973060241 -0.91947144079 0.77936841936 -0.81892250210 -0.93471758420 0.77896018202 -0.82895946230 -0.94231161913 0.77856492758 -0.83948975852 -0.94225795433 0.77819758409 -0.85016166628 -0.93456099854 0.77787307960 -0.86062346110 -0.91922516052 0.77760634214 -0.87052341849 -0.89625484901 0.77741229975 -0.87950981396 -0.86565447277 0.77730588048 -0.88723092302 -0.86062027527 0.79605270163 -0.80223239434 -0.89121917015 0.79566798726 -0.81023268865 -0.91414838145 0.79526812199 -0.81942855308 -0.92941212370 0.79486752080 -0.82946825314 -0.93701461148 0.79448059866 -0.84000005437 -0.93696005933 0.79412177054 -0.85067222230 -0.92925268182 0.79380545141 -0.86113302244 -0.91389669350 0.79354605625 -0.87103072032 -0.89089630892 0.79335800002 -0.88001358147 -0.86025574265 0.79325569771 -0.88772987142 -0.85434361094 0.81194804692 -0.80271394334 -0.88502078348 0.81156739524 -0.81071862130 -0.90800877719 0.81117320267 -0.81991787239 -0.92331162938 0.81077943693 -0.82995994185 -0.93093337734 0.81040006576 -0.84049307497 -0.93087805836 0.81004905689 -0.85116551699 -0.92314970975 0.80974037805 -0.86162551318 -0.90775236879 0.80948799698 -0.87152130882 -0.88469007280 0.80930588140 -0.88050114915 -0.85396685905 0.80920799905 -0.88821327946 -0.84707961445 0.82785040390 -0.80317995298 -0.87786466206 0.82747335458 -0.81118843301 -0.90093364034 0.82708421096 -0.82039064286 -0.91629042260 0.82669656795 -0.83043480217 -0.92393888217 0.82632402044 -0.84096913057 -0.92388289235 0.82598016334 -0.85164184770 -0.91612632647 0.82567859154 -0.86210117319 -0.90067305784 0.82543289993 -0.87199532668 -0.87752695979 0.82525668342 -0.88097252779 -0.84669190562 0.82516353691 -0.88868099617 -0.83873269975 0.84376001001 -0.80363024154 -0.86964184787 0.84338628433 -0.81164215642 -0.89280398321 0.84300169645 -0.82084704734 -0.90822282475 0.84261955142 -0.83089310785 -0.91590209143 0.84225315428 -0.84142853149 -0.91584550224 0.84191581008 -0.85210151179 -0.90805677613 0.84162082388 -0.86256024232 -0.89253963208 0.84138150071 -0.87245291659 -0.86929778903 0.84121114562 -0.88142772816 -0.83833496598 0.84112306367 -0.88913287057 -0.82920728079 0.85967710267 -0.80406462729 -0.86024338286 0.85930660356 -0.81207982417 -0.88350081813 0.85892620872 -0.82128726865 -0.89898315718 0.85854902489 -0.83133513262 -0.90669397059 0.85818815884 -0.84187158798 -0.90663682897 0.85785671732 -0.85254480661 -0.89881530289 0.85756780709 -0.86300296041 -0.88323296293 0.85733453491 -0.87289422126 -0.85989337969 0.85717000754 -0.88186676106 -0.82880012376 0.85708733174 -0.88956875169 -0.81840777151 0.87560191932 -0.80448292851 -0.84956030899 0.87523473134 -0.81250146891 -0.87290515739 0.87485829734 -0.82171148963 -0.88844574126 0.87448562592 -0.83176115025 -0.89618548511 0.87412972568 -0.84229861034 -0.89612781347 0.87380360523 -0.85297202951 -0.88827615087 0.87352027318 -0.86342956733 -0.87263392184 0.87329273814 -0.87331938338 -0.84920455091 0.87313400871 -0.88228963726 -0.81799146259 0.87305709350 -0.88998848855 -0.80623858585 0.89153469739 -0.80488496346 -0.83748366820 0.89117108674 -0.81290712330 -0.86089801333 0.89079851190 -0.82211989312 -0.87648489837 0.89042999206 -0.83217143447 -0.88424760044 0.89007854637 -0.84270990886 -0.88418939669 0.88975719402 -0.85338347783 -0.87631356425 0.88947895417 -0.86384030291 -0.86062338025 0.88925684600 -0.87372854565 -0.83712212182 0.88910388868 -0.88269636756 -0.80581306611 0.88903310137 -0.89039193018 -0.79260413776 0.90747567432 -0.80527055041 -0.82390450247 0.90711608881 -0.81329681996 -0.84736039825 0.90674740198 -0.82251266196 -0.86297494986 0.90638276086 -0.83256625902 -0.87075128205 0.90603531248 -0.84310579380 -0.87069251956 0.90571820388 -0.85377944893 -0.86280178715 0.90544458207 -0.86423540703 -0.84708220958 0.90522759409 -0.87412185075 -0.82353691159 0.90508038697 -0.88308696272 -0.79216901794 0.90501610773 -0.89077892558 </DataArray>
</Points>
</Piece>
</StructuredGrid>
</VTKFile>
