<?xml version="1.0"?>
<VTKFile type="StructuredGrid" version="0.1">
<StructuredGrid WholeExtent="0 9 0 9 0 9">
<Piece Extent="0 9 0 9 0 9">
<PointData>
<DataArray type="Float32" Name="Deformation" format="ascii" NumberOfComponents="3">
0.00213403910 -0.90767223119 -0.17806803519 0.00203056581 -0.93179085303 -0.17206225784 0.00198191139 -0.95613272813 -0.16514646798 0.00197685556 -0.98013111014 -0.15759247818 0.00200417803 -1.00321925271 -0.14967210102 0.00205265854 -1.02483040950 -0.14165714908 0.00211107678 -1.04439783418 -0.13381943494 0.00216821249 -1.06135478038 -0.12643077118 0.00221284538 -1.07513450178 -0.11976297037 0.00223375517 -1.08517025203 -0.11408784510 0.00189572117 -0.91460825857 -0.16362937074 0.00193482681 -0.94164512794 -0.15777451766 0.00198289878 -0.96750299749 -0.15122980076 0.00203667934 -0.99190350941 -0.14420829256 0.00209291074 -1.01456830593 -0.13692306556 0.00214833526 -1.03521902923 -0.12958719229 0.00219969516 -1.05357732155 -0.12241374525 0.00224373270 -1.06936482508 -0.11561579696 0.00227719015 -1.08230318203 -0.10940641994 0.00229680977 -1.09211403461 -0.10399868669 0.00168584389 -0.92230602570 -0.14815671322 0.00181394784 -0.95135842211 -0.14304124519 0.00192348135 -0.97819117623 -0.13727133471 0.00201587938 -1.00274424185 -0.13103269200 0.00209257690 -1.02495757274 -0.12451102727 0.00215500887 -1.04477112267 -0.11789205075 0.00220461026 -1.06212484543 -0.11136147267 0.00224281603 -1.07695869479 -0.10510500323 0.00227106115 -1.08921262453 -0.09930835267 0.00229078057 -1.09882658842 -0.09415723119 0.00150113010 -0.93039665191 -0.13204520938 0.00167444021 -0.96072432297 -0.12814641442 0.00181622958 -0.98809818957 -0.12347516444 0.00193005725 -1.01261630158 -0.11821615215 0.00201948230 -1.03437670888 -0.11255407028 0.00208806379 -1.05347746135 -0.10667361155 0.00213936078 -1.07001660886 -0.10075946869 0.00217693233 -1.08409220129 -0.09499633442 0.00220433750 -1.09580228851 -0.08956890146 0.00222513536 -1.10524492040 -0.08466186254 0.00133830264 -0.93851125653 -0.11569000600 0.00152281526 -0.96953641797 -0.11337399935 0.00167371395 -0.99712496270 -0.11004538456 0.00179481451 -1.02148268274 -0.10590914867 0.00188993273 -1.04281537010 -0.10117027872 0.00196288443 -1.06132881681 -0.09603376176 0.00201748539 -1.07722881489 -0.09070458483 0.00205755143 -1.09072115634 -0.08538773498 0.00208689833 -1.10201163320 -0.08028819925 0.00210934190 -1.11130603748 -0.07561096469 0.00119408436 -0.94628095889 -0.09948624983 0.00136558432 -0.97758829456 -0.09900797396 0.00150850496 -1.00517242085 -0.09718608968 0.00162575271 -1.02930637947 -0.09426215719 0.00172023398 -1.05026321215 -0.09047773671 0.00179485520 -1.06831596060 -0.08607438843 0.00185252279 -1.08373766655 -0.08129367257 0.00189614317 -1.09680137172 -0.07637714933 0.00192862276 -1.10778011783 -0.07156637893 0.00195286798 -1.11694694659 -0.06710292158 0.00106519808 -0.95333687830 -0.08382908764 0.00120925870 -0.98467354017 -0.08533231225 0.00133317308 -1.01214148920 -0.08510137442 0.00143847341 -1.03605038590 -0.08342565338 0.00152669184 -1.05670989075 -0.08059452838 0.00159936054 -1.07442966425 -0.07689737864 0.00165801167 -1.08951936690 -0.07262358341 0.00170417741 -1.10228865919 -0.06806252193 0.00173938992 -1.11304720162 -0.06350357343 0.00176518137 -1.12210465469 -0.05923611715 0.00094836664 -0.95931013411 -0.06911366619 0.00106034973 -0.99058574225 -0.07263098821 0.00116028881 -1.01793309298 -0.07399533339 0.00124857817 -1.04167769616 -0.07355011288 0.00132561209 -1.06214506165 -0.07163873785 0.00139178484 -1.07966069930 -0.06860461946 0.00144749071 -1.09455011898 -0.06479116885 0.00149312398 -1.10713883053 -0.06054179720 0.00152907893 -1.11775234382 -0.05619991565 0.00155574983 -1.12671616870 -0.05210893536 0.00084031288 -0.96383184563 -0.05573513225 0.00092536874 -0.99511848824 -0.06118797582 0.00100242263 -1.02244815739 -0.06407206119 0.00107166855 -1.04615130440 -0.06478601134 0.00113330052 -1.06655838060 -0.06372844927 0.00118751254 -1.08399983730 -0.06129799796 0.00123449861 -1.09880612582 -0.05789328040 0.00127445273 -1.11130769750 -0.05391291958 0.00130756891 -1.12183500364 -0.04975553850 0.00133404115 -1.13071849557 -0.04581976014 0.00073775965 -0.96653313220 -0.04408863259 0.00081082705 -0.99806536559 -0.05128724909 0.00087214502 -1.02558760764 -0.05553565245 0.00092334611 -1.04943420475 -0.05728382441 0.00096606293 -1.06993950333 -0.05698174674 0.00100192804 -1.08743784978 -0.05507940120 0.00103257404 -1.10226359049 -0.05202676954 0.00105963349 -1.11475107187 -0.04827383352 0.00108473899 -1.12523464031 -0.04427057490 0.00110952311 -1.13404864222 -0.04046697543 0.00191420643 -0.93385025798 -0.19590929983 0.00188033078 -0.95244818973 -0.19023817060 0.00187653528 -0.97218458302 -0.18359599829 0.00189649863 -0.99240556556 -0.17623588525 0.00193389953 -1.01245726506 -0.16841093382 0.00198241670 -1.03168580920 -0.16037424637 0.00203572883 -1.04943732569 -0.15237892525 0.00208751464 -1.06505794224 -0.14467807280 0.00213145283 -1.07789378655 -0.13752479138 0.00216122211 -1.08729098631 -0.13117218335 0.00172587528 -0.94381272388 -0.18298367335 0.00180200535 -0.96447152782 -0.17721458164 0.00187552457 -0.98507796045 -0.17063666535 0.00194544591 -1.00524881666 -0.16344234035 0.00201078235 -1.02460089129 -0.15582402248 0.00207054687 -1.04275097921 -0.14797412761 0.00212375243 -1.05931587528 -0.14008507158 0.00216941202 -1.07391237436 -0.13234927026 0.00220653860 -1.08615727132 -0.12495913950 0.00223414517 -1.09566736101 -0.11810709515 0.00155081759 -0.95366851659 -0.16914251083 0.00169487653 -0.97575045590 -0.16374726839 0.00181712463 -0.99688916344 -0.15757137707 0.00191964642 -1.01690689016 -0.15077460543 0.00200452642 -1.03562588696 -0.14351672203 0.00207384913 -1.05286840478 -0.13595749544 0.00212969910 -1.06845669453 -0.12825669422 0.00217416083 -1.08221300715 -0.12057408695 0.00220931884 -1.09395959355 -0.11306944218 0.00223725767 -1.10351870467 -0.10590252848 0.00138932574 -0.96320956042 -0.15474384100 0.00156666786 -0.98619015154 -0.15010620906 0.00171374029 -1.00759242904 -0.14460530842 0.00183392795 -1.02738784220 -0.13839180331 0.00193061572 -1.04554784033 -0.13161635793 0.00200718852 -1.06204387275 -0.12442963651 0.00206703124 -1.07684738875 -0.11698230326 0.00211352877 -1.08992983765 -0.10942502242 0.00215006603 -1.10126266875 -0.10190845818 0.00218002791 -1.11081733136 -0.09458327478 0.00124169210 -0.97222777966 -0.14014569259 0.00142510287 -0.99569579232 -0.13656138181 0.00157777637 -1.01716199426 -0.13194363435 0.00170311828 -1.03669972890 -0.12645305677 0.00180453429 -1.05438233967 -0.12025025562 0.00188543005 -1.07028316999 -0.11349583744 0.00194921125 -1.08447556327 -0.10635040879 0.00199928355 -1.09703286295 -0.09897457621 0.00203905265 -1.10802841244 -0.09152894626 0.00207192420 -1.11753555517 -0.08417412548 0.00110820904 -0.98051509863 -0.12570609433 0.00127790509 -1.00417255579 -0.12338276482 0.00142163769 -1.02557209615 -0.11979152982 0.00154204522 -1.04485060641 -0.11511748864 0.00164176610 -1.06214497324 -0.10954574056 0.00172343874 -1.07759208335 -0.10326138488 0.00178970152 -1.09132882340 -0.09644952090 0.00184319286 -1.10349208010 -0.08929524790 0.00188655116 -1.11421874012 -0.08198366517 0.00192241482 -1.12364569016 -0.07469987202 0.00098916894 -0.98786344164 -0.11178307496 0.00113279808 -1.01152561952 -0.11084033627 0.00125772906 -1.03279697175 -0.10835416979 0.00136553655 -1.05184853084 -0.10454422170 0.00145779518 -1.06885132931 -0.09963013820 0.00153607961 -1.08397639968 -0.09383156546 0.00160196446 -1.09739477446 -0.08736814967 0.00165702440 -1.10927748616 -0.08045953702 0.00170283406 -1.11979556731 -0.07332537369 0.00174096809 -1.12912005041 -0.06618530586 0.00088486417 -0.99406473298 -0.09873466320 0.00099750535 -1.01766016107 -0.09920407435 0.00109845533 -1.03881085808 -0.09783672922 0.00118842007 -1.05770155834 -0.09489237878 0.00126810553 -1.07451699615 -0.09063077399 0.00133821768 -1.08944190585 -0.08531166581 0.00139946246 -1.10266102177 -0.07919480520 0.00145254586 -1.11435907821 -0.07253994313 0.00149817381 -1.12472080951 -0.06560683055 0.00153705230 -1.13393094999 -0.05865521843 0.00079558710 -0.99891089696 -0.08691888779 0.00087975045 -1.02248135802 -0.08874395723 0.00095622130 -1.04358799219 -0.08844438307 0.00102552357 -1.06241774502 -0.08632108266 0.00108818115 -1.07915756202 -0.08267497338 0.00114471797 -1.09399438872 -0.07780697256 0.00119565793 -1.10711517064 -0.07201799758 0.00124152493 -1.11870685330 -0.06560896578 0.00128284290 -1.12895638224 -0.05888079453 0.00132013574 -1.13805070298 -0.05213440118 0.00072163010 -1.00219385790 -0.07669377746 0.00078725691 -1.02589438792 -0.07972996309 0.00084343181 -1.04710261111 -0.08038230629 0.00089167484 -1.06600514702 -0.07898945617 0.00093350605 -1.08278861518 -0.07589006182 0.00097044550 -1.09763963512 -0.07142277236 0.00100401324 -1.11074482639 -0.06592623690 0.00103572933 -1.12229080850 -0.05973910453 0.00106711380 -1.13246420101 -0.05320002438 0.00109968673 -1.14145162344 -0.04664764553 0.00172904145 -0.96581809386 -0.21594901728 0.00174729839 -0.97968382064 -0.21021132122 0.00177766344 -0.99506637988 -0.20329499826 0.00181737914 -1.01133820322 -0.19548685647 0.00186368802 -1.02787172227 -0.18707370392 0.00191383265 -1.04403936866 -0.17834234868 0.00196505556 -1.05921357403 -0.16957959881 0.00201459930 -1.07276676999 -0.16107226239 0.00205970641 -1.08407138819 -0.15310714748 0.00209761945 -1.09249986025 -0.14597106216 0.00158492131 -0.97695450700 -0.20349173740 0.00168767898 -0.99218821755 -0.19747037473 0.00177972673 -1.00801203032 -0.19043665618 0.00186170175 -1.02402879036 -0.18260264840 0.00193424125 -1.03984134268 -0.17418041806 0.00199798242 -1.05505253234 -0.16538203183 0.00205356247 -1.06926520436 -0.15641955638 0.00210161858 -1.08208220378 -0.14750505836 0.00214278795 -1.09310637563 -0.13885060445 0.00217770779 -1.10194056496 -0.13066826131 0.00144100323 -0.98756112391 -0.19036262268 0.00159511000 -1.00373954203 -0.18443932082 0.00172559201 -1.01981032762 -0.17756413960 0.00183495328 -1.03555140644 -0.16990257808 0.00192569786 -1.05074070425 -0.16162013531 0.00200032977 -1.06515614681 -0.15288231033 0.00206135304 -1.07857565986 -0.14385460220 0.00211127171 -1.09077716917 -0.13470250997 0.00215258979 -1.10153860048 -0.12559153269 0.00218781133 -1.11063787956 -0.11668716940 0.00130045231 -0.99752317893 -0.17687112337 0.00147840854 -1.01429695597 -0.17135765947 0.00162769331 -1.03046162379 -0.16486530112 0.00175149058 -1.04592231485 -0.15753675532 0.00185298433 -1.06058416161 -0.14951472908 0.00193535853 -1.07435229653 -0.14094192940 0.00200179717 -1.08713185208 -0.13196106328 0.00205548421 -1.09882796070 -0.12271483772 0.00209960363 -1.10934575487 -0.11334595973 0.00213733941 -1.11859036704 -0.10399713630 0.00116643362 -1.00672590637 -0.16332668974 0.00134639170 -1.02381962126 -0.15846489069 0.00149846466 -1.03996627084 -0.15252799332 0.00162567048 -1.05515777894 -0.14565528992 0.00173102713 -1.06938606937 -0.13798607281 0.00181755255 -1.08264306597 -0.12965963427 0.00188826473 -1.09492069254 -0.12081526660 0.00194618161 -1.10621087292 -0.11159226212 0.00199432118 -1.11650553092 -0.10212991311 0.00203570138 -1.12579659036 -0.09256751188 0.00104211225 -1.01505454056 -0.15003877203 0.00120787654 -1.03226669979 -0.14600051447 0.00135034010 -1.04832462080 -0.14074006879 0.00147184986 -1.06327406209 -0.13440829169 0.00157475274 -1.07716078218 -0.12715603991 0.00166139568 -1.09003053958 -0.11913417017 0.00173412560 -1.10192909280 -0.11049353918 0.00179528944 -1.11290220036 -0.10138500368 0.00184723414 -1.12299562076 -0.09195942037 0.00189230660 -1.13225511252 -0.08236764599 0.00093065329 -1.02239431581 -0.13731682050 0.00107168017 -1.03959735345 -0.13420403082 0.00119575365 -1.05553702567 -0.12968938011 0.00130438554 -1.07028742767 -0.12394587043 0.00139908764 -1.08392265465 -0.11714650382 0.00148137175 -1.09651680182 -0.10946428233 0.00155274967 -1.10814396438 -0.10107220801 0.00161473323 -1.11887823755 -0.09214328290 0.00166883421 -1.12879371651 -0.08285050905 0.00171656443 -1.13796449649 -0.07336688851 0.00083522181 -1.02863046644 -0.12547028541 0.00094661966 -1.04577074413 -0.12331493972 0.00104713935 -1.06160383748 -0.11956377988 0.00113763439 -1.07621413905 -0.11441813594 0.00121895830 -1.08968604142 -0.10807933796 0.00129196460 -1.10210393715 -0.10074871599 0.00135750683 -1.11355221883 -0.09262760008 0.00141643849 -1.12411527903 -0.08391732030 0.00146961311 -1.13387751031 -0.07481920669 0.00151788421 -1.14292330525 -0.06553458930 0.00075898290 -1.03364822679 -0.11480861700 0.00084151211 -1.05074603372 -0.11357274118 0.00091693122 -1.06652540823 -0.11055112068 0.00098595325 -1.08107045960 -0.10597519803 0.00104929120 -1.09446529710 -0.10007641576 0.00110765810 -1.10679403004 -0.09308621637 0.00116176694 -1.11814076769 -0.08523604241 0.00121233075 -1.12858961934 -0.07675733638 0.00126006253 -1.13822469427 -0.06788154081 0.00130567529 -1.14713010177 -0.05884009823 0.00070510165 -1.03733283117 -0.10564126555 0.00076517459 -1.05448238411 -0.10521693519 0.00081756330 -1.07030208995 -0.10283925510 0.00086369897 -1.08487265268 -0.09876716650 0.00090501283 -1.09827477635 -0.09325961063 0.00094293607 -1.11058916494 -0.08657552872 0.00097889990 -1.12189652250 -0.07897386198 0.00101433553 -1.13227755302 -0.07071355166 0.00105067418 -1.14181296052 -0.06205353897 0.00108934704 -1.15058344903 -0.05325276515 0.00158131778 -1.00208047765 -0.23737500337 0.00163355939 -1.01185715537 -0.23110168812 0.00168695360 -1.02313536035 -0.22336700922 0.00174090844 -1.03539450789 -0.21452765284 0.00179483194 -1.04811401330 -0.20494030517 0.00184813213 -1.06077329187 -0.19496165239 0.00190021705 -1.07285175890 -0.18494838066 0.00195049474 -1.08382882970 -0.17525717617 0.00199837323 -1.09318391957 -0.16624472509 0.00204326056 -1.10039644380 -0.15826771360 0.00147249174 -1.01304246754 -0.22465027747 0.00159159903 -1.02362613522 -0.21793750674 0.00169546806 -1.03507876214 -0.20998895427 0.00178567183 -1.04705446665 -0.20106310133 0.00186378330 -1.05920736707 -0.19141842914 0.00193137547 -1.07119158174 -0.18131341895 0.00199002132 -1.08266122900 -0.17100655200 0.00204129384 -1.09327042719 -0.16075630953 0.00208676600 -1.10267329463 -0.15082117279 0.00212801079 -1.11052394966 -0.14145962301 0.00135390529 -1.02339262610 -0.21155305381 0.00151284307 -1.03452854020 -0.20472704910 0.00164773563 -1.04605533117 -0.19679206304 0.00176125405 -1.05775966313 -0.18793962393 0.00185606940 -1.06942820019 -0.17836126006 0.00193485274 -1.08084760646 -0.16824849972 0.00200027515 -1.09180454604 -0.15779287122 0.00205500770 -1.10208568303 -0.14718590285 0.00210172145 -1.11147768156 -0.13661912291 0.00214308747 -1.11976720572 -0.12628405969 0.00123076358 -1.03305672743 -0.19834315194 0.00140697113 -1.04453363448 -0.19167170013 0.00155632542 -1.05605638990 -0.18393574549 0.00168177735 -1.06750763986 -0.17528641825 0.00178627781 -1.07877003058 -0.16587484863 0.00187277770 -1.08972620822 -0.15585216685 0.00194422790 -1.10025881900 -0.14536950312 0.00200357930 -1.11025050910 -0.13457798767 0.00205378281 -1.11958392470 -0.12362875072 0.00209778930 -1.12814171201 -0.11267292248 0.00110827174 -1.04196054562 -0.18528039144 0.00128366280 -1.05361068226 -0.17897284473 0.00143380652 -1.06507326077 -0.17157941159 0.00156136394 -1.07629593934 -0.16323268191 0.00166899611 -1.08722637611 -0.15406524557 0.00175936409 -1.09781222924 -0.14420969247 0.00183512892 -1.10800115690 -0.13379861250 0.00189895164 -1.11774081724 -0.12296459554 0.00195349332 -1.12697886842 -0.11184023148 0.00200141498 -1.13566296861 -0.10055811021 0.00099163490 -1.05002985479 -0.17262459189 0.00115259769 -1.06172894770 -0.16683186783 0.00129274803 -1.07309726627 -0.15988247131 0.00141413604 -1.08412210407 -0.15190761249 0.00151881188 -1.09479075469 -0.14303850157 0.00160882567 -1.10509051172 -0.13340634872 0.00168622757 -1.11500866874 -0.12314236413 0.00175306770 -1.12453251933 -0.11237775799 0.00181139621 -1.13364935707 -0.10124374046 0.00186326323 -1.14234647555 -0.08987152175 0.00088605820 -1.05719042903 -0.16063557286 0.00102345541 -1.06885769500 -0.15545015435 0.00114571905 -1.08011972883 -0.14900433461 0.00125421589 -1.09098367656 -0.14144040761 0.00135031269 -1.10145668423 -0.13290066733 0.00143537621 -1.11154589787 -0.12352740774 0.00151077321 -1.12125846352 -0.11346292283 0.00157787046 -1.13060152722 -0.10284950657 0.00163803471 -1.13958223500 -0.09182945294 0.00169263274 -1.14820773290 -0.08054505592 0.00079674677 -1.06336804244 -0.14957315392 0.00090591555 -1.07496618833 -0.14502908920 0.00100528869 -1.08613197092 -0.13910441147 0.00109572571 -1.09687819932 -0.13196026487 0.00117808612 -1.10721768261 -0.12375779355 0.00125322945 -1.11716322989 -0.11465814167 0.00132201520 -1.12672765024 -0.10482245338 0.00138530290 -1.13592375277 -0.09441187284 0.00144395207 -1.14476434656 -0.08358754419 0.00149882222 -1.15326224070 -0.07251061159 0.00072890575 -1.06848846914 -0.13969715464 0.00080965772 -1.08002369187 -0.13577005731 0.00088402604 -1.09112531500 -0.13034211185 0.00095278772 -1.10180321485 -0.12359638187 0.00101671975 -1.11206726774 -0.11571593094 0.00107659915 -1.12192734998 -0.10688382264 0.00113320290 -1.13139333791 -0.09728312058 0.00118730802 -1.14047510785 -0.08709688832 0.00123969151 -1.14918253611 -0.07650818946 0.00129113037 -1.15752549902 -0.06570008758 0.00068774027 -1.07247748321 -0.13126739460 0.00074436152 -1.08399946981 -0.12787444358 0.00079450020 -1.09509108353 -0.12287684573 0.00083952415 -1.10575626566 -0.11647795622 0.00088080116 -1.11599895750 -0.10888113019 0.00091969906 -1.12582310036 -0.10028972280 0.00095758567 -1.13523263553 -0.09090708921 0.00099582880 -1.14423150431 -0.08093658457 0.00103579627 -1.15282364800 -0.07058156403 0.00107885590 -1.16101300790 -0.06004538276 0.00147380902 -1.04114214822 -0.25937507394 0.00154120452 -1.04732760352 -0.25202924972 0.00160606349 -1.05474876605 -0.24293557247 0.00166849789 -1.06303996439 -0.23254053534 0.00172861969 -1.07183552711 -0.22129063144 0.00178654087 -1.08076978280 -0.20963235390 0.00184237340 -1.08947706004 -0.19801219583 0.00189622925 -1.09759168742 -0.18687665036 0.00194822039 -1.10474799351 -0.17667221062 0.00199845880 -1.11058030689 -0.16784536973 0.00138821903 -1.05108546517 -0.24595600815 0.00151351683 -1.05761621891 -0.23801158743 0.00162271139 -1.06505171095 -0.22865274067 0.00171758111 -1.07313688166 -0.21819758374 0.00179990436 -1.08161667141 -0.20696423254 0.00187145955 -1.09023602055 -0.19527080293 0.00193402505 -1.09873986944 -0.18343541080 0.00198937925 -1.10687315846 -0.17177617203 0.00203930054 -1.11438082797 -0.16061120252 0.00208556730 -1.12100781832 -0.15025861812 0.00128702823 -1.06057180160 -0.23244980922 0.00144627057 -1.06732031011 -0.22422009988 0.00158240769 -1.07472483652 -0.21479758815 0.00169800284 -1.08261353266 -0.20440875696 0.00179561920 -1.09081455035 -0.19328008924 0.00187782001 -1.09915604141 -0.18163806791 0.00194716848 -1.10746615766 -0.16970917591 0.00200622783 -1.11557305092 -0.15771989615 0.00205756127 -1.12330487301 -0.14589671157 0.00210373202 -1.13048977575 -0.13446610509 0.00117651331 -1.06952942587 -0.21907602210 0.00134966446 -1.07638908533 -0.21081926549 0.00149787343 -1.08372734344 -0.20149724450 0.00162382049 -1.09143173758 -0.19127620216 0.00173018589 -1.09938980509 -0.18032238149 0.00181964989 -1.10748908334 -0.16880202549 0.00189489275 -1.11561710969 -0.15688137719 0.00195859473 -1.12366142149 -0.14472667961 0.00201343608 -1.13150955611 -0.13250417575 0.00206209705 -1.13904905090 -0.12038010864 0.00106295097 -1.07788660637 -0.20605419168 0.00123389722 -1.08477175277 -0.19797356265 0.00138182962 -1.09201843239 -0.18887883929 0.00150909147 -1.09955331660 -0.17890206651 0.00161802610 -1.10730307677 -0.16817528921 0.00171097681 -1.11519438429 -0.15683055230 0.00179028689 -1.12315391054 -0.14499990070 0.00185829967 -1.13110832690 -0.13281537931 0.00191735845 -1.13898430474 -0.12040903303 0.00196980655 -1.14670851545 -0.10791290679 0.00095261788 -1.08557161146 -0.19360386290 0.00110916756 -1.09241752065 -0.18584746980 0.00124699728 -1.09955730404 -0.17706950210 0.00136787321 -1.10694008991 -0.16738849716 0.00147356153 -1.11451500653 -0.15692299233 0.00156582838 -1.12223118221 -0.14579152498 0.00164643995 -1.13003774522 -0.13411263247 0.00171716240 -1.13788382385 -0.12200485215 0.00177976190 -1.14571854639 -0.10958672139 0.00183600461 -1.15349104111 -0.09697677754 0.00085179075 -1.09251270951 -0.18194458065 0.00098567421 -1.09927559718 -0.17460546534 0.00110609745 -1.10630315908 -0.16619636251 0.00121422312 -1.11355387770 -0.15683764128 0.00131121384 -1.12098623553 -0.14664967079 0.00139823225 -1.12855871504 -0.13575282017 0.00147644097 -1.13622979872 -0.12426745854 0.00154700265 -1.14395796905 -0.11231395503 0.00161107991 -1.15170170851 -0.10001267878 0.00166983538 -1.15941949959 -0.08748399891 0.00076674626 -1.09863816892 -0.17129588987 0.00087361587 -1.10529519055 -0.16441202769 0.00097185116 -1.11221519817 -0.15638655009 0.00106219861 -1.11935650017 -0.14735164604 0.00114540473 -1.12667740490 -0.13743950452 0.00122221603 -1.13413622073 -0.12678231450 0.00129337900 -1.14169125605 -0.11551226496 0.00135964015 -1.14930081922 -0.10376154486 0.00142174597 -1.15692321860 -0.09166234319 0.00148044298 -1.16451676259 -0.07934684891 0.00070376110 -1.10387625803 -0.16187733547 0.00078319128 -1.11042550898 -0.15543163526 0.00085697941 -1.11725262201 -0.14776719442 0.00092585709 -1.12430977749 -0.13903265860 0.00099055587 -1.13154915578 -0.12937667345 0.00105180734 -1.13892293723 -0.11894788462 0.00111034307 -1.14638330221 -0.10789493777 0.00116689462 -1.15388243105 -0.09636647854 0.00122219359 -1.16137250413 -0.08451115258 0.00127697153 -1.16880570180 -0.07247760555 0.00066911196 -1.10815524524 -0.15390846236 0.00072459913 -1.11461576066 -0.14782876647 0.00077420325 -1.12137463126 -0.14046542508 0.00081925598 -1.12837552987 -0.13198282612 0.00086108895 -1.13556212933 -0.12254535751 0.00090103382 -1.14287810249 -0.11231740716 0.00094042222 -1.15026712219 -0.10146336300 0.00098058582 -1.15767286127 -0.09014761295 0.00102285625 -1.16503899257 -0.07853454493 0.00106856516 -1.17230918894 -0.06678854685 0.00140928878 -1.08150784441 -0.28113704483 0.00147232452 -1.08445457472 -0.27211398443 0.00153665082 -1.08826383864 -0.26112422935 0.00160155883 -1.09274005751 -0.24870776495 0.00166633971 -1.09768765266 -0.23540457658 0.00173028462 -1.10291104544 -0.22175464959 0.00179268470 -1.10821465717 -0.20829796935 0.00185283111 -1.11340290920 -0.19557452120 0.00191001501 -1.11828022286 -0.18412429050 0.00196352754 -1.12265101948 -0.17448726261 0.00133173566 -1.09009235952 -0.26690564398 0.00145318371 -1.09298940670 -0.25708822659 0.00156141952 -1.09670443179 -0.24578719639 0.00165765457 -1.10108707154 -0.23337998026 0.00174310030 -1.10598696266 -0.22024400509 0.00181896819 -1.11125374187 -0.20675669775 0.00188646969 -1.11673704590 -0.19329548514 0.00194681626 -1.12228651147 -0.18023779414 0.00200121938 -1.12775177531 -0.16796105163 0.00205089049 -1.13298247413 -0.15684268450 0.00123787652 -1.09850742884 -0.25278889396 0.00139358731 -1.10131771146 -0.24252811980 0.00152846036 -1.10491950609 -0.23112315568 0.00164465372 -1.10919488746 -0.21883299117 0.00174432543 -1.11402593030 -0.20591661582 0.00182963354 -1.11929470935 -0.19263301920 0.00190273609 -1.12488329934 -0.17924119088 0.00196579113 -1.13067377501 -0.16600012042 0.00202095672 -1.13654821108 -0.15316879739 0.00207039089 -1.14238868229 -0.14100621135 0.00113395527 -1.10666049423 -0.23898582927 0.00130379738 -1.10935220674 -0.22857129001 0.00145057414 -1.11282510050 -0.21723040111 0.00157665220 -1.11698252832 -0.20514151711 0.00168439826 -1.12172784302 -0.19248299254 0.00177617898 -1.12696439742 -0.17943318195 0.00185436106 -1.13259554432 -0.16617043988 0.00192131115 -1.13852463656 -0.15287312086 0.00197939595 -1.14465502694 -0.13971957944 0.00203098213 -1.15089006828 -0.12688817015 0.00102621583 -1.11445899756 -0.22569548445 0.00119407599 -1.11700561027 -0.21535536319 0.00134056164 -1.12033725401 -0.20420722656 0.00146774593 -1.12436901720 -0.19238027752 0.00157770195 -1.12901598825 -0.18000371902 0.00167250285 -1.13419325561 -0.16720675401 0.00175422174 -1.13981590768 -0.15411858544 0.00182493175 -1.14579903289 -0.14086841627 0.00188670599 -1.15205771967 -0.12758544944 0.00194161759 -1.15850705644 -0.11439888792 0.00092090211 -1.12181038069 -0.21311689402 0.00107468517 -1.12419063979 -0.20301796528 0.00121122369 -1.12737200561 -0.19215192591 0.00133203080 -1.13127337716 -0.18062399184 0.00143861968 -1.13581365344 -0.16853937902 0.00153250346 -1.14091173347 -0.15600330338 0.00161519529 -1.14648651624 -0.14312098089 0.00168820834 -1.15245690076 -0.12999762747 0.00175305575 -1.15874178604 -0.11673845907 0.00181125066 -1.16526007108 -0.10344869163 0.00082425802 -1.12862208548 -0.20144909249 0.00095588699 -1.13082001301 -0.19169672226 0.00107536106 -1.13384539427 -0.18116279304 0.00118360275 -1.13761463127 -0.16994737951 0.00128153459 -1.14204412603 -0.15815055631 0.00137007912 -1.14705028054 -0.14587239810 0.00145015887 -1.15254949684 -0.13321297953 0.00152269636 -1.15845817693 -0.12027237527 0.00158861414 -1.16469272282 -0.10715065997 0.00164883472 -1.17116953654 -0.09394790829 0.00074252749 -1.13480155380 -0.19089111440 0.00084794351 -1.13680644769 -0.18152926007 0.00094577456 -1.13967345899 -0.17133812185 0.00103655767 -1.14331180261 -0.16042515997 0.00112082986 -1.14763069344 -0.14889783466 0.00119912816 -1.15253934637 -0.13686360615 0.00127198961 -1.15794697631 -0.12442993469 0.00133995124 -1.16376279815 -0.11170428050 0.00140355008 -1.16989602680 -0.09879410382 0.00146332316 -1.17625587713 -0.08580686489 0.00068195441 -1.14025622750 -0.18164199425 0.00076111678 -1.14206266154 -0.17265320468 0.00083526500 -1.14477223875 -0.16277620621 0.00090499148 -1.14828391424 -0.15213205265 0.00097088864 -1.15249664312 -0.14084179783 0.00103354890 -1.15730938050 -0.12902649556 0.00109356468 -1.16262108149 -0.11680719967 0.00115152841 -1.16833070120 -0.10430496397 0.00120803249 -1.17433719473 -0.09164084228 0.00126366935 -1.18053951720 -0.07893588843 0.00064878271 -1.14489354846 -0.17390076658 0.00070566886 -1.14650137230 -0.16520618205 0.00075663317 -1.14905777252 -0.15557534001 0.00080300009 -1.15244998923 -0.14514277701 0.00084609410 -1.15656526251 -0.13404302960 0.00088723966 -1.16129083247 -0.12241063434 0.00092776123 -1.16651393921 -0.11038012779 0.00096898328 -1.17212182282 -0.09808604649 0.00101223027 -1.17800172340 -0.08566292701 0.00105882668 -1.18404088105 -0.07324530589 0.00139053068 -1.12168230508 -0.30184873186 0.00142901013 -1.12159747856 -0.29047587069 0.00148037332 -1.12203781974 -0.27705652118 0.00154150262 -1.12296027205 -0.26221160266 0.00160928042 -1.12432177891 -0.24656203445 0.00168058910 -1.12607928375 -0.23072873588 0.00175231103 -1.12818973001 -0.21533262625 0.00182132860 -1.13061006110 -0.20099462491 0.00188452418 -1.13329722046 -0.18833565115 0.00193878014 -1.13620815152 -0.17797662431 0.00130267410 -1.12907201024 -0.28699589956 0.00141035100 -1.12857663666 -0.27456303401 0.00151155527 -1.12881047972 -0.26075150248 0.00160611718 -1.12971607242 -0.24598417550 0.00169386697 -1.13123594779 -0.23068392363 0.00177463492 -1.13331263885 -0.21527361741 0.00184825129 -1.13588867861 -0.20017612739 0.00191454633 -1.13890660009 -0.18581432412 0.00197335031 -1.14230893631 -0.17261107813 0.00202449348 -1.14603822028 -0.16098925999 0.00120395462 -1.13660828627 -0.27230631302 0.00135298813 -1.13572360396 -0.25926075550 0.00148474581 -1.13574000229 -0.24531120639 0.00160066080 -1.13658559995 -0.23073534053 0.00170216624 -1.13818851561 -0.21581083276 0.00179069527 -1.14047686797 -0.20081535789 0.00186768102 -1.14337877570 -0.18602659077 0.00193455664 -1.14682235748 -0.17172220623 0.00199275526 -1.15073573199 -0.15817987909 0.00204371001 -1.15504701792 -0.14567728419 0.00109934321 -1.14416915248 -0.25798866887 0.00126667876 -1.14291189697 -0.24469870817 0.00141266434 -1.14270027714 -0.23081581828 0.00153930471 -1.14344793242 -0.21651777314 0.00164860463 -1.14506850222 -0.20198234669 0.00174256885 -1.14747562596 -0.18738731285 0.00182320214 -1.15058294306 -0.17291044557 0.00189250925 -1.15430409295 -0.15872951877 0.00195249495 -1.15855271504 -0.14502230639 0.00200516399 -1.16324244876 -0.13196658236 0.00099381084 -1.15163262816 -0.24425166373 0.00116118015 -1.15001503222 -0.23100656505 0.00130803029 -1.14956519396 -0.21734552351 0.00143622012 -1.15018214763 -0.20338414872 0.00154760853 -1.15176492745 -0.18923805029 0.00164405437 -1.15421256766 -0.17502283783 0.00172741654 -1.15742410250 -0.16085412095 0.00179955389 -1.16129856620 -0.14684750927 0.00186232531 -1.16573499299 -0.13311861239 0.00191758967 -1.17063241712 -0.11978303992 0.00089232848 -1.15887673261 -0.23130399423 0.00104624954 -1.15690652623 -0.21831399917 0.00118356306 -1.15620864245 -0.20498050744 0.00130557824 -1.15666732338 -0.19138714265 0.00141360433 -1.15816681116 -0.17761752842 0.00150895055 -1.16059134793 -0.16375528837 0.00159292612 -1.16382517579 -0.14988404611 0.00166684029 -1.16775253690 -0.13608742527 0.00173200227 -1.17225767336 -0.12244904945 0.00178972129 -1.17722482732 -0.10905254228 0.00079986710 -1.16577948513 -0.21935435698 0.00093164419 -1.16345989553 -0.20675068356 0.00105198206 -1.16250451227 -0.19380095543 0.00116155029 -1.16278253746 -0.18057943032 0.00126101843 -1.16416317320 -0.16716036594 0.00135105608 -1.16651562159 -0.15361802000 0.00143233280 -1.16970908473 -0.14002665021 0.00150551816 -1.17361276473 -0.12646051429 0.00157128174 -1.17809586368 -0.11299386994 0.00163029312 -1.18302758370 -0.09970097489 0.00072139766 -1.17221890502 -0.20861144861 0.00082712134 -1.16954865664 -0.19644629123 0.00092600673 -1.16832669313 -0.18388705285 0.00101830747 -1.16840686767 -0.17101368713 0.00110427724 -1.16964303340 -0.15790614772 0.00118416968 -1.17188904349 -0.14464438827 0.00125823846 -1.17499875110 -0.13130836244 0.00132673723 -1.17882600937 -0.11797802388 0.00138991966 -1.18322467148 -0.10473332623 0.00144803939 -1.18804859058 -0.09165422315 0.00066189114 -1.17807301157 -0.19928396574 0.00074243824 -1.17504632607 -0.18753049521 0.00081835646 -1.17354907472 -0.17531898505 0.00089002101 -1.17341939180 -0.16274258845 0.00095780713 -1.17449541162 -0.14989445861 0.00102209005 -1.17661526848 -0.13686774872 0.00108324501 -1.17961709668 -0.12375561197 0.00114164723 -1.18333903051 -0.11065120156 0.00119767194 -1.18761920428 -0.09764767067 0.00125169438 -1.19229575228 -0.08483817251 0.00062631850 -1.18321982408 -0.19158060499 0.00068735214 -1.17982642036 -0.18013296853 0.00074175067 -1.17804554671 -0.16817693740 0.00079086211 -1.17769918765 -0.15581880968 0.00083603451 -1.17860932771 -0.14316488348 0.00087861591 -1.18059795141 -0.13032145688 0.00091995435 -1.18348704327 -0.11739482798 0.00096139787 -1.18709858783 -0.10449129487 0.00100429452 -1.19125456961 -0.09171715563 0.00104999232 -1.19577697313 -0.07917870837 0.00142030832 -1.16017026908 -0.32069795088 0.00141335210 -1.15711572466 -0.30623488690 0.00143888871 -1.15442795100 -0.28985598927 0.00148974062 -1.15216609281 -0.27223430945 0.00155873025 -1.15038929481 -0.25404289891 0.00163868006 -1.14915670172 -0.23595480913 0.00172241250 -1.14852745828 -0.21864309157 0.00180275000 -1.14856070918 -0.20278079770 0.00187251501 -1.14931559916 -0.18904097899 0.00192452998 -1.15085127294 -0.17809668690 0.00130066682 -1.16703327696 -0.30572348944 0.00138477003 -1.16320884689 -0.28983161946 0.00147308145 -1.16014340976 -0.27290483995 0.00156319391 -1.15783492044 -0.25538405407 0.00165270024 -1.15628133376 -0.23771016499 0.00173919329 -1.15548060459 -0.22032407588 0.00182026590 -1.15543068778 -0.20366668990 0.00189351090 -1.15612953817 -0.18817891023 0.00195652113 -1.15757511062 -0.17430164002 0.00200688944 -1.15976535999 -0.16247578245 0.00118276700 -1.17428315233 -0.29073807144 0.00132266784 -1.16974084730 -0.27402765361 0.00145011621 -1.16628698754 -0.25690418102 0.00156547818 -1.16386754256 -0.23963881904 0.00166911981 -1.16242848186 -0.22250273301 0.00176140717 -1.16191577495 -0.20576708828 0.00184270634 -1.16227539133 -0.18970305020 0.00191338337 -1.16345330051 -0.17458178412 0.00197380434 -1.16539547199 -0.16067445540 0.00202433531 -1.16804787528 -0.14825222938 0.00106893089 -1.18177462058 -0.27600063631 0.00123561744 -1.17655705425 -0.25897245442 0.00138238084 -1.17270348945 -0.24193409897 0.00151081023 -1.17011587021 -0.22504038033 0.00162249470 -1.16869614055 -0.20844610883 0.00171902336 -1.16834624450 -0.19230609482 0.00180198533 -1.16896812609 -0.17677514865 0.00187296970 -1.17046372934 -0.16200808066 0.00193356558 -1.17273499828 -0.14815970120 0.00198536210 -1.17568387693 -0.13538482062 0.00096148052 -1.18936240712 -0.26177012352 0.00113219075 -1.18350279608 -0.24481548698 0.00128226323 -1.17923772058 -0.22807468028 0.00141340689 -1.17643181439 -0.21163051390 0.00152733067 -1.17494971126 -0.19556579832 0.00162574352 -1.17465604495 -0.17996334402 0.00171035437 -1.17541544922 -0.16490596147 0.00178287215 -1.17709255782 -0.15047646114 0.00184500582 -1.17955200450 -0.13675765353 0.00189846429 -1.18265842304 -0.12383234910 0.00086273790 -1.19690123736 -0.24830547251 0.00102095970 -1.19042340113 -0.23170621638 0.00116215121 -1.18573448604 -0.21540601143 0.00128748496 -1.18266728613 -0.19945099573 0.00139813348 -1.18105459544 -0.18388730735 0.00149526931 -1.18072920801 -0.16876108437 0.00158006498 -1.18152391788 -0.15411846484 0.00165369303 -1.18327151909 -0.14000558685 0.00171732599 -1.18580480569 -0.12646858847 0.00177213640 -1.18895657171 -0.11355360775 0.00077502505 -1.20424583669 -0.23586562274 0.00091049622 -1.19716419775 -0.21979410771 0.00103443267 -1.19203859093 -0.20400817891 0.00114726126 -1.18867419645 -0.18854360178 0.00124940887 -1.18687619452 -0.17343614179 0.00134130238 -1.18644976538 -0.15872156437 0.00142336866 -1.18720008924 -0.14443563498 0.00149603459 -1.18893234632 -0.13061411908 0.00155972705 -1.19145171685 -0.11729278211 0.00161487292 -1.19456338104 -0.10450738952 0.00070066399 -1.21125093053 -0.22470951365 0.00080937223 -1.20357051429 -0.20922862605 0.00091149546 -1.19799484035 -0.19396126919 0.00100695260 -1.19430445636 -0.17895010802 0.00109566260 -1.19227990995 -0.16423780749 0.00117754439 -1.19170174877 -0.14986703253 0.00125251693 -1.19235052046 -0.13588044809 0.00132049914 -1.19400677265 -0.12232071911 0.00138140997 -1.19645105301 -0.10923051054 0.00143516835 -1.19946390915 -0.09665248732 0.00064197674 -1.21777124427 -0.21509608470 0.00072615965 -1.20948767909 -0.20015923648 0.00080572744 -1.20344803941 -0.18534536876 0.00088077579 -1.19940997689 -0.17071229042 0.00095140042 -1.19713114316 -0.15631781032 0.00101769702 -1.19636918988 -0.14221973735 0.00107976129 -1.19688176869 -0.12847588036 0.00113768894 -1.19842653124 -0.11514404824 0.00119157568 -1.20076112917 -0.10228204986 0.00124151719 -1.20364321413 -0.08994769409 0.00060128532 -1.22366150331 -0.20728427534 0.00066943041 -1.21476102049 -0.19273540410 0.00072951648 -1.20824299321 -0.17824056411 0.00078294765 -1.20384266906 -0.16387192494 0.00083112808 -1.20129529560 -0.14970165616 0.00087546190 -1.20033612043 -0.13580192732 0.00091735326 -1.20070039111 -0.12224490800 0.00095820629 -1.20212335523 -0.10910276776 0.00099942514 -1.20434026036 -0.09644767616 0.00104241394 -1.20708635409 -0.08435180278 0.00150139532 -1.19547647526 -0.33687251771 0.00142744116 -1.18936872263 -0.31851101149 0.00141385473 -1.18379147405 -0.29864617494 0.00144768416 -1.17882300459 -0.27795814631 0.00151597762 -1.17454158932 -0.25712706383 0.00160578324 -1.17102550333 -0.23683306576 0.00170414918 -1.16835302170 -0.21775629033 0.00179812359 -1.16660241950 -0.20057687581 0.00187475462 -1.16585197181 -0.18597496042 0.00192109042 -1.16617995370 -0.17463068243 0.00132534629 -1.20298501934 -0.32258512821 0.00137619214 -1.19571697545 -0.30228959273 0.00144596087 -1.18947677697 -0.28160638984 0.00152910974 -1.18425465172 -0.26095350059 0.00162009597 -1.18004082753 -0.24074890600 0.00171337684 -1.17682553223 -0.22141058714 0.00180340957 -1.17459899365 -0.20335652504 0.00188465143 -1.17335143960 -0.18700470074 0.00195155966 -1.17307309792 -0.17277309530 0.00199859151 -1.17375419643 -0.16107968975 0.00117181813 -1.21094080545 -0.30782017423 0.00130082127 -1.20257230119 -0.28643846077 0.00142342373 -1.19566112427 -0.26544452034 0.00153855994 -1.19012258773 -0.24506644068 0.00164516429 -1.18587200462 -0.22553230954 0.00174217121 -1.18282468798 -0.20707021466 0.00182851510 -1.18089595085 -0.18990824378 0.00190313037 -1.18000110628 -0.17427448466 0.00196495143 -1.18005546730 -0.16039702503 0.00201291270 -1.18097434698 -0.14850395265 0.00103897209 -1.21919611851 -0.29293782701 0.00120792226 -1.20977657682 -0.27116346322 0.00135796045 -1.20218535350 -0.25026584615 0.00149020098 -1.19627426202 -0.23034474873 0.00160575818 -1.19189511587 -0.21149994387 0.00170574640 -1.18889972856 -0.19383120449 0.00179127995 -1.18713991356 -0.17743830352 0.00186347316 -1.18646748437 -0.16242101388 0.00192344037 -1.18673425449 -0.14887910849 0.00197229590 -1.18779203739 -0.13691236027 0.00092496940 -1.22760324340 -0.27829825780 0.00110408883 -1.21717167931 -0.25667044769 0.00126128815 -1.20889030218 -0.23617564700 0.00139819906 -1.20255712396 -0.21683620686 0.00151645326 -1.19797015657 -0.19867447842 0.00161768244 -1.19492741195 -0.18171281282 0.00170351831 -1.19322690203 -0.16597356121 0.00177559256 -1.19266663873 -0.15147907474 0.00183553690 -1.19304463399 -0.13825170454 0.00188498301 -1.19415889975 -0.12631380177 0.00082797127 -1.23601446506 -0.26426163784 0.00099591467 -1.22459948561 -0.24316526181 0.00114512398 -1.21561680787 -0.22327920260 0.00127672039 -1.20881862296 -0.20458859721 0.00139182512 -1.20395712201 -0.18707858262 0.00149155939 -1.20078449615 -0.17073429582 0.00157704439 -1.19905293650 -0.15554087380 0.00164940133 -1.19851463419 -0.14148345355 0.00170975144 -1.19892178035 -0.12854717205 0.00175921591 -1.20002656611 -0.11671716630 0.00074613896 -1.24428206837 -0.25118813837 0.00088999351 -1.23190187270 -0.23085375318 0.00102118507 -1.22220570810 -0.21168179269 0.00113993118 -1.21490620841 -0.19364970193 0.00124644939 -1.20971600747 -0.17673492592 0.00134095727 -1.20634773913 -0.16091490968 0.00142367236 -1.20451403722 -0.14616709824 0.00149481223 -1.20392753559 -0.13246893664 0.00155459442 -1.20430086808 -0.11979786988 0.00160323650 -1.20534666853 -0.10813134299 0.00067763368 -1.25225833825 -0.23943793064 0.00079291906 -1.23892071754 -0.21994176942 0.00090118857 -1.22849784041 -0.20148869698 0.00100199763 -1.22066732970 -0.18406730314 0.00109490167 -1.21510680825 -0.16766617773 0.00117945613 -1.21149389889 -0.15227391058 0.00125521643 -1.20950622445 -0.13787909150 0.00132173801 -1.20882140779 -0.12447031033 0.00137857628 -1.20911707172 -0.11203615689 0.00142528668 -1.21007083909 -0.10056522101 0.00062061667 -1.25979555961 -0.22937118589 0.00071128502 -1.24549789709 -0.21063515814 0.00079685160 -1.23433404234 -0.19280519518 0.00087708595 -1.22594943622 -0.17588918298 0.00095175758 -1.21998951962 -0.15989500750 0.00102063602 -1.21609973340 -0.14483055469 0.00108349079 -1.21392551844 -0.13070371053 0.00114009142 -1.21311231561 -0.11752236096 0.00119020743 -1.21330556578 -0.10529439196 0.00123360834 -1.21415070983 -0.09402768949 0.00057324916 -1.26674601736 -0.22134807537 0.00065168510 -1.25147528833 -0.20313976696 0.00071989132 -1.23955515142 -0.18573656703 0.00077936235 -1.23059997737 -0.16916312359 0.00083159272 -1.22422413687 -0.15344408465 0.00087807696 -1.22004200066 -0.13860409821 0.00092030962 -1.21766793943 -0.12466781228 0.00095978522 -1.21671632390 -0.11165987485 0.00099799830 -1.21680152480 -0.09960493395 0.00103644339 -1.21753791283 -0.08852763758 0.00163656527 -1.22610566246 -0.34956024819 0.00147336807 -1.21671588208 -0.32642422288 0.00140692909 -1.20848563053 -0.30255061953 0.00141674462 -1.20139649219 -0.27856537421 0.00148231094 -1.19543005141 -0.25509442305 0.00158312437 -1.19056789256 -0.23276370214 0.00169868117 -1.18679160000 -0.21219914757 0.00180847765 -1.18408275810 -0.19402669545 0.00189201010 -1.18242295123 -0.17887228188 0.00192877481 -1.18179376375 -0.16736184296 0.00137634498 -1.23593609701 -0.33707753043 0.00138436865 -1.22493196043 -0.31133256360 0.00143015635 -1.21558413639 -0.28621533319 0.00150408963 -1.20778630241 -0.26206639966 0.00159655003 -1.20143213607 -0.23922632350 0.00169791908 -1.19641531489 -0.21803566517 0.00179857835 -1.19262951643 -0.19883498516 0.00188890936 -1.18996841824 -0.18196484393 0.00195929368 -1.18832569785 -0.16776580196 0.00200011283 -1.18759503282 -0.15657841973 0.00116861249 -1.24599002409 -0.32328862641 0.00128564325 -1.23342082533 -0.29610282363 0.00140352056 -1.22296307489 -0.27047466509 0.00151936018 -1.21443260789 -0.24654121944 0.00163027786 -1.20764525946 -0.22443955531 0.00173338933 -1.20241686474 -0.20430674134 0.00182581034 -1.19856325887 -0.18627984616 0.00190465665 -1.19590027697 -0.17049593841 0.00196704399 -1.19424375417 -0.15709208672 0.00201008811 -1.19340952562 -0.14620535973 0.00100572057 -1.25615286622 -0.30871633638 0.00118090209 -1.24205936293 -0.28104266904 0.00133763995 -1.23049648536 -0.25549166277 0.00147650916 -1.22121102818 -0.23206628839 0.00159808478 -1.21394978605 -0.21076951669 0.00170294182 -1.20845955365 -0.19160431848 0.00179165532 -1.20448712565 -0.17457366457 0.00186480031 -1.20177929672 -0.15968052576 0.00192295182 -1.20008286153 -0.14692787286 0.00196668488 -1.19914461474 -0.13631867668 0.00088002198 -1.26631004596 -0.29388346055 0.00107385542 -1.25072445938 -0.26645976592 0.00124313274 -1.23805840710 -0.24142937379 0.00138948946 -1.22799718284 -0.21871806137 0.00151456113 -1.22022608029 -0.19825160586 0.00161998328 -1.21443039315 -0.17995578447 0.00170739145 -1.21029541513 -0.16375637441 0.00177842116 -1.20750643993 -0.14957915289 0.00183470794 -1.20574876125 -0.13734989710 0.00187788734 -1.20470767280 -0.12699438426 0.00078386951 -1.27634698583 -0.27931279918 0.00096821347 -1.25929300082 -0.25266178036 0.00113061716 -1.24552287943 -0.22845084569 0.00127225396 -1.23466669144 -0.20657299322 0.00139429726 -1.22635450663 -0.18692122103 0.00149792044 -1.22021639477 -0.16938852716 0.00158429689 -1.21588242564 -0.15386790969 0.00165459999 -1.21298266902 -0.14025236666 0.00171000314 -1.21114719468 -0.12843489613 0.00175167972 -1.21000607240 -0.11830849618 0.00070961590 -1.28614910838 -0.26552715248 0.00086768649 -1.26764187340 -0.23995637843 0.00101071146 -1.25276394164 -0.21671912601 0.00113875556 -1.24109517354 -0.19570753881 0.00125188350 -1.23221542953 -0.17681376041 0.00135016001 -1.22570457005 -0.15992993441 0.00143364981 -1.22114245553 -0.14494820440 0.00150241763 -1.21810894641 -0.13176071395 0.00155652818 -1.21618390314 -0.12025960667 0.00159604621 -1.21494718613 -0.11033702614 0.00064961394 -1.29560183613 -0.25304932070 0.00077598469 -1.27564796328 -0.22865122623 0.00089403387 -1.25965563306 -0.20639726231 0.00100294714 -1.24715824871 -0.18619815297 0.00110191020 -1.23768921346 -0.16796462222 0.00119010871 -1.23078193053 -0.15160739408 0.00126672838 -1.22596980315 -0.13703719255 0.00133095486 -1.22278623455 -0.12416474166 0.00138197385 -1.22076462796 -0.11290076542 0.00141897103 -1.21943838661 -0.10315598784 0.00059621638 -1.30459059164 -0.24240210407 0.00069681833 -1.28318815660 -0.21905398983 0.00079120261 -1.26607199299 -0.19764830214 0.00087878159 -1.25273153651 -0.17812129056 0.00095896769 -1.24265622286 -0.16040920467 0.00103117328 -1.23533548773 -0.14444829401 0.00109481075 -1.23025876683 -0.13017480816 0.00114929250 -1.22691549585 -0.11752499666 0.00119403093 -1.22479511049 -0.10643510908 0.00122843840 -1.22338704645 -0.09684139498 0.00054177601 -1.31300079743 -0.23410830283 0.00063389764 -1.29013933951 -0.21147233531 0.00071283591 -1.27188706073 -0.19063529303 0.00078021181 -1.25769065650 -0.17155340644 0.00083764631 -1.24699682220 -0.15418290597 0.00088676042 -1.23925225321 -0.13848002208 0.00092917510 -1.23390364493 -0.12440098522 0.00096651136 -1.23039769275 -0.11190202583 0.00100039018 -1.22818109206 -0.10093937437 0.00103243253 -1.22670053824 -0.09146926127 </DataArray>
</PointData>
<Points>
<DataArray type="Float32" NumberOfComponents="3">
-0.85847496090 -0.71370723119 1.75298096481 -0.90008088824 -0.72121117128 1.77818602748 -0.93251523950 -0.72773257038 1.80389422201 -0.95699773704 -0.73328103606 1.82948855886 -0.97474810317 -0.73786617589 1.85435204850 -0.98698606026 -0.74149759743 1.87786770140 -0.99493133062 -0.74418490825 1.89941852802 -0.99980363662 -0.74593771591 1.91838753883 -1.00282270057 -0.74676562798 1.93415774430 -1.00520824483 -0.74667825203 1.94611215490 -0.79072025688 -0.70402079217 1.76552990086 -0.83037045332 -0.71299196038 1.79338304491 -0.86127708747 -0.72054227429 1.82035266487 -0.88458363743 -0.72675866640 1.84611146602 -0.90143358132 -0.73172806921 1.87033215361 -0.91297039724 -0.73553741521 1.89268743292 -0.92033756329 -0.73827363690 1.91285000921 -0.92467855758 -0.74002366676 1.93049258774 -0.92713685822 -0.74087443729 1.94528787377 -0.92885594332 -0.74091288098 1.95690857257 -0.71802668423 -0.69384359086 1.77943186703 -0.75723707758 -0.70437336730 1.80875495620 -0.78779431981 -0.71304498646 1.83624410557 -0.81081336260 -0.72001938527 1.86178006521 -0.82740915764 -0.72545750065 1.88524358519 -0.83869665662 -0.72952026954 1.90651541559 -0.84579081122 -0.73236862885 1.92547630648 -0.84980657312 -0.73416351551 1.94200700795 -0.85185889402 -0.73506586645 1.95598827005 -0.85306272560 -0.73523661860 1.96730084288 -0.64306894397 -0.68333639265 1.79414445728 -0.68255038959 -0.69549623533 1.82397620103 -0.71331061460 -0.70536432933 1.85139002669 -0.73646056963 -0.71317210816 1.87640527995 -0.75311120529 -0.71915100533 1.89904130649 -0.76437347220 -0.72353245434 1.91931745200 -0.77135832098 -0.72654788869 1.93725306217 -0.77517670223 -0.72842874191 1.95286748268 -0.77693956658 -0.72940644748 1.96618005921 -0.77775786464 -0.72971243892 1.97721013746 -0.56852173714 -0.67265996298 1.80912526561 -0.60818001790 -0.68650140775 1.83872121906 -0.63906964992 -0.69762392532 1.86561191082 -0.66229891561 -0.70632575057 1.88989803378 -0.67897609742 -0.71290511835 1.91168028080 -0.69020947778 -0.71766026355 1.93105934478 -0.69710733913 -0.72088942104 1.94813591860 -0.70077796389 -0.72289082569 1.96301069514 -0.70232963450 -0.72396271236 1.97578436728 -0.70287063340 -0.72440331594 1.98655762790 -0.49705976475 -0.66197506726 1.82383188597 -0.53599559110 -0.67752972784 1.85266444996 -0.56631510384 -0.68994739686 1.87873124055 -0.58910205763 -0.69958922797 1.90216925021 -0.60544020718 -0.70681637484 1.92311547139 -0.61641330715 -0.71198999112 1.94170689654 -0.62310511222 -0.71547123049 1.95808051810 -0.62659937708 -0.71762124660 1.97237332854 -0.62797985640 -0.71880119311 1.98472232030 -0.62833030486 -0.71937222369 1.99526448583 -0.43135772785 -0.65144247090 1.83772191236 -0.46786673775 -0.66872203888 1.86548033338 -0.49629065443 -0.68245836636 1.89056949846 -0.51764365279 -0.69307145586 1.91312985279 -0.53293990771 -0.70098130989 1.93330184154 -0.54319359409 -0.70660793098 1.95122590988 -0.54941888682 -0.71037132163 1.96704250301 -0.55262996078 -0.71269148437 1.98089206609 -0.55384099087 -0.71398842171 1.99291504431 -0.55406615197 -0.71468213617 2.00325188285 -0.37409032746 -0.64122293932 1.85025293875 -0.40566308642 -0.66021918414 1.87684330900 -0.43023997978 -0.67528045625 1.90094816715 -0.44869735817 -0.68688134972 1.92269076503 -0.46191157218 -0.69549645863 1.94219435451 -0.47075897241 -0.70160037706 1.95958218743 -0.47611590948 -0.70566769907 1.97497751565 -0.47885873398 -0.70817301875 1.98850359101 -0.47986379652 -0.70959093017 2.00028366536 -0.48000744770 -0.71039602741 2.01044099057 -0.32793226462 -0.63147723795 1.86088255911 -0.35125426567 -0.65216200693 1.88642781648 -0.36940675796 -0.66853728897 1.90968872919 -0.38303683086 -0.68112782506 1.93076291047 -0.39279157372 -0.69045835617 1.94974797358 -0.39931807590 -0.69705362330 1.96674153179 -0.40326342676 -0.70143836740 1.98184119834 -0.40527471566 -0.70413732947 1.99514458649 -0.40599903196 -0.70567525049 2.00674930949 -0.40608346502 -0.70657687142 2.01675298060 -0.29555824035 -0.62236613220 1.86906836741 -0.30650990409 -0.64469135050 1.89390829549 -0.31503466706 -0.66235248693 1.91661266717 -0.32143572796 -0.67591979735 1.93725721263 -0.32601628549 -0.68596353763 1.95591766204 -0.32907953835 -0.69305396363 1.97266974558 -0.33092868522 -0.69776133123 1.98758919342 -0.33186692481 -0.70065589628 2.00075173575 -0.33219745580 -0.70230791466 2.01223310274 -0.33222347689 -0.70328764222 2.02210902457 -0.90096471950 -0.74368555428 1.76838151087 -0.92991864326 -0.74840303909 1.78821744908 -0.95250893467 -0.75265238890 1.80947025678 -0.96960251646 -0.75636136255 1.83144467376 -0.98206631136 -0.75945771890 1.85344543984 -0.99076724209 -0.76186921681 1.87477729481 -0.99657223138 -0.76352361513 1.89474497848 -1.00034820196 -0.76434867272 1.91265323064 -1.00296207656 -0.76427214843 1.92780679109 -1.00528077789 -0.76322180113 1.93951039964 -0.80901159686 -0.73662510548 1.78274888715 -0.84323057927 -0.74228189431 1.80461390243 -0.86991076137 -0.74703933802 1.82672651779 -0.89004420244 -0.75090116370 1.84866558585 -0.90462296178 -0.75387109843 1.87000995925 -0.91463909869 -0.75595286930 1.89033849062 -0.92108467247 -0.75715020341 1.90923003259 -0.92495174240 -0.75746682782 1.92626343780 -0.92723236778 -0.75690646964 1.94101755887 -0.92891860792 -0.75547285595 1.95307124844 -0.72030709528 -0.72880569970 1.79764818763 -0.75886292117 -0.73548605540 1.82066256818 -0.78891009624 -0.74086538969 1.84310781999 -0.81154526512 -0.74501667905 1.86476219228 -0.82786507246 -0.74801289995 1.88540393432 -0.83896616290 -0.74992702885 1.90481129535 -0.84594518108 -0.75083204223 1.92276252462 -0.84989877165 -0.75080091656 1.93903587139 -0.85192357924 -0.74990662830 1.95340958489 -0.85311624850 -0.74822215394 1.96566191439 -0.63606049593 -0.72042657962 1.81269913614 -0.67765738111 -0.72819684769 1.83614310421 -0.71006297141 -0.73429245355 1.85849857357 -0.73444699452 -0.73884925992 1.87967938254 -0.75197917811 -0.74200312951 1.89959936943 -0.76382924987 -0.74388992503 1.91817237256 -0.77116693747 -0.74464550921 1.93531223024 -0.77516196858 -0.74440574476 1.95093278078 -0.77698407090 -0.74330649438 1.96494786250 -0.77780297209 -0.74148362080 1.97727131370 -0.55748107999 -0.71168698796 1.82752145654 -0.60045567124 -0.72059559654 1.85083516837 -0.63392541903 -0.72748243924 1.87278318873 -0.65909068067 -0.73254025761 1.89336204611 -0.67715181348 -0.73596179316 1.91256826897 -0.68930917478 -0.73793978743 1.93039838582 -0.69676312188 -0.73866698195 1.94684892512 -0.70071401209 -0.73833611824 1.96191641537 -0.70236220273 -0.73713993783 1.97559738504 -0.70290805111 -0.73527118226 1.98788836261 -0.48577812861 -0.70278616742 1.84173487268 -0.52809950370 -0.71286362729 1.86451841855 -0.56105347121 -0.72059725642 1.88584607567 -0.58581761358 -0.72623102344 1.90575507246 -0.60356951329 -0.73000889697 1.92428263732 -0.61548675279 -0.73217484563 1.94146599868 -0.62274691455 -0.73297283804 1.95734238494 -0.62652758103 -0.73264684283 1.97194902453 -0.62800633470 -0.73144082862 1.98532314586 -0.62836075802 -0.72959876403 1.99750197734 -0.42216092297 -0.69392336070 1.85495910839 -0.46143059066 -0.70518226529 1.87697251262 -0.49200316009 -0.71379881474 1.89757164459 -0.51496908327 -0.72006290873 1.91680335107 -0.53141881225 -0.72426444699 1.93471447885 -0.54244279906 -0.72669332921 1.95135187469 -0.54913149573 -0.72763945510 1.96676238536 -0.55257535430 -0.72739272436 1.98099285764 -0.55386482679 -0.72624303671 1.99409013830 -0.55409036524 -0.72448029184 2.00610107411 -0.36783874423 -0.68529781051 1.86681388754 -0.40129064426 -0.69773283590 1.88797710844 -0.42733051779 -0.70724902383 1.90784430567 -0.44688637976 -0.71417726479 1.92645177143 -0.46088624511 -0.71884844927 1.94383579795 -0.47025812876 -0.72159346775 1.96003267742 -0.47593004567 -0.72274321072 1.97507870206 -0.47883001075 -0.72262856866 1.98901016409 -0.47988603896 -0.72158043205 2.00186335572 -0.48002614523 -0.71992969139 2.01367456915 -0.32402087356 -0.67710875954 1.87691893397 -0.34852137665 -0.69069666444 1.89731186390 -0.36759157646 -0.70110979335 1.91654846912 -0.38191079308 -0.70871544294 1.93464522302 -0.39215834658 -0.71388090988 1.95161859899 -0.39901355706 -0.71697349084 1.96748507042 -0.40315574460 -0.71836048250 1.98226111071 -0.40526422928 -0.71840918154 1.99596319326 -0.40601833120 -0.71748688462 2.00860779145 -0.40609737043 -0.71596088842 2.02021137868 -0.29191659212 -0.66955545049 1.88489397151 -0.30396449998 -0.68425507628 1.90475643686 -0.31334236822 -0.69554303295 1.92356854513 -0.32038361323 -0.70381879448 1.94132859530 -0.32542165140 -0.70948183486 1.95803488635 -0.32878989911 -0.71293162806 1.97368571725 -0.33082177277 -0.71456764806 1.98827938699 -0.33185068875 -0.71478936884 2.00181419453 -0.33221006346 -0.71399626436 2.01428843886 -0.33223331327 -0.71258780863 2.02570041894 -0.93285232892 -0.77850361237 1.78768224610 -0.95231731564 -0.78053956834 1.80312625361 -0.96752404580 -0.78218515848 1.82047570838 -0.97907495283 -0.78339840349 1.83903492699 -0.98757247013 -0.78413732410 1.85810822606 -0.99361903114 -0.78435994103 1.87699992218 -0.99781706927 -0.78402427499 1.89501433194 -1.00076901793 -0.78308834669 1.91145577197 -1.00307731055 -0.78151017684 1.92562855884 -1.00534438055 -0.77924778618 1.93683700917 -0.82274367139 -0.77231677459 1.80272912485 -0.85289038401 -0.77484623459 1.81970443248 -0.87640128397 -0.77666498347 1.83764614903 -0.89415494528 -0.77777902994 1.85610388409 -0.90702994194 -0.77819438272 1.87462724723 -0.91590484793 -0.77791705052 1.89276584802 -0.92165823726 -0.77695304207 1.91006929606 -0.92516868394 -0.77530836607 1.92608720092 -0.92731476195 -0.77298903126 1.94036917218 -0.92897504529 -0.77000104634 1.95246481942 -0.72202594820 -0.76539802047 1.81783538597 -0.76009276691 -0.76851563225 1.83569609103 -0.78975869365 -0.77062836587 1.85385828596 -0.81210671042 -0.77178717944 1.87205130007 -0.82821979926 -0.77204303105 1.89000446269 -0.83918094216 -0.77144687880 1.90744710312 -0.84607312115 -0.77004968078 1.92410855067 -0.84997931825 -0.76790239510 1.93971813467 -0.85198251548 -0.76505597986 1.95400518442 -0.85316569485 -0.76156139315 1.96669902925 -0.63080918006 -0.75794815698 1.83272512857 -0.67399505480 -0.76172973995 1.85094110240 -0.70763641904 -0.76423706186 1.86902559113 -0.73294715358 -0.76556294092 1.88683149769 -0.75114113919 -0.76580019533 1.90421172500 -0.76343225666 -0.76504164329 1.92101917598 -0.77103438675 -0.76338010300 1.93710675357 -0.77516141025 -0.76090839267 1.95232736069 -0.77702720794 -0.75771933049 1.96653390026 -0.77784566059 -0.75390573466 1.97957927522 -0.54920338769 -0.75016799106 1.84712245174 -0.59466783811 -0.75467053631 1.86527933973 -0.63007460438 -0.75765282760 1.88306153653 -0.65669318009 -0.75924640330 1.90039879968 -0.67579305885 -0.75958280180 1.91722088670 -0.68864373424 -0.75879356144 1.93345755515 -0.69651469985 -0.75701022061 1.94903856255 -0.70067544927 -0.75436431767 1.96389366646 -0.70239547610 -0.75098739098 1.97795262439 -0.70294427393 -0.74701097892 1.99114519391 -0.47731859180 -0.74225832966 1.86075145458 -0.52218170729 -0.74751999996 1.87855067616 -0.55711339386 -0.75103741927 1.89587959414 -0.58336169529 -0.75297765552 1.91270752878 -0.60217465532 -0.75350777668 1.92900380036 -0.61480031773 -0.75279485068 1.94473772915 -0.62248672626 -0.75100594547 1.95987863542 -0.62648192469 -0.74830812898 1.97439583945 -0.62803395676 -0.74486846917 1.98825866151 -0.62839086624 -0.74085403398 2.00143642188 -0.41526481310 -0.73441997973 1.87333623620 -0.45660725279 -0.74046010953 1.89059498483 -0.48879293172 -0.74455259303 1.90739323593 -0.51296960450 -0.74689678651 1.92371200774 -0.53028502571 -0.74769204622 1.93953231852 -0.54188694995 -0.74713772844 1.95483518651 -0.54892313180 -0.74543318945 1.96960162997 -0.55254132585 -0.74277778551 1.98381266716 -0.55388928669 -0.73937087290 1.99744931632 -0.55411476891 -0.73541180788 2.01049259571 -0.36315207230 -0.72685374821 1.88460089570 -0.39801506504 -0.73367284366 1.90125213888 -0.42515336217 -0.73836010508 1.91751593388 -0.44553381307 -0.74114388518 1.93336655929 -0.46012326712 -0.74225253664 1.94877829372 -0.46988857372 -0.74191441216 1.96372541576 -0.47579658226 -0.74035786443 1.97818220401 -0.47881414211 -0.73781124614 1.99212293706 -0.47990810267 -0.73450290999 2.00552189351 -0.48004531332 -0.73066120867 2.01835335197 -0.32109039011 -0.71976044205 1.89426953218 -0.34647573451 -0.72734018095 1.91036201144 -0.36623482942 -0.73262171158 1.92616115996 -0.38107122632 -0.73585904047 1.94162550618 -0.39168847665 -0.73730617418 1.95671357853 -0.39879013187 -0.73721711927 1.97138390543 -0.40307974345 -0.73584588228 1.98559501532 -0.40526086283 -0.73344646977 1.99930543663 -0.40603704149 -0.73027288829 2.01247369779 -0.40611183088 -0.72657914440 2.02505832722 -0.28918978724 -0.71334086821 1.90206624474 -0.30205985163 -0.72164410006 1.91776447565 -0.31207747770 -0.72749916869 1.93324238616 -0.31959874959 -0.73118234130 1.94844317115 -0.32497975139 -0.73296988507 1.96331002549 -0.32857656721 -0.73313806719 1.97778614406 -0.33074528117 -0.73196315487 1.99181472172 -0.33184197738 -0.72972141528 2.00533895336 -0.33222273994 -0.72668911563 2.01830203384 -0.33224365296 -0.72314252311 2.03064715803 -0.95413501556 -0.81666614432 1.80995288552 -0.96727481464 -0.81598016863 1.82188542782 -0.97755891517 -0.81468812075 1.83587878111 -0.98541363477 -0.81285764369 1.85129371204 -0.99126529106 -0.81055638047 1.86749098726 -0.99554020166 -0.80785197408 1.88383137342 -0.99866468418 -0.80481206754 1.89967563717 -1.00106505624 -0.80150430387 1.91438454517 -1.00316763546 -0.79799632606 1.92731886405 -1.00539873944 -0.79435577713 1.93783936048 -0.83191684800 -0.81010465913 1.82485532426 -0.85935011620 -0.80951591930 1.83792319588 -0.88074869248 -0.80819276568 1.85234126088 -0.89691564100 -0.80620330126 1.86767806311 -0.90865402592 -0.80361562903 1.88350214644 -0.91676691141 -0.80049785198 1.89938205473 -0.92205736163 -0.79691807310 1.91488633183 -0.92532844074 -0.79294439537 1.92958352160 -0.92738321291 -0.78864492179 1.94304216789 -0.92902474230 -0.78408775533 1.95483081457 -0.72318573851 -0.80302933163 1.83962740207 -0.76092841998 -0.80266495757 1.85335675194 -0.79034125988 -0.80143457743 1.86793035537 -0.81249824443 -0.79941275887 1.88306921834 -0.82847335988 -0.79667406952 1.89849434683 -0.83934059245 -0.79329307705 1.91392674684 -0.84617392839 -0.78934434910 1.92908742435 -0.85004735392 -0.78490245331 1.94369738534 -0.85203485528 -0.78004195735 1.95747763581 -0.85321041870 -0.77483742885 1.97014918174 -0.62731874259 -0.79562034471 1.85404920609 -0.67156610180 -0.79558381035 1.86804990317 -0.70603272070 -0.79454877034 1.88256238388 -0.73196201460 -0.79260107150 1.89741269514 -0.75059739883 -0.78982656066 1.91242688391 -0.76318228869 -0.78631108463 1.92743099712 -0.77096009949 -0.78214049024 1.94225108170 -0.77517424655 -0.77740062431 1.95671318459 -0.77706814519 -0.77217733365 1.97064335274 -0.77788521070 -0.76655646510 1.98386763308 -0.54369291573 -0.78805788124 1.86790082346 -0.59081953747 -0.78842900452 1.88186645672 -0.62751917828 -0.78767055871 1.89615366568 -0.65510752106 -0.78588329415 1.91065401096 -0.67490024867 -0.78316796115 1.92525905317 -0.68821304401 -0.77962531007 1.93986035292 -0.69636158996 -0.77535609123 1.95434947084 -0.70066156941 -0.77046105496 1.96861796754 -0.70242866523 -0.76504095160 1.98255740362 -0.70297856032 -0.75919653148 1.99605933972 -0.47168531343 -0.78052212411 1.88096234135 -0.51824510283 -0.78135706698 1.89467021976 -0.55449673599 -0.78093515687 1.90862052008 -0.58173533333 -0.77937448177 1.92273868321 -0.60125601530 -0.77679312972 1.93695015009 -0.61435390232 -0.77330918871 1.95118036163 -0.62232411483 -0.76904074676 1.96535475875 -0.62646177326 -0.76410589188 1.97939878236 -0.62806199804 -0.75862271209 1.99323787340 -0.62841990961 -0.75270929540 2.00679747277 -0.41067299118 -0.77319325619 1.89301384689 -0.45339917370 -0.77452452461 1.90632499945 -0.48666149714 -0.77447777911 1.91987926635 -0.51164602096 -0.77318968936 1.93361222934 -0.52953880460 -0.77079692506 1.94745947017 -0.54152590751 -0.76743615589 1.96135657060 -0.54879338911 -0.76324405154 1.97523911238 -0.55252730887 -0.75835728169 1.98904267726 -0.55391372621 -0.75291251603 2.00270284699 -0.55413870059 -0.74704642426 2.01615520334 -0.36003300449 -0.76625146037 1.90383542724 -0.39583812589 -0.76808790431 1.91669460295 -0.42370956510 -0.76843363976 1.92984622379 -0.44464015350 -0.76744397190 1.94322016676 -0.45962272249 -0.76527420590 1.95674630889 -0.46965010347 -0.76207964696 1.97035452720 -0.47571512785 -0.75801560027 1.98397469870 -0.47881062702 -0.75323737099 1.99753670041 -0.47992943237 -0.74790026433 2.01097040935 -0.48006437531 -0.74215958547 2.02420570254 -0.31914240884 -0.75987691953 1.91320716955 -0.34511833525 -0.76220373298 1.92564283743 -0.36533704319 -0.76293795314 1.93843771167 -0.38051830046 -0.76225238435 1.95150801290 -0.39138187484 -0.76031983095 1.96476996174 -0.39864753411 -0.75731309727 1.97813977879 -0.40303504606 -0.75340498764 1.99153368467 -0.40526417847 -0.74876830640 2.00486790001 -0.40605469912 -0.74357585789 2.01805864541 -0.40612637581 -0.73800044643 2.03102214150 -0.28737825973 -0.75424981655 1.92090916095 -0.30079617758 -0.75702853749 1.93303351003 -0.31124003477 -0.75812593355 1.94557004930 -0.31908103141 -0.75772998171 1.95842128521 -0.32469036757 -0.75602865892 1.97148972420 -0.32843924333 -0.75320994215 1.98467787274 -0.33069885878 -0.74946180837 1.99788823726 -0.33184041400 -0.74497223453 2.01102332424 -0.33223510908 -0.73992919761 2.02398564010 -0.33225414410 -0.73452067456 2.03667769131 -0.96481000580 -0.85667788896 1.83426314416 -0.97478904951 -0.85308424956 1.84346795843 -0.98261188505 -0.84851851736 1.85464767926 -0.98861715095 -0.84320456795 1.86725542239 -0.99314348573 -0.83736627694 1.88074430355 -0.99652952792 -0.83122751993 1.89456743849 -0.99911391603 -0.82501217253 1.90817794292 -1.00123528861 -0.81894411032 1.92102893259 -1.00323228415 -0.81324720892 1.93257352322 -1.00544354120 -0.80814534393 1.94226483055 -0.83653149423 -0.84899761875 1.84851219570 -0.86261002452 -0.84512188650 1.85853875346 -0.88295302407 -0.84039623968 1.87004155559 -0.89832606461 -0.83498501379 1.88263982529 -0.90949471788 -0.82905254433 1.89595278580 -0.91722455560 -0.82276316681 1.90959966032 -0.92228114952 -0.81628121673 1.92319967208 -0.92543007136 -0.80977102959 1.93637204430 -0.92743689287 -0.80339694089 1.94873600019 -0.92906718578 -0.79732328613 1.95991076297 -0.72378896176 -0.84110841162 1.86265817592 -0.76137168555 -0.83713689106 1.87314577813 -0.79065894274 -0.83238468679 1.88475888011 -0.81272041304 -0.82697528976 1.89723777683 -0.82862577616 -0.82103219095 1.91032276329 -0.83944471182 -0.81467888130 1.92375413447 -0.84624689973 -0.80803885179 1.93727218535 -0.85010201962 -0.80123559337 1.95061721094 -0.85207975119 -0.79439259701 1.96352950620 -0.85324977416 -0.78763335366 1.97574936613 -0.62559292976 -0.83316236277 1.87649814023 -0.67037321326 -0.82924795714 1.88714921407 -0.70525363957 -0.82457819507 1.89870025629 -0.73149254536 -0.81925157200 1.91097404465 -0.75034826731 -0.81336658336 1.92379335690 -0.76307914209 -0.80702172458 1.93698097082 -0.77094350638 -0.80031549109 1.95035966416 -0.77519969683 -0.79334637832 1.96375221469 -0.77710605013 -0.78621288172 1.97698140017 -0.77792090295 -0.77901349671 1.98986999835 -0.54095391958 -0.82531156745 1.88982914400 -0.58891378829 -0.82157377865 1.90040924292 -0.62626111307 -0.81707110092 1.91176628763 -0.65433481073 -0.81189003662 1.92377339642 -0.67447379808 -0.80611708813 1.93630368755 -0.68801699195 -0.79983875780 1.94923027930 -0.69630330914 -0.79314154800 1.96242628994 -0.70067166646 -0.78611196110 1.97576483775 -0.70246098073 -0.77883649947 1.98911904100 -0.70301016876 -0.77140166548 2.00236201797 -0.46888245258 -0.81770812088 1.90244824266 -0.51629259131 -0.81423304949 1.91278604632 -0.55320536176 -0.80995774071 1.92385757761 -0.58093955827 -0.80496685974 1.93556059979 -0.60081397521 -0.79934507182 1.94779287610 -0.61414740690 -0.79317704214 1.96045216979 -0.62225864770 -0.78654743592 1.97343624411 -0.62646649196 -0.77954091837 1.98664286230 -0.62808973402 -0.77224215471 1.99996978762 -0.62844716823 -0.76473581015 2.01331478330 -0.40838905013 -0.81050411829 1.91415249159 -0.45180880297 -0.80734446356 1.92413980590 -0.48561038415 -0.80333245082 1.93487472971 -0.51099913714 -0.79855821749 1.94626042243 -0.52918040542 -0.79311190099 1.95820004346 -0.54135953247 -0.78708363876 1.97059675221 -0.54874186178 -0.78056356822 1.98335370810 -0.55253273680 -0.77364182678 1.99637407054 -0.55393750103 -0.76640855188 2.00956099892 -0.55416149795 -0.75895388094 2.02281765267 -0.35848423357 -0.80385165492 1.92473894619 -0.39476160394 -0.80102671477 1.93433070332 -0.42300017876 -0.79728956763 1.94471834742 -0.44420589647 -0.79274028597 1.95579763198 -0.45938469547 -0.78747894222 1.96746431050 -0.46954251419 -0.78160560885 1.97961413646 -0.47568529104 -0.77522035829 1.99214286334 -0.47881896444 -0.76842326300 2.00494624463 -0.47994947280 -0.76131439543 2.01792003382 -0.48008275455 -0.75399382802 2.03095998440 -0.31817852427 -0.79790282599 1.93400466187 -0.34445017486 -0.79539849701 1.94321892020 -0.36489874411 -0.79192342754 1.95328903421 -0.38025218540 -0.78758924131 1.96409699612 -0.39123845209 -0.78250756207 1.97552479813 -0.39858549757 -0.77679001355 1.98745443244 -0.40302127519 -0.77054821951 1.99976789126 -0.40527373832 -0.76389380368 2.01234716679 -0.40607084035 -0.75693838980 2.02507425124 -0.40614053464 -0.74979360161 2.03783113682 -0.28648244359 -0.79280972672 1.94174669401 -0.30017369640 -0.79057850420 1.95066463819 -0.31083007872 -0.78732836692 1.96048739359 -0.31883035308 -0.78318125964 1.97108328250 -0.32455328203 -0.77825912710 1.98232062723 -0.32837762813 -0.77268391406 1.99406775005 -0.33068215391 -0.76657756527 2.00619297328 -0.33184562193 -0.76006202548 2.01856461919 -0.33224679472 -0.75325923944 2.03105101008 -0.33226443484 -0.74629115190 2.04352046824 -0.96487452603 -0.89704358515 1.85968273706 -0.97485792951 -0.89021122076 1.86684683217 -0.98268129772 -0.88203358995 1.87575060711 -0.98868409000 -0.87290466107 1.88595445153 -0.99320576571 -0.86321840250 1.89701875505 -0.99658578417 -0.85336878257 1.90850390731 -0.99916360474 -0.84374976965 1.91997029794 -1.00127868675 -0.83475533210 1.93097831657 -1.00327048954 -0.82677943827 1.94108835284 -1.00547847246 -0.82021605652 1.94986079637 -0.83658797760 -0.88800451310 1.87308444948 -0.86267035764 -0.88049507429 1.88081966607 -0.88301431594 -0.87204896052 1.88997673544 -0.89838599115 -0.86293520367 1.90024087300 -0.90955152194 -0.85342283559 1.91129729418 -0.91727704696 -0.84378088814 1.92283121438 -0.92232870488 -0.83427839319 1.93452784902 -0.92547263435 -0.82518438260 1.94607241351 -0.92747497404 -0.81676788823 1.95715012325 -0.92910186260 -0.80929794194 1.96744619367 -0.72383811348 -0.87904403886 1.88656164754 -0.76142436881 -0.87113429241 1.89456439681 -0.79071289008 -0.86257935635 1.90377871205 -0.81277376215 -0.85355664456 1.91397880530 -0.82867706993 -0.84424357090 1.92493888858 -0.83949289830 -0.83481754925 1.93643317394 -0.84629133213 -0.82545599348 1.94823587340 -0.85014245631 -0.81633631746 1.96012119899 -0.85211635574 -0.80763593508 1.97186336275 -0.85328311528 -0.79953226020 1.98323657670 -0.62563548781 -0.87029343113 1.89989870251 -0.67041908033 -0.86221107856 1.90791874266 -0.70530093886 -0.85367595213 1.91703051287 -0.73153971365 -0.84480236274 1.92706661595 -0.75039405494 -0.83570462129 1.93785965471 -0.76312261300 -0.82649703865 1.94924223196 -0.77098403807 -0.81729392572 1.96104695051 -0.77523698040 -0.80820959339 1.97310641318 -0.77714009025 -0.79935835255 1.98525322277 -0.77795201787 -0.79085451410 1.99731998211 -0.54099065472 -0.86188395864 1.91287998563 -0.58895360952 -0.85380763615 1.92072042190 -0.62630238104 -0.84538992254 1.92960611384 -0.65437615628 -0.83670573722 1.93940267252 -0.67451412223 -0.82782999961 1.94997570902 -0.68805546590 -0.81883762911 1.96119083442 -0.69633937429 -0.80980354513 1.97291365980 -0.70070503439 -0.80080266709 1.98500979624 -0.70249163320 -0.79190991440 1.99734485480 -0.70303835771 -0.78320020646 2.00978444658 -0.46891416836 -0.85394689011 1.92528986818 -0.51632707370 -0.84600616862 1.93280715279 -0.55324113535 -0.83777244227 1.94137949086 -0.58097540068 -0.82930014699 1.95088534254 -0.60084891705 -0.82064371872 1.96120316797 -0.61418073183 -0.81185759339 1.97221142731 -0.62228989236 -0.80299620694 1.98378858071 -0.62649544603 -0.79411399528 1.99581308832 -0.62811644018 -0.78526539437 2.00816341030 -0.62847192218 -0.77650484012 2.02071800679 -0.40841658285 -0.84661349426 1.93691272141 -0.45183859018 -0.83888887940 1.94401665361 -0.48564112054 -0.83087468601 1.95222461987 -0.51102975751 -0.82261897106 1.96141299356 -0.52921008467 -0.81416979149 1.97145814801 -0.54138768560 -0.80557520427 1.98223645660 -0.54876814388 -0.79688326634 1.99362429268 -0.55255704309 -0.78814203466 2.00549802960 -0.55395996680 -0.77939956619 2.01773404072 -0.55418249861 -0.77070391788 2.03020869939 -0.35850845234 -0.84001503980 1.94753291658 -0.39478727630 -0.83253797191 1.95418664261 -0.42302625535 -0.82474782845 1.96201547679 -0.44423153741 -0.81669558841 1.97088399312 -0.45940927034 -0.80843223077 1.98065676561 -0.46956560205 -0.80000873449 1.99119836829 -0.47570668042 -0.79147607855 2.00237337516 -0.47883865334 -0.78288524194 2.01404636023 -0.47996766869 -0.77428720362 2.02608189753 -0.48009987437 -0.76573294257 2.03834456106 -0.31820033096 -0.83428279545 1.95693482495 -0.34447224935 -0.82703564958 1.96315483808 -0.36492045853 -0.81944304428 1.97062603754 -0.38027305101 -0.81156337806 1.97919670877 -0.39125811933 -0.80345504941 1.98871513723 -0.39860375600 -0.79517645682 1.99902960835 -0.40303805357 -0.78678599879 2.00998840759 -0.40528910454 -0.77834207382 2.02143982039 -0.40608500145 -0.76990308039 2.03323213220 -0.40615383683 -0.76152741701 2.04521362847 -0.28650277285 -0.82954802994 1.96490281778 -0.30019262667 -0.82246411584 1.97075895828 -0.31084764880 -0.81501150818 1.97793027805 -0.31884660896 -0.80725571899 1.98624950806 -0.32456827688 -0.79926226027 1.99554937930 -0.32839142228 -0.79109664403 2.00566262276 -0.33069481490 -0.78282438228 2.01642196940 -0.33185722446 -0.77451098702 2.02766015022 -0.33225742069 -0.76622197026 2.03920989618 -0.33227417332 -0.75802284401 2.05090393828 -0.95432580265 -0.93626797175 1.88528137925 -0.96747936390 -0.92572049182 1.89099503578 -0.97776549545 -0.91359058014 1.89815576897 -0.98561304059 -0.90042340785 1.90642519295 -0.99145084258 -0.88676414608 1.91546492186 -0.99570774469 -0.87315796596 1.92493656982 -0.99881259020 -0.86015003865 1.93450175098 -1.00119422238 -0.84828553527 1.94382207946 -1.00328148451 -0.83810962695 1.95255916940 -1.00550321986 -0.83016748485 1.96037463494 -0.83208666564 -0.92613420182 1.89795679592 -0.85953136423 -0.91446642074 1.90403449452 -0.88093260527 -0.90192448325 1.91137650269 -0.89709519565 -0.88886490703 1.91973290862 -0.90882394225 -0.87564420975 1.92885380049 -0.91692365196 -0.86261890909 1.93848926651 -0.92219913166 -0.85014552270 1.94838939485 -0.92545518825 -0.83858056827 1.95830427371 -0.92749662860 -0.82828056346 1.96798399129 -0.92912825960 -0.81960202595 1.97717863576 -0.72333568919 -0.91624499180 1.91097175694 -0.76108827492 -0.90386002133 1.91711383518 -0.79050424970 -0.89111924855 1.92442470308 -0.81265883768 -0.87823869568 1.93271413350 -0.82862726304 -0.86543438494 1.94179189926 -0.83948474993 -0.85292233856 1.95146777322 -0.84630652252 -0.84091857876 1.96155152820 -0.85016780498 -0.82963912776 1.97185293705 -0.85214382147 -0.81930000778 1.98218177261 -0.85330979616 -0.81011724106 1.99234780771 -0.62745016297 -0.90673276976 1.92407766446 -0.67170639416 -0.89396207284 1.93003819650 -0.70617638177 -0.88119265759 1.93714445812 -0.73210448724 -0.86854136406 1.94524147880 -0.75073507201 -0.85612503230 1.95417428806 -0.76331249753 -0.84406050237 1.96378791538 -0.77108112525 -0.83246461430 1.97392739028 -0.77528531660 -0.82145420816 1.98443774225 -0.77716943304 -0.81114612399 1.99516400080 -0.77797783601 -0.80165720184 2.00595119542 -0.54380737663 -0.89772996378 1.93702592063 -0.59094202012 -0.88483335449 1.94261271725 -0.62764495451 -0.87216249190 1.94937985576 -0.65523266487 -0.85976950244 1.95718755573 -0.67502163626 -0.84770651250 1.96589603676 -0.68832835373 -0.83602564849 1.97536551845 -0.69646930234 -0.82477903683 1.98545622037 -0.70076096716 -0.81401880392 1.99602836213 -0.70251983324 -0.80379707617 2.00694216330 -0.70306238564 -0.79416597999 2.01805784348 -0.47178461985 -0.88936900193 1.94956792758 -0.51835145098 -0.87653464551 1.95464253617 -0.55460592096 -0.86404653304 1.96097498396 -0.58184389113 -0.85191970108 1.96842497549 -0.60136122285 -0.84016918619 1.97685221528 -0.61445377744 -0.82881002491 1.98611640785 -0.62241741627 -0.81785725381 1.99607725774 -0.62654800067 -0.80732590945 2.00659446946 -0.62814139198 -0.79723102838 2.01752774755 -0.62849345155 -0.78758764717 2.02873679654 -0.41075918229 -0.88178231230 1.96145508746 -0.45349098491 -0.86912672515 1.96593279200 -0.48675523413 -0.85686256255 1.97177393070 -0.51173868657 -0.84498855026 1.97882634928 -0.52962809886 -0.83350341403 1.98693789348 -0.54161022763 -0.82240587961 1.99595640903 -0.54887182953 -0.81169467275 2.00572974165 -0.55259966117 -0.80136851920 2.01610573706 -0.55398047919 -0.79142614472 2.02693224100 -0.55420104022 -0.78186627506 2.03805709919 -0.36010835360 -0.87510232295 1.97243880242 -0.39591692010 -0.86267037262 1.97628862350 -0.42378884706 -0.85062836197 1.98162078392 -0.44471757173 -0.83897264025 1.98826428832 -0.45969653137 -0.82769955670 1.99604814128 -0.46971916324 -0.81680546057 2.00480134742 -0.47577890459 -0.80628670112 2.01435291136 -0.47886919269 -0.79613962760 2.02453183771 -0.47998346479 -0.78636058926 2.03516713107 -0.48011515814 -0.77694593534 2.04608779605 -0.31920942345 -0.86946146196 1.98227047459 -0.34518555472 -0.85722636717 1.98551516941 -0.36540271278 -0.84536171285 1.99035963161 -0.38058106717 -0.83386856130 1.99661140379 -0.39144078746 -0.82274797484 2.00407802855 -0.39870204321 -0.81200101577 2.01256704847 -0.40308500396 -0.80162874641 2.02188600616 -0.40530983927 -0.79163222907 2.03184244420 -0.40609671869 -0.78201252606 2.04224390520 -0.40616581179 -0.77277069970 2.05289793175 -0.28743968150 -0.86499215742 1.99070150612 -0.30085318695 -0.85285548804 1.99341756848 -0.31129278431 -0.84108039673 1.99783456172 -0.31912969345 -0.82967290370 2.00374030692 -0.32473513421 -0.81863902912 2.01092262518 -0.32848032648 -0.80798479320 2.01916933761 -0.33073649009 -0.79771621611 2.02826826530 -0.33187484493 -0.78783931806 2.03800722934 -0.33226661083 -0.77836011922 2.04817405084 -0.33228300768 -0.76928463980 2.05855655089 -0.93316106205 -0.97285578760 1.91012878575 -0.95265126193 -0.95797147236 1.91488555600 -0.96786282053 -0.94154672959 1.92083136912 -0.97940259135 -0.92422629308 1.92770204014 -0.98787742791 -0.90665489665 1.93523338408 -0.99389418373 -0.88947727410 1.94316121596 -0.99805971233 -0.87333815924 1.95122135079 -1.00098086724 -0.85888228587 1.95914960360 -1.00326450196 -0.84675438781 1.96668178942 -1.00551747002 -0.83759919887 1.97355372325 -0.82302792588 -0.96239554455 1.92251394532 -0.85319329295 -0.94586686393 1.92745179965 -0.87670792925 -0.92879636291 1.93347055961 -0.89445345313 -0.91158516002 1.94036763450 -0.90731148294 -0.89463437380 1.94794043362 -0.91616363706 -0.87834512277 1.95598636628 -0.92189153383 -0.86311852549 1.96430284177 -0.92537679161 -0.84935570047 1.97268726940 -0.92750102877 -0.83745776625 1.98093705848 -0.92914586365 -0.82782584137 1.98884961830 -0.72228418443 -0.95212004889 1.93552244412 -0.76036520907 -0.93451693753 1.94029532045 -0.79003416945 -0.91710502580 1.94613170509 -0.81237618553 -0.90010331556 1.95286559119 -0.82847637731 -0.88373080866 1.96033097186 -0.83941986476 -0.86820650693 1.96836184024 -0.84629176786 -0.85374941225 1.97679218946 -0.85017720659 -0.84057852644 1.98545601265 -0.85216130093 -0.82891285137 1.99418730293 -0.85332917086 -0.81897138887 2.00282005345 -0.63104070148 -0.94219959863 1.94886179762 -0.67423784590 -0.92398983823 1.95318728315 -0.70788173151 -0.90647892752 1.95863339651 -0.73318783393 -0.88975649628 1.96504970294 -0.75137162882 -0.87391217427 1.97228576767 -0.76364859182 -0.85903559126 1.98019115595 -0.77123419859 -0.84521637701 1.98861543302 -0.77534392476 -0.83254416130 1.99740816411 -0.77719324598 -0.82110857390 2.00641891447 -0.77799763790 -0.81099924456 2.01549724934 -0.54940834080 -0.93280449182 1.96223952127 -0.59488203905 -0.91435371113 1.96589885255 -0.63029080581 -0.89692427734 1.97079422484 -0.65690544369 -0.88052043876 1.97677376252 -0.67599675530 -0.86514644368 1.98368558996 -0.68883554327 -0.85080654042 1.99137783153 -0.69669261021 -0.83750497728 1.99969861161 -0.70083875873 -0.82524600256 2.00849605457 -0.70254479146 -0.81403386457 2.01761828477 -0.70308151102 -0.80387281160 2.02691342660 -0.47749796616 -0.92410502647 1.97536313053 -0.52236862413 -0.90567670130 1.97820119340 -0.55730158275 -0.88844728451 1.98243278103 -0.58354606018 -0.87237087956 1.98789156268 -0.60235127458 -0.85740158994 1.99441120761 -0.61496644410 -0.84349351911 2.00182538509 -0.62264078689 -0.83060077055 2.00996776440 -0.62662352111 -0.81867744772 2.01867201478 -0.62816386490 -0.80767765410 2.02777180551 -0.62851103644 -0.79755549316 2.03710080585 -0.41542044135 -0.91627150062 1.98794014086 -0.45676843673 -0.89802695383 1.98986547050 -0.48895425271 -0.88105415829 1.99336765604 -0.51312672878 -0.86528355528 1.99825689616 -0.53043470448 -0.85064558609 2.00434338951 -0.54202701932 -0.83707069200 2.01143733475 -0.54905251281 -0.82448931431 2.01934893053 -0.55266002448 -0.81283189429 2.02788837552 -0.55399839384 -0.80202887323 2.03686586837 -0.55421646041 -0.79201069243 2.04609160774 -0.36328663012 -0.90947421229 1.99967806773 -0.39815231248 -0.89147261381 2.00066284861 -0.42528900606 -0.87475110796 2.00341744084 -0.44566449486 -0.85923420249 2.00772355572 -0.46024656282 -0.84484640517 2.01336290455 -0.47000299393 -0.83151222377 2.02011719860 -0.47590157215 -0.81915616605 2.02776814917 -0.47891008146 -0.80770273977 2.03609746755 -0.47999630581 -0.79707645269 2.04488686503 -0.48012802918 -0.78720181257 2.05391805289 -0.32120739627 -0.90388345953 2.01028442659 -0.34659108696 -0.88608182632 2.01036449250 -0.36634603321 -0.86954434276 2.01240072638 -0.38117640377 -0.85419855776 2.01614533412 -0.39178636743 -0.83997202024 2.02135052162 -0.39888009295 -0.82679227911 2.02776849477 -0.40316174909 -0.81458688328 2.03515145948 -0.40533550464 -0.80328338167 2.04325162165 -0.40610552834 -0.79280932319 2.05182118717 -0.40617598898 -0.78309225676 2.06061236194 -0.28929360357 -0.89966954035 2.01946673289 -0.30215559580 -0.88192273644 2.01874156697 -0.31216552452 -0.86544007196 2.02013610363 -0.31967950091 -0.85015235767 2.02337602410 -0.32505363613 -0.83599040433 2.02818700960 -0.32864404137 -0.82288502268 2.03429474137 -0.33080682781 -0.81076702348 2.04142490062 -0.33189810662 -0.79956721750 2.04930316857 -0.33227398898 -0.78921641547 2.05765522647 -0.33229058606 -0.77964542817 2.06620675552 -0.90137753061 -1.00531177155 1.93329467159 -0.93037153287 -0.98532357199 1.93749137955 -0.95297161522 -0.96425927992 1.94274561185 -0.97005133093 -0.94277880157 1.94881938659 -0.98248423328 -0.92154204317 1.95547472183 -0.99114387555 -0.90120891094 1.96247363565 -0.99690381104 -0.88243931114 1.96957814614 -1.00063759302 -0.86589314997 1.97655027135 -1.00321877477 -0.85223033369 1.98315202938 -1.00552090958 -0.84211076852 1.98914543829 -0.80941212585 -0.99579740094 1.94614060799 -0.84365639248 -0.97352734195 1.95034014230 -0.87034032506 -0.95143815454 1.95548860848 -0.89046053861 -0.92990699876 1.96139675304 -0.90501364816 -0.90931103468 1.96787532247 -0.91499626872 -0.89002742233 1.97473506328 -0.92140501532 -0.87243332177 1.98178672197 -0.92523650298 -0.85690589306 1.98884104504 -0.92748734673 -0.84382229624 1.99570877901 -0.92915416158 -0.83355969138 2.00220067036 -0.72068609473 -0.98607798856 1.95984764909 -0.75925697643 -0.96230790069 1.96361007983 -0.78930379714 -0.93963735052 1.96833456996 -0.81192635160 -0.91823237663 1.97385500811 -0.82822443458 -0.89825901761 1.98000528290 -0.83929784082 -0.87988331206 1.98661928295 -0.84624636508 -0.86327129855 1.99353089689 -0.85016980211 -0.84858901569 2.00057401332 -0.85216794665 -0.83600250206 2.00758252088 -0.85334059347 -0.82567779625 2.01439030819 -0.63641084958 -0.97641313771 1.97407787349 -0.67801612671 -0.95178327297 1.97704571016 -0.71041875126 -0.92888537801 1.98108863256 -0.73479072149 -0.90773567974 1.98604235812 -0.75230403566 -0.88835040505 1.99174260429 -0.76413069199 -0.87074578084 1.99802508852 -0.77144268876 -0.85493803402 2.00472552826 -0.77541202420 -0.84094339148 2.01167964095 -0.77721069656 -0.82877808011 2.01872314403 -0.77801070410 -0.81845832683 2.02569175495 -0.55779780269 -0.96706245171 1.98849335982 -0.60077668528 -0.94207148353 1.99039155136 -0.63424190725 -0.91921074717 1.99355593254 -0.65939559990 -0.89839765267 1.99780700936 -0.67743989451 -0.87954961006 2.00296528779 -0.68957692239 -0.86258402940 2.00885127383 -0.69700881481 -0.84741832070 2.01528547347 -0.70093770308 -0.83396989402 2.02208839269 -0.70256571848 -0.82215615939 2.02908053748 -0.70309499230 -0.81189452684 2.03608241384 -0.48605836638 -0.95828553385 2.00275618670 -0.52838149412 -0.93329055711 2.00339212147 -0.56132998492 -0.91064196814 2.00554160619 -0.58608293841 -0.89019904000 2.00899716813 -0.60381945427 -0.87182104574 2.01355133455 -0.61571863214 -0.85536725843 2.01899663271 -0.62295957169 -0.84069695114 2.02512558987 -0.62672137256 -0.82766939692 2.03173073331 -0.62818313443 -0.81614386885 2.03860459028 -0.62852395693 -0.80597963998 2.04553968804 -0.42240395295 -0.95034198744 2.01652843273 -0.46167339522 -0.92555851848 2.01579193853 -0.49223970408 -0.90320755109 2.01685078977 -0.51519468865 -0.88312058630 2.01946104074 -0.53163015804 -0.86512912515 2.02337874573 -0.54263792140 -0.84906466866 2.02835995900 -0.54930978783 -0.83475871786 2.03416073486 -0.55273756647 -0.82204277379 2.04053712758 -0.55401306643 -0.81074833748 2.04724519144 -0.55422809684 -0.80070690996 2.05404098074 -0.36804597472 -0.94349141578 2.02947217654 -0.40149523055 -0.91899339236 2.02733552059 -0.42752778456 -0.89693600616 2.02728861956 -0.44707280221 -0.87714303616 2.02904683350 -0.46105944897 -0.85943826137 2.03232552248 -0.47041689031 -0.84364546078 2.03684004655 -0.47607429170 -0.82958841341 2.04230576579 -0.47896081860 -0.81709089823 2.04843804026 -0.48000563650 -0.80597669426 2.05495223001 -0.48013791085 -0.79606958049 2.06156369511 -0.32419584398 -0.93799342219 2.04124949675 -0.34868984208 -0.91371320352 2.03776738570 -0.36775094616 -0.89185584350 2.03666023182 -0.38205923070 -0.87224713414 2.03760275269 -0.39229477015 -0.85471286748 2.04026966595 -0.39913763901 -0.83907883553 2.04433568920 -0.40326791173 -0.82517083031 2.04947554005 -0.40536566279 -0.81281464384 2.05536393612 -0.40611096667 -0.80183606816 2.06167559502 -0.40618389783 -0.79206089527 2.06808523436 -0.29206497306 -0.93410760995 2.05152247196 -0.30410007180 -0.90983597669 2.04683205191 -0.31346590871 -0.88799557326 2.04477076282 -0.32049592572 -0.86841362483 2.04497700464 -0.32552356473 -0.85091735656 2.04708917731 -0.32888226765 -0.83533399359 2.05074568078 -0.33090547639 -0.82149076110 2.05558491500 -0.33192663285 -0.80921488423 2.06124527992 -0.33227917896 -0.79833358815 2.06736517549 -0.33229655661 -0.78867409801 2.07358300165 -0.85897243473 -1.03214066246 1.95384875181 -0.90063808598 -1.00613620033 1.95778549317 -0.93309022180 -0.98008547278 1.96286670146 -0.95755784798 -0.95454641811 1.96881162579 -0.97526997026 -0.93007697459 1.97533951522 -0.98745559443 -0.90723508048 1.98216961885 -0.99534372624 -0.88657867407 1.98902118576 -1.00016337146 -0.86866569363 1.99561346504 -1.00314353585 -0.85405407743 2.00166570577 -1.00551322519 -0.84330176375 2.00689715704 -0.79123963307 -1.02534863062 1.96822149426 -0.83092091149 -0.99627879287 1.97196808330 -0.86182982990 -0.96862341318 1.97666035156 -0.88511622714 -0.94264145940 1.98207196659 -0.90192994204 -0.91859189935 1.98797659592 -0.91342081341 -0.89673370087 1.99414790710 -0.92073868010 -0.87732583178 2.00035956765 -0.92503338092 -0.86062725992 2.00638524513 -0.92745475470 -0.84689695311 2.01199860707 -0.92915264026 -0.83639387919 2.01697332101 -0.71854391563 -1.01752758924 1.98358131186 -0.75776538218 -0.98643577053 1.98655934053 -0.78831428060 -0.95781688512 1.99046814957 -0.81130988180 -0.93170775131 1.99510421403 -0.82787145669 -0.90814518738 2.00026400894 -0.83911827617 -0.88716601161 2.00574400931 -0.84616961114 -0.86880704229 2.01134069019 -0.85014473251 -0.85310509769 2.01685052661 -0.85216291118 -0.84009699610 2.02206999360 -0.85334341806 -0.82981955580 2.02679556619 -0.64356435351 -1.00909260696 1.99955266362 -0.68304392771 -0.97683127529 2.00129318510 -0.71378920423 -0.94776262513 2.00410147074 -0.73691411772 -0.92176683476 2.00777051408 -0.75353260282 -0.89872408250 2.01209330864 -0.76475859417 -0.87851454664 2.01686284795 -0.77170602643 -0.86101840549 2.02187212555 -0.77548883425 -0.84611583734 2.02691413496 -0.77722095226 -0.83368702050 2.03178186971 -0.77801631512 -0.82361213326 2.03626832332 -0.56898001780 -1.00045875240 2.01576000858 -0.60862897775 -0.96768944915 2.01590353728 -0.63950023114 -0.93855736972 2.01737169033 -0.66270424066 -0.91284025066 2.01993301271 -0.67935146902 -0.89031582853 2.02335604943 -0.69055237893 -0.87076183989 2.02740934549 -0.69741743307 -0.85395602129 2.03186144589 -0.70105709416 -0.83967610928 2.03648089563 -0.70258182489 -0.82769984042 2.04103623972 -0.70310208797 -0.81780495127 2.04529602315 -0.49746997960 -0.99204109420 2.03182780576 -0.53639296194 -0.95923443410 2.03012431734 -0.56669299163 -0.93029785544 2.03009018358 -0.58945555638 -0.90494953994 2.03145385588 -0.60576614390 -0.88290766932 2.03394378568 -0.61671024191 -0.86389042529 2.03728842437 -0.62337333813 -0.84761598958 2.04121622337 -0.62684092026 -0.83380254389 2.04545563411 -0.62819847602 -0.82216826996 2.04973510798 -0.62853149312 -0.81243134949 2.05378309641 -0.43171331003 -0.98425470097 2.04738051418 -0.46820830996 -0.95169037211 2.04368944553 -0.49661311605 -0.92308081880 2.04206832575 -0.51794337064 -0.89811624350 2.04219518959 -0.53321471605 -0.87648684868 2.04374807178 -0.54344279462 -0.85788283678 2.04640500706 -0.54964324868 -0.84199441026 2.04984403017 -0.55283172056 -0.82851177159 2.05374317585 -0.55402385260 -0.81712512322 2.05778047883 -0.55423528713 -0.80752466761 2.06163397386 -0.37438908017 -0.97751464135 2.06204259288 -0.40594745145 -0.94528140517 2.05633284210 -0.43050623473 -0.91700299633 2.05311749209 -0.44894298920 -0.89236190227 2.05201915979 -0.46213527407 -0.87104061044 2.05266046212 -0.47096064854 -0.85272160828 2.05466401602 -0.47629667182 -0.83708738324 2.05765243845 -0.47902090310 -0.82382042277 2.06124834633 -0.48001090159 -0.81260321432 2.06507435661 -0.48014422650 -0.80311824533 2.06875308623 -0.32817636112 -0.97223598396 2.07543850086 -0.35148281608 -0.94023167528 2.06778842734 -0.36961797799 -0.91216112456 2.06304905787 -0.38322971782 -0.88770805716 2.06078791245 -0.39296590656 -0.86655619843 2.06057251107 -0.39947441516 -0.84838927373 2.06197037372 -0.40340311461 -0.83289100841 2.06454902037 -0.40539987588 -0.81974512783 2.06787597103 -0.40611256994 -0.80863535734 2.07151874567 -0.40618906777 -0.79924542231 2.07504486427 -0.29575422399 -0.96883379743 2.08719269717 -0.30668683350 -0.93676532442 2.07779012148 -0.31519397616 -0.90865194002 2.07167439833 -0.32157886227 -0.88417624909 2.06836359356 -0.32614470211 -0.86302085649 2.06737577304 -0.32919470597 -0.84486836707 2.06822900261 -0.33103208415 -0.82940138567 2.07044134811 -0.33196004694 -0.81630251717 2.07353087540 -0.33228180461 -0.80525436641 2.07701565032 -0.33230056747 -0.79593953824 2.08041373873 </DataArray>
</Points>
</Piece>
</StructuredGrid>
</VTKFile>
