<?xml version="1.0"?>
<VTKFile type="StructuredGrid" version="0.1">
<StructuredGrid WholeExtent="0 9 0 9 0 9">
<Piece Extent="0 9 0 9 0 9">
<PointData>
<DataArray type="Float32" Name="Deformation" format="ascii" NumberOfComponents="3">
0.00110758563 -0.55290441554 0.15792932960 0.00114778877 -0.55366227317 0.16566347551 0.00119636945 -0.55542138316 0.17478611716 0.00125641025 -0.55810205615 0.18523351580 0.00133099376 -0.56162460277 0.19694193270 0.00142320254 -0.56590933366 0.20984762911 0.00153611918 -0.57087655945 0.22388686630 0.00167282624 -0.57644659077 0.23899590551 0.00183640631 -0.58253973827 0.25511100802 0.00202994196 -0.58907631256 0.27216843509 0.00087023877 -0.55438956248 0.16119221566 0.00090119128 -0.55506609791 0.16871263401 0.00094020987 -0.55668396950 0.17755025754 0.00098851967 -0.55913393985 0.18764177263 0.00104734582 -0.56230677158 0.19892386566 0.00111791345 -0.56609322727 0.21133322299 0.00120144769 -0.57038406955 0.22480653100 0.00129917368 -0.57507006100 0.23928047606 0.00141231655 -0.58004196423 0.25469174455 0.00154210144 -0.58519054185 0.27097702283 0.00062623632 -0.55550342652 0.16363938036 0.00064817600 -0.55611897031 0.17099950307 0.00067670769 -0.55763091312 0.17962336305 0.00071207837 -0.55990785655 0.18944796552 0.00075453508 -0.56281840219 0.20041031568 0.00080432481 -0.56623115161 0.21244741875 0.00086169457 -0.57001470641 0.22549627994 0.00092689139 -0.57403766816 0.23949390446 0.00100016227 -0.57816863846 0.25437729753 0.00108175421 -0.58227621889 0.27008346436 0.00037747981 -0.55624600761 0.16527082358 0.00039057654 -0.55682089031 0.17252408258 0.00040796074 -0.55826221397 0.18100543357 0.00042952939 -0.56042380618 0.19065209432 0.00045517946 -0.56315949450 0.20140128262 0.00048480792 -0.56632310653 0.21319021624 0.00051831174 -0.56976846984 0.22595611296 0.00055558790 -0.57334941201 0.23963619055 0.00059653335 -0.57691976062 0.25416766680 0.00064104508 -0.58033334324 0.26948775947 0.00012587081 -0.55661730568 0.16608654520 0.00013022649 -0.55717185786 0.17328637240 0.00013606687 -0.55857787199 0.18169646895 0.00014331575 -0.56068178865 0.19125415892 0.00015189689 -0.56333004844 0.20189676635 0.00016173408 -0.56636909192 0.21356161533 0.00017275109 -0.56964535967 0.22618602992 0.00018487171 -0.57300529229 0.23970733417 0.00019801970 -0.57629533036 0.25406285215 0.00021211886 -0.57936191444 0.26918990794 -0.00012668915 -0.55661732068 0.16608654510 -0.00013104054 -0.55717187290 0.17328637242 -0.00013687606 -0.55857788712 0.18169646909 -0.00014411951 -0.56068180392 0.19125415917 -0.00015269469 -0.56333006389 0.20189676675 -0.00016252541 -0.56636910763 0.21356161589 -0.00017353547 -0.56964537572 0.22618603066 -0.00018564866 -0.57300530877 0.23970733515 -0.00019878879 -0.57629534735 0.25406285342 -0.00021287965 -0.57936193206 0.26918990955 -0.00037829851 -0.55624605256 0.16527082317 -0.00039139092 -0.55682093539 0.17252408251 -0.00040877020 -0.55826225930 0.18100543384 -0.00043033335 -0.56042385189 0.19065209496 -0.00045597737 -0.56315954077 0.20140128367 -0.00048559927 -0.56632315354 0.21319021777 -0.00051909604 -0.56976851780 0.22595611506 -0.00055636469 -0.57334946117 0.23963619334 -0.00059730222 -0.57691981125 0.25416767042 -0.00064180564 -0.58033339564 0.26948776409 -0.00062705573 -0.55550350127 0.16363937928 -0.00064899106 -0.55611904527 0.17099950254 -0.00067751771 -0.55763098848 0.17962336309 -0.00071288274 -0.55990793251 0.18944796615 -0.00075533321 -0.56281847898 0.20041031698 -0.00080511618 -0.56623122952 0.21244742083 -0.00086247872 -0.57001478574 0.22549628295 -0.00092766787 -0.57403774927 0.23949390857 -0.00100093071 -0.57816872173 0.25437730295 -0.00108251429 -0.58227630474 0.27008347134 -0.00087105926 -0.55438966673 0.16119221330 -0.00090200735 -0.55506620249 0.16871263239 -0.00094102074 -0.55668407460 0.17755025669 -0.00098932465 -0.55913404570 0.18764177261 -0.00104814429 -0.56230687843 0.19892386656 -0.00111870487 -0.56609333544 0.21133322495 -0.00120223160 -0.57038417934 0.22480653419 -0.00129994969 -0.57507017280 0.23928048068 -0.00141308436 -0.58004207844 0.25469175085 -0.00154286082 -0.58519065891 0.27097703109 -0.00110840755 -0.55290454890 0.15792932513 -0.00114860617 -0.55366240699 0.16566347193 -0.00119718144 -0.55542151760 0.17478611453 -0.00125721604 -0.55810219140 0.18523351421 -0.00133179267 -0.56162473903 0.19694193226 -0.00142399402 -0.56590947116 0.20984762998 -0.00153690278 -0.57087669844 0.22388686863 -0.00167360163 -0.57644673152 0.23899590952 -0.00183717328 -0.58253988105 0.25511101392 -0.00203070040 -0.58907645769 0.27216844312 0.00110935922 -0.55889696479 0.15425161532 0.00115607637 -0.56099062894 0.16286657428 0.00121183462 -0.56373044308 0.17255203420 0.00127978260 -0.56706183049 0.18327028069 0.00136306890 -0.57093021447 0.19498359936 0.00146484214 -0.57528101831 0.20765427583 0.00158825092 -0.58005966531 0.22124459572 0.00173644386 -0.58521157876 0.23571684465 0.00191256956 -0.59068218195 0.25103330824 0.00211977664 -0.59641689817 0.26715627209 0.00087257297 -0.56040931127 0.15759199297 0.00090946430 -0.56241329812 0.16597032942 0.00095358265 -0.56501482081 0.17534256215 0.00100635105 -0.56813865552 0.18566126659 0.00106919250 -0.57170957845 0.19687901819 0.00114353003 -0.57565236578 0.20894839239 0.00123078665 -0.57989179369 0.22182196462 0.00133238537 -0.58435263838 0.23545231033 0.00144974921 -0.58895967604 0.24979200495 0.00158430119 -0.59363768284 0.26479362394 0.00062841488 -0.56154357500 0.16009727633 0.00065506396 -0.56348030389 0.16829814593 0.00068697971 -0.56597810803 0.17743545830 0.00072462899 -0.56894627828 0.18745450625 0.00076847865 -0.57229410550 0.19830058258 0.00081899554 -0.57593088054 0.20991898012 0.00087664651 -0.57976589429 0.22225499166 0.00094189841 -0.58370843760 0.23525391002 0.00101521809 -0.58766780133 0.24886102801 0.00109707239 -0.59155327635 0.26302163844 0.00037899116 -0.56229975593 0.16176746528 0.00039510052 -0.56419164621 0.16985002369 0.00041441175 -0.56662030469 0.17883072252 0.00043698511 -0.56948469869 0.18864999952 0.00046288089 -0.57268379552 0.19924829239 0.00049215935 -0.57611656251 0.21056603887 0.00052488078 -0.57968196697 0.22254367669 0.00056110543 -0.58327897623 0.23512164357 0.00060089360 -0.58680655760 0.24824037724 0.00064430555 -0.59016367842 0.26184031541 0.00012640798 -0.56267785399 0.16260255970 0.00013179916 -0.56454732500 0.17062596257 0.00013826472 -0.56694141071 0.17952835470 0.00014578810 -0.56975391667 0.18924774627 0.00015435276 -0.57287864843 0.19972214749 0.00016394215 -0.57620941155 0.21088956853 0.00017453971 -0.57964001159 0.22268801958 0.00018612890 -0.58306425410 0.23505551083 0.00019869317 -0.58637594463 0.24793005246 0.00021221597 -0.58946888875 0.26124965467 -0.00012722847 -0.56267786913 0.16260255947 -0.00013261494 -0.56454734022 0.17062596245 -0.00013907542 -0.56694142604 0.17952835469 -0.00014659334 -0.56975393216 0.18924774639 -0.00015515218 -0.57287866415 0.19972214774 -0.00016473539 -0.57620942757 0.21088956894 -0.00017532642 -0.57964002801 0.22268802017 -0.00018690874 -0.58306427102 0.23505551163 -0.00019946580 -0.58637596219 0.24793005352 -0.00021298106 -0.58946890707 0.26124965602 -0.00037981201 -0.56229980128 0.16176746447 -0.00039591663 -0.56419169180 0.16985002321 -0.00041522271 -0.56662035061 0.17883072239 -0.00043779053 -0.56948474509 0.18864999974 -0.00046368038 -0.57268384258 0.19924829302 -0.00049295256 -0.57611661046 0.21056603996 -0.00052566734 -0.57968201609 0.22254367832 -0.00056188503 -0.58327902683 0.23512164583 -0.00060166590 -0.58680661005 0.24824038024 -0.00064507025 -0.59016373310 0.26184031929 -0.00062923644 -0.56154365038 0.16009727459 -0.00065588072 -0.56348037968 0.16829814473 -0.00068779120 -0.56597818437 0.17743545765 -0.00072543477 -0.56894635538 0.18745450619 -0.00076927830 -0.57229418365 0.19830058318 -0.00081978869 -0.57593096011 0.20991898147 -0.00087743280 -0.57976597570 0.22225499388 -0.00094267751 -0.58370852135 0.23525391326 -0.00101598971 -0.58766788799 0.24886103244 -0.00109783628 -0.59155336655 0.26302164427 -0.00087339560 -0.56040941638 0.15759198970 -0.00091028204 -0.56241340380 0.16597032689 -0.00095439494 -0.56501492724 0.17534256037 -0.00100715736 -0.56813876296 0.18566126562 -0.00106999239 -0.57170968726 0.19687901811 -0.00114432308 -0.57565247641 0.20894839331 -0.00123157251 -0.57989190670 0.22182196671 -0.00133316373 -0.58435275440 0.23545231377 -0.00145051983 -0.58895979579 0.24979200997 -0.00158506386 -0.59363780715 0.26479363079 -0.00111018328 -0.55889709921 0.15425160968 -0.00115689541 -0.56099076411 0.16286656956 -0.00121264797 -0.56373057916 0.17255203041 -0.00128058963 -0.56706196777 0.18327027789 -0.00136386910 -0.57093035333 0.19498359765 -0.00146563506 -0.57528115926 0.20765427536 -0.00158903621 -0.58005980894 0.22124459666 -0.00173722124 -0.58521172579 0.23571684720 -0.00191333883 -0.59068233321 0.25103331265 -0.00212053769 -0.59641705460 0.26715627866 0.00111277752 -0.56617892926 0.15045278983 0.00116429177 -0.56914508870 0.15977537632 0.00122516364 -0.57252417666 0.16991792016 0.00129858219 -0.57628123493 0.18086181842 0.00138773644 -0.58038130529 0.19258846817 0.00149581544 -0.58478942952 0.20507926647 0.00162600823 -0.58947064941 0.21831561039 0.00178150385 -0.59439000674 0.23227889700 0.00196549133 -0.59951254330 0.24695052337 0.00218115971 -0.60480330087 0.26231188657 0.00087616894 -0.56771093277 0.15385198294 0.00091742542 -0.57058124160 0.16292098331 0.00096517864 -0.57382322530 0.17272954040 0.00102102377 -0.57738701076 0.18324218868 0.00108655598 -0.58122272487 0.19442346263 0.00116337045 -0.58528049451 0.20623789671 0.00125306234 -0.58951044656 0.21865002541 0.00135722684 -0.59386270791 0.23162438319 0.00147745912 -0.59828740545 0.24512550453 0.00161535434 -0.60273466606 0.25911792390 0.00063148537 -0.56885993933 0.15640137785 0.00066159212 -0.57165836022 0.16528018867 0.00069592079 -0.57479751576 0.17483825573 0.00073513658 -0.57821634667 0.18502746656 0.00077990470 -0.58185379367 0.19579970870 0.00083089034 -0.58564879746 0.20710686967 0.00088875871 -0.58954029876 0.21890083700 0.00095417501 -0.59346723829 0.23113349822 0.00102780443 -0.59736855676 0.24375674086 0.00111031218 -0.60118319488 0.25672245246 0.00038103391 -0.56962594887 0.15810097445 0.00039935380 -0.57237644449 0.16685299227 0.00042003943 -0.57544704798 0.17624406601 0.00044330025 -0.57876924259 0.18621765193 0.00046934568 -0.58227451160 0.19671720625 0.00049838517 -0.58589433829 0.20768618520 0.00053062815 -0.58956020592 0.21906804502 0.00056628405 -0.59320359776 0.23080624195 0.00060556232 -0.59675599710 0.24284423221 0.00064867239 -0.60014888720 0.25512547204 0.00012712163 -0.57000896132 0.15895077261 0.00013327241 -0.57273549436 0.16763939399 0.00014018393 -0.57577182189 0.17694697114 0.00014789440 -0.57904569844 0.18681274466 0.00015644202 -0.58248487859 0.19717595514 0.00016586497 -0.58601711690 0.20797584316 0.00017620146 -0.58957016792 0.21915164932 0.00018748969 -0.59307178621 0.23064261420 0.00019976785 -0.59644972635 0.24238797839 0.00021307414 -0.59963174288 0.25432698248 -0.00012794436 -0.57000897662 0.15895077223 -0.00013409011 -0.57273550977 0.16763939371 -0.00014099637 -0.57577183742 0.17694697098 -0.00014870134 -0.57904571416 0.18681274462 -0.00015724322 -0.58248489456 0.19717595524 -0.00016666022 -0.58601713320 0.20797584342 -0.00017699053 -0.58957018466 0.21915164975 -0.00018827237 -0.59307180353 0.23064261483 -0.00020054393 -0.59644974437 0.24238797925 -0.00021384341 -0.59963176177 0.25432698360 -0.00038185698 -0.56962599471 0.15810097317 -0.00040017181 -0.57237649064 0.16685299132 -0.00042085211 -0.57544709451 0.17624406541 -0.00044410734 -0.57876928966 0.18621765170 -0.00047014694 -0.58227455942 0.19671720642 -0.00049918035 -0.58589438711 0.20768618582 -0.00053141703 -0.58956025606 0.21906804616 -0.00056706641 -0.59320364959 0.23080624367 -0.00060633795 -0.59675605105 0.24284423461 -0.00064944108 -0.60014894374 0.25512547522 -0.00063230914 -0.56886001552 0.15640137532 -0.00066241075 -0.57165843691 0.16528018669 -0.00069673396 -0.57479759310 0.17483825431 -0.00073594399 -0.57821642489 0.18502746575 -0.00078070606 -0.58185387310 0.19579970854 -0.00083168539 -0.58564887853 0.20710687024 -0.00088954720 -0.58954038199 0.21890083840 -0.00095495671 -0.59346732429 0.23113350057 -0.00102857915 -0.59736864624 0.24375674431 -0.00111107972 -0.60118328865 0.25672245715 -0.00087699376 -0.56771103898 0.15385197856 -0.00091824499 -0.57058134853 0.16292097970 -0.00096599255 -0.57382333312 0.17272953756 -0.00102183165 -0.57738711977 0.18324218665 -0.00108735750 -0.58122283552 0.19442346147 -0.00116416529 -0.58528060738 0.20623789653 -0.00125385025 -0.58951056237 0.21865002633 -0.00135800757 -0.59386282752 0.23162438537 -0.00147823248 -0.59828752984 0.24512550817 -0.00161612016 -0.60273479636 0.25911792922 -0.00111360373 -0.56617906504 0.15045278278 -0.00116511258 -0.56914522542 0.15977537024 -0.00122597854 -0.57252431450 0.16991791504 -0.00129939071 -0.57628137423 0.18086181428 -0.00138853817 -0.58038144660 0.19258846508 -0.00149661002 -0.58478957356 0.20507926455 -0.00162679536 -0.58947079709 0.21831560979 -0.00178228328 -0.59439015914 0.23227889791 -0.00196626287 -0.59951270170 0.24695052603 -0.00218192324 -0.60480346672 0.26231189125 0.00111763939 -0.57441469089 0.14665783982 0.00117229773 -0.57788982925 0.15647776889 0.00123635794 -0.58164240733 0.16694352709 0.00131300323 -0.58565238134 0.17804843138 0.00140541681 -0.58989970750 0.18978579870 0.00151678192 -0.59436434202 0.20214894599 0.00165028176 -0.59902624113 0.21513119019 0.00180909955 -0.60386536104 0.22872584826 0.00199641853 -0.60886165796 0.24292623714 0.00221542190 -0.61399508811 0.25772567378 0.00088086029 -0.57595894476 0.15009722516 0.00092496861 -0.57933429474 0.15965248771 0.00097498382 -0.58295036940 0.16977052817 0.00103263148 -0.58677581250 0.18042321982 0.00109963716 -0.59077926781 0.19158243595 0.00117772644 -0.59492937909 0.20322004984 0.00126862487 -0.59919479011 0.21530793478 0.00137405802 -0.60354414461 0.22781796405 0.00149575147 -0.60794608638 0.24072201094 0.00163543079 -0.61236925917 0.25399194873 0.00063532359 -0.57711713913 0.15267676420 0.00066768511 -0.58041764785 0.16203352689 0.00070351281 -0.58393134499 0.17189077907 0.00074363729 -0.58761838996 0.18220431129 0.00078888919 -0.59143894221 0.19292991407 0.00084009912 -0.59535316115 0.20402337797 0.00089809769 -0.59932120620 0.21544049352 0.00096371553 -0.60330323681 0.22713705126 0.00103778325 -0.60725941238 0.23906884172 0.00112113147 -0.61114989235 0.25119165545 0.00038353141 -0.57788927394 0.15439645683 0.00040329130 -0.58113988852 0.16362088631 0.00042482970 -0.58458533403 0.17330427969 0.00044848420 -0.58818011366 0.18339170566 0.00047459241 -0.59187873061 0.19382823294 0.00050349193 -0.59563568811 0.20455893023 0.00053552034 -0.59940548935 0.21552886625 0.00057101526 -0.60314263755 0.22668310971 0.00061031427 -0.60680163590 0.23796672930 0.00065375497 -0.61033698761 0.24932479375 0.00012798589 -0.57827534912 0.15525630291 0.00013463124 -0.58150101669 0.16441456586 0.00014181928 -0.58491233645 0.17401102989 0.00014963574 -0.58846098350 0.18398540281 0.00015816634 -0.59209863295 0.19427739241 0.00016749683 -0.59577695991 0.20482670648 0.00017771294 -0.59944763948 0.21557305283 0.00018890040 -0.60306234677 0.22645613924 0.00020114494 -0.60657275688 0.23741567351 0.00021453230 -0.60993054493 0.24839136344 -0.00012881087 -0.57827536461 0.15525630235 -0.00013545099 -0.58150103229 0.16441456541 -0.00014263364 -0.58491235219 0.17401102956 -0.00015044456 -0.58846099944 0.18398540261 -0.00015896950 -0.59209864915 0.19427739235 -0.00016829420 -0.59577697647 0.20482670658 -0.00017850440 -0.59944765651 0.21557305310 -0.00018968586 -0.60306236440 0.22645613970 -0.00020192431 -0.60657277528 0.23741567418 -0.00021530551 -0.60993056427 0.24839136434 -0.00038435673 -0.57788932033 0.15439645501 -0.00040411134 -0.58113993526 0.16362088484 -0.00042564429 -0.58458538118 0.17330427858 -0.00044929317 -0.58818016139 0.18339170493 -0.00047539560 -0.59187877914 0.19382823263 -0.00050428920 -0.59563573771 0.20455893037 -0.00053631157 -0.59940554037 0.21552886690 -0.00057180033 -0.60314269039 0.22668311091 -0.00061109308 -0.60680169104 0.23796673113 -0.00065452744 -0.61033704560 0.24932479627 -0.00063614957 -0.57711721623 0.15267676079 -0.00066850574 -0.58041772551 0.16203352405 -0.00070432785 -0.58393142335 0.17189077682 -0.00074444654 -0.58761846928 0.18220430965 -0.00078969245 -0.59143902283 0.19292991310 -0.00084089620 -0.59535324356 0.20402337773 -0.00089888844 -0.59932129098 0.21544049408 -0.00096449981 -0.60330332466 0.22713705271 -0.00103856094 -0.60725950411 0.23906884418 -0.00112190246 -0.61114998889 0.25119165904 -0.00088168727 -0.57595905222 0.15009721956 -0.00092579012 -0.57933440300 0.15965248291 -0.00097579955 -0.58295047863 0.16977052417 -0.00103344115 -0.58677592305 0.18042321665 -0.00110044052 -0.59077938017 0.19158243365 -0.00117852324 -0.59492949394 0.20322004849 -0.00126941491 -0.59919490829 0.21530793448 -0.00137484113 -0.60354426715 0.22781796494 -0.00149652748 -0.60794621445 0.24072201316 -0.00163619956 -0.61236939412 0.25399195247 -0.00111846770 -0.57441482825 0.14665783121 -0.00117312041 -0.57788996766 0.15647776131 -0.00123717458 -0.58164254696 0.16694352050 -0.00131381346 -0.58565252262 0.17804842578 -0.00140622029 -0.58989985107 0.18978579413 -0.00151757834 -0.59436448878 0.20214894253 -0.00165107086 -0.59902639221 0.21513118796 -0.00180988109 -0.60386551779 0.22872584743 -0.00199719229 -0.60886182198 0.24292623790 -0.00221618772 -0.61399526124 0.25772567636 0.00112374369 -0.58326863162 0.14299175199 0.00117995706 -0.58698902738 0.15306163926 0.00124541897 -0.59092495846 0.16368860705 0.00132323994 -0.59506738156 0.17487042193 0.00141653046 -0.59940725336 0.18660485050 0.00152840103 -0.60393553056 0.19888965933 0.00166196215 -0.60864316987 0.21172261502 0.00182032434 -0.61352112796 0.22510148413 0.00200659808 -0.61856036153 0.23902403327 0.00222389389 -0.62375182729 0.25348802900 0.00088648060 -0.58481786496 0.14645275925 0.00093198782 -0.58843682391 0.15625273466 0.00098298418 -0.59223743952 0.16652486132 0.00104126785 -0.59620186766 0.17724304092 0.00110863698 -0.60031226425 0.18838117513 0.00118688975 -0.60455078516 0.19991316565 0.00127782431 -0.60889958628 0.21181291416 0.00138323883 -0.61334082352 0.22405432233 0.00150493148 -0.61785665274 0.23661129186 0.00164470041 -0.62242922986 0.24945772443 0.00063980534 -0.58597979399 0.14904851467 0.00067326756 -0.58952267536 0.15864605622 0.00070973766 -0.59322180440 0.16865205208 0.00075016728 -0.59705273639 0.17902250525 0.00079550810 -0.60099102663 0.18971341875 0.00084671178 -0.60501223040 0.20068079559 0.00090472996 -0.60909190300 0.21188063877 0.00097051431 -0.61320559971 0.22326895131 0.00104501650 -0.61732887583 0.23480173621 0.00112918818 -0.62143728664 0.24643499648 0.00038640704 -0.58675441864 0.15077901816 0.00040686795 -0.59024658166 0.16024160383 0.00042876843 -0.59387805304 0.17007017920 0.00045254636 -0.59761998766 0.18020881481 0.00047863964 -0.60144354042 0.19060158122 0.00050748618 -0.60531986622 0.20119254900 0.00053952385 -0.60922011995 0.21192578871 0.00057519056 -0.61311545651 0.22274537089 0.00061492420 -0.61697703079 0.23359536611 0.00065916267 -0.62077599768 0.24441984493 0.00012897486 -0.58714173884 0.15164426958 0.00013586068 -0.59060854275 0.16103937738 0.00014316553 -0.59420618536 0.17077924256 0.00015101319 -0.59790362140 0.18080196946 0.00015952743 -0.60166980556 0.19104566241 0.00016883202 -0.60547369255 0.20144842575 0.00017905074 -0.60928423708 0.21194836380 0.00019030736 -0.61307039387 0.22248358091 0.00020272565 -0.61680111761 0.23299218140 0.00021642938 -0.62044536302 0.24341226961 -0.00012980205 -0.58714175453 0.15164426883 -0.00013668257 -0.59060855855 0.16103937674 -0.00014398198 -0.59420620131 0.17077924205 -0.00015182409 -0.59790363754 0.18080196909 -0.00016033271 -0.60166982197 0.19104566218 -0.00016963161 -0.60547370933 0.20144842567 -0.00017984462 -0.60928425435 0.21194836390 -0.00019109552 -0.61307041176 0.22248358119 -0.00020350811 -0.61680113630 0.23299218188 -0.00021720620 -0.62044538268 0.24341227031 -0.00038723454 -0.58675446563 0.15077901578 -0.00040769011 -0.59024662900 0.16024160181 -0.00042958508 -0.59387810081 0.17007017755 -0.00045335738 -0.59762003602 0.18020881356 -0.00047944493 -0.60144358959 0.19060158040 -0.00050828565 -0.60531991649 0.20119254864 -0.00054031746 -0.60922017169 0.21192578883 -0.00057597827 -0.61311551015 0.22274537156 -0.00061570601 -0.61697708684 0.23359536738 -0.00065993860 -0.62077605671 0.24441984684 -0.00064063347 -0.58597987208 0.14904851033 -0.00067409026 -0.58952275403 0.15864605247 -0.00071055473 -0.59322188379 0.16865204894 -0.00075097856 -0.59705281675 0.17902250275 -0.00079631343 -0.60099110834 0.18971341692 -0.00084751103 -0.60501231397 0.20068079449 -0.00090552304 -0.60909198905 0.21188063846 -0.00097130113 -0.61320568900 0.22326895185 -0.00104579700 -0.61732896923 0.23480173770 -0.00112996233 -0.62143738515 0.24643499901 -0.00088730967 -0.58481797380 0.14645275235 -0.00093281133 -0.58843693358 0.15625272860 -0.00098380188 -0.59223755018 0.16652485609 -0.00104207949 -0.59620197968 0.17724303653 -0.00110944236 -0.60031237817 0.18838117163 -0.00118768867 -0.60455090171 0.19991316309 -0.00127861659 -0.60889970638 0.21181291261 -0.00138402431 -0.61334094827 0.22405432190 -0.00150571002 -0.61785678346 0.23661129266 -0.00164547190 -0.62242936802 0.24945772661 -0.00112457402 -0.58326877073 0.14299174174 -0.00118078165 -0.58698916757 0.15306163008 -0.00124623750 -0.59092509992 0.16368859889 -0.00132405208 -0.59506752474 0.17487041478 -0.00141733590 -0.59940739898 0.18660484437 -0.00152919949 -0.60393567963 0.19888965428 -0.00166275336 -0.60864332362 0.21172261112 -0.00182110803 -0.61352128794 0.22510148152 -0.00200737401 -0.61856052954 0.23902403209 -0.00222466182 -0.62375200538 0.25348802945 0.00113088929 -0.59240513341 0.13957951305 0.00118713251 -0.59620685990 0.14961487471 0.00125234818 -0.60021165347 0.16021291207 0.00132948653 -0.60441834745 0.17136809244 0.00142149780 -0.60882577514 0.18307488313 0.00153133223 -0.61343276989 0.19532775147 0.00166194007 -0.61823816501 0.20812116476 0.00181627155 -0.62324079382 0.22144959031 0.00199727691 -0.62843948966 0.23530749546 0.00220790638 -0.63383308584 0.24968934750 0.00089286348 -0.59395221115 0.14304362480 0.00093837701 -0.59765319551 0.15280961620 0.00098916572 -0.60152562208 0.16305187573 0.00104702653 -0.60556198318 0.17374033289 0.00111375636 -0.60975477116 0.18484491716 0.00119115214 -0.61409647833 0.19633555802 0.00128101078 -0.61857959705 0.20818218495 0.00138512920 -0.62319661964 0.22035472744 0.00150530433 -0.62794003845 0.23282311496 0.00164333308 -0.63280234579 0.24555727701 0.00064480643 -0.59511252353 0.14564170855 0.00067826409 -0.59873795132 0.15520567227 0.00071457722 -0.60251110268 0.16518109848 0.00075476270 -0.60641971418 0.17551951328 0.00079983741 -0.61045152242 0.18617244278 0.00085081823 -0.61459426400 0.19709141309 0.00090872204 -0.61883567552 0.20822795031 0.00097456571 -0.62316349357 0.21953358056 0.00104936614 -0.62756545474 0.23095982995 0.00113414019 -0.63202929564 0.24245822458 0.00038958415 -0.59588607048 0.14737376419 0.00041003868 -0.59946112727 0.15680304283 0.00043184152 -0.60316809519 0.16660058020 0.00045549611 -0.60699154036 0.17670563347 0.00048150594 -0.61091602887 0.18705745986 0.00051037447 -0.61492612684 0.19759531653 0.00054260516 -0.61900640037 0.20825846069 0.00057870148 -0.62314141558 0.21898614953 0.00061916690 -0.62731573856 0.22971764023 0.00066450488 -0.63151393544 0.24039218999 0.00013006268 -0.59627285194 0.14823979159 0.00013694574 -0.59982272328 0.15760172775 0.00014421746 -0.60349659956 0.16731032077 0.00015202785 -0.60727746166 0.17729869335 0.00016052696 -0.61114829044 0.18749996826 0.00016986482 -0.61509206678 0.19784726820 0.00018019145 -0.61909177155 0.20827371592 0.00019165689 -0.62313038564 0.21871243415 0.00020441117 -0.62719088991 0.22909654562 0.00021860432 -0.63125626524 0.23935917306 -0.00013089194 -0.59627286783 0.14823979064 -0.00013776979 -0.59982273929 0.15760172693 -0.00014503612 -0.60349661571 0.16731032007 -0.00015284100 -0.60727747800 0.17729869280 -0.00016133452 -0.61114830705 0.18749996784 -0.00017066675 -0.61509208375 0.19784726795 -0.00018098776 -0.61909178901 0.20827371584 -0.00019244765 -0.62313040373 0.21871243425 -0.00020519648 -0.62719090880 0.22909654592 -0.00021938433 -0.63125628512 0.23935917357 -0.00039041370 -0.59588611809 0.14737376124 -0.00041086298 -0.59946117522 0.15680304024 -0.00043266036 -0.60316814357 0.16660057799 -0.00045630937 -0.60699158932 0.17670563167 -0.00048231350 -0.61091607863 0.18705745849 -0.00051117627 -0.61492617770 0.19759531563 -0.00054340118 -0.61900645271 0.20825846029 -0.00057949175 -0.62314146982 0.21898614966 -0.00061995147 -0.62731579523 0.22971764094 -0.00066528387 -0.63151399510 0.24039219132 -0.00064563657 -0.59511260263 0.14564170326 -0.00067908887 -0.59873803102 0.15520566758 -0.00071539644 -0.60251118308 0.16518109441 -0.00075557617 -0.60641979554 0.17551950986 -0.00080064498 -0.61045160513 0.18617244005 -0.00085161978 -0.61459434857 0.19709141109 -0.00090951749 -0.61883576258 0.20822794910 -0.00097535501 -0.62316358388 0.21953358020 -0.00105014926 -0.62756554920 0.23095983050 -0.00113491715 -0.63202939526 0.24245822611 -0.00089369450 -0.59395232140 0.14304361659 -0.00093920254 -0.59765330660 0.15280960884 -0.00098998550 -0.60152573415 0.16305186922 -0.00104784032 -0.60556209660 0.17374032724 -0.00111456395 -0.60975488647 0.18484491240 -0.00119195332 -0.61409659628 0.19633555420 -0.00128180537 -0.61857971858 0.20818218213 -0.00138591704 -0.62319674589 0.22035472570 -0.00150608526 -0.62794017073 0.23282311440 -0.00164410699 -0.63280248565 0.24555727773 -0.00113172148 -0.59240527433 0.13957950113 -0.00118795903 -0.59620700190 0.14961486389 -0.00125316871 -0.60021179673 0.16021290229 -0.00133030075 -0.60441849242 0.17136808368 -0.00142230541 -0.60882592257 0.18307487540 -0.00153213292 -0.61343292079 0.19532774480 -0.00166273351 -0.61823832067 0.20812115921 -0.00181705743 -0.62324095581 0.22144958598 -0.00199805493 -0.62843965983 0.23530749245 -0.00220867623 -0.63383326632 0.24968934598 0.00113887506 -0.60148857819 0.13654610967 0.00119368688 -0.60530750361 0.14622536251 0.00125714700 -0.60934231577 0.15657619422 0.00133193721 -0.61359739087 0.16758174527 0.00142073928 -0.61807710512 0.17922515616 0.00152623501 -0.62278583474 0.19148956734 0.00165110617 -0.62772795595 0.20435811930 0.00179803455 -0.63290784495 0.21781395250 0.00196970192 -0.63832987796 0.23184020743 0.00216879008 -0.64399843120 0.24642002457 0.00089984252 -0.60302650106 0.13999486143 0.00094403012 -0.60674777592 0.14941102437 0.00099351441 -0.61065610351 0.15941090728 0.00105000118 -0.61475296598 0.16995377666 0.00111519622 -0.61903984551 0.18099889901 0.00119080535 -0.62351822425 0.19250554082 0.00127853436 -0.62818958436 0.20443296857 0.00138008905 -0.63305540803 0.21674044877 0.00149717523 -0.63811717740 0.22938724791 0.00163149869 -0.64337637465 0.24233263248 0.00065020266 -0.60417994734 0.14258142513 0.00068259931 -0.60782798431 0.15180027067 0.00071801338 -0.61164144851 0.16153694203 0.00075745969 -0.61561965156 0.17173280020 0.00080195308 -0.61976190510 0.18232920620 0.00085250838 -0.62406752076 0.19326752103 0.00091014043 -0.62853581017 0.20448910570 0.00097586407 -0.63316608496 0.21593532121 0.00105069412 -0.63795765676 0.22754752858 0.00113564542 -0.64290983721 0.23926708880 0.00039298610 -0.60494891696 0.14430580066 0.00041275842 -0.60854812871 0.15339310131 0.00043403486 -0.61229835070 0.16295429834 0.00045734286 -0.61619744753 0.17291881576 0.00048320987 -0.62024328383 0.18321607759 0.00051216335 -0.62443372422 0.19377550784 0.00054473075 -0.62876663330 0.20452653052 0.00058143952 -0.63323987570 0.21539856965 0.00062281710 -0.63785131602 0.22632104925 0.00066939097 -0.64259881890 0.23722339333 0.00013122346 -0.60533340985 0.14516798792 0.00013787144 -0.60890820905 0.15418951618 0.00014496982 -0.61262681000 0.16366297611 0.00015268081 -0.61648635382 0.17351182323 0.00016116663 -0.62048398163 0.18365951305 0.00017058951 -0.62461683455 0.19402950109 0.00018111167 -0.62888205370 0.20454524288 0.00019289533 -0.63327678020 0.21513019392 0.00020610271 -0.63779815517 0.22570780974 0.00022089603 -0.64244331972 0.23620154585 -0.00013205461 -0.60533342595 0.14516798679 -0.00013869764 -0.60890822526 0.15418951516 -0.00014579079 -0.61262682634 0.16366297522 -0.00015349635 -0.61648637035 0.17351182248 -0.00016197662 -0.62048399842 0.18365951245 -0.00017139389 -0.62461685169 0.19402950065 -0.00018191044 -0.62888207132 0.20454524261 -0.00019368857 -0.63327679843 0.21513019384 -0.00020689056 -0.63779817417 0.22570780985 -0.00022167871 -0.64244333969 0.23620154618 -0.00039381751 -0.60494896517 0.14430579716 -0.00041358484 -0.60854817726 0.15339309815 -0.00043485599 -0.61229839966 0.16295429556 -0.00045815850 -0.61619749706 0.17291881339 -0.00048401986 -0.62024333413 0.18321607565 -0.00051296760 -0.62443377558 0.19377550637 -0.00054552922 -0.62876668608 0.20452652956 -0.00058223224 -0.63323993033 0.21539856924 -0.00062360417 -0.63785137301 0.22632104941 -0.00067017253 -0.64259887881 0.23722339410 -0.00065103461 -0.60418002746 0.14258141891 -0.00068342617 -0.60782806500 0.15180026504 -0.00071883484 -0.61164152988 0.16153693701 -0.00075827551 -0.61561973386 0.17173279584 -0.00080276306 -0.61976198869 0.18232920253 -0.00085331236 -0.62406760613 0.19326751811 -0.00091093830 -0.62853589793 0.20448910357 -0.00097665576 -0.63316617586 0.21593531994 -0.00105147962 -0.63795775166 0.22754752822 -0.00113642476 -0.64290993711 0.23926708941 -0.00090067528 -0.60302661273 0.13999485195 -0.00094485765 -0.60674788840 0.14941101570 -0.00099433637 -0.61065621694 0.15941089945 -0.00105081728 -0.61475308070 0.16995376970 -0.00111600619 -0.61903996203 0.18099889296 -0.00119160894 -0.62351834328 0.19250553572 -0.00127933133 -0.62818970682 0.20443296449 -0.00138087921 -0.63305553497 0.21674044578 -0.00149795839 -0.63811731011 0.22938724608 -0.00163227469 -0.64337651458 0.24233263191 -0.00113970890 -0.60148872092 0.13654609614 -0.00119451529 -0.60530764739 0.14622535004 -0.00125796962 -0.60934246076 0.15657618279 -0.00133275368 -0.61359753749 0.16758173487 -0.00142154924 -0.61807725407 0.17922514680 -0.00152703807 -0.62278598697 0.19148955906 -0.00165190195 -0.62772811267 0.20435811215 -0.00179882265 -0.63290800763 0.21781394657 -0.00197048195 -0.63833004833 0.23184020283 -0.00216956163 -0.64399861126 0.24642002140 0.00114749987 -0.61018334791 0.13401652857 0.00119948294 -0.61405513531 0.14298098992 0.00125981688 -0.61815676874 0.15283820553 0.00133078619 -0.62249662367 0.16355168280 0.00141467533 -0.62708307556 0.17508492912 0.00151376881 -0.63192449987 0.18740145190 0.00163035110 -0.63702927209 0.20046475853 0.00176670668 -0.64240576766 0.21423835640 0.00192512005 -0.64806236207 0.22868575291 0.00210787568 -0.65400743077 0.24377045546 0.00090725131 -0.61170525245 0.13743150873 0.00094884112 -0.61548493153 0.14614485120 0.00099601625 -0.61947007023 0.15566129183 0.00105028545 -0.62367162299 0.16592205314 0.00111315749 -0.62810054428 0.17686835766 0.00118614113 -0.63276778852 0.18844142792 0.00127074515 -0.63768431018 0.20058248644 0.00136847831 -0.64286106369 0.21323275575 0.00148084938 -0.64830900352 0.22633345838 0.00160936711 -0.65403908410 0.23982581685 0.00065586983 -0.61284668503 0.13999274369 0.00068619786 -0.61655728290 0.14851774703 0.00072002802 -0.62045505059 0.15777860646 0.00075829440 -0.62455287678 0.16769983084 0.00080193108 -0.62886365017 0.17820592906 0.00085187214 -0.63340025945 0.18922140998 0.00090905166 -0.63817559331 0.20067078248 0.00097440372 -0.64320254043 0.21247855544 0.00104886240 -0.64849398951 0.22456923772 0.00113336177 -0.65406282924 0.23686733820 0.00039653624 -0.61360764558 0.14170023333 0.00041498210 -0.61727218935 0.15009967728 0.00043533435 -0.62111170974 0.15919014928 0.00045809599 -0.62514038495 0.16888501577 0.00048377000 -0.62937239317 0.17909764318 0.00051285938 -0.63382191258 0.18974139794 0.00054586711 -0.63850312139 0.20072964651 0.00058329619 -0.64343019779 0.21197575530 0.00062564959 -0.64861731995 0.22339309076 0.00067343032 -0.65407866609 0.23489501933 0.00013243133 -0.61398813404 0.14255397755 0.00013862280 -0.61762965081 0.15089064186 0.00014541739 -0.62144004762 0.15989592021 0.00015297314 -0.62543414742 0.16947760782 0.00016144812 -0.62962677318 0.17954349990 0.00017100038 -0.63403274783 0.19000139167 0.00018178798 -0.63866689434 0.20075907836 0.00019396899 -0.64354403566 0.21172435517 0.00020770146 -0.64867899475 0.22280501734 0.00022314345 -0.65408659454 0.23390886006 -0.00013326410 -0.61398815033 0.14255397624 -0.00013945107 -0.61762966720 0.15089064066 -0.00014624072 -0.62144006415 0.15989591913 -0.00015379122 -0.62543416413 0.16947760687 -0.00016226070 -0.62962679013 0.17954349910 -0.00017180732 -0.63403276511 0.19000139104 -0.00018258923 -0.63866691207 0.20075907790 -0.00019476458 -0.64354405397 0.21172435490 -0.00020849151 -0.64867901379 0.22280501726 -0.00022392818 -0.65408661450 0.23390886020 -0.00039736926 -0.61360769438 0.14170022930 -0.00041581056 -0.61727223847 0.15009967356 -0.00043615783 -0.62111175926 0.15919014592 -0.00045891415 -0.62514043499 0.16888501280 -0.00048458258 -0.62937244393 0.17909764065 -0.00051366619 -0.63382196434 0.18974139589 -0.00054666806 -0.63850317448 0.20072964497 -0.00058409125 -0.64343025261 0.21197575432 -0.00062643883 -0.64861737698 0.22339309037 -0.00067421388 -0.65407872587 0.23489501957 -0.00065670334 -0.61284676612 0.13999273661 -0.00068702671 -0.61655736454 0.14851774047 -0.00072085179 -0.62045513288 0.15777860048 -0.00075911272 -0.62455295994 0.16769982550 -0.00080274364 -0.62886373452 0.17820592442 -0.00085267868 -0.63340034544 0.18922140610 -0.00090985200 -0.63817568149 0.20067077942 -0.00097519773 -0.64320263149 0.21247855326 -0.00104965001 -0.64849408424 0.22456923649 -0.00113414299 -0.65406292854 0.23686733798 -0.00090808555 -0.61170536547 0.13743149806 -0.00094967057 -0.61548504533 0.14614484128 -0.00099684045 -0.61947018493 0.15566128270 -0.00105110400 -0.62367173889 0.16592204486 -0.00111397001 -0.62810066181 0.17686835029 -0.00118694727 -0.63276790831 0.18844142153 -0.00127154458 -0.63768443301 0.20058248112 -0.00136927075 -0.64286119052 0.21323275157 -0.00148163456 -0.64830913545 0.22633345544 -0.00161014482 -0.65403922242 0.23982581524 -0.00114833508 -0.61018349238 0.13401651356 -0.00120031317 -0.61405528079 0.14298097588 -0.00126064167 -0.61815691536 0.15283819247 -0.00133160506 -0.62249677177 0.16355167075 -0.00141548781 -0.62708322572 0.17508491814 -0.00151457441 -0.63192465289 0.18740144205 -0.00163114932 -0.63702942895 0.20046474990 -0.00176749702 -0.64240592960 0.21423834909 -0.00192590199 -0.64806253052 0.22868574705 -0.00210864870 -0.65400760739 0.24377045118 0.00115656257 -0.61815382451 0.13211575643 0.00120438347 -0.62221393180 0.13996964422 0.00126035928 -0.62649483580 0.14905869806 0.00132622769 -0.63100815771 0.15931820738 0.00140372639 -0.63576551872 0.17068346160 0.00149459310 -0.64077854002 0.18308975011 0.00160056550 -0.64605884280 0.19647236234 0.00172338130 -0.65161804826 0.21076658770 0.00186477820 -0.65746777759 0.22590771560 0.00202649388 -0.66361965198 0.24183103546 0.00091492345 -0.61965298306 0.13547860632 0.00095270396 -0.62362902871 0.14309898875 0.00099665722 -0.62780870866 0.15186236527 0.00104797300 -0.63221476115 0.16168384325 0.00110784108 -0.63686992444 0.17247853010 0.00117745123 -0.64179693678 0.18416153321 0.00125799325 -0.64701853644 0.19664795997 0.00135065690 -0.65255746167 0.20985291778 0.00145663197 -0.65843645071 0.22369151403 0.00157710823 -0.66467824182 0.23807885612 0.00066168377 -0.62077735620 0.13800074352 0.00068898435 -0.62469035565 0.14544599696 0.00072060303 -0.62879411758 0.15396511551 0.00075730299 -0.63311971806 0.16345807003 0.00079984740 -0.63769823314 0.17382483140 0.00084899943 -0.64256073887 0.18496537050 0.00090552224 -0.64773831133 0.19677965822 0.00097017902 -0.65326202656 0.20916766543 0.00104373292 -0.65916296064 0.22202936300 0.00112694714 -0.66547218961 0.23526472182 0.00040015795 -0.62152694385 0.13968216793 0.00041666464 -0.62539791254 0.14701066874 0.00043572588 -0.62945106251 0.15536694868 0.00045776490 -0.63372302837 0.16464088760 0.00048320490 -0.63825044473 0.17472236538 0.00051246911 -0.64306994618 0.18550126188 0.00054598073 -0.64821816733 0.19686745696 0.00058416300 -0.65373174278 0.20871083050 0.00062743912 -0.65964730715 0.22092126236 0.00067623232 -0.66600149504 0.23338863241 0.00013366040 -0.62190174594 0.14052287946 0.00013918484 -0.62575169931 0.14779300399 0.00014555493 -0.62977954336 0.15606786468 0.00015290594 -0.63402469200 0.16523229586 0.00016137311 -0.63852655911 0.17517113192 0.00017109171 -0.64332455858 0.18576920720 0.00018219699 -0.64845810429 0.19691135606 0.00019482421 -0.65396661015 0.20848241287 0.00020910863 -0.65988949003 0.22036721198 0.00022518551 -0.66626615782 0.23245058775 -0.00013449447 -0.62190176241 0.14052287799 -0.00014001505 -0.62575171588 0.14779300261 -0.00014638066 -0.62977956007 0.15606786339 -0.00015372667 -0.63402470887 0.16523229471 -0.00016218844 -0.63852657620 0.17517113091 -0.00017190134 -0.64332457597 0.18576920635 -0.00018300074 -0.64845812209 0.19691135539 -0.00019562200 -0.65396662848 0.20848241239 -0.00020990049 -0.65988950904 0.22036721171 -0.00022597158 -0.66626617768 0.23245058770 -0.00040099223 -0.62152699317 0.13968216343 -0.00041749502 -0.62539796219 0.14701066449 -0.00043655174 -0.62945111254 0.15536694473 -0.00045858570 -0.63372307889 0.16464088402 -0.00048402021 -0.63825049590 0.17472236223 -0.00051327860 -0.64306999824 0.18550125920 -0.00054678418 -0.64821822059 0.19686745482 -0.00058496027 -0.65373179760 0.20871082893 -0.00062823017 -0.65964736395 0.22092126141 -0.00067701721 -0.66600155431 0.23338863212 -0.00066251850 -0.62077743817 0.13800073567 -0.00068981508 -0.62469043817 0.14544598953 -0.00072142914 -0.62879420072 0.15396510858 -0.00075812392 -0.63311980199 0.16345806370 -0.00080066268 -0.63769831812 0.17382482576 -0.00084980865 -0.64256082529 0.18496536564 -0.00090632509 -0.64773839964 0.19677965421 -0.00097097524 -0.65326211734 0.20916766236 -0.00104452235 -0.65916305455 0.22202936095 -0.00112772966 -0.66547228742 0.23526472086 -0.00091575884 -0.61965309733 0.13547859461 -0.00095353521 -0.62362914374 0.14309897764 -0.00099748369 -0.62780882453 0.15186235485 -0.00104879412 -0.63221487808 0.16168383363 -0.00110865630 -0.63687004277 0.17247852140 -0.00117826006 -0.64179705698 0.18416152553 -0.00125879521 -0.64701865910 0.19664795345 -0.00135145157 -0.65255758751 0.20985291253 -0.00145741896 -0.65843658059 0.22369151018 -0.00157788721 -0.66467837673 0.23807885380 -0.00115739885 -0.61815397057 0.13211574015 -0.00120521541 -0.62221407883 0.13996962871 -0.00126118625 -0.62649498389 0.14905868342 -0.00132704906 -0.63100830709 0.15931819371 -0.00140454154 -0.63576566975 0.17068344901 -0.00149540138 -0.64077869323 0.18308973876 -0.00160136626 -0.64605899885 0.19647235238 -0.00172417389 -0.65161820795 0.21076657930 -0.00186556195 -0.65746794186 0.22590770896 -0.00202726813 -0.66361982193 0.24183103078 0.00116586205 -0.62506438995 0.13096877996 0.00120825126 -0.62954806988 0.13727921267 0.00125877563 -0.63419634034 0.14529742386 0.00131845591 -0.63902410484 0.15492162140 0.00138831289 -0.64404626687 0.16605001313 0.00146936735 -0.64927772993 0.17858080692 0.00156264005 -0.65473339750 0.19241221063 0.00166915177 -0.66042817308 0.20744243211 0.00178992329 -0.66637696017 0.22356967923 0.00192597538 -0.67259466226 0.24069215984 0.00092269253 -0.62653421066 0.13426119379 0.00095551259 -0.63094443386 0.14036132905 0.00099542331 -0.63551320521 0.14807346346 0.00104315749 -0.64027918736 0.15727782790 0.00109944792 -0.64528104296 0.16785465330 0.00116502741 -0.65055743467 0.17968417056 0.00124062875 -0.65614702512 0.19264661058 0.00132698475 -0.66208847698 0.20662220428 0.00142482821 -0.66842045288 0.22149118255 0.00153489193 -0.67518161549 0.23713377632 0.00066752026 -0.62763658046 0.13673050391 0.00069088340 -0.63199171115 0.14267291610 0.00071972030 -0.63650085820 0.15015549293 0.00075452161 -0.64122050364 0.15904498259 0.00079577800 -0.64620712950 0.16920813327 0.00084398014 -0.65151721782 0.18051169317 0.00089961868 -0.65720725062 0.19282241047 0.00096318430 -0.66333370992 0.20600703337 0.00103516766 -0.66995307777 0.21993231005 0.00111605943 -0.67712183618 0.23446498871 0.00040377457 -0.62837149927 0.13837671022 0.00041776097 -0.63268990165 0.14421397370 0.00043519535 -0.63715929921 0.15154351218 0.00045635898 -0.64184805358 0.16022308535 0.00048153313 -0.64682452638 0.17011045294 0.00051099908 -0.65215707923 0.18106337465 0.00054503810 -0.65791407377 0.19293961020 0.00058393147 -0.66416387162 0.20559691929 0.00062796046 -0.67097483441 0.21889306164 0.00067740634 -0.67841532377 0.23268579695 0.00013488479 -0.62873896701 0.13919981262 0.00013954256 -0.63303900531 0.14498450178 0.00014537722 -0.63748852819 0.15223752112 0.00015248028 -0.64216183710 0.16081213611 0.00016094329 -0.64713323347 0.17056161221 0.00017085778 -0.65247701875 0.18133921491 0.00018231527 -0.65826749437 0.19299820967 0.00019540731 -0.66457896177 0.20539186196 0.00021022542 -0.67148572239 0.21837343724 0.00022686113 -0.67906207767 0.23179620098 -0.00013571975 -0.62873898363 0.13919981102 -0.00014037455 -0.63303902204 0.14498450022 -0.00014620534 -0.63748854505 0.15223751964 -0.00015330378 -0.64216185411 0.16081213474 -0.00016176153 -0.64713325068 0.17056161099 -0.00017167023 -0.65247703623 0.18133921384 -0.00018312154 -0.65826751221 0.19299820878 -0.00019620713 -0.66457898008 0.20539186126 -0.00021101864 -0.67148574130 0.21837343676 -0.00022764773 -0.67906209733 0.23179620073 -0.00040460973 -0.62837154904 0.13837670532 -0.00041859311 -0.63268995178 0.14421396895 -0.00043602358 -0.63715934971 0.15154350766 -0.00045718253 -0.64184810452 0.16022308116 -0.00048235134 -0.64682457789 0.17011044915 -0.00051181139 -0.65215713151 0.18106337134 -0.00054584408 -0.65791412707 0.19293960742 -0.00058473079 -0.66416392624 0.20559691712 -0.00062875290 -0.67097489071 0.21889306012 -0.00067819180 -0.67841538216 0.23268579614 -0.00066835581 -0.62763666318 0.13673049543 -0.00069171584 -0.63199179444 0.14267290786 -0.00072054874 -0.63650094209 0.15015548508 -0.00075534526 -0.64122058824 0.15904497527 -0.00079659615 -0.64620721499 0.16920812661 -0.00084479218 -0.65151730445 0.18051168729 -0.00090042408 -0.65720733874 0.19282240550 -0.00096398262 -0.66333379996 0.20600702942 -0.00103595855 -0.66995317021 0.21993230724 -0.00111684261 -0.67712193161 0.23446498714 -0.00092352868 -0.62653432598 0.13426118124 -0.00095634547 -0.63094454997 0.14036131686 -0.00099625206 -0.63551332212 0.14807345180 -0.00104398128 -0.64027930518 0.15727781696 -0.00110026599 -0.64528116186 0.16785464326 -0.00116583904 -0.65055755490 0.17968416161 -0.00124143329 -0.65614714702 0.19264660291 -0.00132778158 -0.66208860094 0.20662219808 -0.00142561677 -0.66842057939 0.22149117803 -0.00153567170 -0.67518174510 0.23713377367 -0.00116669900 -0.62506453737 0.13096876267 -0.00120908475 -0.62954821827 0.13727919586 -0.00125960479 -0.63419648972 0.14529740772 -0.00131927990 -0.63902425525 0.15492160614 -0.00138913086 -0.64404641840 0.16604999900 -0.00147017844 -0.64927788270 0.17858079417 -0.00156344343 -0.65473355169 0.19241219955 -0.00166994660 -0.66042832888 0.20744242300 -0.00179070874 -0.66637711783 0.22356967241 -0.00192675061 -0.67259482206 0.24069215566 </DataArray>
</PointData>
<Points>
<DataArray type="Float32" NumberOfComponents="3">
-0.33222541437 -0.12214341554 2.22050532960 -0.33218491494 -0.11229764902 2.22541120528 -0.33213426018 -0.10111213076 2.23233780715 -0.33206858975 -0.08863253763 2.24114955284 -0.33198304328 -0.07490454653 2.25171086000 -0.33187276042 -0.05997383434 2.26388614626 -0.33173288082 -0.04388607797 2.27753982926 -0.33155854413 -0.02668695429 2.29253632664 -0.33134488998 -0.00842214019 2.30874005603 -0.33108705804 0.01086268744 2.32601543509 -0.25838876123 -0.11831626619 2.22376821566 -0.25836959816 -0.10870059341 2.22845364650 -0.25841310565 -0.09781073600 2.23504820938 -0.25858879522 -0.08567591105 2.24337644342 -0.25896617837 -0.07232533567 2.25326288776 -0.25961476660 -0.05778822697 2.26453208155 -0.26060407144 -0.04209380206 2.27700856392 -0.26200360438 -0.02527127804 2.29051687402 -0.26388287694 -0.00734987202 2.30488155098 -0.26631140062 0.01164119889 2.31992713394 -0.18455876368 -0.11544590800 2.22621538036 -0.18455168425 -0.10600280554 2.23073547762 -0.18462717437 -0.09533469379 2.23708101128 -0.18487414857 -0.08345844503 2.24504661161 -0.18538152139 -0.07039093153 2.25442690888 -0.18623820736 -0.05614902556 2.26501653336 -0.18753312100 -0.04074959941 2.27661011533 -0.18935517686 -0.02420952535 2.28900228504 -0.19179328947 -0.00654567565 2.30198767278 -0.19493637336 0.01222507741 2.31536090880 -0.11073352019 -0.11353234094 2.22784682358 -0.11073191531 -0.10420428537 2.23225669849 -0.11079497403 -0.09368400409 2.23843621271 -0.11099175045 -0.08198013951 2.24616005728 -0.11139129867 -0.06910133401 2.25520292322 -0.11206267280 -0.05505622999 2.26533950156 -0.11307492694 -0.03985346984 2.27634448333 -0.11449711520 -0.02350169596 2.28799255955 -0.11639829167 -0.00600955074 2.30005842125 -0.11884751048 0.01261432343 2.31231675947 -0.03691112919 -0.11257556494 2.22866254520 -0.03691103341 -0.10330503283 2.23301730900 -0.03693501230 -0.09285866684 2.23911381357 -0.03700870147 -0.08124099441 2.24671678032 -0.03715773653 -0.06845654302 2.25559093066 -0.03740775306 -0.05450984012 2.26550098601 -0.03778438669 -0.03940541317 2.27621166778 -0.03831327301 -0.02314778963 2.28748769738 -0.03902004764 -0.00574149695 2.29909379622 -0.03993034616 0.01280893741 2.31079468571 0.03691031085 -0.11257557994 2.22866254510 0.03691021936 -0.10330504788 2.23301730902 0.03693420312 -0.09285868197 2.23911381370 0.03700789772 -0.08124100968 2.24671678057 0.03715693872 -0.06845655848 2.25559093105 0.03740696173 -0.05450985584 2.26550098656 0.03778360232 -0.03940542922 2.27621166852 0.03831249606 -0.02314780610 2.28748769836 0.03901927855 -0.00574151394 2.29909379749 0.03992958537 0.01280891979 2.31079468733 0.11073270149 -0.11353238590 2.22784682317 0.11073110092 -0.10420433046 2.23225669842 0.11079416457 -0.09368404942 2.23843621299 0.11099094649 -0.08198018522 2.24616005792 0.11139050076 -0.06910138027 2.25520292427 0.11206188145 -0.05505627699 2.26533950309 0.11307414264 -0.03985351780 2.27634448543 0.11449633840 -0.02350174513 2.28799256234 0.11639752281 -0.00600960138 2.30005842488 0.11884674992 0.01261427102 2.31231676409 0.18455794427 -0.11544598275 2.22621537928 0.18455086920 -0.10600288051 2.23073547709 0.18462636435 -0.09533476915 2.23708101131 0.18487334421 -0.08345852099 2.24504661224 0.18538072326 -0.07039100832 2.25442691018 0.18623741598 -0.05614910347 2.26501653545 0.18753233686 -0.04074967874 2.27661011834 0.18935440038 -0.02420960646 2.28900228915 0.19179252103 -0.00654575892 2.30198767820 0.19493561328 0.01222499156 2.31536091579 0.25838794074 -0.11831637043 2.22376821330 0.25836878209 -0.10870069799 2.22845364489 0.25841229478 -0.09781084110 2.23504820853 0.25858799024 -0.08567601690 2.24337644339 0.25896537990 -0.07232544253 2.25326288866 0.25961397519 -0.05778833513 2.26453208351 0.26060328753 -0.04209391185 2.27700856711 0.26200282837 -0.02527138984 2.29051687864 0.26388210913 -0.00734998623 2.30488155728 0.26631064124 0.01164108183 2.31992714220 0.33222459245 -0.12214354890 2.22050532513 0.33218409753 -0.11229778284 2.22541120170 0.33213344819 -0.10111226520 2.23233780451 0.33206778396 -0.08863267288 2.24114955125 0.33198224437 -0.07490468279 2.25171085956 0.33187196894 -0.05997397185 2.26388614712 0.33173209722 -0.04388621696 2.27753983159 0.33155776874 -0.02668709503 2.29253633064 0.33134412302 -0.00842228297 2.30874006193 0.33108629960 0.01086254231 2.32601544312 -0.33222364078 -0.13003314998 2.22659967979 -0.33221067377 -0.11968857372 2.23371889766 -0.33239116649 -0.10824932500 2.24222996577 -0.33296447117 -0.09573994434 2.25204468718 -0.33412994004 -0.08218497223 2.26307486497 -0.33608692533 -0.06760894917 2.27523230220 -0.33903477926 -0.05203641566 2.28842880194 -0.34317285406 -0.03549191220 2.30257616727 -0.34870050197 -0.01799997929 2.31758620124 -0.35581707522 0.00041484257 2.33337070694 -0.25838642703 -0.12612082704 2.22994005744 -0.25838135483 -0.11603272656 2.23681868478 -0.25855997032 -0.10492729679 2.24498874958 -0.25911176525 -0.09283030431 2.25432853662 -0.26022623131 -0.07976751569 2.26471633069 -0.26209286023 -0.06576469750 2.27603041659 -0.26490114373 -0.05084761633 2.28814907909 -0.26884057351 -0.03504203874 2.30095060299 -0.27410064131 -0.01837373132 2.31431327307 -0.28087083883 -0.00086846062 2.32811537413 -0.18455658512 -0.12318658871 2.23244534081 -0.18455564739 -0.11329084508 2.23914352528 -0.18470371105 -0.10243577955 2.24705783762 -0.18515457731 -0.09064807826 2.25604142392 -0.18606204739 -0.07795442734 2.26594743025 -0.18757992251 -0.06438151293 2.27662900269 -0.18986200388 -0.04995602115 2.28793928732 -0.19306209273 -0.03470463815 2.29973143022 -0.19733399026 -0.01865405006 2.31185857746 -0.20283149769 -0.00183094302 2.32417387514 -0.11073200884 -0.12123043494 2.23411552976 -0.11073251965 -0.11146292923 2.24069341903 -0.11082954959 -0.10077477323 2.24843722978 -0.11112275939 -0.08919326613 2.25718334896 -0.11171180978 -0.07674570710 2.26676816350 -0.11269636148 -0.06345939532 2.27702806036 -0.11417607523 -0.04936162998 2.28779942648 -0.11625061174 -0.03447971025 2.29891864879 -0.11901963174 -0.01884093531 2.31022211425 -0.12258279596 -0.00247260434 2.32154620979 -0.03691059202 -0.12025236565 2.23495062417 -0.03691093979 -0.11054897894 2.24146836590 -0.03694464687 -0.09994427777 2.24912692591 -0.03704616352 -0.08846586785 2.25775431160 -0.03724993997 -0.07614135488 2.26717853032 -0.03759042647 -0.06299834459 2.27722758947 -0.03810207325 -0.04906444267 2.28772949643 -0.03881933057 -0.03436725484 2.29851225856 -0.03977664867 -0.01893438682 2.30940388325 -0.04100847778 -0.00279344431 2.32023237788 0.03690977153 -0.12025238079 2.23495062394 0.03691012400 -0.11054899416 2.24146836578 0.03694383618 -0.09994429310 2.24912692591 0.03704535828 -0.08846588334 2.25775431171 0.03724914055 -0.07614137060 2.26717853057 0.03758963323 -0.06299836061 2.27722758988 0.03810128654 -0.04906445909 2.28772949701 0.03881855073 -0.03436727177 2.29851225936 0.03977587603 -0.01893440438 2.30940388431 0.04100771268 -0.00279346263 2.32023237924 0.11073118799 -0.12123048029 2.23411552895 0.11073170354 -0.11146297482 2.24069341855 0.11082873863 -0.10077481916 2.24843722964 0.11112195397 -0.08919331253 2.25718334918 0.11171101028 -0.07674575417 2.26676816413 0.11269556828 -0.06345944328 2.27702806145 0.11417528866 -0.04936167910 2.28779942810 0.11624983214 -0.03447976085 2.29891865105 0.11901885944 -0.01884098775 2.31022211725 0.12258203126 -0.00247265903 2.32154621366 0.18455576356 -0.12318666410 2.23244533906 0.18455483063 -0.11329092087 2.23914352408 0.18470289956 -0.10243585588 2.24705783698 0.18515377153 -0.09064815536 2.25604142386 0.18606124774 -0.07795450549 2.26594743085 0.18757912937 -0.06438159249 2.27662900404 0.18986121760 -0.04995610256 2.28793928954 0.19306131363 -0.03470472191 2.29973143345 0.19733321863 -0.01865413672 2.31185858190 0.20283073381 -0.00183103322 2.32417388097 0.25838560440 -0.12612093216 2.22994005417 0.25838053709 -0.11603283224 2.23681868225 0.25855915804 -0.10492740322 2.24498874780 0.25911095893 -0.09283041175 2.25432853564 0.26022543142 -0.07976762450 2.26471633061 0.26209206718 -0.06576480814 2.27603041751 0.26490035787 -0.05084772934 2.28814908118 0.26883979515 -0.03504215476 2.30095060643 0.27409987069 -0.01837385106 2.31431327809 0.28087007616 -0.00086858492 2.32811538098 0.33222281672 -0.13003328440 2.22659967415 0.33220985473 -0.11968870889 2.23371889293 0.33239035315 -0.10824946109 2.24222996197 0.33296366414 -0.09574008162 2.25204468438 0.33412913984 -0.08218511109 2.26307486326 0.33608613240 -0.06760909011 2.27523230173 0.33903399397 -0.05203655928 2.28842880288 0.34317207669 -0.03549205923 2.30257616982 0.34869973270 -0.01800013055 2.31758620565 0.35581631416 0.00041468614 2.33337071350 -0.33222022248 -0.13873800334 2.23435271301 -0.33222799320 -0.12788996017 2.24298406915 -0.33258211609 -0.11616415934 2.25257364043 -0.33363511191 -0.10357007307 2.26306965610 -0.33573950143 -0.09011717355 2.27442034542 -0.33924780540 -0.07581493300 2.28657393766 -0.34451254458 -0.06067282362 2.29947866206 -0.35188623974 -0.04470031762 2.31308274789 -0.36172141163 -0.02790688720 2.32733442440 -0.37437058103 -0.01030200458 2.34218192086 -0.25838283106 -0.13476105760 2.23775190612 -0.25838841596 -0.12418936974 2.24612751498 -0.25866855243 -0.11282498339 2.25536797139 -0.25950269358 -0.10069091774 2.26539167505 -0.26117029256 -0.08781019197 2.27611702566 -0.26395080248 -0.07420582526 2.28746242293 -0.26812367647 -0.05990083680 2.29934626657 -0.27396836766 -0.04491824576 2.31168695629 -0.28176432918 -0.02928107135 2.32440289178 -0.29179101415 -0.01301233272 2.33741247275 -0.18455351463 -0.13177835223 2.24030130104 -0.18455725754 -0.12141393087 2.24848509947 -0.18475987649 -0.11032060541 2.25746371976 -0.18536380423 -0.09853155528 2.26713318944 -0.18657147353 -0.08607995989 2.27738953606 -0.18858531713 -0.07299899866 2.28812878717 -0.19160776780 -0.05932185102 2.29924697029 -0.19584125829 -0.04508169637 2.31064011298 -0.20148822137 -0.03031171415 2.32220424278 -0.20875108979 -0.01504508377 2.33383538722 -0.11072996609 -0.12978988714 2.24200089763 -0.11073211261 -0.11956364348 2.25005682249 -0.11085469182 -0.10865102534 2.25886088540 -0.11122029275 -0.09709198562 2.26829419915 -0.11195150439 -0.08492647724 2.27823787650 -0.11317091575 -0.07219445312 2.28857303021 -0.11500111585 -0.05893586618 2.29918077306 -0.11756469368 -0.04519066933 2.30994221781 -0.12098423826 -0.03099881549 2.32073847723 -0.12538233859 -0.01640025757 2.33145066409 -0.03690987837 -0.12879566228 2.24285069580 -0.03691057583 -0.11863850752 2.25084268392 -0.03695160197 -0.10781624310 2.25955946821 -0.03707400802 -0.09637220868 2.26887470405 -0.03731884520 -0.08434974394 2.27866204683 -0.03772716475 -0.07179218855 2.28879515193 -0.03834001789 -0.05874288219 2.29914767473 -0.03919845585 -0.04524516452 2.30959327062 -0.04034352986 -0.03134237523 2.32000559497 -0.04181629115 -0.01707785399 2.33025830317 0.03690905564 -0.12879567758 2.24285069541 0.03690975813 -0.11863852292 2.25084268364 0.03695078954 -0.10781625863 2.25955946805 0.03707320108 -0.09637222439 2.26887470402 0.03731804399 -0.08434975990 2.27866204694 0.03772636949 -0.07179220485 2.28879515219 0.03833922881 -0.05874289894 2.29914767516 0.03919767316 -0.04524518184 2.30959327125 0.04034275378 -0.03134239326 2.32000559582 0.04181552188 -0.01707787288 2.33025830429 0.11072914302 -0.12978993298 2.24200089635 0.11073129460 -0.11956368962 2.25005682154 0.11085387914 -0.10865107187 2.25886088480 0.11121948566 -0.09709203269 2.26829419892 0.11195070313 -0.08492652506 2.27823787667 0.11317012057 -0.07219450195 2.28857303084 0.11500032697 -0.05893591632 2.29918077420 0.11756391132 -0.04519072116 2.30994221954 0.12098346263 -0.03099886943 2.32073847963 0.12538156989 -0.01640031411 2.33145066726 0.18455269086 -0.13177842841 2.24030129850 0.18455643891 -0.12141400756 2.24848509749 0.18475906332 -0.11032068275 2.25746371834 0.18536299682 -0.09853163350 2.26713318863 0.18657067217 -0.08608003932 2.27738953591 0.18858452208 -0.07299907973 2.28812878774 0.19160697931 -0.05932193425 2.29924697169 0.19584047659 -0.04508178238 2.31064011533 0.20148744665 -0.03031180363 2.32220424622 0.20875032225 -0.01504517754 2.33383539192 0.25838200624 -0.13476116381 2.23775190174 0.25838759639 -0.12418947667 2.24612751137 0.25866773851 -0.11282509121 2.25536796855 0.25950188570 -0.10069102675 2.26539167302 0.26116949104 -0.08781030262 2.27611702450 0.26395000763 -0.07420593813 2.28746242275 0.26812288856 -0.05990095261 2.29934626750 0.27396758693 -0.04491836537 2.31168695847 0.28176355582 -0.02928119573 2.32440289542 0.29179024833 -0.01301246302 2.33741247807 0.33221939627 -0.13873813911 2.23435270596 0.33222717239 -0.12789009688 2.24298406307 0.33258130119 -0.11616429717 2.25257363530 0.33363430340 -0.10357021237 2.26306965196 0.33573869970 -0.09011731486 2.27442034234 0.33924701082 -0.07581507704 2.28657393574 0.34451175746 -0.06067297130 2.29947866146 0.35188546031 -0.04470047002 2.31308274880 0.36172064009 -0.02790704560 2.32733442706 0.37436981750 -0.01030217042 2.34218192554 -0.33221536061 -0.14792235756 2.24338091389 -0.33223701045 -0.13666598517 2.25293696733 -0.33270710754 -0.12469645717 2.26318529436 -0.33408031776 -0.11201503566 2.27410046842 -0.33681130701 -0.09862298276 2.28565706299 -0.34135474118 -0.08452156059 2.29782965152 -0.34816528615 -0.06971203125 2.31059280748 -0.35769760781 -0.05419565687 2.32392110432 -0.37040637205 -0.03797369956 2.33778911552 -0.38674624477 -0.02104742144 2.35217141452 -0.25837813971 -0.14390147562 2.24682029924 -0.25839088761 -0.13293488934 2.25611065872 -0.25873886597 -0.12134498223 2.26600407591 -0.25976148657 -0.10915455827 2.27644751596 -0.26179816119 -0.09638642148 2.28738794405 -0.26518830159 -0.08306337586 2.29877232531 -0.27027131957 -0.06920822541 2.31054762492 -0.27738662689 -0.05484377413 2.32266080803 -0.28687363534 -0.03999282602 2.33505883979 -0.29907175668 -0.02467818510 2.34768868536 -0.18454967641 -0.14088581814 2.24939983828 -0.18455659009 -0.13013657147 2.25849092732 -0.18479568882 -0.11883138006 2.26811816217 -0.18550179320 -0.10700920432 2.27820780176 -0.18690972382 -0.09470900468 2.28868610503 -0.18925430130 -0.08196974156 2.29947933090 -0.19277034623 -0.06883037539 2.31051373830 -0.19769267922 -0.05532986657 2.32171558616 -0.20425612086 -0.04150717554 2.33301113342 -0.21269549176 -0.02740126272 2.34432663899 -0.11072746859 -0.13887538505 2.25111953090 -0.11073073927 -0.12827103149 2.26007777302 -0.11087041485 -0.11715565060 2.26952755302 -0.11128434113 -0.10557897374 2.27938132569 -0.11211036393 -0.09359073229 2.28955154580 -0.11348632905 -0.08124065763 2.29995066813 -0.11555008231 -0.06857848112 2.31049114746 -0.11843946951 -0.05565393415 2.32108543857 -0.12229233647 -0.04251674807 2.33164599623 -0.12724652898 -0.02921665428 2.34208527523 -0.03690901411 -0.13787017628 2.25197937699 -0.03690995652 -0.12733826933 2.26087119570 -0.03695588283 -0.11631779377 2.27023224834 -0.03709223388 -0.10486386645 2.27996808761 -0.03736445053 -0.09303160423 2.28998426622 -0.03781797362 -0.08087612398 2.30018633686 -0.03849824399 -0.06845254254 2.31047985225 -0.03945070251 -0.05581597678 2.32077036508 -0.04072079001 -0.04302154357 2.33096342806 -0.04235394735 -0.03012435975 2.34096459390 0.03690818913 -0.13787019177 2.25197937642 0.03690913677 -0.12733828493 2.26087119525 0.03695506847 -0.11631780951 2.27023224801 0.03709142505 -0.10486388238 2.27996808741 0.03736364737 -0.09303162043 2.28998426616 0.03781717625 -0.08087614053 2.30018633696 0.03849745253 -0.06845255957 2.31047985252 0.03944991705 -0.05581599442 2.32077036554 0.04072001064 -0.04302156197 2.33096342873 0.04235317414 -0.03012437909 2.34096459480 0.11072664327 -0.13887543144 2.25111952909 0.11072991922 -0.12827107822 2.26007777155 0.11086960026 -0.11715569775 2.26952755191 0.11128353216 -0.10557902147 2.27938132496 0.11210956074 -0.09359078081 2.28955154548 0.11348553178 -0.08124070722 2.29995066827 0.11554929108 -0.06857853214 2.31049114810 0.11843868444 -0.05565398699 2.32108543977 0.12229155765 -0.04251680322 2.33164599806 0.12724575651 -0.02921671227 2.34208527775 0.18454885043 -0.14088589524 2.24939983486 0.18455576946 -0.13013664914 2.25849092448 0.18479487377 -0.11883145842 2.26811815992 0.18550098395 -0.10700928364 2.27820780013 0.18690892057 -0.09470908531 2.28868610406 0.18925350421 -0.08196982397 2.29947933065 0.19276955547 -0.06883046017 2.31051373886 0.19769189493 -0.05532995442 2.32171558761 0.20425534317 -0.04150726728 2.33301113587 0.21269472076 -0.02740135927 2.34432664258 0.25837731273 -0.14390158309 2.24682029364 0.25839006610 -0.13293499761 2.25611065392 0.25873805025 -0.12134509146 2.26600407191 0.25976067691 -0.10915466882 2.27644751279 0.26179735784 -0.09638653384 2.28738794175 0.26518750479 -0.08306349071 2.29877232396 0.27027052952 -0.06920834359 2.31054762462 0.27738584378 -0.05484389666 2.32266080891 0.28687285933 -0.03999295409 2.33505884200 0.29907098791 -0.02467832004 2.34768868909 0.33221453230 -0.14792249492 2.24338090529 0.33223618777 -0.13666612358 2.25293695975 0.33270629090 -0.12469659680 2.26318528776 0.33407950753 -0.11201517694 2.27410046282 0.33681050353 -0.09862312634 2.28565705842 0.34135394475 -0.08452170735 2.29782964806 0.34816449704 -0.06971218233 2.31059280525 0.35769682627 -0.05419581363 2.32392110348 0.37040559829 -0.03797386359 2.33778911627 0.38674547895 -0.02104759458 2.35217141710 -0.33220925631 -0.15725059459 2.25330076708 -0.33223786274 -0.14578082553 2.26330783979 -0.33276613938 -0.13368604188 2.27388139077 -0.33429989449 -0.12096694397 2.28501313295 -0.33734493634 -0.10762423212 2.29669477927 -0.34240707319 -0.09365860667 2.30891804266 -0.34999211329 -0.07907076794 2.32167463605 -0.36060586491 -0.06386141628 2.33495627238 -0.37475413631 -0.04803125200 2.34875466457 -0.39294273574 -0.03158097544 2.36306152557 -0.25837251940 -0.15320659884 2.25676177434 -0.25838887582 -0.14203365175 2.26649863758 -0.25877092497 -0.13032847972 2.27671526421 -0.25988805056 -0.11811803283 2.28737771662 -0.26210963627 -0.10542926120 2.29845205723 -0.26580506583 -0.09228911493 2.30990434844 -0.27134372294 -0.07872454412 2.32170065267 -0.27909499129 -0.06476249886 2.33380703231 -0.28942825459 -0.05042992926 2.34618954978 -0.30271289655 -0.03575378541 2.35881426749 -0.18454519466 -0.15017360606 2.25935752976 -0.18455372041 -0.13922327547 2.26889173594 -0.18481116614 -0.12781031218 2.27884066934 -0.18556850804 -0.11598135362 2.28915115447 -0.18707672230 -0.10378303723 2.29977001584 -0.18958678511 -0.09126200042 2.31064407798 -0.19334967266 -0.07846488064 2.32172016539 -0.19861636115 -0.06543831532 2.33294510259 -0.20563782676 -0.05222894188 2.34426571409 -0.21466504568 -0.03888339775 2.35562882440 -0.11072459296 -0.14815161617 2.26108803325 -0.11072844470 -0.13734969662 2.27048713475 -0.11087673276 -0.12613153921 2.28025760604 -0.11131489514 -0.11455690627 2.29033344637 -0.11218836983 -0.10268556011 2.30064865498 -0.11364259483 -0.09057726307 2.31113723113 -0.11582300813 -0.07829177747 2.32173317406 -0.11887504772 -0.06588886562 2.33237048304 -0.12294415161 -0.05342828986 2.34298315730 -0.12817575777 -0.04096981250 2.35350519610 -0.03690802514 -0.14714062911 2.26195328467 -0.03690909684 -0.13641291513 2.27128483390 -0.03695749468 -0.12529216073 2.28096607420 -0.03710084002 -0.11384469069 2.29092459219 -0.03738675427 -0.10213682980 2.30108797450 -0.03786285879 -0.09023490282 2.31138380774 -0.03857677499 -0.07820523454 2.32173967853 -0.03957612424 -0.06611414974 2.33208317349 -0.04090852793 -0.05402797320 2.34234187924 -0.04262160745 -0.04201302968 2.35244338240 0.03690719795 -0.14714064479 2.26195328391 0.03690827496 -0.13641293093 2.27128483326 0.03695667823 -0.12529217668 2.28096607369 0.03710002912 -0.11384470684 2.29092459182 0.03738594899 -0.10213684621 2.30108797427 0.03786205920 -0.09023491960 2.31138380766 0.03857598111 -0.07820525181 2.32173967862 0.03957533608 -0.06611416764 2.33208317377 0.04090774547 -0.05402799188 2.34234187972 0.04262083063 -0.04201304935 2.35244338310 0.11072376546 -0.14815166316 2.26108803087 0.11072762254 -0.13734974396 2.27048713273 0.11087591610 -0.12613158698 2.28025760440 0.11131408411 -0.11455695463 2.29033344512 0.11218756454 -0.10268560928 2.30064865415 0.11364179535 -0.09057731335 2.31113723076 0.11582221452 -0.07829182921 2.32173317419 0.11887426001 -0.06588891927 2.33237048371 0.12294336979 -0.05342834591 2.34298315856 0.12817498184 -0.04096987153 2.35350519801 0.18454436653 -0.15017368415 2.25935752542 0.18455289772 -0.13922335414 2.26889173219 0.18481034907 -0.12781039157 2.27884066620 0.18556769677 -0.11598143399 2.28915115197 0.18707591698 -0.10378311894 2.29977001402 0.18958598586 -0.09126208400 2.31064407688 0.19334887959 -0.07846496670 2.32172016508 0.19861557433 -0.06543840461 2.33294510313 0.20563704625 -0.05222903527 2.34426571558 0.21466427153 -0.03888349626 2.35562882693 0.25837169033 -0.15320670768 2.25676176744 0.25838805231 -0.14203376142 2.26649863152 0.25877010728 -0.13032859038 2.27671525898 0.25988723891 -0.11811814485 2.28737771224 0.26210883090 -0.10542937512 2.29845205373 0.26580426692 -0.09228923148 2.30990434588 0.27134293066 -0.07872466421 2.32170065112 0.27909420581 -0.06476262362 2.33380703188 0.28942747605 -0.05043005997 2.34618955058 0.30271212506 -0.03575392358 2.35881426967 0.33220842598 -0.15725073369 2.25330075683 0.33223703814 -0.14578096572 2.26330783061 0.33276532085 -0.13368618334 2.27388138261 0.33429908236 -0.12096708715 2.28501312580 0.33734413090 -0.10762437775 2.29669477314 0.34240627472 -0.09365875573 2.30891803761 0.34999132208 -0.07907092170 2.32167463216 0.36060508122 -0.06386157626 2.33495626977 0.37475336038 -0.04803142000 2.34875466340 0.39294196781 -0.03158115352 2.36306152602 -0.33220211071 -0.16638709637 2.26372875722 -0.33223068728 -0.15499865805 2.27382693410 -0.33275921017 -0.14297273690 2.28447839289 -0.33429364790 -0.13031790986 2.29568365851 -0.33733996900 -0.11704275391 2.30744325589 -0.34240414198 -0.10315584600 2.31975770996 -0.34999213537 -0.08866576309 2.33262754564 -0.36060991770 -0.07358108214 2.34605328787 -0.37476345748 -0.05791038013 2.36003546157 -0.39295872325 -0.04166223399 2.37457459167 -0.25836613652 -0.16234094503 2.26719286897 -0.25838248664 -0.15125002335 2.27702197319 -0.25876474344 -0.13961666228 2.28731973739 -0.25988229188 -0.12747814835 2.29806393428 -0.26210451690 -0.11487176811 2.30923233659 -0.26580080344 -0.10183480811 2.32080271704 -0.27134053647 -0.08840455488 2.33275284836 -0.27909310092 -0.07461829499 2.34506050326 -0.28942788174 -0.06051331496 2.35770345446 -0.30271426388 -0.04612690135 2.37065947469 -0.18454019357 -0.15930633560 2.26979095272 -0.18454872389 -0.14843855143 2.27941825247 -0.18480632658 -0.13709961046 2.28945074576 -0.18556391263 -0.12534833141 2.29984914115 -0.18707239300 -0.11324353302 2.31057414722 -0.18958267866 -0.10084403403 2.32158647251 -0.19334568059 -0.08820865317 2.33284682561 -0.19861230975 -0.07539620918 2.34431591508 -0.20563347712 -0.06246552079 2.35595444949 -0.21466009367 -0.04947540675 2.36772313739 -0.11072141585 -0.15728326801 2.27152300836 -0.11072527396 -0.14656424223 2.28101577183 -0.11087365967 -0.13542158137 2.29087141789 -0.11131194539 -0.12392845897 2.30103927901 -0.11218550354 -0.11215804857 2.31146868763 -0.11363970654 -0.10018352370 2.32210897622 -0.11581992683 -0.08807805790 2.33290947725 -0.11887153681 -0.07591482470 2.34381952318 -0.12293990891 -0.06376699764 2.35478844646 -0.12817041556 -0.05170775025 2.36576557957 -0.03690693732 -0.15627174220 2.27238903576 -0.03690801178 -0.14562709566 2.28181453116 -0.03695644276 -0.13458257493 2.29158175367 -0.03709982536 -0.12321853095 2.30163434772 -0.03738575473 -0.11161531468 2.31191595770 -0.03786182599 -0.09985327705 2.32237022803 -0.03857563428 -0.08801276901 2.33294080311 -0.03957477470 -0.07617414151 2.34357132737 -0.04090684241 -0.06441774550 2.35420544520 -0.04261943252 -0.05282393191 2.36478680101 0.03690610806 -0.15627175809 2.27238903481 0.03690718774 -0.14562711167 2.28181453033 0.03695562409 -0.13458259108 2.29158175297 0.03709901222 -0.12321854730 2.30163434716 0.03738494718 -0.11161533129 2.31191595729 0.03786102407 -0.09985329403 2.32237022777 0.03857483796 -0.08801278647 2.33294080303 0.03957398395 -0.07617415960 2.34357132747 0.04090605710 -0.06441776438 2.35420544550 0.04261865251 -0.05282395178 2.36478680152 0.11072058630 -0.15728331562 2.27152300541 0.11072444967 -0.14656429018 2.28101576924 0.11087284082 -0.13542162975 2.29087141569 0.11131113213 -0.12392850793 2.30103927720 0.11218469598 -0.11215809833 2.31146868626 0.11363890474 -0.10018357456 2.32210897532 0.11581913080 -0.08807811023 2.33290947685 0.11887074654 -0.07591487894 2.34381952331 0.12293912434 -0.06376705430 2.35478844717 0.12816963657 -0.05170780992 2.36576558090 0.18453936343 -0.15930641470 2.26979094743 0.18454789910 -0.14843863113 2.27941824778 0.18480550736 -0.13709969086 2.28945074169 0.18556309916 -0.12534841277 2.29984913774 0.18707158543 -0.11324361573 2.31057414449 0.18958187711 -0.10084411859 2.32158647052 0.19334488514 -0.08820874022 2.33284682441 0.19861152046 -0.07539629949 2.34431591472 0.20563269400 -0.06246561525 2.35595445004 0.21465931671 -0.04947550637 2.36772313893 0.25836530550 -0.16234105529 2.26719286076 0.25838166111 -0.15125013444 2.27702196583 0.25876392366 -0.13961677435 2.28731973087 0.25988147808 -0.12747826177 2.29806392863 0.26210370931 -0.11487188342 2.30923233183 0.26580000227 -0.10183492606 2.32080271322 0.27133974188 -0.08840467641 2.33275284554 0.27909231309 -0.07461842123 2.34506050152 0.28942710080 -0.06051344725 2.35770345390 0.30271348997 -0.04612704120 2.37065947541 0.33220127852 -0.16638723729 2.26372874530 0.33222986077 -0.15499880005 2.27382692328 0.33275838964 -0.14297288015 2.28447838311 0.33429283368 -0.13031805484 2.29568364975 0.33733916139 -0.11704290134 2.30744324816 0.34240334130 -0.10315599689 2.31975770329 0.34999134193 -0.08866591875 2.33262754009 0.36060913181 -0.07358124413 2.34605328353 0.37476267946 -0.05791055029 2.36003545857 0.39295795340 -0.04166241446 2.37457459015 -0.33219412494 -0.17499624486 2.27428136893 -0.33221562131 -0.16408365953 2.28422449785 -0.33268631848 -0.15239636561 2.29479276395 -0.33406138378 -0.13996004519 2.30598805392 -0.33679598454 -0.12680038038 2.31781225446 -0.34134528808 -0.11294305331 2.33026725229 -0.34816446173 -0.09841374608 2.34335493411 -0.35770867282 -0.08323814079 2.35707718661 -0.37043308866 -0.06744191957 2.37143589651 -0.38679287659 -0.05105076453 2.38643295049 -0.25835915748 -0.17096903192 2.27773012069 -0.25837182610 -0.16034837053 2.28741118715 -0.25872033538 -0.14905071634 2.29763569653 -0.25974411688 -0.13713171175 2.30838782620 -0.26178260213 -0.12464699918 2.31965175351 -0.26517522268 -0.11165222101 2.33141165583 -0.27026141008 -0.09820301966 2.34365171053 -0.27738059586 -0.08435503754 2.35635609497 -0.28687221158 -0.07016391704 2.36950898651 -0.29907568878 -0.05568530057 2.38309456252 -0.18453479734 -0.16794862635 2.28031668439 -0.18454167589 -0.15754690794 2.28980120404 -0.18478118825 -0.14654148358 2.29976789592 -0.18548797080 -0.13501046592 2.31018765541 -0.18689665994 -0.12303196758 2.32103137784 -0.18924189204 -0.11068410117 2.33226995859 -0.19275830349 -0.09804497935 2.34387429302 -0.19768053068 -0.08519271472 2.35581527648 -0.20424320999 -0.07220541992 2.36806380433 -0.21268097781 -0.05916120758 2.38059077193 -0.11071801390 -0.16593502807 2.28204105992 -0.11072127215 -0.15567927168 2.29139454840 -0.11086120968 -0.14486866726 2.30118936200 -0.11127548247 -0.13359630761 2.31138754141 -0.11210174647 -0.12195528551 2.32195112733 -0.11347765763 -0.11003869373 2.33284216043 -0.11554087190 -0.09793962507 2.34402268141 -0.11842904525 -0.08575117230 2.35545473096 -0.12227983363 -0.07356642820 2.36710034976 -0.12723089298 -0.06147848556 2.37892157851 -0.03690577654 -0.16492823701 2.28290324718 -0.03690671632 -0.15474546169 2.29219122013 -0.03695273229 -0.14403226731 2.30190009465 -0.03708918881 -0.13288923676 2.31198748410 -0.03736145024 -0.12141695291 2.32241100183 -0.03781488094 -0.10971599862 2.33312826120 -0.03849484526 -0.09788695677 2.34409687555 -0.03944670758 -0.08603041022 2.35527445825 -0.04071583225 -0.07424694185 2.36661862263 -0.04234758363 -0.06263713453 2.37808698207 0.03690494539 -0.16492825311 2.28290324605 0.03690589013 -0.15474547789 2.29219121911 0.03695191132 -0.14403228366 2.30190009376 0.03708837327 -0.13288925329 2.31198748335 0.03736064025 -0.12141696970 2.32241100123 0.03781407656 -0.10971601576 2.33312826076 0.03849404649 -0.09788697438 2.34409687529 0.03944591434 -0.08603042845 2.35527445817 0.04071504440 -0.07424696085 2.36661862275 0.04234680095 -0.06263715450 2.37808698239 0.11071718249 -0.16593507628 2.28204105641 0.11072044573 -0.15567932023 2.29139454524 0.11086038855 -0.14486871623 2.30118935922 0.11127466684 -0.13359635714 2.31138753904 0.11210093648 -0.12195533581 2.32195112539 0.11347685338 -0.11003874509 2.33284215897 0.11554007343 -0.09793967785 2.34402268045 0.11842825253 -0.08575122693 2.35545473054 0.12227904656 -0.07356648519 2.36710034992 0.12723011142 -0.06147854548 2.37892157929 0.18453396539 -0.16794870647 2.28031667817 0.18454084904 -0.15754698863 2.28980119840 0.18478036678 -0.14654156496 2.29976789090 0.18548715498 -0.13501054822 2.31018765104 0.18689584995 -0.12303205116 2.32103137418 0.18924108805 -0.11068418654 2.33226995567 0.19275750562 -0.09804506711 2.34387429089 0.19767973898 -0.08519280562 2.35581527520 0.20424242448 -0.07220551483 2.36806380396 0.21268019847 -0.05916130748 2.38059077254 0.25835832472 -0.17096914359 2.27773011120 0.25837099858 -0.16034848301 2.28741117849 0.25871951342 -0.14905082977 2.29763568871 0.25974330077 -0.13713182647 2.30838781924 0.26178179216 -0.12464711570 2.31965174746 0.26517441909 -0.11165234005 2.33141165074 0.27026061310 -0.09820314211 2.34365170645 0.27737980570 -0.08435516449 2.35635609197 0.28687142842 -0.07016404975 2.36950898469 0.29907491278 -0.05568544051 2.38309456196 0.33219329110 -0.17499638759 2.27428135540 0.33221479290 -0.16408380331 2.28422448539 0.33268549585 -0.15239651060 2.29479275252 0.33406056730 -0.13996019181 2.30598804351 0.33679517458 -0.12680052934 2.31781224510 0.34134448502 -0.11294320554 2.33026724401 0.34816366595 -0.09841390279 2.34335492697 0.35770788471 -0.08323830347 2.35707718069 0.37043230863 -0.06744208994 2.37143589190 0.38679210504 -0.05105094459 2.38643294733 -0.33218550013 -0.18274242198 2.28457508687 -0.33219280203 -0.17280000677 2.29423077862 -0.33254746285 -0.16179675142 2.30464096715 -0.33360290791 -0.14978546180 2.31580232797 -0.33571256254 -0.13681894382 2.32771153660 -0.33922985203 -0.12295000335 2.34036526855 -0.34450820172 -0.10823144630 2.35376019931 -0.35190103691 -0.09271607854 2.36789300442 -0.36176178292 -0.07645670597 2.38276035937 -0.37444386506 -0.05950613447 2.39835893969 -0.25835174869 -0.17875537727 2.28799006703 -0.25835700026 -0.16909305967 2.29739680107 -0.25863771482 -0.15847182832 2.30748134273 -0.25947343191 -0.14697552997 2.31823104963 -0.26114369105 -0.13468801137 2.32963327937 -0.26392803179 -0.12169311927 2.34167538953 -0.26810599366 -0.10807470041 2.35434473773 -0.27395711619 -0.09391660154 2.36762868156 -0.28176093892 -0.07930266941 2.38151457862 -0.29179700138 -0.06431675077 2.39598978652 -0.18452913017 -0.17576509792 2.29055130198 -0.18453265180 -0.16631285355 2.29977131776 -0.18473576926 -0.15597814024 2.30961162431 -0.18534064641 -0.14486808539 2.32005259081 -0.18654944714 -0.13308981639 2.33107458643 -0.18856433533 -0.12075046065 2.34265798032 -0.19158747485 -0.10795714556 2.35478314165 -0.19582102958 -0.09481699851 2.36743043959 -0.20146716341 -0.08143714690 2.38058024330 -0.20872804020 -0.06792471813 2.39421292195 -0.11071446376 -0.17377158385 2.29225879163 -0.11071648431 -0.16445938833 2.30135432859 -0.11083939691 -0.15431568710 2.31103181178 -0.11120549701 -0.14346312797 2.32126695140 -0.11193708007 -0.13202435880 2.33203545766 -0.11315644154 -0.12012202742 2.34331304076 -0.11498587688 -0.10787878166 2.35507541092 -0.11754768154 -0.09541726935 2.36729827834 -0.12096415098 -0.08286013834 2.37995735324 -0.12535758065 -0.07033003646 2.39302834581 -0.03690456867 -0.17277483500 2.29311253585 -0.03690522543 -0.16353266396 2.30214583346 -0.03694636851 -0.15348446883 2.31174190503 -0.03706892928 -0.14276065766 2.32187413128 -0.03731383910 -0.13149163852 2.33251589294 -0.03772202933 -0.11980781949 2.34364057073 -0.03833443136 -0.10783960861 2.35522154540 -0.03919197654 -0.09571741397 2.36723219767 -0.04033559625 -0.08357164363 2.37964590825 -0.04180622184 -0.07153270565 2.39243605790 0.03690373590 -0.17277485129 2.29311253454 0.03690439717 -0.16353268036 2.30214583226 0.03694554518 -0.15348448536 2.31174190394 0.03706811120 -0.14276067437 2.32187413033 0.03731302651 -0.13149165547 2.33251589213 0.03772122239 -0.11980783677 2.34364057010 0.03833363011 -0.10783962634 2.35522154494 0.03919118095 -0.09571743228 2.36723219739 0.04033480620 -0.08357166267 2.37964590818 0.04180543711 -0.07153272561 2.39243605804 0.11071363074 -0.17377163265 2.29225878759 0.11071565585 -0.16445943746 2.30135432487 0.11083857343 -0.15431573662 2.31103180841 0.11120467885 -0.14346317802 2.32126694843 0.11193626750 -0.13202440957 2.33203545513 0.11315563473 -0.12012207918 2.34331303871 0.11498507594 -0.10787883475 2.35507540938 0.11754688648 -0.09541732418 2.36729827736 0.12096336174 -0.08286019537 2.37995735284 0.12535679709 -0.07033009624 2.39302834604 0.18452829666 -0.17576517901 2.29055129491 0.18453182295 -0.16631293519 2.29977131120 0.18473494549 -0.15597822253 2.30961161834 0.18533982810 -0.14486816854 2.32005258548 0.18654863459 -0.13308990074 2.33107458179 0.18856352879 -0.12075054664 2.34265797644 0.19158667451 -0.10795723375 2.35478313859 0.19582023557 -0.09481708957 2.36743043741 0.20146637579 -0.08143724163 2.38058024207 0.20872725899 -0.06792481743 2.39421292173 0.25835091445 -0.17875549030 2.28799005636 0.25835617082 -0.16909317347 2.29739679114 0.25863689062 -0.15847194302 2.30748133360 0.25947261335 -0.14697564586 2.31823104135 0.26114287853 -0.13468812891 2.32963327199 0.26392722566 -0.12169323906 2.34167538314 0.26810519423 -0.10807482325 2.35434473241 0.27395632375 -0.09391672837 2.36762867738 0.28176015373 -0.07930280134 2.38151457568 0.29179622367 -0.06431688908 2.39598978491 0.33218466492 -0.18274256646 2.28457507186 0.33219197180 -0.17280015225 2.29423076458 0.33254663807 -0.16179689803 2.30464095409 0.33360208905 -0.14978560991 2.31580231593 0.33571175006 -0.13681909398 2.32771152562 0.33922904643 -0.12295015637 2.34036525869 0.34450740349 -0.10823160316 2.35376019068 0.35190024657 -0.09271624048 2.36789299711 0.36176100097 -0.07645687442 2.38276035351 0.37444309204 -0.05950631110 2.39835893541 -0.33217643743 -0.18929000970 2.29422639566 -0.33216236667 -0.18091187657 2.30357602399 -0.33234264184 -0.17101371773 2.31383946573 -0.33291802609 -0.15968627156 2.32500248951 -0.33408928255 -0.14702027648 2.33705086392 -0.33605717436 -0.13310647087 2.34997035759 -0.33902246467 -0.11803559315 2.36374673912 -0.34318591662 -0.10189838170 2.37836577710 -0.34874829334 -0.08478557493 2.39381324017 -0.35591035797 -0.06678791124 2.41007489691 -0.25834407655 -0.18536449884 2.29758924555 -0.25833811516 -0.17724845715 2.30670933654 -0.25851689576 -0.16772118464 2.31667487707 -0.25907014330 -0.15690640993 2.32747526184 -0.26018758274 -0.14492786167 2.33909988554 -0.26205893903 -0.13190926851 2.35153814286 -0.26487393713 -0.11797435908 2.36477942849 -0.26882230198 -0.10324686203 2.37881313714 -0.27409375855 -0.08785050599 2.39362866348 -0.28087803179 -0.07190901960 2.40921540223 -0.18452331623 -0.18242036992 2.30011138275 -0.18452172700 -0.17450089684 2.30905932076 -0.18467008772 -0.16525178910 2.31880143542 -0.18512190331 -0.15482151804 2.32932984097 -0.18603067864 -0.14335855498 2.34063665167 -0.18754991863 -0.13101137125 2.35271398178 -0.18983312816 -0.11792843819 2.36555394555 -0.19303381212 -0.10425822712 2.37914865725 -0.19730547542 -0.09014920937 2.39349023111 -0.20280162295 -0.07574985627 2.40857078141 -0.11071084205 -0.18045762286 2.30179280716 -0.11071095553 -0.17266919556 2.31062597655 -0.11080823545 -0.16360553106 2.32021914066 -0.11110197960 -0.15343159582 2.33056622678 -0.11169148577 -0.14231235631 2.34166116220 -0.11267605173 -0.13041277899 2.35349787424 -0.11415497527 -0.11789783034 2.36607029017 -0.11622755417 -0.10493247680 2.37937233730 -0.11899308622 -0.09168168486 2.39339794292 -0.12255086919 -0.07831042096 2.40814103433 -0.03690333960 -0.17947625760 2.30263351869 -0.03690355411 -0.17175335324 2.31140930381 -0.03693735666 -0.16278241042 2.32092799269 -0.03703904569 -0.15273664318 2.33118441916 -0.03724291962 -0.14178926556 2.34217341702 -0.03758327691 -0.13011349161 2.35388982010 -0.03809441597 -0.11788253538 2.36632846221 -0.03881063526 -0.10526961090 2.37948417715 -0.03976623320 -0.09244793222 2.39335179876 -0.04099550824 -0.07959071338 2.40792616083 0.03690250553 -0.17947627407 2.30263351722 0.03690272390 -0.17175336982 2.31140930242 0.03693653093 -0.16278242712 2.32092799141 0.03703822495 -0.15273666005 2.33118441800 0.03724210429 -0.14178928265 2.34217341601 0.03758246727 -0.13011350901 2.35388981925 0.03809361222 -0.11788255318 2.36632846153 0.03880983747 -0.10526962923 2.37948417668 0.03976544135 -0.09244795123 2.39335179849 0.04099472217 -0.07959073323 2.40792616078 0.11071000777 -0.18045767218 2.30179280266 0.11071012514 -0.17266924521 2.31062597230 0.11080740959 -0.16360558109 2.32021913671 0.11110115880 -0.15343164634 2.33056622320 0.11169067045 -0.14231240748 2.34166115905 0.11267524223 -0.13041283106 2.35349787156 0.11415417182 -0.11789788360 2.36607028803 0.11622675690 -0.10493253162 2.37937233573 0.11899229517 -0.09168174166 2.39339794197 0.12255008430 -0.07831048023 2.40814103404 0.18452248150 -0.18242045189 2.30011137490 0.18452089627 -0.17450097936 2.30905931333 0.18466926162 -0.16525187224 2.31880142849 0.18512108238 -0.15482160197 2.32932983464 0.18602986337 -0.14335863997 2.34063664603 0.18754910940 -0.13101145767 2.35271397692 0.18983232530 -0.11792852650 2.36555394155 0.19303301590 -0.10425831789 2.37914865418 0.19730468600 -0.09014930328 2.39349022906 0.20280084043 -0.07574995409 2.40857078046 0.25834324116 -0.18536461310 2.29758923384 0.25833728392 -0.17724857218 2.30670932543 0.25851606928 -0.16772130051 2.31667486665 0.25906932218 -0.15690652686 2.32747525222 0.26018676752 -0.14492798001 2.33909987683 0.26205813021 -0.13190938871 2.35153813518 0.26487313517 -0.11797448174 2.36477942197 0.26882150732 -0.10324698787 2.37881313188 0.27409297156 -0.08785063587 2.39362865963 0.28087725281 -0.07190915450 2.40921539991 0.33217560115 -0.18929015576 2.29422637938 0.33216153473 -0.18091202361 2.30357600848 0.33234181487 -0.17101386582 2.31383945108 0.33291720471 -0.15968642094 2.32500247583 0.33408846740 -0.14702042751 2.33705085134 0.33605636609 -0.13310662408 2.34997034624 0.33902166391 -0.11803574919 2.36374672915 0.34318512403 -0.10189854138 2.37836576871 0.34874750959 -0.08478573920 2.39381323353 0.35590958372 -0.06678808119 2.41007489224 -0.33216713795 -0.19430338995 2.30285177996 -0.33212445244 -0.18818344573 2.31199048153 -0.33207185400 -0.17988708794 2.32220472290 -0.33200654409 -0.16955458633 2.33346454732 -0.33192572414 -0.15732621063 2.34573999804 -0.33182659561 -0.14334223061 2.35900111831 -0.33170635995 -0.12774291601 2.37321795137 -0.33156221860 -0.11066853659 2.38836054048 -0.33139137300 -0.09225936209 2.40439892889 -0.33119102462 -0.07265566226 2.42130315984 -0.25833630747 -0.19046091437 2.30614419379 -0.25831527685 -0.18457892937 2.31507931518 -0.25835789221 -0.17663997171 2.32503450065 -0.25853415741 -0.16682115856 2.33600212008 -0.25891407627 -0.15529960706 2.34797454341 -0.25956765265 -0.14225243436 2.36094414053 -0.26056489038 -0.12785675763 2.37490328136 -0.26197579331 -0.11228969402 2.38984433581 -0.26387036528 -0.09572836067 2.40575967379 -0.26631861013 -0.07834987475 2.42264166521 -0.18451747974 -0.18757906194 2.30861350391 -0.18450897685 -0.18187554638 2.31739594018 -0.18458416176 -0.17420463887 2.32715683373 -0.18483170534 -0.16477109212 2.33790529946 -0.18534027847 -0.15377965884 2.34965045228 -0.18619855203 -0.14143509177 2.36240140708 -0.18749519690 -0.12794214362 2.37616727878 -0.18931888395 -0.11350556711 2.39095718228 -0.19175828408 -0.09833011496 2.40678023247 -0.19490206815 -0.08262053989 2.42364554427 -0.11070722543 -0.18565783260 2.31025971022 -0.11070473087 -0.18007329671 2.31894035642 -0.11076773942 -0.17258108934 2.32857172205 -0.11096492086 -0.16340438691 2.33917408535 -0.11136494500 -0.15276636588 2.35076772455 -0.11203648164 -0.14089020269 2.36337291786 -0.11304820058 -0.12799907377 2.37700994353 -0.11446877163 -0.11431615557 2.39169907979 -0.11636686457 -0.10006462454 2.40746060485 -0.11881114921 -0.08546765710 2.42431479695 -0.03690211521 -0.18469722627 2.31108281262 -0.03690171733 -0.17917218028 2.31971256381 -0.03692570196 -0.17176932304 2.32927916553 -0.03699953694 -0.16272104286 2.33980847767 -0.03714869013 -0.15225972806 2.35132636012 -0.03739862937 -0.14061776696 2.36385867277 -0.03777482251 -0.12802754787 2.37743127551 -0.03830273741 -0.11472145910 2.39207002824 -0.03900784192 -0.10093188898 2.40780079084 -0.03991560389 -0.08689122582 2.42464942320 0.03690128025 -0.18469724289 2.31108281102 0.03690088535 -0.17917219701 2.31971256226 0.03692487383 -0.17176933990 2.32927916406 0.03699871344 -0.16272105987 2.33980847630 0.03714787189 -0.15225974527 2.35132635889 0.03739781692 -0.14061778444 2.36385867170 0.03777401624 -0.12802756571 2.37743127462 0.03830193759 -0.11472147741 2.39207002755 0.03900704870 -0.10093190789 2.40780079036 0.03991481729 -0.08689124547 2.42464942295 0.11070639027 -0.18565788238 2.31025970532 0.11070389874 -0.18007334684 2.31894035167 0.11076691119 -0.17258113983 2.32857171754 0.11096409731 -0.16340443785 2.33917408116 0.11136412679 -0.15276641740 2.35076772076 0.11203566933 -0.14089025497 2.36337291455 0.11304739460 -0.12799912707 2.37700994076 0.11446797231 -0.11431621019 2.39169907761 0.11636607213 -0.10006468083 2.40746060333 0.11881036375 -0.08546771550 2.42431479614 0.18451664419 -0.18757914467 2.30861349543 0.18450814442 -0.18187562968 2.31739593194 0.18458333332 -0.17420472276 2.32715682588 0.18483088169 -0.16477117671 2.33790529214 0.18533946032 -0.15377974433 2.34965044562 0.18619773999 -0.14143517841 2.36240140121 0.18749439149 -0.12794223175 2.37616727381 0.18931808563 -0.11350565715 2.39095717833 0.19175749319 -0.09833020740 2.40678022966 0.19490128496 -0.08262063531 2.42364554269 0.25833547132 -0.19046102969 2.30614418124 0.25831444397 -0.18457904547 2.31507930299 0.25835706347 -0.17664008862 2.32503448899 0.25853333361 -0.16682127637 2.33600210914 0.25891325820 -0.15529972595 2.34797453337 0.25956684101 -0.14225255460 2.36094413158 0.26056408584 -0.12785687953 2.37490327369 0.26197499648 -0.11228981798 2.38984432961 0.26386957672 -0.09572848718 2.40575966926 0.26631783036 -0.07835000436 2.42264166256 0.33216630100 -0.19430353737 2.30285176267 0.33212361896 -0.18818359413 2.31199046472 0.33207102484 -0.17988723732 2.32220470676 0.33200572010 -0.16955473674 2.33346453207 0.33192490618 -0.15732636216 2.34573998391 0.33182578452 -0.14334238339 2.35900110556 0.33170555657 -0.12774307020 2.37321794029 0.33156142377 -0.11066869239 2.38836053137 0.33139058756 -0.09225951975 2.40439892207 0.33119024939 -0.07265582206 2.42130315566 </DataArray>
</Points>
</Piece>
</StructuredGrid>
</VTKFile>
