<?xml version="1.0"?>
<VTKFile type="StructuredGrid" version="0.1">
<StructuredGrid WholeExtent="0 9 0 9 0 9">
<Piece Extent="0 9 0 9 0 9">
<PointData>
<DataArray type="Float32" Name="Deformation" format="ascii" NumberOfComponents="3">
0.00072155070 -0.23527524113 0.12512678323 0.00094069542 -0.23726254979 0.13466809514 0.00114339329 -0.23989594747 0.14607090231 0.00132870999 -0.24311196206 0.15884739272 0.00149571119 -0.24684712148 0.17250975440 0.00164346257 -0.25103795362 0.18657017532 0.00177102981 -0.25562098639 0.20054084350 0.00187747859 -0.26053274769 0.21393394693 0.00196187457 -0.26570976541 0.22626167361 0.00202328343 -0.27108856747 0.23703621154 0.00052615725 -0.23382143230 0.11763943969 0.00067335258 -0.23763160229 0.13029750667 0.00081825207 -0.24155547008 0.14384531860 0.00095835878 -0.24558997524 0.15799301399 0.00109117577 -0.24973205730 0.17245073130 0.00121420611 -0.25397865582 0.18692860903 0.00132495285 -0.25832671032 0.20113678567 0.00142091906 -0.26277316037 0.21478539971 0.00149960781 -0.26731494550 0.22758458962 0.00155852214 -0.27194900526 0.23924449389 0.00035701314 -0.23273107866 0.11202392385 0.00044969915 -0.23790839448 0.12701955722 0.00054636802 -0.24280011474 0.14217612281 0.00064428793 -0.24744848773 0.15735222196 0.00074072701 -0.25189576171 0.17240645601 0.00083295341 -0.25618418498 0.18719742629 0.00091823529 -0.26035600579 0.20158373415 0.00099384080 -0.26445347244 0.21542398091 0.00105703809 -0.26851883319 0.22857676793 0.00110509530 -0.27259433632 0.24090069654 0.00020661887 -0.23200417985 0.10828023652 0.00025725256 -0.23809292620 0.12483424717 0.00031252483 -0.24362988142 0.14106331496 0.00037041726 -0.24868749959 0.15692501645 0.00042891145 -0.25333823482 0.17237692820 0.00048598898 -0.25765454122 0.18737662676 0.00053963146 -0.26170887288 0.20188168868 0.00058782046 -0.26557368390 0.21584969053 0.00062853757 -0.26932142839 0.22923820885 0.00065976440 -0.27302456045 0.24200482021 0.00006747494 -0.23164073550 0.10640837854 0.00008353027 -0.23818519729 0.12374157689 0.00010150615 -0.24404477008 0.14050689509 0.00012066660 -0.24930701089 0.15671139727 0.00014027565 -0.25405947674 0.17236214756 0.00015959733 -0.25838972466 0.18746621011 0.00017789567 -0.26238531167 0.20203064906 0.00019443469 -0.26613379478 0.21606252853 0.00020847842 -0.26972273102 0.22956891268 0.00021929089 -0.27323967741 0.24255686563 -0.00006791818 -0.23164074527 0.10640835071 -0.00008395029 -0.23818520758 0.12374154676 -0.00010190435 -0.24404478071 0.14050686323 -0.00012104423 -0.24930702170 0.15671136421 -0.00014063384 -0.25405948759 0.17236211378 -0.00015993705 -0.25838973542 0.18746617603 -0.00017821776 -0.26238532224 0.20203061504 -0.00019473985 -0.26613380508 0.21606249490 -0.00020876721 -0.26972274098 0.22956887970 -0.00021956374 -0.27323968699 0.24255683352 -0.00020705998 -0.23200420879 0.10828015388 -0.00025767168 -0.23809295690 0.12483415716 -0.00031292298 -0.24362991327 0.14106321943 -0.00037079541 -0.24868753207 0.15692491709 -0.00042927046 -0.25333826747 0.17237682654 -0.00048632966 -0.25765457361 0.18737652418 -0.00053995450 -0.26170890467 0.20188158641 -0.00058812650 -0.26557371481 0.21584958962 -0.00062882717 -0.26932145818 0.22923811022 -0.00066003802 -0.27302458897 0.24200472460 -0.00035744997 -0.23273112570 0.11202378886 -0.00045011644 -0.23790844509 0.12701940845 -0.00054676609 -0.24280016776 0.14217596371 -0.00064466710 -0.24744854209 0.15735205571 -0.00074108767 -0.25189581649 0.17240628553 -0.00083329598 -0.25618423934 0.18719725424 -0.00091856023 -0.26035605904 0.20158356293 -0.00099414860 -0.26445352398 0.21542381267 -0.00105732929 -0.26851888254 0.22857660454 -0.00110537048 -0.27259438312 0.24090053960 -0.00052658767 -0.23382149566 0.11763925648 -0.00067376715 -0.23763167199 0.13029730101 -0.00081865000 -0.24155554413 0.14384509610 -0.00095873949 -0.24559005182 0.15799277987 -0.00109153891 -0.24973213478 0.17245049042 -0.00121455153 -0.25397873274 0.18692836589 -0.00132528063 -0.25832678544 0.20113654439 -0.00142122950 -0.26277323260 0.21478516403 -0.00149990141 -0.26731501396 0.22758436295 -0.00155879965 -0.27194906923 0.23924427925 -0.00072197257 -0.23527531830 0.12512655756 -0.00094110636 -0.23726263742 0.13466783522 -0.00114379104 -0.23989604237 0.14607061665 -0.00132909275 -0.24311206131 0.15884708937 -0.00149607763 -0.24684722243 0.17250944091 -0.00164381180 -0.25103805392 0.18656985879 -0.00177136139 -0.25562108394 0.20054053054 -0.00187779254 -0.26053284069 0.21393364368 -0.00196217138 -0.26570985234 0.22626138575 -0.00202356405 -0.27108864708 0.23703594427 0.00080956124 -0.25233142343 0.12556239280 0.00098282581 -0.25220388054 0.13508951839 0.00114489864 -0.25309913584 0.14622399173 0.00129576447 -0.25490191389 0.15861318490 0.00143540802 -0.25749693928 0.17190446997 0.00156381401 -0.26076893659 0.18574521902 0.00168096717 -0.26460263039 0.19978280413 0.00178685222 -0.26888274527 0.21366459736 0.00188145390 -0.27349400579 0.22703797079 0.00196475691 -0.27832113655 0.23955029650 0.00059688126 -0.25162362516 0.12112579194 0.00071590384 -0.25275901908 0.13276522841 0.00083550802 -0.25453928316 0.14531466619 0.00095372530 -0.25688919634 0.15855487631 0.00106858712 -0.25973353757 0.17226662979 0.00117812498 -0.26299708580 0.18623069765 0.00128037033 -0.26660461999 0.20022785093 0.00137335465 -0.27048091908 0.21403886065 0.00145510942 -0.27455076202 0.22744449783 0.00152366610 -0.27873892776 0.24022553350 0.00040874989 -0.25109277919 0.11779833346 0.00048533606 -0.25317537562 0.13102200315 0.00056731242 -0.25561939620 0.14463266430 0.00065222467 -0.25837966066 0.15851113714 0.00073761854 -0.26141098873 0.17253824190 0.00082103972 -0.26466820015 0.18659479880 0.00090003393 -0.26810611464 0.20056162806 0.00097214687 -0.27167955193 0.21431954992 0.00103492426 -0.27534333175 0.22774938460 0.00108591181 -0.27905227383 0.24073195233 0.00023815343 -0.25073888528 0.11558001793 0.00028073563 -0.25345295003 0.12985984287 0.00032854180 -0.25633947493 0.14417798609 0.00037968009 -0.25937330690 0.15848196728 0.00043225865 -0.26252929284 0.17271930612 0.00048438562 -0.26578227969 0.18683752229 0.00053416917 -0.26910711436 0.20078413547 0.00057971743 -0.27247864377 0.21450666534 0.00061913856 -0.27587171484 0.22795263158 0.00065054070 -0.27926117448 0.24106955386 0.00007807817 -0.25056194318 0.11447084594 0.00009171569 -0.25359174222 0.12927874782 0.00010742614 -0.25669951935 0.14395063158 0.00012450902 -0.25987013509 0.15846736660 0.00014226383 -0.26308844997 0.17280982226 0.00015999008 -0.26633932449 0.18695886797 0.00017698726 -0.26960761918 0.20089537310 0.00019255489 -0.27287819455 0.21460020706 0.00020599245 -0.27613591114 0.22805423923 0.00021659945 -0.27936562945 0.24123833901 -0.00007848960 -0.25056195264 0.11447081806 -0.00009211061 -0.25359175206 0.12927871829 -0.00010780459 -0.25669952944 0.14395060080 -0.00012487106 -0.25987014529 0.15846733496 -0.00014260953 -0.26308846017 0.17280979012 -0.00016031953 -0.26633933460 0.18695883565 -0.00017730059 -0.26960762911 0.20089534091 -0.00019285222 -0.27287820423 0.21460017525 -0.00020627394 -0.27613592050 0.22805420805 -0.00021686528 -0.27936563844 0.24123830865 -0.00023856359 -0.25073891343 0.11557993487 -0.00028113013 -0.25345297945 0.12985975452 -0.00032892041 -0.25633950517 0.14417789378 -0.00038004265 -0.25937333754 0.15848187224 -0.00043260505 -0.26252932353 0.17271920951 -0.00048471582 -0.26578231009 0.18683742517 -0.00053448318 -0.26910714417 0.20078403883 -0.00058001532 -0.27247867275 0.21450657007 -0.00061942047 -0.27587174277 0.22795253850 -0.00065080683 -0.27926120120 0.24106946370 -0.00040915752 -0.25109282529 0.11779819697 -0.00048572972 -0.25317542427 0.13102185678 -0.00056769135 -0.25561944653 0.14463251054 -0.00065258828 -0.25837971188 0.15851097832 -0.00073796635 -0.26141104011 0.17253808023 -0.00082137140 -0.26466825101 0.18659463637 -0.00090034929 -0.26810616440 0.20056146682 -0.00097244588 -0.27167960006 0.21431939169 -0.00103520700 -0.27534337780 0.22774923106 -0.00108617851 -0.27905231742 0.24073180504 -0.00059728508 -0.25162368799 0.12112560492 -0.00071629622 -0.25275908642 0.13276502535 -0.00083588744 -0.25453935352 0.14531445111 -0.00095409046 -0.25688926835 0.15855465307 -0.00106893704 -0.25973360997 0.17226640210 -0.00117845888 -0.26299715744 0.18623046906 -0.00128068774 -0.26660468980 0.20022762483 -0.00137365533 -0.27048098612 0.21403864025 -0.00145539340 -0.27455082545 0.22744428622 -0.00152393368 -0.27873898685 0.24022533358 -0.00080995998 -0.25233150128 0.12556215931 -0.00098321649 -0.25220396577 0.13508926047 -0.00114527869 -0.25309922611 0.14622371552 -0.00129613172 -0.25490200700 0.15861289636 -0.00143576074 -0.25749703320 0.17190417492 -0.00156415088 -0.26076902942 0.18574492309 -0.00168128729 -0.26460272040 0.19978251279 -0.00178715513 -0.26888283087 0.21366431594 -0.00188173953 -0.27349408556 0.22703770444 -0.00196502566 -0.27832120920 0.23955005020 0.00088620404 -0.26695374231 0.12699189713 0.00102390102 -0.26532290386 0.13635559125 0.00115436167 -0.26497059384 0.14712245046 0.00127838410 -0.26575010436 0.15904481072 0.00139676641 -0.26751472751 0.17187500802 0.00151030671 -0.27011775541 0.18536537833 0.00161980312 -0.27341248015 0.19926825762 0.00172605375 -0.27725219383 0.21333598188 0.00182985669 -0.28149018856 0.22732088708 0.00193201006 -0.28597975643 0.24097530920 0.00066106499 -0.26682642471 0.12492112583 0.00075757904 -0.26602260569 0.13561944328 0.00085702037 -0.26623945350 0.14723603747 0.00095781620 -0.26735435198 0.15960672195 0.00105839378 -0.26924468498 0.17256731025 0.00115718031 -0.27178783632 0.18595361591 0.00125260302 -0.27486118987 0.19960145245 0.00134308913 -0.27834212946 0.21334663342 0.00142706588 -0.28210803894 0.22702497234 0.00150296048 -0.28603630215 0.24047228277 0.00045704747 -0.26673093904 0.12336803979 0.00052031731 -0.26654738455 0.13506732476 0.00059026146 -0.26719110068 0.14732122022 0.00066458138 -0.26855754009 0.16002814786 0.00074097854 -0.27054215544 0.17308652936 0.00081715444 -0.27304039938 0.18639478643 0.00089081055 -0.27594772455 0.19985134075 0.00095964834 -0.27915958362 0.21335461401 0.00102136929 -0.28257142923 0.22680302792 0.00107367488 -0.28607871405 0.24009500415 0.00026811683 -0.26666728516 0.12233263939 0.00030381293 -0.26689724035 0.13469923588 0.00034534708 -0.26782553535 0.14737799871 0.00039087009 -0.26935966871 0.16030908835 0.00043853280 -0.27140713895 0.17343266524 0.00048648603 -0.27387544459 0.18668888984 0.00053288061 -0.27667208417 0.20001792260 0.00057586736 -0.27970455622 0.21335992397 0.00061359712 -0.28288035925 0.22665505441 0.00064422070 -0.28610699181 0.23984347437 0.00008823845 -0.26663546291 0.12181492503 0.00009976296 -0.26707217302 0.13451517681 0.00011353934 -0.26814275752 0.14740637298 0.00012887282 -0.26976073786 0.16044954337 0.00014506862 -0.27183963553 0.17360571780 0.00016143196 -0.27429297199 0.18683592610 0.00017726809 -0.27703426871 0.20010119809 0.00019188222 -0.27997704715 0.21336256360 0.00020457958 -0.28303482881 0.22658105244 0.00021466540 -0.28612113513 0.23971769446 -0.00008862232 -0.26663547212 0.12181489710 -0.00010013552 -0.26707218250 0.13451514773 -0.00011389961 -0.26814276716 0.14740634303 -0.00012921995 -0.26976074757 0.16044951283 -0.00014540191 -0.27183964522 0.17360568693 -0.00016175084 -0.27429298158 0.18683589515 -0.00017757211 -0.27703427813 0.20010116730 -0.00019217108 -0.27997705634 0.21336253319 -0.00020485311 -0.28303483769 0.22658102263 -0.00021492357 -0.28612114367 0.23971766544 -0.00026850011 -0.26666731265 0.12233255599 -0.00030418544 -0.26689726872 0.13469914881 -0.00034570766 -0.26782556427 0.14737790890 -0.00039121774 -0.26935969787 0.16030899667 -0.00043886669 -0.27140716806 0.17343257255 -0.00048680548 -0.27387547339 0.18668879695 -0.00053318509 -0.27667211241 0.20001783031 -0.00057615652 -0.27970458367 0.21335983305 -0.00061387076 -0.28288038572 0.22665496558 -0.00064447878 -0.28610701712 0.23984338833 -0.00045742955 -0.26673098433 0.12336790208 -0.00052068972 -0.26654743160 0.13506718024 -0.00059062267 -0.26719114885 0.14732107059 -0.00066493008 -0.26855758878 0.16002799480 -0.00074131364 -0.27054220408 0.17308637454 -0.00081747504 -0.27304044743 0.18639463145 -0.00089111597 -0.27594777153 0.19985118721 -0.00095993810 -0.27915962906 0.21335446347 -0.00102164314 -0.28257147270 0.22680288190 -0.00107393276 -0.28607875515 0.24009486416 -0.00066144529 -0.26682648701 0.12492093577 -0.00075795130 -0.26602267107 0.13561924218 -0.00085738253 -0.26623952088 0.14723582814 -0.00095816649 -0.26735442033 0.15960650717 -0.00105873069 -0.26924475332 0.17256709281 -0.00115750264 -0.27178790373 0.18595339860 -0.00125290984 -0.27486125546 0.19960123808 -0.00134337981 -0.27834219240 0.21334642477 -0.00142734005 -0.28210809843 0.22702477222 -0.00150321807 -0.28603635745 0.24047209395 -0.00088658196 -0.26695382053 0.12699165745 -0.00102427309 -0.26532298706 0.13635533482 -0.00115472510 -0.26497068035 0.14712218155 -0.00127873649 -0.26575019254 0.15904453368 -0.00139710573 -0.26751481581 0.17187472727 -0.00151063134 -0.27011784231 0.18536509836 -0.00162011181 -0.27341256419 0.19926798300 -0.00172634562 -0.27725227361 0.21333571724 -0.00183013128 -0.28149026273 0.22732063714 -0.00193226727 -0.28597982371 0.24097507874 0.00095283947 -0.27937153847 0.12922596381 0.00106379933 -0.27678935824 0.13829576540 0.00117047376 -0.27563157836 0.14861093720 0.00127436557 -0.27573737846 0.16000222330 0.00137697756 -0.27694593814 0.17230036777 0.00147981256 -0.27909643702 0.18533611472 0.00158437337 -0.28202805470 0.19894020822 0.00169216280 -0.28557997081 0.21294339235 0.00180468366 -0.28959136495 0.22717641120 0.00192343876 -0.29390141674 0.24147000886 0.00071906528 -0.27967938532 0.12892148863 0.00079805770 -0.27759698233 0.13874641137 0.00088184547 -0.27677087301 0.14949038509 0.00096916590 -0.27705208506 0.16103060546 0.00105875632 -0.27829164617 0.17324426815 0.00114935404 -0.28034058403 0.18600856881 0.00123969640 -0.28304992634 0.19920070311 0.00132852071 -0.28627070078 0.21269786672 0.00141456429 -0.28985393505 0.22637725530 0.00149656446 -0.29365065685 0.24011606451 0.00050178513 -0.27991027285 0.12869312488 0.00055429305 -0.27820270276 0.13908438849 0.00061458088 -0.27762534633 0.15014996365 0.00068044406 -0.27803811732 0.16180188471 0.00074967808 -0.27930092950 0.17395218599 0.00082007839 -0.28127369661 0.18651290183 0.00088944045 -0.28381633241 0.19939606657 0.00095555974 -0.28678875065 0.21251371455 0.00101623172 -0.29005086510 0.22577788010 0.00106925185 -0.29346258950 0.23910059755 0.00029628643 -0.28006420097 0.12854087281 0.00032622621 -0.27860651948 0.13930969688 0.00036257601 -0.27819499831 0.15058967291 0.00040349204 -0.27869547526 0.16231606100 0.00044713049 -0.27997378814 0.17442412128 0.00049164757 -0.28189577473 0.18684911383 0.00053519948 -0.28432727285 0.19952629878 0.00057594242 -0.28713412030 0.21239093624 0.00061203260 -0.29018215486 0.22537828630 0.00064162622 -0.29333721435 0.23842360909 0.00009785663 -0.28014116959 0.12846473266 0.00010757801 -0.27880843246 0.13942233665 0.00011972690 -0.27847982895 0.15080951287 0.00013360179 -0.27902415889 0.16257313431 0.00014850118 -0.28031022209 0.17466007398 0.00016372356 -0.28220681840 0.18701720485 0.00017856743 -0.28458274762 0.19959139992 0.00019233127 -0.28730680959 0.21232953218 0.00020431358 -0.29024780412 0.22517847463 0.00021381286 -0.29327453106 0.23808510025 -0.00009821684 -0.28014117860 0.12846470468 -0.00010793073 -0.27880844165 0.13942230790 -0.00012007045 -0.27847983824 0.15080948354 -0.00013393471 -0.27902416821 0.16257310460 -0.00014882221 -0.28031023138 0.17466004406 -0.00016403166 -0.28220682758 0.18701717492 -0.00017886175 -0.28458275664 0.19959137016 -0.00019261120 -0.28730681839 0.21232950278 -0.00020457869 -0.29024781266 0.22517844578 -0.00021406295 -0.29327453927 0.23808507214 -0.00029664655 -0.28006422792 0.12854078911 -0.00032657916 -0.27860654702 0.13930961075 -0.00036292000 -0.27819502619 0.15058958495 -0.00040382548 -0.27869550325 0.16231597183 -0.00044745205 -0.27997381601 0.17442403150 -0.00049195611 -0.28189580228 0.18684902408 -0.00053549411 -0.28432729987 0.19952620969 -0.00057622245 -0.28713414659 0.21239084845 -0.00061229758 -0.29018218024 0.22537820046 -0.00064187591 -0.29333723863 0.23842352585 -0.00050214506 -0.27991031746 0.12869298621 -0.00055464646 -0.27820274851 0.13908424532 -0.00061492573 -0.27762539278 0.15014981711 -0.00068077856 -0.27803816402 0.16180173597 -0.00075000069 -0.27930097600 0.17395203627 -0.00082038783 -0.28127374248 0.18651275238 -0.00088973568 -0.28381637724 0.19939591869 -0.00095583998 -0.28678879404 0.21251356956 -0.00101649642 -0.29005090664 0.22577773938 -0.00106950074 -0.29346262881 0.23910046252 -0.00071942495 -0.27967944711 0.12892129622 -0.00079841181 -0.27759704610 0.13874621170 -0.00088219161 -0.27677093801 0.14949018003 -0.00096950198 -0.27705215052 0.16103039699 -0.00105908051 -0.27829171134 0.17324405834 -0.00114966483 -0.28034064817 0.18600835986 -0.00123999254 -0.28304998870 0.19920049734 -0.00132880125 -0.28627076062 0.21269766654 -0.00141482859 -0.28985399164 0.22637706325 -0.00149681215 -0.29365070945 0.24011588323 -0.00095319877 -0.27937161679 0.12922571938 -0.00106415436 -0.27678943974 0.13829551002 -0.00117082163 -0.27563166187 0.14861067373 -0.00127470375 -0.27573746278 0.16000195484 -0.00137730387 -0.27694602207 0.17230009767 -0.00148012514 -0.27909651933 0.18533584656 -0.00158467071 -0.28202813418 0.19893994581 -0.00169244375 -0.28558004621 0.21294313977 -0.00180494741 -0.28959143501 0.22717617276 -0.00192368485 -0.29390148020 0.24146978911 0.00101082791 -0.28981415258 0.13207526042 0.00110239900 -0.28677298218 0.14073949248 0.00119192628 -0.28520334630 0.15053411066 0.00128150558 -0.28494458119 0.16134537573 0.00137323269 -0.28583602312 0.17305954848 0.00146920343 -0.28771700834 0.18556288969 0.00157151361 -0.29042687309 0.19874166013 0.00168225904 -0.29380495363 0.21248212059 0.00180353553 -0.29769058622 0.22667053185 0.00193743888 -0.30192310711 0.24119315468 0.00077123898 -0.29043206138 0.13302292761 0.00083701937 -0.28765676920 0.14203239278 0.00090903971 -0.28624843357 0.15195866168 0.00098630877 -0.28604903845 0.16270858137 0.00106783533 -0.28690056780 0.17418899891 0.00115262813 -0.28864500558 0.18630676137 0.00123969596 -0.29112433576 0.19896871580 0.00132804758 -0.29418054229 0.21208170927 0.00141669175 -0.29765560915 0.22555258883 0.00150463723 -0.30139152028 0.23928820155 0.00054284213 -0.29089549526 0.13373367078 0.00058691343 -0.28831961174 0.14300206078 0.00063963641 -0.28703225129 0.15302706770 0.00069889878 -0.28687738364 0.16373097832 0.00076258820 -0.28769897856 0.17503607939 0.00082859236 -0.28934100579 0.18686465767 0.00089479895 -0.29164743507 0.19913899992 0.00095909564 -0.29446223615 0.21178139290 0.00101937012 -0.29762937878 0.22471412336 0.00107351008 -0.30099283270 0.23785947808 0.00032243959 -0.29120445419 0.13420749007 0.00034771721 -0.28876150978 0.14364849654 0.00037986396 -0.28755479944 0.15373932875 0.00041705071 -0.28742961678 0.16441256659 0.00045744831 -0.28823125541 0.17560078995 0.00049922762 -0.28980500892 0.18723657870 0.00054055950 -0.29199617094 0.19925251274 0.00057961479 -0.29465003505 0.21158117194 0.00061456437 -0.29761189488 0.22415513620 0.00064357909 -0.30072704401 0.23690698539 0.00010683358 -0.29135893810 0.13444438564 0.00011506674 -0.28898246329 0.14397170014 0.00012586992 -0.28781607802 0.15409544483 0.00013853970 -0.28770573786 0.16475334616 0.00015237268 -0.28849739832 0.17588313059 0.00016666543 -0.29003701495 0.18742252455 0.00018071455 -0.29217054328 0.19930925449 0.00019381661 -0.29474393885 0.21148104686 0.00020526821 -0.29760315719 0.22387562810 0.00021436592 -0.30059415385 0.23643072466 -0.00010717367 -0.29135894696 0.13444435761 -0.00011540196 -0.28898247225 0.14397167162 -0.00012619816 -0.28781608705 0.15409541595 -0.00013885913 -0.28770574688 0.16475331703 -0.00015268169 -0.28849740730 0.17588310134 -0.00016696269 -0.29003702383 0.18742249532 -0.00018099895 -0.29217055201 0.19930922543 -0.00019408733 -0.29474394738 0.21148101811 -0.00020552465 -0.29760316548 0.22387559983 -0.00021460775 -0.30059416185 0.23643069703 -0.00032277995 -0.29120448070 0.13420740614 -0.00034805286 -0.28876153665 0.14364841107 -0.00038019272 -0.28755482651 0.15373924212 -0.00041737066 -0.28742964387 0.16441247920 -0.00045775779 -0.28823128234 0.17560070222 -0.00049952522 -0.28980503554 0.18723649112 -0.00054084407 -0.29199619706 0.19925242579 -0.00057988546 -0.29465006052 0.21158108616 -0.00061482048 -0.29761191951 0.22415505215 -0.00064382028 -0.30072706765 0.23690690366 -0.00054318302 -0.29089553929 0.13373353137 -0.00058724993 -0.28831965647 0.14300191854 -0.00063996619 -0.28703229639 0.15302692335 -0.00069921977 -0.28687742880 0.16373083264 -0.00076289861 -0.28769902343 0.17503593326 -0.00082889066 -0.28934105003 0.18686451204 -0.00089508388 -0.29164747834 0.19913885583 -0.00095936620 -0.29446227809 0.21178125147 -0.00101962559 -0.29762941903 0.22471398581 -0.00107374999 -0.30099287090 0.23785934568 -0.00077158066 -0.29043212267 0.13302273343 -0.00083735715 -0.28765683168 0.14203219409 -0.00090937102 -0.28624849671 0.15195845965 -0.00098663134 -0.28604910170 0.16270837736 -0.00106814714 -0.28690063058 0.17418879446 -0.00115292749 -0.28864506729 0.18630655819 -0.00123998142 -0.29112439577 0.19896851579 -0.00132831799 -0.29418059996 0.21208151451 -0.00141694624 -0.29765566380 0.22555240158 -0.00150487523 -0.30139157123 0.23928802426 -0.00101117065 -0.28981423078 0.13207501248 -0.00110273849 -0.28677306227 0.14073923779 -0.00119225964 -0.28520342746 0.15053385104 -0.00128183024 -0.28494466256 0.16134511335 -0.00137354638 -0.28583610376 0.17305928584 -0.00146950419 -0.28771708727 0.18556262966 -0.00157179977 -0.29042694927 0.19874140591 -0.00168252925 -0.29380502598 0.21248187572 -0.00180378873 -0.29769065358 0.22667030022 -0.00193767433 -0.30192316827 0.24119294054 0.00106152974 -0.29851092534 0.13535045456 0.00113957829 -0.29544351418 0.14351622417 0.00121741062 -0.29380715453 0.15273662955 0.00129760082 -0.29345255756 0.16293422114 0.00138272298 -0.29423043442 0.17403154939 0.00147535119 -0.29599149629 0.18595116472 0.00157805954 -0.29858645433 0.19861561760 0.00169342211 -0.30186601972 0.21194745845 0.00182401300 -0.30568090361 0.22586923773 0.00197240629 -0.30988181717 0.24030350586 0.00081794293 -0.29933400726 0.13712149004 0.00087414355 -0.29637658653 0.14536364761 0.00093765946 -0.29478702708 0.15452181988 0.00100777922 -0.29441185504 0.16452270421 0.00108379139 -0.29509759651 0.17529299799 0.00116498453 -0.29669077763 0.18675939860 0.00125064719 -0.29903792451 0.19884860340 0.00134006795 -0.30198556326 0.21148730977 0.00143253535 -0.30538022001 0.22460221509 0.00152733796 -0.30906842087 0.23812001674 0.00058009776 -0.29995132092 0.13844975953 0.00061782858 -0.29707639299 0.14674920806 0.00066479380 -0.29552193369 0.15586070546 0.00071903154 -0.29513133035 0.16571405931 0.00077857995 -0.29574797030 0.17623907717 0.00084147717 -0.29721524088 0.18736556660 0.00090576133 -0.29937652942 0.19902333516 0.00096947058 -0.30207522326 0.21114219042 0.00103064306 -0.30515470973 0.22365193994 0.00108731690 -0.30845837617 0.23648239128 0.00034635369 -0.30036286629 0.13933526310 0.00036802767 -0.29754293358 0.14767290554 0.00039684628 -0.29601187437 0.15675328632 0.00043105089 -0.29561098349 0.16650828646 0.00046888286 -0.29618155576 0.17686978697 0.00050858356 -0.29756488597 0.18776966887 0.00054839437 -0.29960226896 0.19913981317 0.00058655666 -0.30213499953 0.21091210089 0.00062131179 -0.30500437251 0.22301841304 0.00065090113 -0.30805168270 0.23539063064 0.00011507017 -0.30056864335 0.13977800081 0.00012213507 -0.29777620827 0.14813474008 0.00013184953 -0.29625684912 0.15719956245 0.00014353034 -0.29585081447 0.16690538565 0.00015649428 -0.29639835287 0.17718512744 0.00017005815 -0.29773971288 0.18797170554 0.00018353874 -0.29971514305 0.19919803770 0.00019625284 -0.30216489194 0.21079704167 0.00020751723 -0.30492920810 0.22270163518 0.00021664871 -0.30784834011 0.23484473597 -0.00011539332 -0.30056865208 0.13977797275 -0.00012245493 -0.29777621706 0.14813471172 -0.00013216381 -0.29625685794 0.15719953386 -0.00014383701 -0.29585082327 0.16690535690 -0.00015679159 -0.29639836162 0.17718509862 -0.00017034462 -0.29773972154 0.18797167674 -0.00018381314 -0.29971515158 0.19919800903 -0.00019651423 -0.30216490030 0.21079701324 -0.00020776493 -0.30492921627 0.22270160712 -0.00021688232 -0.30784834802 0.23484470841 -0.00034667733 -0.30036289245 0.13933517898 -0.00036834808 -0.29754295994 0.14767282049 -0.00039716111 -0.29601190083 0.15675320055 -0.00043135807 -0.29561100991 0.16650820023 -0.00046918059 -0.29618158200 0.17686970056 -0.00050887030 -0.29756491192 0.18776958262 -0.00054866886 -0.29960229447 0.19913972745 -0.00058681788 -0.30213502448 0.21091201610 -0.00062155902 -0.30500439674 0.22301832963 -0.00065113392 -0.30805170609 0.23539054910 -0.00058042240 -0.29995136445 0.13844961957 -0.00061815010 -0.29707643692 0.14674906641 -0.00066510975 -0.29552197778 0.15586056254 -0.00071933976 -0.29513137436 0.16571391563 -0.00077887853 -0.29574801398 0.17623893332 -0.00084176446 -0.29721528396 0.18736542330 -0.00090603598 -0.29937657163 0.19902319322 -0.00096973147 -0.30207526429 0.21114205073 -0.00103088936 -0.30515474929 0.22365180351 -0.00108754803 -0.30845841393 0.23648225921 -0.00081826907 -0.29933406806 0.13712129460 -0.00087446673 -0.29637664798 0.14536344952 -0.00093797709 -0.29478708881 0.15452161983 -0.00100808898 -0.29441191664 0.16452250311 -0.00108409123 -0.29509765755 0.17529279695 -0.00116527266 -0.29669083763 0.18675919892 -0.00125092209 -0.29903798295 0.19884840662 -0.00134032834 -0.30198561960 0.21148711762 -0.00143278025 -0.30538027365 0.22460202951 -0.00152756663 -0.30906847120 0.23811983987 -0.00106185788 -0.29851100325 0.13535020415 -0.00113990369 -0.29544359311 0.14351596986 -0.00121773050 -0.29380723391 0.15273637243 -0.00129791266 -0.29345263674 0.16293396270 -0.00138302452 -0.29423051270 0.17403129148 -0.00147564044 -0.29599157287 0.18595090962 -0.00157833476 -0.29858652835 0.19861536794 -0.00169368184 -0.30186609022 0.21194721726 -0.00182425602 -0.30568096959 0.22586900842 -0.00197263166 -0.30988187753 0.24030329224 0.00110630533 -0.30569119743 0.13886221380 0.00117521547 -0.30297069275 0.14645541212 0.00124561815 -0.30156425996 0.15506315258 0.00132044800 -0.30134215254 0.16462871263 0.00140263965 -0.30217462400 0.17509536972 0.00149512772 -0.30393192781 0.18640640131 0.00160084685 -0.30648431748 0.19850508484 0.00172273166 -0.30970204650 0.21133469777 0.00186371678 -0.31345536836 0.22483851754 0.00202673685 -0.31761453656 0.23895982161 0.00085953397 -0.30663477735 0.14111322320 0.00090910978 -0.30393105452 0.14862643597 0.00096676109 -0.30250154543 0.15706081233 0.00103211163 -0.30220717770 0.16635502853 0.00110478508 -0.30290887896 0.17644776084 0.00118440516 -0.30446757684 0.18727768550 0.00127059558 -0.30674419896 0.19878347878 0.00136298003 -0.30959967295 0.21090381694 0.00146118222 -0.31289492643 0.22357737622 0.00156482585 -0.31649088704 0.23674283288 0.00061343126 -0.30734246446 0.14280147318 0.00064668867 -0.30465132801 0.15025469677 0.00068941877 -0.30320451169 0.15855905003 0.00073992839 -0.30285594873 0.16764975830 0.00079652440 -0.30345957236 0.17746204693 0.00085751362 -0.30486931581 0.18793114127 0.00092120291 -0.30693911231 0.19899226667 0.00098589912 -0.30952289509 0.21058064848 0.00104990909 -0.31247459738 0.22263151204 0.00111153966 -0.31564815241 0.23508008271 0.00036780607 -0.30781425875 0.14392696377 0.00038689934 -0.30513151322 0.15134019454 0.00041315832 -0.30367315875 0.15955786569 0.00044499734 -0.30328846564 0.16851290195 0.00048083072 -0.30382670418 0.17813822807 0.00051907277 -0.30513714469 0.18836676878 0.00055813783 -0.30706905746 0.19913144880 0.00059644020 -0.30947171278 0.21036519289 0.00063239421 -0.31219438097 0.22200092578 0.00066441418 -0.31508633233 0.23397157220 0.00012246726 -0.30805016021 0.14448969500 0.00012868893 -0.30537161016 0.15188292928 0.00013754687 -0.30390748661 0.16005725930 0.00014841748 -0.30350472842 0.16894445951 0.00016067716 -0.30401027440 0.17847630431 0.00017370229 -0.30527106341 0.18858456815 0.00018686928 -0.30713403428 0.19920102546 0.00019955452 -0.30944612585 0.21025745065 0.00021113441 -0.31205427696 0.22168561817 0.00022098533 -0.31480542644 0.23341730243 -0.00012277629 -0.30805016883 0.14448966690 -0.00012899537 -0.30537161881 0.15188290100 -0.00013784843 -0.30390749528 0.16005723088 -0.00014871214 -0.30350473706 0.16894443098 -0.00016096315 -0.30401028300 0.17847627572 -0.00017397814 -0.30527107193 0.18858453956 -0.00018713375 -0.30713404270 0.19920099692 -0.00019980666 -0.30944613414 0.21025742224 -0.00021137352 -0.31205428509 0.22168558997 -0.00022121099 -0.31480543439 0.23341727453 -0.00036811573 -0.30781428462 0.14392687950 -0.00038720640 -0.30513153920 0.15134010972 -0.00041346046 -0.30367318474 0.15955778043 -0.00044529250 -0.30328849156 0.16851281639 -0.00048111710 -0.30382672994 0.17813814237 -0.00051934884 -0.30513717019 0.18836668314 -0.00055840231 -0.30706908261 0.19913136348 -0.00059669208 -0.30947173749 0.21036510815 -0.00063263274 -0.31219440513 0.22200084192 -0.00066463887 -0.31508635583 0.23397148957 -0.00061374219 -0.30734250757 0.14280133283 -0.00064699698 -0.30465137131 0.15025455545 -0.00068972208 -0.30320455502 0.15855890794 -0.00074022457 -0.30285599191 0.16764961575 -0.00079681156 -0.30345961522 0.17746190430 -0.00085779015 -0.30486935814 0.18793099905 -0.00092146742 -0.30693915391 0.19899212542 -0.00098615050 -0.30952293573 0.21058050885 -0.00105014646 -0.31247463683 0.22263137479 -0.00111176240 -0.31564819041 0.23507994867 -0.00085984680 -0.30663483767 0.14111302691 -0.00090941996 -0.30393111514 0.14862623819 -0.00096706615 -0.30250160609 0.15706061343 -0.00103240932 -0.30220723812 0.16635482908 -0.00110507341 -0.30290893880 0.17644756159 -0.00118468237 -0.30446763573 0.18727748743 -0.00127086013 -0.30674425650 0.19878328302 -0.00136323064 -0.30959972871 0.21090362484 -0.00146141784 -0.31289497993 0.22357718932 -0.00156504568 -0.31649093777 0.23674265293 -0.00110662070 -0.30569127492 0.13886196178 -0.00117552816 -0.30297077071 0.14645515795 -0.00124592555 -0.30156433798 0.15506289689 -0.00132074773 -0.30134223016 0.16462845640 -0.00140292954 -0.30217470066 0.17509511431 -0.00149540583 -0.30393200290 0.18640614843 -0.00160111145 -0.30648439029 0.19850483658 -0.00172298125 -0.30970211626 0.21133445659 -0.00186395009 -0.31345543421 0.22483828627 -0.00202695280 -0.31761459757 0.23895960343 0.00114651507 -0.31158430953 0.14242120575 0.00120918882 -0.30952425638 0.14938650799 0.00127524026 -0.30859591947 0.15735833844 0.00134784382 -0.30869421115 0.16628880330 0.00143017389 -0.30971404381 0.17613000873 0.00152540489 -0.31155032982 0.18683406094 0.00163671124 -0.31409798156 0.19835306609 0.00176726734 -0.31725191141 0.21063913039 0.00192024760 -0.32090703173 0.22364436000 0.00209882644 -0.32495825492 0.23732086111 0.00089636895 -0.31258392602 0.14489417436 0.00094159758 -0.31049479339 0.15170701795 0.00099540099 -0.30950688051 0.15945659167 0.00105784040 -0.30950164932 0.16808760886 0.00112897700 -0.31036056178 0.17754478289 0.00120887200 -0.31196507984 0.18777282709 0.00129758660 -0.31419666547 0.19871645484 0.00139518201 -0.31693678060 0.21032037947 0.00150171943 -0.32006688720 0.22252931435 0.00161726007 -0.32346844721 0.23528797282 0.00064272191 -0.31333364053 0.14674889377 0.00067314384 -0.31122269828 0.15344739336 0.00071287706 -0.31019010342 0.16103027450 0.00076067537 -0.31010723008 0.16943670590 0.00081529259 -0.31084545241 0.17860585628 0.00087548253 -0.31227614455 0.18847689435 0.00093999899 -0.31427068063 0.19898898883 0.00100759580 -0.31670043480 0.21008130845 0.00107702677 -0.31943678120 0.22169302190 0.00114704570 -0.32235109395 0.23376329792 0.00038657411 -0.31383345305 0.14798536400 0.00040407395 -0.31170797105 0.15460763422 0.00042843543 -0.31064558821 0.16207938694 0.00045839484 -0.31051095344 0.17033609443 0.00049268848 -0.31116871569 0.17931322897 0.00053005262 -0.31248352389 0.18894626285 0.00056922356 -0.31432002696 0.19917066835 0.00060893759 -0.31654287385 0.20992191776 0.00064793100 -0.31901671349 0.22113548336 0.00068494007 -0.32160619481 0.23274683742 0.00012892572 -0.31408336357 0.14860358504 0.00013463423 -0.31195061172 0.15518774053 0.00014284306 -0.31087333488 0.16260392899 0.00015304491 -0.31071281939 0.17078577446 0.00016473247 -0.31133035159 0.17966690102 0.00017739842 -0.31258721780 0.18918093273 0.00019053544 -0.31434470436 0.19926149366 0.00020363624 -0.31646409760 0.20984220786 0.00021619349 -0.31880668386 0.22085669940 0.00022769989 -0.32123374946 0.23223859234 -0.00012922310 -0.31408337212 0.14860355691 -0.00013492899 -0.31195062027 0.15518771229 -0.00014313308 -0.31087334343 0.16260390064 -0.00015332832 -0.31071282792 0.17078574603 -0.00016500763 -0.31133036007 0.17966687251 -0.00017766395 -0.31258722623 0.18918090415 -0.00019079022 -0.31434471273 0.19926146502 -0.00020387938 -0.31646410589 0.20984217919 -0.00021642436 -0.31880669206 0.22085667072 -0.00022791810 -0.32123375757 0.23223856368 -0.00038687218 -0.31383347868 0.14798527961 -0.00040436936 -0.31170799673 0.15460754950 -0.00042872604 -0.31064561386 0.16207930191 -0.00045867874 -0.31051097901 0.17033600914 -0.00049296400 -0.31116874113 0.17931314348 -0.00053031834 -0.31248354913 0.18894617724 -0.00056947830 -0.31432005197 0.19917058272 -0.00060918041 -0.31654289857 0.20992183221 -0.00064816119 -0.31901673787 0.22113539802 -0.00068515718 -0.32160621880 0.23274675244 -0.00064302136 -0.31333368327 0.14674875315 -0.00067344056 -0.31122274108 0.15344725216 -0.00071316885 -0.31019014617 0.16103013279 -0.00076096026 -0.31010727268 0.16943656382 -0.00081556883 -0.31084549472 0.17860571402 -0.00087574862 -0.31227618645 0.18847675216 -0.00094025365 -0.31427072199 0.19898884702 -0.00100783797 -0.31670047548 0.21008116737 -0.00107725561 -0.31943682105 0.22169288198 -0.00114726063 -0.32235113284 0.23376315963 -0.00089667048 -0.31258398588 0.14489397753 -0.00094189625 -0.31049485335 0.15170682026 -0.00099569454 -0.30950694038 0.15945639328 -0.00105812676 -0.30950170890 0.16808741008 -0.00112925433 -0.31036062084 0.17754458417 -0.00120913865 -0.31196513813 0.18777262904 -0.00129784113 -0.31419672270 0.19871625818 -0.00139542320 -0.31693683647 0.21032018511 -0.00150194625 -0.32006694138 0.22252912330 -0.00161747170 -0.32346849934 0.23528778626 -0.00114681937 -0.31158438652 0.14242095275 -0.00120949010 -0.30952433352 0.14938625381 -0.00127553617 -0.30859599647 0.15735808338 -0.00134813216 -0.30869428768 0.16628854796 -0.00143045267 -0.30971411946 0.17612975401 -0.00152567229 -0.31155040413 0.18683380803 -0.00163696561 -0.31409805400 0.19835281649 -0.00176750722 -0.31725198139 0.21063888588 -0.00192047172 -0.32090709861 0.22364412267 -0.00209903368 -0.32495831799 0.23732063334 0.00118351931 -0.31641960233 0.14583809799 0.00124137658 -0.31527394358 0.15213896345 0.00130496832 -0.31502338994 0.15946684586 0.00137758496 -0.31558957837 0.16777444626 0.00146251691 -0.31689414582 0.17701446566 0.00156305458 -0.31885872924 0.18713960509 0.00168248840 -0.32140496561 0.19810256558 0.00182410879 -0.32445449186 0.20985604814 0.00199120616 -0.32792894497 0.22235275380 0.00218707093 -0.33174996188 0.23554538359 0.00092880471 -0.31743100766 0.14836039078 0.00097128648 -0.31624242336 0.15449165366 0.00102263553 -0.31591792421 0.16159011054 0.00108349992 -0.31636191278 0.16960249974 0.00115452771 -0.31747879162 0.17847555959 0.00123636697 -0.31917296332 0.18815602838 0.00132966574 -0.32134883042 0.19859064445 0.00143507210 -0.32391079549 0.20972614609 0.00155323410 -0.32676326110 0.22150927163 0.00168479981 -0.32981062981 0.23388675938 0.00066784897 -0.31818956376 0.15025210335 0.00069684425 -0.31696878530 0.15625616426 0.00073453441 -0.31658882702 0.16318255197 0.00078035850 -0.31694116570 0.17097353273 0.00083375558 -0.31791727812 0.17957137281 0.00089416469 -0.31940864104 0.18891833848 0.00096102487 -0.32130673125 0.19895669602 0.00103377519 -0.32350302551 0.20962871168 0.00111185467 -0.32588900061 0.22087665173 0.00119470238 -0.32835613331 0.23264278245 0.00040243518 -0.31869527066 0.15151323567 0.00041929325 -0.31745302942 0.15743249526 0.00044231297 -0.31703609838 0.16424417015 0.00047074817 -0.31732733714 0.17188754522 0.00050385273 -0.31820960528 0.18030190538 0.00054088048 -0.31956576237 0.18942653552 0.00058108530 -0.32127866801 0.19920072052 0.00062372102 -0.32323118179 0.20956374529 0.00066804151 -0.32530616327 0.22045489472 0.00071330062 -0.32738647206 0.23181345369 0.00013434642 -0.31894812834 0.15214378776 0.00013987688 -0.31769515571 0.15802064665 0.00014761922 -0.31725973829 0.16477496508 0.00015725640 -0.31752042708 0.17234453725 0.00016847138 -0.31835577308 0.18066715736 0.00018094709 -0.31964432726 0.18968061961 0.00019436651 -0.32126464063 0.19932271820 0.00020841258 -0.32309526418 0.20953124732 0.00022276826 -0.32501474889 0.22024400117 0.00023711650 -0.32690164577 0.23139877396 -0.00013463424 -0.31894813681 0.15214375961 -0.00014016151 -0.31769516418 0.15802061841 -0.00014789882 -0.31725974675 0.16477493675 -0.00015752934 -0.31752043552 0.17234450882 -0.00016873625 -0.31835578149 0.18066712880 -0.00018120274 -0.31964433565 0.18968059089 -0.00019461198 -0.32126464900 0.19932268928 -0.00020864715 -0.32309527254 0.20953121815 -0.00022299143 -0.32501475726 0.22024397171 -0.00023732800 -0.32690165415 0.23139874413 -0.00040272370 -0.31869529609 0.15151315120 -0.00041957854 -0.31745305484 0.15743241055 -0.00044259314 -0.31703612377 0.16424408517 -0.00047102159 -0.31732736245 0.17188745995 -0.00050411794 -0.31820963050 0.18030181976 -0.00054113629 -0.31956578750 0.18942644948 -0.00058133068 -0.32127869305 0.19920063400 -0.00062395520 -0.32323120674 0.20956365818 -0.00066826392 -0.32530618815 0.22045480691 -0.00071351090 -0.32738649690 0.23181336507 -0.00066813890 -0.31818960618 0.15025196255 -0.00069713083 -0.31696882770 0.15625602306 -0.00073481574 -0.31658886934 0.16318241034 -0.00078063287 -0.31694120787 0.17097339066 -0.00083402147 -0.31791732009 0.17957123030 -0.00089442080 -0.31940868276 0.18891819552 -0.00096127009 -0.32130677268 0.19895655259 -0.00103400859 -0.32350306663 0.20962856779 -0.00111207556 -0.32588904138 0.22087650739 -0.00119491023 -0.32835617372 0.23264263765 -0.00092909674 -0.31743106707 0.14836019364 -0.00097157501 -0.31624248275 0.15449145592 -0.00102291860 -0.31591798347 0.16158991224 -0.00108377572 -0.31636197177 0.16960230096 -0.00115479462 -0.31747885022 0.17847536046 -0.00123662354 -0.31917302138 0.18815582911 -0.00132991070 -0.32134888781 0.19859044529 -0.00143530434 -0.32391085207 0.20972594737 -0.00155345270 -0.32676331671 0.22150907373 -0.00168500401 -0.32981068431 0.23388656273 -0.00118381415 -0.31641967879 0.14583784447 -0.00124166772 -0.31527402002 0.15213870915 -0.00130525371 -0.31502346616 0.15946659088 -0.00137786267 -0.31558965413 0.16777419087 -0.00146278517 -0.31689422087 0.17701421032 -0.00156331177 -0.31885880330 0.18713935041 -0.00168273301 -0.32140503834 0.19810231234 -0.00182433947 -0.32445456292 0.20985579732 -0.00199142170 -0.32792901396 0.22235250654 -0.00218727026 -0.33175002838 0.23554514119 0.00121867846 -0.32042641652 0.14892355811 0.00127165704 -0.32038949284 0.15454223015 0.00133349372 -0.32096792827 0.16123333354 0.00140746813 -0.32210909920 0.16894559462 0.00149685990 -0.32376038198 0.17762773975 0.00160494866 -0.32586915301 0.18722849527 0.00173501404 -0.32838278866 0.19769658753 0.00189033567 -0.33124866530 0.20898074288 0.00207419317 -0.33441415931 0.22102968766 0.00228986618 -0.33782664707 0.23379214824 0.00095719809 -0.32142557663 0.15140791976 0.00099785600 -0.32134856463 0.15686660319 0.00104752108 -0.32184956843 0.16334232158 0.00110762459 -0.32285461096 0.17078175571 0.00117959782 -0.32428971514 0.17913158638 0.00126487203 -0.32608090390 0.18833849438 0.00136487850 -0.32815420017 0.19834916049 0.00148104851 -0.33043562687 0.20911026550 0.00161481333 -0.33285120693 0.22056849020 0.00176760424 -0.33532696327 0.23267051538 0.00068869171 -0.32217494881 0.15327118396 0.00071744003 -0.32206787056 0.15860987592 0.00075375654 -0.32251080064 0.16492405553 0.00079806382 -0.32341374688 0.17215886940 0.00085078443 -0.32468671713 0.18025946413 0.00091234092 -0.32623971923 0.18917098633 0.00098315586 -0.32798276103 0.19883858260 0.00106365182 -0.32982585036 0.20920739954 0.00115425135 -0.33167899506 0.22022258376 0.00125537702 -0.33345220299 0.23182928186 0.00041516663 -0.32267453306 0.15451335071 0.00043229899 -0.32254741065 0.15977204833 0.00045442629 -0.32295162491 0.16597853539 0.00048156211 -0.32378650696 0.17307693569 0.00051372006 -0.32495138794 0.18101137303 0.00055091374 -0.32634559896 0.18972597121 0.00059315674 -0.32786847115 0.19916485403 0.00064046266 -0.32941933563 0.20927214530 0.00069284510 -0.33089752353 0.21999196881 0.00075031766 -0.33220236598 0.23126844836 0.00013863021 -0.32292432938 0.15513441999 0.00014432280 -0.32278718488 0.16035312042 0.00015175649 -0.32317204123 0.16650576115 0.00016089574 -0.32397289119 0.17353595459 0.00017170505 -0.32508372753 0.18138731312 0.00018414890 -0.32639854303 0.19000344912 0.00019819176 -0.32781133046 0.19932797498 0.00021379812 -0.32921608258 0.20930450308 0.00023093246 -0.33050679217 0.21987664582 0.00024955927 -0.33157745199 0.23098801557 -0.00013891023 -0.32292433780 0.15513439182 -0.00014459865 -0.32278719328 0.16035309217 -0.00015202668 -0.32317204961 0.16650573282 -0.00016115900 -0.32397289956 0.17353592612 -0.00017196028 -0.32508373591 0.18138728445 -0.00018439521 -0.32639855142 0.19000342016 -0.00019842847 -0.32781133889 0.19932794562 -0.00021402473 -0.32921609108 0.20930447320 -0.00023114869 -0.33050680078 0.21987661526 -0.00024976502 -0.33157746075 0.23098798417 -0.00041544733 -0.32267455830 0.15451326616 -0.00043257548 -0.32254743585 0.15977196359 -0.00045469705 -0.32295165006 0.16597845038 -0.00048182583 -0.32378653207 0.17307685028 -0.00051397561 -0.32495141303 0.18101128705 -0.00055116018 -0.32634562407 0.18972588442 -0.00059339332 -0.32786849635 0.19916476614 -0.00064068882 -0.32941936101 0.20927205595 -0.00069306047 -0.33089754919 0.21999187761 -0.00075052206 -0.33220239203 0.23126835485 -0.00068897377 -0.32217499091 0.15327104304 -0.00071771778 -0.32206791260 0.15860973465 -0.00075402843 -0.32251084258 0.16492391382 -0.00079832846 -0.32341378872 0.17215872709 -0.00085104060 -0.32468675888 0.18025932097 -0.00091258760 -0.32623976095 0.18917084200 -0.00098339217 -0.32798280278 0.19883843672 -0.00106387707 -0.32982589225 0.20920725165 -0.00115446501 -0.33167903721 0.22022243333 -0.00125557874 -0.33345224555 0.23182912829 -0.00095748221 -0.32142563563 0.15140772242 -0.00099813565 -0.32134862352 0.15686640536 -0.00104779465 -0.32184962716 0.16334212316 -0.00110789060 -0.32285466949 0.17078155654 -0.00117985494 -0.32428977345 0.17913138624 -0.00126511907 -0.32608096201 0.18833829300 -0.00136511442 -0.32815425810 0.19834895754 -0.00148127240 -0.33043568467 0.20911006059 -0.00161502443 -0.33285126468 0.22056828290 -0.00176780193 -0.33532702108 0.23267030518 -0.00121896530 -0.32042649246 0.14892330431 -0.00127193922 -0.32038956864 0.15454197570 -0.00133376953 -0.32096800382 0.16123307837 -0.00140773598 -0.32210917438 0.16894533866 -0.00149711829 -0.32376045671 0.17762748292 -0.00160519619 -0.32586922720 0.18722823751 -0.00173524943 -0.32838286222 0.19769632879 -0.00189055774 -0.33124873816 0.20898048309 -0.00207440084 -0.33441423141 0.22102942678 -0.00229005849 -0.33782671835 0.23379188620 </DataArray>
</PointData>
<Points>
<DataArray type="Float32" NumberOfComponents="3">
-0.29557444930 0.10889175887 2.03828378323 -0.33864091775 0.12563381784 2.04727647649 -0.37008225280 0.14563628985 2.05834510121 -0.39072817890 0.16800529720 2.07112235569 -0.40140842050 0.19184696219 2.08524093821 -0.40295270203 0.21626740714 2.10033354706 -0.39619074796 0.24037275435 2.11603288053 -0.38195228273 0.26326912611 2.13197163691 -0.36106703078 0.28406264474 2.14778251449 -0.33436471657 0.30185943253 2.16309821154 -0.24130665482 0.09571682696 2.03134399525 -0.26897304620 0.11738666383 2.04513720925 -0.28912007770 0.14078833376 2.05955358264 -0.30233758147 0.16535958031 2.07443997146 -0.30921538965 0.19053814709 2.08964323178 -0.31034333435 0.21576177765 2.10501021966 -0.30631124773 0.24046821560 2.12038779116 -0.29770896190 0.26409520452 2.13562280234 -0.28512630902 0.28608048797 2.15056210925 -0.26915312121 0.30586180956 2.16505256797 -0.17847733528 0.08583562504 2.02613914607 -0.19511596050 0.11120129551 2.04353275074 -0.20719919165 0.13715236400 2.06045993569 -0.21511860035 0.16337529005 2.07692817532 -0.21926575823 0.18955653321 2.09294494399 -0.22003223691 0.21538255302 2.10851771608 -0.21780960802 0.24053980902 2.12365396597 -0.21298944319 0.26471476076 2.13836116803 -0.20596331405 0.28759386777 2.15264679664 -0.19712279221 0.30886358960 2.16651832617 -0.10953264038 0.07924815349 2.02266923652 -0.11826657887 0.10707771303 2.04246310131 -0.12459351206 0.13472838059 2.06106416041 -0.12873648809 0.16205242634 2.07858696707 -0.13091855510 0.18890212046 2.09514607452 -0.13136276121 0.21512973313 2.11085603599 -0.13029215455 0.24058753453 2.12583140473 -0.12792978326 0.26512779483 2.14018673397 -0.12449869547 0.28860278423 2.15403657694 -0.12022193931 0.31086477288 2.16749548688 -0.03691871985 0.07595441265 2.02093426742 -0.03962181948 0.10501591657 2.04192826134 -0.04157695633 0.13351638356 2.06136625682 -0.04285649725 0.16139098911 2.07941634651 -0.04353280910 0.18857490872 2.09624662305 -0.04367825873 0.21500331786 2.11202517907 -0.04336521301 0.24061139204 2.12692010722 -0.04266603877 0.26533430673 2.14109950013 -0.04165310289 0.28910723743 2.15473145045 -0.04039877221 0.31186535963 2.16798405081 0.03691827661 0.07595440288 2.02093423960 0.03962139946 0.10501590628 2.04192823121 0.04157655813 0.13351637293 2.06136622497 0.04285611961 0.16139097830 2.07941631346 0.04353245091 0.18857489787 2.09624658927 0.04367791901 0.21500330710 2.11202514499 0.04336489091 0.24061138147 2.12692007320 0.04266573361 0.26533429643 2.14109946650 0.04165281409 0.28910722747 2.15473141747 0.04039849936 0.31186535005 2.16798401870 0.10953219928 0.07924812455 2.02266915388 0.11826615975 0.10707768233 2.04246301130 0.12459311390 0.13472834873 2.06106406488 0.12873610994 0.16205239385 2.07858686771 0.13091819608 0.18890208782 2.09514597286 0.13136242053 0.21512970074 2.11085593342 0.13029183151 0.24058750274 2.12583130246 0.12792947722 0.26512776393 2.14018663306 0.12449840587 0.28860275444 2.15403647831 0.12022166568 0.31086474437 2.16749539127 0.17847689845 0.08583557800 2.02613901108 0.19511554321 0.11120124490 2.04353260197 0.20719879359 0.13715231098 2.06045977659 0.21511822118 0.16337523568 2.07692800907 0.21926539757 0.18955647843 2.09294477351 0.22003189434 0.21538249865 2.10851754404 0.21780928309 0.24053975577 2.12365379476 0.21298913539 0.26471470922 2.13836099979 0.20596302285 0.28759381842 2.15264663324 0.19712251704 0.30886354280 2.16651816923 0.24130622441 0.09571676360 2.03134381203 0.26897263163 0.11738659413 2.04513700360 0.28911967977 0.14078825971 2.05955336014 0.30233720076 0.16535950374 2.07443973734 0.30921502651 0.19053806961 2.08964299090 0.31034298893 0.21576170073 2.10500997652 0.30631091994 0.24046814049 2.12038754987 0.29770865147 0.26409513228 2.13562256667 0.28512601541 0.28608041951 2.15056188259 0.26915284370 0.30586174558 2.16505235333 0.29557402743 0.10889168170 2.03828355756 0.33864050681 0.12563373020 2.04727621657 0.37008185505 0.14563619494 2.05834481556 0.39072779613 0.16800519795 2.07112205234 0.40140805406 0.19184686124 2.08524062472 0.40295235281 0.21626730685 2.10033323053 0.39619041639 0.24037265680 2.11603256758 0.38195196877 0.26326903311 2.13197133367 0.36106673397 0.28406255781 2.14778222663 0.33436443595 0.30185935292 2.16309794427 -0.30651116990 0.10104259166 2.07075793738 -0.33670429686 0.11887401968 2.07563197224 -0.35852549320 0.13928494501 2.08319269907 -0.37234999151 0.16166471625 2.09303945066 -0.37855302441 0.18540268199 2.10477155978 -0.37750982449 0.20988819081 2.11798835921 -0.36959562436 0.23451059132 2.13228918171 -0.35518565661 0.25865923211 2.14727336007 -0.33465515387 0.28172346176 2.16254022705 -0.30837934871 0.30309262888 2.17768911543 -0.24642314999 0.09316983168 2.06670590229 -0.26581813149 0.11435227900 2.07487480127 -0.27980763115 0.13700818499 2.08469515352 -0.28868392076 0.16075083435 2.09591101837 -0.29273927212 0.18519351176 2.10826645516 -0.29226595703 0.20994950190 2.12150552323 -0.28755624726 0.23463208945 2.13537228190 -0.27890241462 0.25885455909 2.14961079051 -0.26659673090 0.28223019551 2.16396510839 -0.25093146788 0.30437228339 2.17817929487 -0.18031598453 0.08726525896 2.06366686814 -0.19197924031 0.11096097085 2.07430691527 -0.20037394828 0.13530061243 2.08582198662 -0.20570910124 0.16006542045 2.09806468644 -0.20819369201 0.18503663165 2.11088761896 -0.20803671341 0.20999548278 2.12414338842 -0.20544715826 0.23472321059 2.13768459907 -0.20063401937 0.25900105184 2.15136385514 -0.19380628956 0.28261024326 2.16503376088 -0.18517296166 0.30533202161 2.17854692052 -0.10990942920 0.08332887375 2.06164083549 -0.11603125922 0.10870009537 2.07392831449 -0.12042896485 0.13416222735 2.08657319840 -0.12322803267 0.15960847449 2.09950045473 -0.12455394926 0.18493204157 2.11263505096 -0.12453220122 0.21002613339 2.12590195461 -0.12328827513 0.23478395473 2.13922613317 -0.12094765759 0.25909871039 2.15253255413 -0.11763583518 0.28286360515 2.16574618500 -0.11347829448 0.30597184381 2.17879199328 -0.03692323970 0.08136067629 2.06062780494 -0.03881782410 0.10756965265 2.07373899920 -0.04017720112 0.13359302976 2.08694878889 -0.04104321477 0.15937999643 2.10021832311 -0.04145770907 0.18487974147 2.11350875099 -0.04146252803 0.21004145367 2.12678122163 -0.04109951567 0.23481432185 2.13999688414 -0.04041051600 0.25914753481 2.15311688764 -0.03943737304 0.28299028135 2.16610238123 -0.03822193080 0.30629175027 2.17891451403 0.03692282827 0.08136066683 2.06062777706 0.03881742918 0.10756964280 2.07373896966 0.04017682266 0.13359301967 2.08694875811 0.04104285273 0.15937998623 2.10021829148 0.04145736337 0.18487973126 2.11350871885 0.04146219857 0.21004144356 2.12678118932 0.04109920234 0.23481431192 2.13999685195 0.04041021867 0.25914752513 2.15311685583 0.03943709154 0.28299027198 2.16610235005 0.03822166497 0.30629174127 2.17891448368 0.10990901904 0.08332884560 2.06164075243 0.11603086472 0.10870006595 2.07392822614 0.12042858624 0.13416219711 2.08657310609 0.12322767010 0.15960844384 2.09950035969 0.12455360286 0.18493201089 2.11263495435 0.12453187102 0.21002610300 2.12590185749 0.12328796113 0.23478392492 2.13922603653 0.12094735970 0.25909868141 2.15253245887 0.11763555327 0.28286357722 2.16574609192 0.11347802836 0.30597181709 2.17879190312 0.18031557690 0.08726521286 2.06366673164 0.19197884666 0.11096092220 2.07430676890 0.20037356934 0.13530056210 2.08582183285 0.20570873763 0.16006536923 2.09806452761 0.20819334420 0.18503658028 2.11088745729 0.20803638173 0.20999543192 2.12414322599 0.20544684289 0.23472316083 2.13768443782 0.20063372037 0.25900100370 2.15136369690 0.19380600683 0.28261019720 2.16503360734 0.18517269495 0.30533197801 2.17854677324 0.24642274617 0.09316976885 2.06670571527 0.26581773910 0.11435221166 2.07487459820 0.27980725173 0.13700811463 2.08469493843 0.28868355559 0.16075076234 2.09591079513 0.29273892221 0.18519343936 2.10826622748 0.29226562312 0.20994943027 2.12150529464 0.28755592986 0.23463201964 2.13537205579 0.27890211394 0.25885449205 2.14961057011 0.26659644691 0.28223013208 2.16396489677 0.25093120030 0.30437222430 2.17817909494 0.30651077116 0.10104251381 2.07075770389 0.33670390617 0.11887393445 2.07563171431 0.35852511315 0.13928485474 2.08319242286 0.37234962426 0.16166462313 2.09303916212 0.37855267169 0.18540258807 2.10477126473 0.37750948762 0.20988809798 2.11798806327 0.36959530423 0.23451050131 2.13228889038 0.35518535371 0.25865914651 2.14727307865 0.33465486823 0.28172338200 2.16253996070 0.30837907997 0.30309255623 2.17768886913 -0.31502060803 0.09628137840 2.09914021675 -0.33518877944 0.11461396950 2.10099866988 -0.34952470079 0.13499960265 2.10594518306 -0.35805549092 0.15704340314 2.11357012749 -0.36080826868 0.18035049628 2.12346387440 -0.35781015289 0.20452600738 2.13521679498 -0.34908826242 0.22917506174 2.14841926047 -0.33466971608 0.25390278466 2.16266164206 -0.31458163274 0.27831430144 2.17753431097 -0.28885113123 0.30201473739 2.19262763842 -0.25039878211 0.09253523688 2.09732707447 -0.26335322957 0.11299171106 2.10131230167 -0.27255250865 0.13472446721 2.10767393391 -0.27806129246 0.15747902468 2.11609300332 -0.27994425407 0.18100090281 2.12625054203 -0.27826606659 0.20503562092 2.13782758218 -0.27309140311 0.22932869836 2.15050515589 -0.26448493671 0.25362565447 2.16396429531 -0.25251134048 0.27767200858 2.17788603256 -0.23723528752 0.30121328003 2.19195139977 -0.18173992305 0.08972562820 2.09596721019 -0.18952957658 0.11177501474 2.10154751797 -0.19505537379 0.13451811321 2.10897048953 -0.19838685653 0.15780573845 2.11798515266 -0.19959356665 0.18148870533 2.12834053519 -0.19874504601 0.20541782870 2.13978566491 -0.19591083647 0.22944392344 2.15206956964 -0.19116047987 0.25341780439 2.16494127719 -0.18456351807 0.27719028642 2.17814981537 -0.17618949293 0.30061218439 2.19144421199 -0.11019746880 0.08785255252 2.09506062430 -0.11428584993 0.11096388064 2.10170431897 -0.11718327988 0.13438054065 2.10983484994 -0.11894082248 0.15802354442 2.11924657546 -0.11960954159 0.18181390381 2.12973385377 -0.11924050103 0.20567263072 2.14109104313 -0.11788476466 0.22952073699 2.15311250180 -0.11559339632 0.25327923452 2.16559258801 -0.11241745985 0.27686913516 2.17832566003 -0.10840801910 0.30021145080 2.19110607611 -0.03692485732 0.08691600999 2.09460731720 -0.03819007908 0.11055830881 2.10178270484 -0.03908621061 0.13431174954 2.11026701516 -0.03963182968 0.15813244256 2.11987727162 -0.03984551405 0.18197649823 2.13043049768 -0.03974584152 0.20580002693 2.14174371679 -0.03935138984 0.22955913905 2.15363395244 -0.03868073680 0.25320994494 2.16591822807 -0.03775246017 0.27670855499 2.17841356715 -0.03658513772 0.30001107958 2.19093699314 0.03692447344 0.08691600077 2.09460728927 0.03818970652 0.11055829933 2.10178267576 0.03908585035 0.13431173990 2.11026698522 0.03963148255 0.15813243285 2.11987724108 0.03984518077 0.18197648854 2.13043046681 0.03974552264 0.20580001734 2.14174368585 0.03935108582 0.22955912963 2.15363392165 0.03868044794 0.25320993576 2.16591819766 0.03775218663 0.27670854611 2.17841353733 0.03658487955 0.30001107104 2.19093696412 0.11019708552 0.08785252503 2.09506054090 0.11428547743 0.11096385227 2.10170423190 0.11718291930 0.13438051173 2.10983476012 0.11894047483 0.15802351526 2.11924648377 0.11960920769 0.18181387470 2.12973376107 0.11924018158 0.20567260192 2.14109095024 0.11788446017 0.22952070876 2.15311240951 0.11559310716 0.25327920707 2.16559249709 0.11241718621 0.27686910870 2.17832557120 0.10840776103 0.30021142550 2.19110599007 0.18173954097 0.08972558291 2.09596707248 0.18952920417 0.11177496770 2.10154737345 0.19505501258 0.13451806504 2.10897033990 0.19838650782 0.15780568976 2.11798499961 0.19959323155 0.18148865669 2.12834038037 0.19874472541 0.20541778065 2.13978550994 0.19591053105 0.22944387646 2.15206941611 0.19116019010 0.25341775896 2.16494112666 0.18456324422 0.27719024296 2.17814966936 0.17618923504 0.30061214329 2.19144407200 0.25039840181 0.09253517457 2.09732688441 0.26335285730 0.11299164568 2.10131210057 0.27255214649 0.13472439984 2.10767372457 0.27806094217 0.15747895634 2.11609278853 0.27994391716 0.18100083446 2.12625032459 0.27826574427 0.20503555351 2.13782736488 0.27309109629 0.22932863277 2.15050494152 0.26448464603 0.25362559153 2.16396408667 0.25251106631 0.27767194909 2.17788583243 0.23723502993 0.30121322472 2.19195121096 0.31502023011 0.09628130019 2.09913997707 0.33518840737 0.11461388630 2.10099841345 0.34952433736 0.13499951614 2.10594491415 0.35805513853 0.15704331495 2.11356985045 0.36080792935 0.18035040798 2.12346359365 0.35780982826 0.20452592049 2.13521651501 0.34908795373 0.22917497770 2.14841898584 0.33466942421 0.25390270488 2.16266137742 0.31458135815 0.27831422727 2.17753406103 0.28885087402 0.30201467012 2.19262740796 -0.32140623460 0.09414286894 2.12376700085 -0.33404305587 0.11245115027 2.12360764982 -0.34276929106 0.13242896571 2.12674821556 -0.34736349040 0.15383810439 2.13279053468 -0.34760420411 0.17644035546 2.14133644378 -0.34326998244 0.19999750806 2.15198777946 -0.33413937560 0.22427135133 2.16434637831 -0.31999093383 0.24902367442 2.17801407695 -0.30060320736 0.27401626646 2.19259271197 -0.27575474642 0.29901091659 2.20768411997 -0.25337661977 0.09349170247 2.12362476435 -0.26149326496 0.11300355919 2.12471917922 -0.26710392534 0.13365605130 2.12864317393 -0.27011133810 0.15528930421 2.13504834610 -0.27041824042 0.17774344334 2.14358629334 -0.26792736950 0.20085859410 2.15390861327 -0.26254146253 0.22447488192 2.16566690349 -0.25416325669 0.24843243222 2.17851276162 -0.24269548917 0.27257137040 2.19209778527 -0.22804089715 0.29673182189 2.20607357205 -0.18280154033 0.09300332523 2.12351807961 -0.18768200394 0.11341786353 2.12555281891 -0.19105939729 0.13457636316 2.13006438535 -0.19290441261 0.15637770176 2.13674169729 -0.19318774214 0.17872075694 2.14527367308 -0.19188007813 0.20150440632 2.15534923108 -0.18895211281 0.22462752752 2.16665728966 -0.18437453841 0.24798899817 2.17888676717 -0.17811804717 0.27148769589 2.19172658197 -0.17015333134 0.29502249829 2.20486565242 -0.11040827187 0.09267773730 2.12344694688 -0.11296969288 0.11369406331 2.12610856902 -0.11474403906 0.13518990130 2.13101184985 -0.11572979207 0.15710329703 2.13787058821 -0.11592543352 0.17937229625 2.14639858296 -0.11532944508 0.20193494472 2.15630963294 -0.11394030837 0.22472928819 2.16731753701 -0.11175650504 0.24769337241 2.17913609400 -0.10877651673 0.27076524315 2.19147910278 -0.10499882508 0.29388294614 2.20406036218 -0.03692408997 0.09251493878 2.12341136640 -0.03771675184 0.11383215858 2.12638642964 -0.03826618283 0.13549666572 2.13148556742 -0.03857455460 0.15746609001 2.13843501883 -0.03864403880 0.17969806127 2.14696102296 -0.03847680711 0.20215020932 2.15678981889 -0.03807503117 0.22478016398 2.16764764571 -0.03744088265 0.24754555507 2.17926074252 -0.03657653320 0.27040401240 2.19135534840 -0.03548415447 0.29331316579 2.20365770245 0.03692372976 0.09251492976 2.12341133842 0.03771639912 0.11383214939 2.12638640090 0.03826583927 0.13549665643 2.13148553810 0.03857422167 0.15746608068 2.13843498912 0.03864371777 0.17969805198 2.14696099304 0.03847649901 0.20215020013 2.15678978896 0.03807473685 0.22478015496 2.16764761596 0.03744060272 0.24754554626 2.17926071313 0.03657626808 0.27040400386 2.19135531955 0.03548390438 0.29331315758 2.20365767433 0.11040791175 0.09267771035 2.12344686319 0.11296933993 0.11369403577 2.12610848289 0.11474369508 0.13518987342 2.13101176189 0.11572945862 0.15710326904 2.13787049904 0.11592511196 0.17937226838 2.14639849319 0.11532913653 0.20193491717 2.15630954319 0.11394001374 0.22472926117 2.16731744792 0.11175622501 0.24769334612 2.17913600621 0.10877625176 0.27076521777 2.19147901693 0.10499857539 0.29388292186 2.20406027894 0.18280118040 0.09300328062 2.12351794094 0.18768165053 0.11341781777 2.12555267574 0.19105905244 0.13457631671 2.13006423881 0.19290407811 0.15637765507 2.13674154855 0.19318741953 0.17872071044 2.14527352336 0.19187976869 0.20150436044 2.15534908163 0.18895181757 0.22462748269 2.16665714178 0.18437425817 0.24798895479 2.17888662218 0.17811778247 0.27148765435 2.19172644125 0.17015308245 0.29502245898 2.20486551739 0.25337626011 0.09349164068 2.12362457194 0.26149291086 0.11300349542 2.12471897955 0.26710357919 0.13365598631 2.12864296887 0.27011100202 0.15528923875 2.13504813763 0.27041791623 0.17774337816 2.14358608353 0.26792705872 0.20085852996 2.15390840432 0.26254116639 0.22447481956 2.16566669771 0.25416297615 0.24843237238 2.17851256144 0.24269522487 0.27257131381 2.19209759322 0.22804064947 0.29673176929 2.20607339078 0.32140587531 0.09414279062 2.12376675641 0.33404270085 0.11245106877 2.12360739444 0.34276894319 0.13242888220 2.12674795210 0.34736315222 0.15383802007 2.13279026623 0.34760387781 0.17644027154 2.14133617368 0.34326966987 0.19999742574 2.15198751129 0.33413907826 0.22427127186 2.16434611591 0.31999065288 0.24902359902 2.17801382437 0.30060294361 0.27401619640 2.19259247353 0.27575450034 0.29901085314 2.20768390022 -0.32597152051 0.09416181312 2.14497466920 -0.33321581654 0.11198304497 2.14368999244 -0.33794867950 0.13122173717 2.14574745898 -0.33979280322 0.15174556655 2.15077682074 -0.33837088154 0.17342220991 2.15840782966 -0.33330560831 0.19611934407 2.16827023768 -0.32421967737 0.21970464584 2.17999379675 -0.31073578254 0.24404579204 2.19320825879 -0.29247661768 0.26901045949 2.20754337574 -0.26906487662 0.29446632499 2.22262889954 -0.25549973154 0.09571788838 2.14601622451 -0.26015316217 0.11408642259 2.14536490268 -0.26321109631 0.13352180816 2.14775612371 -0.26447569920 0.15392682585 2.15283946653 -0.26374913608 0.17520425648 2.16026451006 -0.26083357220 0.19725688084 2.16968083325 -0.25553117278 0.21998747971 2.18073801501 -0.24764410308 0.24329883389 2.19308563429 -0.23697452834 0.26709372419 2.20637327001 -0.22332461379 0.29127493138 2.22025050110 -0.18355322584 0.09688494252 2.14679738378 -0.18635155702 0.11566395354 2.14662107814 -0.18820194787 0.13524685913 2.14926261503 -0.18901431586 0.15556276808 2.15438644360 -0.18869857847 0.17654078916 2.16165701302 -0.18716465316 0.19811003114 2.17073877246 -0.18432245741 0.22019960281 2.18129617108 -0.18008190870 0.24273861292 2.19299365804 -0.17435292448 0.26565617027 2.20549568251 -0.16704542224 0.28888138363 2.21846669364 -0.11055335109 0.09766297562 2.14731814714 -0.11202212994 0.11671563783 2.14745851888 -0.11299882431 0.13639689011 2.15026693293 -0.11344987593 0.15665339323 2.15541775195 -0.11334172652 0.17743180795 2.16258533856 -0.11264081781 0.19867879502 2.17144405543 -0.11131359151 0.22034101521 2.18166826520 -0.10932648935 0.24236512928 2.19293233050 -0.10664595307 0.26469779799 2.20491061399 -0.10323842437 0.28728568210 2.21727747831 -0.03692145496 0.09805198772 2.14757851474 -0.03737600979 0.11724147548 2.14787722496 -0.03767931579 0.13697190109 2.15076907744 -0.03782360216 0.15719870129 2.15593339156 -0.03780109807 0.17787731285 2.16304948670 -0.03760403273 0.19896317250 2.17179668225 -0.03722463532 0.22041171701 2.18185429760 -0.03665513503 0.24217838312 2.19290165212 -0.03588776105 0.26421860758 2.20461806521 -0.03491474257 0.28648782715 2.21668285625 0.03692111487 0.09805197886 2.14757848671 0.03737567457 0.11724146651 2.14787719645 0.03767898754 0.13697189206 2.15076904856 0.03782328273 0.15719869226 2.15593336243 0.03780078906 0.17787730387 2.16304945745 0.03760373548 0.19896316362 2.17179665303 0.03722435091 0.22041170828 2.18185426854 0.03665486431 0.24217837458 2.19290162338 0.03588750461 0.26421859929 2.20461803694 0.03491450074 0.28648781915 2.21668282862 0.11055301073 0.09766294911 2.14731806321 0.11202179429 0.11671561095 2.14745843341 0.11299849555 0.13639686304 2.15026684630 0.11344955598 0.15665336614 2.15541766455 0.11334141704 0.17743178101 2.16258525084 0.11264052020 0.19867876841 2.17144396785 0.11131330693 0.22034098909 2.18166817825 0.10932621869 0.24236510382 2.19293224472 0.10664569695 0.26469777336 2.20491052994 0.10323818318 0.28728565845 2.21727739657 0.18355288495 0.09688489850 2.14679724437 0.18635122052 0.11566390881 2.14662093590 0.18820161809 0.13524681403 2.14926247067 0.18901399486 0.15556272292 2.15438629792 0.18869826805 0.17654074429 2.16165686689 0.18716435486 0.19810998690 2.17073862683 0.18432217249 0.22019955954 2.18129602699 0.18008163814 0.24273857099 2.19299351662 0.17435266902 0.26565613002 2.20549554495 0.16704518233 0.28888134543 2.21846656125 0.25549938986 0.09571782709 2.14601603034 0.26015282439 0.11408636011 2.14536470400 0.26321076499 0.13352174501 2.14775592168 0.26447537663 0.15392676260 2.15283926252 0.26374882426 0.17520419371 2.16026430561 0.26083327284 0.19725681913 2.16968063006 0.25553088733 0.21998741970 2.18073781500 0.24764383267 0.24329877623 2.19308543953 0.23697427384 0.26709366953 2.20637308276 0.22332437579 0.29127488043 2.22025032380 0.32597117777 0.09416173492 2.14497442126 0.33321547705 0.11198296488 2.14368973775 0.33794834614 0.13122165601 2.14574719935 0.33979247856 0.15174548518 2.15077655835 0.33837056785 0.17342212926 2.15840756702 0.33330530756 0.19611926513 2.16826997765 0.32421939120 0.21970456965 2.17999354252 0.31073551233 0.24404571970 2.19320801391 0.29247636448 0.26901039213 2.20754314411 0.26906464117 0.29446626383 2.22262868539 -0.32901993665 0.09587296081 2.16309960133 -0.33265575182 0.11280713656 2.16147677816 -0.33475228157 0.13102661999 2.16308857570 -0.33486224265 0.15046253613 2.16760513416 -0.33253835178 0.17104600999 2.17469659377 -0.32733332571 0.19270816660 2.18403309473 -0.31879988117 0.21538013099 2.19528477728 -0.30649073491 0.23899302819 2.20812178162 -0.28995860365 0.26347798322 2.22221424798 -0.26875620414 0.28876612110 2.23723231656 -0.25691118597 0.09889245451 2.16491870754 -0.25924784571 0.11593890044 2.16351894084 -0.26062323669 0.13404060867 2.16516603338 -0.26079601731 0.15313674253 2.16952878440 -0.25952484598 0.17316646537 2.17627599315 -0.25656838112 0.19406894051 2.18507645888 -0.25168528113 0.21578333130 2.19559898081 -0.24463420442 0.23824880107 2.20751235820 -0.23517380939 0.26140451316 2.22048539028 -0.22306275446 0.28518963090 2.23418687631 -0.18404736904 0.10115707257 2.16628303007 -0.18545327044 0.11828772113 2.16505055571 -0.18629895463 0.13630109797 2.16672411948 -0.18646911267 0.15514239513 2.17097151488 -0.18584843561 0.17475680469 2.17746053542 -0.18432161452 0.19508951871 2.18585897458 -0.18177334044 0.21608572926 2.19583462587 -0.17808830445 0.23769062840 2.20705528279 -0.17315119760 0.25984940820 2.21918873884 -0.16684671095 0.28250726073 2.23190278751 -0.11064421914 0.10266681501 2.16719256899 -0.11138250300 0.11985359866 2.16607162280 -0.11183521754 0.13780808789 2.16776283401 -0.11195600860 0.15647949392 2.17193332561 -0.11169852203 0.17581702797 2.17825022060 -0.11101640365 0.19576990124 2.18638064198 -0.10986329931 0.21628732495 2.19599171275 -0.10819285484 0.23731851033 2.20675055589 -0.10595871609 0.25881266859 2.21832429441 -0.10311452888 0.28071901095 2.23038005131 -0.03691746956 0.10342168186 2.16764732439 -0.03714602036 0.12063653303 2.16658214216 -0.03728780753 0.13856157845 2.16828217698 -0.03733118498 0.15714803892 2.17241421660 -0.03726450660 0.17634713522 2.17864504876 -0.03707612628 0.19611008815 2.18664146122 -0.03675439792 0.21638811849 2.19607024171 -0.03628767541 0.23713244704 2.20659817798 -0.03566431264 0.25829429458 2.21789205778 -0.03487266351 0.27982488191 2.22961866885 0.03691714641 0.10342167313 2.16764729632 0.03714570050 0.12063652423 2.16658211380 0.03728749326 0.13856156963 2.16828214839 0.03733087832 0.15714803011 2.17241418785 0.03726420930 0.17634712647 2.17864501994 0.03707583982 0.19611007948 2.18664143242 0.03675412352 0.21638810995 2.19607021304 0.03628741402 0.23713243867 2.20659814956 0.03566406494 0.25829428642 2.21789202972 0.03487242991 0.27982487400 2.22961864129 0.11064389550 0.10266678885 2.16719248487 0.11138218259 0.11985357229 2.16607153775 0.11183490270 0.13780806144 2.16776274824 0.11195570142 0.15647946751 2.17193323938 0.11169822430 0.17581700172 2.17825013420 0.11101611691 0.19576987529 2.18638055573 0.10986302483 0.21628729944 2.19599162702 0.10819259362 0.23731848539 2.20675047110 0.10595846885 0.25881264436 2.21832421100 0.10311429610 0.28071898756 2.23037996977 0.18404704440 0.10115702903 2.16628289011 0.18545294892 0.11828767721 2.16505041406 0.18629863868 0.13630105388 2.16672397656 0.18646880445 0.15514235111 2.17097137119 0.18584813703 0.17475676100 2.17746039157 0.18432132722 0.19508947562 2.18585883128 0.18177306580 0.21608568705 2.19583448393 0.17808804356 0.23769058736 2.20705514310 0.17315095131 0.25984936864 2.21918860241 0.16684647982 0.28250722296 2.23190265544 0.25691085983 0.09889239371 2.16491851210 0.25924752253 0.11593883899 2.16351874275 0.26062291905 0.13404054694 2.16516583333 0.26079570754 0.15313668092 2.16952858330 0.25952454614 0.17316640433 2.17627579211 0.25656809299 0.19406888052 2.18507625920 0.25168500624 0.21578327286 2.19559878403 0.24463394402 0.23824874474 2.20751216605 0.23517356449 0.26140445951 2.22048520470 0.22306252579 0.28518958057 2.23418669945 0.32901960851 0.09587288290 2.16309935093 0.33265542642 0.11280705764 2.16147652385 0.33475196170 0.13102654062 2.16308831858 0.33486193081 0.15046245694 2.16760487572 0.33253805024 0.17104593171 2.17469633587 0.32733303646 0.19270809002 2.18403283963 0.31879960595 0.21538005698 2.19528452762 0.30649047518 0.23899295768 2.20812154043 0.28995836062 0.26347791724 2.22221401867 0.26875597876 0.28876606074 2.23723210294 -0.33085495392 0.09881106183 2.17847817677 -0.33231155209 0.11452090802 2.17719908737 -0.33286951277 0.13149231714 2.17891722812 -0.33209062196 0.14968575967 2.18335162346 -0.32953666564 0.16906170609 2.19022129783 -0.32476942982 0.18958062688 2.19924527567 -0.31735070048 0.21120299253 2.21014258141 -0.30684226362 0.23388927352 2.22263223951 -0.29280590523 0.25759994033 2.23643327439 -0.27480341130 0.28229546344 2.25126471050 -0.25775405166 0.10269406078 2.18074946600 -0.25869224010 0.11825959190 2.17945076245 -0.25908956157 0.13493132372 2.18102615306 -0.25871393394 0.15266420715 2.18517871953 -0.25733327504 0.17141319311 2.19161154358 -0.25471550272 0.19113323252 2.20002770690 -0.25062853483 0.21177927628 2.21013029121 -0.24484028921 0.23330627531 2.22162237820 -0.23711868371 0.25566918054 2.23420704959 -0.22723163617 0.27882294286 2.24758738707 -0.18433635942 0.10560630783 2.18245292585 -0.18490217885 0.12106360265 2.18113951167 -0.18516634668 0.13751057650 2.18260783965 -0.18502134941 0.15489804060 2.18654903443 -0.18435967355 0.17317680620 2.19265422065 -0.18307380560 0.19229768453 2.20061452296 -0.18105623204 0.21221148683 2.21012106599 -0.17819943939 0.23286902434 2.22086497440 -0.17439591415 0.25422110829 2.23253737281 -0.16953814281 0.27621854992 2.24482938587 -0.11069238872 0.10754780298 2.18358855636 -0.11099015394 0.12293294027 2.18226533505 -0.11114080065 0.13923007546 2.18366228790 -0.11110312460 0.15638726001 2.18746256816 -0.11083592148 0.17435254537 2.19334932911 -0.11029798705 0.19307398298 2.20100572398 -0.10944811701 0.21249962430 2.21011490605 -0.10824510710 0.23257752077 2.22036002857 -0.10664775304 0.25325572384 2.23142424480 -0.10461485056 0.27448228495 2.24299070800 -0.03691265106 0.10851854624 2.18415635755 -0.03700495095 0.12386760474 2.18282823260 -0.03705385607 0.14008982061 2.18418949781 -0.03704951570 0.15713186540 2.18791932076 -0.03698207915 0.17494041065 2.19369686901 -0.03684169570 0.19346212792 2.20120131012 -0.03661851464 0.21264368878 2.21011181167 -0.03630268528 0.23243176476 2.22010754121 -0.03588435690 0.25277302742 2.23086766632 -0.03535367879 0.27361414832 2.24207135456 0.03691234203 0.10851853761 2.18415632945 0.03700464452 0.12386759609 2.18282820432 0.03705355451 0.14008981195 2.18418946939 0.03704922105 0.15713185675 2.18791929223 0.03698179315 0.17494040205 2.19369684042 0.03684141985 0.19346211941 2.20120128153 0.03661825017 0.21264368036 2.21011178313 0.03630243314 0.23243175647 2.22010751281 0.03588411779 0.25277301929 2.23086763812 0.03535345314 0.27361414037 2.24207132665 0.11069207905 0.10754777710 2.18358847209 0.11098984688 0.12293291429 2.18226525023 0.11114049851 0.13923004947 2.18366220264 0.11110282943 0.15638723409 2.18746248259 0.11083563510 0.17435251961 2.19334924340 0.11029771098 0.19307395748 2.20100563835 0.10944785253 0.21249959915 2.21011482073 0.10824485522 0.23257749606 2.22035994383 0.10664751451 0.25325569968 2.23142416095 0.10461462588 0.27448226145 2.24299062538 0.18433604849 0.10560626472 2.18245278550 0.18490187054 0.12106355935 2.18113937034 0.18516604337 0.13751053317 2.18260769756 0.18502105324 0.15489799742 2.18654889187 0.18435938639 0.17317676334 2.19265407802 0.18307352907 0.19229764220 2.20061438073 0.18105596753 0.21221144524 2.21012092474 0.17819918802 0.23286898370 2.22086483477 0.17439567678 0.25422106885 2.23253723555 0.16953792006 0.27621851192 2.24482925183 0.25775373883 0.10269400046 2.18074926971 0.25869192991 0.11825953128 2.17945056466 0.25908925651 0.13493126305 2.18102595416 0.25871363624 0.15266414673 2.18517852008 0.25733298671 0.17141313327 2.19161134434 0.25471522552 0.19113317362 2.20002750883 0.25062827028 0.21177921873 2.21013009545 0.24484003860 0.23330621955 2.22162218611 0.23711844808 0.25566912703 2.23420686269 0.22723141634 0.27882289213 2.24758720711 0.33085463856 0.09881098434 2.17847792474 0.33231123941 0.11452083007 2.17719883321 0.33286920537 0.13149223911 2.17891697243 0.33209032223 0.14968568205 2.18335136723 0.32953637575 0.16906162942 2.19022104242 0.32476915171 0.18958055179 2.19924502279 0.31735043587 0.21120291972 2.21014233315 0.30684201402 0.23388920376 2.22263199832 0.29280567192 0.25759987448 2.23643304311 0.27480319535 0.28229540243 2.25126449232 -0.33178004323 0.10251086606 2.19144677502 -0.33213190774 0.11672184231 2.19108800047 -0.33198978857 0.13226753156 2.19337907864 -0.33099675442 0.14911198369 2.19809243714 -0.32879587394 0.16721924858 2.20500050358 -0.32503021582 0.18655337612 2.21387570555 -0.31934284874 0.20707841619 2.22449047066 -0.31137684136 0.22875841869 2.23661722650 -0.30077526236 0.25155743350 2.25002840067 -0.28718118042 0.27543951051 2.26449642079 -0.25817139716 0.10680136712 2.19392575247 -0.25840126984 0.12074709618 2.19342983628 -0.25835928609 0.13591282421 2.19548973287 -0.25787109063 0.15225437264 2.19985169172 -0.25676232818 0.16972756285 2.20626196230 -0.25485864344 0.18828821624 2.21446679409 -0.25198568114 0.20789215422 2.22421243655 -0.24796908598 0.22849519818 2.23524513917 -0.24263450268 0.25005316954 2.24731115141 -0.23580757596 0.27252188968 2.26015672276 -0.18447258644 0.11001924079 2.19578497851 -0.18461331686 0.12376603444 2.19518620608 -0.18462005311 0.13864679157 2.19707271646 -0.18442357248 0.15461116221 2.20117112552 -0.18395465228 0.17160879639 2.20720804912 -0.18314406981 0.18958934414 2.21491010313 -0.18192260235 0.20850245550 2.22400390341 -0.18022102723 0.22829778050 2.23421606583 -0.17797012172 0.24892496916 2.24527320626 -0.17510066314 0.27033367153 2.25690194056 -0.11070937249 0.11216448706 2.19702445316 -0.11078442464 0.12577865710 2.19635710987 -0.11080315557 0.14046943362 2.19812802940 -0.11074615843 0.15618235240 2.20205073855 -0.11059402635 0.17286294923 2.20783876409 -0.11032735244 0.19045675988 2.21520563282 -0.10992672986 0.20890932014 2.22386487150 -0.10937275173 0.22816616579 2.23353000694 -0.10864601118 0.24817283262 2.24391456591 -0.10772710134 0.26887485640 2.25473207519 -0.03690751674 0.11323710592 2.19764417641 -0.03693096900 0.12678496415 2.19694254764 -0.03693965942 0.14138075038 2.19865567170 -0.03693080694 0.15696794324 2.20249053084 -0.03690163046 0.17349002139 2.20815410729 -0.03684934888 0.19089046351 2.21535338330 -0.03677118113 0.20911274823 2.22379534110 -0.03666434612 0.22810035421 2.23318696293 -0.03652606274 0.24779676012 2.24323523105 -0.03635354993 0.26814544462 2.25364712768 0.03690721937 0.11323709737 2.19764414828 0.03693067424 0.12678495560 2.19694251940 0.03693936940 0.14138074183 2.19865564336 0.03693052354 0.15696793471 2.20249050241 0.03690135530 0.17349001291 2.20815407878 0.03684908335 0.19089045507 2.21535335471 0.03677092635 0.20911273986 2.22379531246 0.03666410297 0.22810034592 2.23318693427 0.03652583187 0.24779675192 2.24323520237 0.03635333172 0.26814543651 2.25364709901 0.11070907442 0.11216446142 2.19702436877 0.11078412922 0.12577863143 2.19635702515 0.11080286497 0.14046940797 2.19812794438 0.11074587454 0.15618232683 2.20205065326 0.11059375082 0.17286292379 2.20783867861 0.11032708672 0.19045673463 2.21520554721 0.10992647512 0.20890929513 2.22386478587 0.10937250891 0.22816614107 2.23352992139 0.10864578098 0.24817280824 2.24391448057 0.10772688422 0.26887483241 2.25473199021 0.18447228699 0.11001919805 2.19578483789 0.18461302014 0.12376599164 2.19518606488 0.18461976132 0.13864674881 2.19707257475 0.18442328760 0.15461111961 2.20117098344 0.18395437604 0.17160875408 2.20720790686 0.18314380371 0.18958930224 2.21490996094 0.18192234770 0.20850241414 2.22400376159 0.18022078506 0.22829773982 2.23421592475 0.17796989288 0.24892492931 2.24527306634 0.17510044822 0.27033363265 2.25690180227 0.25817109563 0.10680130726 2.19392555564 0.25840097116 0.12074703622 2.19342963859 0.25835899254 0.13591276434 2.19548953448 0.25787080426 0.15225431305 2.19985149294 0.25676205084 0.16972750378 2.20626176359 0.25485837679 0.18828815795 2.21446659603 0.25198542660 0.20789209699 2.22421223990 0.24796884479 0.22849514231 2.23524494480 0.24263427587 0.25005311536 2.24731096036 0.23580736433 0.27252183755 2.26015653620 0.33177973893 0.10251078906 2.19144652203 0.33213160645 0.11672176518 2.19108774628 0.33198949267 0.13226745456 2.19337882358 0.33099646607 0.14911190716 2.19809218180 0.32879559516 0.16721917293 2.20500024886 0.32502994843 0.18655330181 2.21387545264 0.31934259437 0.20707834376 2.22449022106 0.31137660147 0.22875834871 2.23661698199 0.30077503825 0.25155736663 2.25002816334 0.28718097317 0.27543944745 2.26449619301 -0.33209867547 0.10650712332 2.20234177563 -0.33206550913 0.11900742242 2.20337459785 -0.33180252446 0.13300096624 2.20661978964 -0.33109945330 0.14843795473 2.21190372371 -0.32974602750 0.16526858784 2.21905277274 -0.32753197892 0.18344306552 2.22789330944 -0.32424703941 0.20291158771 2.23825170651 -0.31968094082 0.22362435436 2.24995433664 -0.31362341501 0.24553156542 2.26282757254 -0.30586419382 0.26858342084 2.27669778688 -0.25830629105 0.11089303344 2.20486481953 -0.25828985945 0.12310001244 2.20572563110 -0.25818162534 0.13670398103 2.20871002295 -0.25790912891 0.15165239190 2.21361012077 -0.25739991031 0.16789269769 2.22021805028 -0.25658150973 0.18537235107 2.22832593718 -0.25538146732 0.20403880471 2.23772590717 -0.25372732325 0.22383951126 2.24821008597 -0.25154661770 0.24472192338 2.25957059926 -0.24876689083 0.26663349374 2.27159957277 -0.18450843957 0.11418246392 2.20675709542 -0.18450171911 0.12616945284 2.20748889899 -0.18447600302 0.13948124002 2.21027769085 -0.18442832826 0.15406321765 2.21488991144 -0.18435573178 0.16986077793 2.22109200122 -0.18425525055 0.18681931306 2.22865040062 -0.18412392153 0.20488421523 2.23733155009 -0.18395878167 0.22400087662 2.24690189008 -0.18375686793 0.24411468944 2.25712786104 -0.18351521728 0.26517104588 2.26777590342 -0.11070668315 0.11637541476 2.20801860330 -0.11070465698 0.12821574362 2.20866440151 -0.11070986421 0.14133274319 2.21132279335 -0.11074004464 0.15567043200 2.21574309573 -0.11081293806 0.17117282860 2.22167462559 -0.11094628427 0.18778395154 2.22886669987 -0.11115782309 0.20544781936 2.23706863549 -0.11146529431 0.22410845061 2.24602974938 -0.11188643772 0.24370986382 2.25549935848 -0.11243899314 0.26419607755 2.26522677971 -0.03690258389 0.11747188594 2.20864934316 -0.03690224190 0.12923888478 2.20925213866 -0.03690741562 0.14225849054 2.21184533043 -0.03692727132 0.15647403495 2.21616967365 -0.03697097528 0.17182884972 2.22196592348 -0.03704769376 0.18826626656 2.22897483508 -0.03716659304 0.20572961720 2.23693716361 -0.03733683940 0.22416223334 2.24559366425 -0.03756759910 0.24350744672 2.25468509216 -0.03786803841 0.26370858905 2.26395220250 0.03690229607 0.11747187746 2.20864931501 0.03690195727 0.12923887631 2.20925211042 0.03690713603 0.14225848208 2.21184530211 0.03692699839 0.15647402651 2.21616964522 0.03697071040 0.17182884130 2.22196589492 0.03704743811 0.18826625817 2.22897480636 0.03716634757 0.20572960882 2.23693713469 0.03733660482 0.22416222498 2.24559363509 0.03756737592 0.24350743836 2.25468506270 0.03786782691 0.26370858067 2.26395217267 0.11070639462 0.11637538932 2.20801851883 0.11070437170 0.12821571820 2.20866431680 0.11070958404 0.14133271780 2.21132270837 0.11073977123 0.15567040669 2.21574301046 0.11081267284 0.17117280338 2.22167453998 0.11094602847 0.18778392641 2.22886661384 0.11115757770 0.20544779432 2.23706854897 0.11146506012 0.22410842566 2.24602966227 0.11188621531 0.24370983894 2.25549927067 0.11243878286 0.26419605271 2.26522669109 0.18450814965 0.11418242151 2.20675695462 0.18450143253 0.12616941044 2.20748875779 0.18447572169 0.13948119770 2.21027754922 0.18442805389 0.15406317548 2.21488976938 0.18435546589 0.16986073597 2.22109185870 0.18425499444 0.18681927134 2.22865025765 0.18412367632 0.20488417379 2.23733140666 0.18395854826 0.22400083551 2.24690174620 0.18375664705 0.24411464867 2.25712771670 0.18351500942 0.26517100547 2.26777575862 0.25830599902 0.11089297403 2.20486462238 0.25828957091 0.12309995304 2.20572543337 0.25818134227 0.13670392178 2.20870982465 0.25790885311 0.15165233291 2.21360992199 0.25739964340 0.16789263910 2.22021785116 0.25658125316 0.18537229301 2.22832573791 0.25538122236 0.20403874731 2.23772570802 0.25372709101 0.22383945468 2.24820988725 0.25154639911 0.24472186777 2.25957040136 0.24876668663 0.26663343925 2.27159937612 0.33209838064 0.10650704686 2.20234152211 0.33206521800 0.11900734598 2.20337434355 0.33180223907 0.13300089003 2.20661953466 0.33109917558 0.14843787897 2.21190346832 0.32974575923 0.16526851279 2.21905251740 0.32753172174 0.18344299146 2.22789305476 0.32424679480 0.20291151498 2.23825145327 0.31968071014 0.22362428331 2.24995408582 0.31362319946 0.24553149643 2.26282732527 0.30586399448 0.26858335434 2.27669754448 -0.33211432154 0.11033458348 2.21149955811 -0.33206104667 0.12097513130 2.21428995992 -0.33199713591 0.13334132413 2.21878502352 -0.33191753187 0.14736041932 2.22486163166 -0.33181717713 0.16295967426 2.23239666705 -0.33169101430 0.18006634630 2.24126701241 -0.33153398596 0.19860769282 2.25134955049 -0.33134103470 0.21851097119 2.26252116400 -0.33110710312 0.23970343877 2.27465873567 -0.33082713382 0.26211235293 2.28763914824 -0.25830180191 0.11464771967 2.21398391976 -0.25827293344 0.12501693987 2.21660761568 -0.25830579444 0.13702366507 2.22084027341 -0.25846969030 0.15060341785 2.22651642649 -0.25883392637 0.16569172077 2.23347060848 -0.25946780802 0.18222409640 2.24153735294 -0.26044064063 0.20013606732 2.25055119341 -0.26182172955 0.21936315609 2.26034666346 -0.26368038016 0.23984088528 2.27075829663 -0.26608589782 0.26150477747 2.28162062649 -0.18449630829 0.11788256971 2.21584718396 -0.18448242023 0.12804829420 2.21834585046 -0.18455012551 0.13978541869 2.22238170375 -0.18478816312 0.15303566464 2.22775751549 -0.18528527204 0.16774075353 2.23427605733 -0.18613019124 0.18384240681 2.24174010095 -0.18741165972 0.20128234597 2.24995241799 -0.18921841644 0.22000229246 2.25871578012 -0.19163920039 0.23994396775 2.26783295901 -0.19476275055 0.26104909331 2.27710672630 -0.11069583337 0.12003913361 2.21708935071 -0.11069019285 0.13006919429 2.21950466424 -0.11074850848 0.14162658497 2.22340931454 -0.11093971772 0.15465715971 2.22858489865 -0.11133275807 0.16910677256 2.23481301363 -0.11199656698 0.18492127759 2.24187525653 -0.11300008194 0.20204652885 2.24955322440 -0.11441224043 0.22042838042 2.25762851430 -0.11630197993 0.24001268634 2.26588272327 -0.11873823790 0.26074530069 2.27409744836 -0.03689836979 0.12111741136 2.21771041999 -0.03689693710 0.13107964014 2.22008405701 -0.03691932269 0.14254716392 2.22392310577 -0.03699112148 0.15546790305 2.22899857599 -0.03713792837 0.16978977788 2.23508147742 -0.03738533825 0.18546070876 2.24194281980 -0.03775894603 0.20242861604 2.24935361284 -0.03828434660 0.22064142009 2.25708486629 -0.03898713488 0.24004704124 2.26490758988 -0.03989290575 0.26059339987 2.27259279335 0.03689808977 0.12111740294 2.21771039182 0.03689666124 0.13107963174 2.22008402877 0.03691905249 0.14254715554 2.22392307743 0.03699085822 0.15546789468 2.22899854752 0.03713767314 0.16978976951 2.23508144875 0.03738509193 0.18546070037 2.24194279083 0.03775870932 0.20242860762 2.24935358348 0.03828411999 0.22064141159 2.25708483641 0.03898691865 0.24004703263 2.26490755932 0.03989270000 0.26059339110 2.27259276195 0.11069555267 0.12003910836 2.21708926616 0.11068991637 0.13006916908 2.21950457950 0.11074823772 0.14162655981 2.22340922953 0.11093945401 0.15465713459 2.22858481325 0.11133250252 0.16910674747 2.23481292765 0.11199632054 0.18492125247 2.24187516974 0.11299984536 0.20204650365 2.24955313651 0.11441201427 0.22042835504 2.25762842495 0.11630176455 0.24001266069 2.26588263207 0.11873803349 0.26074527464 2.27409735485 0.18449602623 0.11788252761 2.21584704304 0.18448214248 0.12804825216 2.21834570920 0.18454985363 0.13978537675 2.22238156205 0.18478789849 0.15303562281 2.22775737318 0.18528501586 0.16774071178 2.23427591417 0.18612994457 0.18384236510 2.24173995662 0.18741142340 0.20128230422 2.24995227211 0.18921819119 0.22000225057 2.25871563223 0.19163898673 0.23994392560 2.26783280858 0.19476254883 0.26104905074 2.27710657273 0.25830151779 0.11464766067 2.21398372242 0.25827265379 0.12501688097 2.21660741786 0.25830552088 0.13702360634 2.22084007499 0.25846942429 0.15060335932 2.22651622732 0.25883366925 0.16569166246 2.23347040834 0.25946756098 0.18222403830 2.24153715156 0.26044040471 0.20013600939 2.25055099046 0.26182150566 0.21936309829 2.26034645855 0.26368016906 0.23984082753 2.27075808933 0.26608570013 0.26150471966 2.28162041629 0.33211403470 0.11033450754 2.21149930431 0.33206076448 0.12097505550 2.21428970547 0.33199686010 0.13334124858 2.21878476835 0.33191726402 0.14736034414 2.22486137569 0.33181691875 0.16295959953 2.23239641022 0.33169076677 0.18006627212 2.24126675466 0.33153375057 0.19860761926 2.25134929175 0.33134081264 0.21851089832 2.26252090422 0.33110689545 0.23970336667 2.27465847479 0.33082694151 0.26211228165 2.28763888620 </DataArray>
</Points>
</Piece>
</StructuredGrid>
</VTKFile>
