<?xml version="1.0"?>
<VTKFile type="StructuredGrid" version="0.1">
<StructuredGrid WholeExtent="0 9 0 9 0 9">
<Piece Extent="0 9 0 9 0 9">
<PointData>
<DataArray type="Float32" Name="Deformation" format="ascii" NumberOfComponents="3">
0.00004356085 0.00071635066 -0.00022205826 0.00004681354 0.00070426039 -0.00022891892 0.00005072756 0.00068733624 -0.00023384919 0.00005558685 0.00066626656 -0.00023741969 0.00006167533 0.00064173972 -0.00024020104 0.00006927693 0.00061444409 -0.00024276387 0.00007867559 0.00058506804 -0.00024567880 0.00009015523 0.00055429991 -0.00024951644 0.00010399979 0.00052282808 -0.00025484742 0.00012049319 0.00049134091 -0.00026224236 0.00004860627 0.00071263795 -0.00019507768 0.00005390968 0.00069733397 -0.00019787543 0.00005940160 0.00067838156 -0.00019968574 0.00006541555 0.00065638865 -0.00020081393 0.00007228506 0.00063196318 -0.00020156534 0.00008034365 0.00060571306 -0.00020224532 0.00008992483 0.00057824624 -0.00020315919 0.00010136215 0.00055017064 -0.00020461230 0.00011498910 0.00052209418 -0.00020690998 0.00013113923 0.00049462480 -0.00021035757 0.00005377832 0.00070761848 -0.00016403109 0.00006104282 0.00069023408 -0.00016359021 0.00006808574 0.00067018599 -0.00016264694 0.00007532103 0.00064801669 -0.00016135475 0.00008316264 0.00062426866 -0.00015986710 0.00009202452 0.00059948440 -0.00015833747 0.00010232062 0.00057420637 -0.00015691932 0.00011446489 0.00054897707 -0.00015576611 0.00012887128 0.00052433899 -0.00015503133 0.00014595373 0.00050083461 -0.00015486842 0.00005881076 0.00070168678 -0.00012987941 0.00006781837 0.00068326739 -0.00012680629 0.00007627166 0.00066295942 -0.00012336011 0.00008468220 0.00064126985 -0.00011963110 0.00009356158 0.00061870565 -0.00011570947 0.00010342138 0.00059577383 -0.00011168546 0.00011477319 0.00057298135 -0.00010764928 0.00012812859 0.00055083520 -0.00010369115 0.00014399917 0.00052984237 -0.00009990131 0.00016289650 0.00051050984 -0.00009636996 0.00006343737 0.00069523737 -0.00009358353 0.00007384175 0.00067674054 -0.00008826669 0.00008345102 0.00065691171 -0.00008245255 0.00009287797 0.00063626728 -0.00007623192 0.00010273539 0.00061532361 -0.00006969561 0.00011363607 0.00059459709 -0.00006293443 0.00012619281 0.00057460409 -0.00005603919 0.00014101840 0.00055586099 -0.00004910070 0.00015872563 0.00053888417 -0.00004220977 0.00017992730 0.00052419001 -0.00003545721 0.00006739192 0.00068866477 -0.00005610438 0.00007871837 0.00067096017 -0.00004871447 0.00008911549 0.00065225276 -0.00004055158 0.00009928724 0.00063312817 -0.00003174617 0.00010993757 0.00061417201 -0.00002242867 0.00012177041 0.00059596992 -0.00001272952 0.00013548972 0.00057910752 -0.00000277916 0.00015179944 0.00056417042 0.00000729198 0.00017140352 0.00055174426 0.00001735344 0.00019500592 0.00054241465 0.00002727480 0.00007040817 0.00068236350 -0.00001840286 0.00008205362 0.00066623293 -0.00000889264 0.00009275674 0.00064919243 0.00000171548 0.00010328893 0.00063197167 0.00001323720 0.00011442162 0.00061530032 0.00002548819 0.00012692623 0.00059990806 0.00003828413 0.00014157416 0.00058652455 0.00005144071 0.00015913685 0.00057587947 0.00006477359 0.00018038570 0.00056870248 0.00007809848 0.00020609214 0.00056572327 0.00009123103 0.00007221989 0.00067672808 0.00001856013 0.00008345293 0.00066286547 0.00003045575 0.00009386642 0.00064794060 0.00004372134 0.00010426194 0.00063291696 0.00005812925 0.00011544106 0.00061875801 0.00007345182 0.00012820536 0.00060642724 0.00008946138 0.00014335640 0.00059688811 0.00010593029 0.00016169576 0.00059110411 0.00012263088 0.00018402502 0.00059003870 0.00013933549 0.00021114575 0.00059465538 0.00015581646 0.00007256085 0.00067215304 0.00005382367 0.00008252170 0.00066116444 0.00006858767 0.00009193622 0.00064870716 0.00008483868 0.00010158519 0.00063608320 0.00010234103 0.00011224939 0.00062459455 0.00012085906 0.00012470963 0.00061554319 0.00014015710 0.00013974667 0.00061023111 0.00015999948 0.00015814131 0.00060996031 0.00018015054 0.00018067433 0.00061603278 0.00020037462 0.00020812652 0.00062975050 0.00022043605 0.00007116483 0.00066903289 0.00008642687 0.00007886535 0.00066143648 0.00010476010 0.00008645779 0.00065170199 0.00012444019 0.00009463757 0.00064158957 0.00014528359 0.00010410012 0.00063285940 0.00016710675 0.00011554087 0.00062727165 0.00018972613 0.00012965523 0.00062658648 0.00021295817 0.00014713863 0.00063256406 0.00023661932 0.00016868650 0.00064696456 0.00026052604 0.00019499425 0.00067154815 0.00028449477 0.00003534422 0.00072775320 -0.00023541134 0.00003731802 0.00071584147 -0.00024876832 0.00004020531 0.00069910596 -0.00025794209 0.00004407247 0.00067818115 -0.00026381539 0.00004898585 0.00065370149 -0.00026727099 0.00005501182 0.00062630145 -0.00026919165 0.00006221676 0.00059661550 -0.00027046013 0.00007066702 0.00056527810 -0.00027195918 0.00008042899 0.00053292371 -0.00027457156 0.00009156901 0.00050018680 -0.00027918003 0.00003912491 0.00072659358 -0.00020597802 0.00004298002 0.00071154638 -0.00021278216 0.00004724592 0.00069268889 -0.00021692828 0.00005205471 0.00067061427 -0.00021897227 0.00005753850 0.00064591565 -0.00021947002 0.00006382942 0.00061918620 -0.00021897742 0.00007105957 0.00059101906 -0.00021805036 0.00007936107 0.00056200739 -0.00021724472 0.00008886602 0.00053274432 -0.00021711640 0.00009970654 0.00050382303 -0.00021822128 0.00004305345 0.00072307298 -0.00017295045 0.00004868330 0.00070586854 -0.00017438517 0.00005427368 0.00068577652 -0.00017424422 0.00006003328 0.00066330764 -0.00017287757 0.00006617079 0.00063897260 -0.00017063522 0.00007289489 0.00061328211 -0.00016786713 0.00008041426 0.00058674689 -0.00016492329 0.00008893760 0.00055987764 -0.00016215369 0.00009867358 0.00053318506 -0.00015990831 0.00010983089 0.00050717988 -0.00015853712 0.00004695303 0.00071769790 -0.00013706259 0.00005415195 0.00069927983 -0.00013402149 0.00006093471 0.00067878417 -0.00013012618 0.00006759201 0.00065662800 -0.00012561134 0.00007441451 0.00063322838 -0.00012071171 0.00008169288 0.00060900238 -0.00011566198 0.00008971779 0.00058436706 -0.00011069687 0.00009877992 0.00055973950 -0.00010605108 0.00010916995 0.00053553675 -0.00010195933 0.00012117853 0.00051217588 -0.00009865633 0.00005064687 0.00071097485 -0.00009904843 0.00005911006 0.00069225215 -0.00009213527 0.00006687512 0.00067212719 -0.00008481042 0.00007431469 0.00065094210 -0.00007725363 0.00008180144 0.00062903905 -0.00006964464 0.00008970803 0.00060676018 -0.00006216320 0.00009840711 0.00058444765 -0.00005498904 0.00010827136 0.00056244361 -0.00004830191 0.00011967342 0.00054109020 -0.00004228154 0.00013298595 0.00052072958 -0.00003710770 0.00005395815 0.00070341034 -0.00005964194 0.00006328175 0.00068525741 -0.00004917063 0.00007174099 0.00066622090 -0.00003853323 0.00007978513 0.00064661668 -0.00002788449 0.00008786339 0.00062676066 -0.00001737917 0.00009642500 0.00060696871 -0.00000717200 0.00010591919 0.00058755673 0.00000258225 0.00011679521 0.00056884061 0.00001172884 0.00012950227 0.00055113623 0.00002011301 0.00014448963 0.00053475949 0.00002758002 0.00005671008 0.00069551088 -0.00001957709 0.00006639109 0.00067876750 -0.00000557171 0.00007517845 0.00066148064 0.00000846913 0.00008358714 0.00064401848 0.00002241603 0.00009213214 0.00062674925 0.00003613958 0.00010132843 0.00061004115 0.00004951039 0.00011169098 0.00059426238 0.00006239904 0.00012373478 0.00057978115 0.00007467614 0.00013797480 0.00056696567 0.00008621227 0.00015492604 0.00055618414 0.00009687803 0.00005872585 0.00068778298 0.00002041215 0.00006816220 0.00067325433 0.00003821734 0.00007683360 0.00065832174 0.00005596038 0.00008530454 0.00064351425 0.00007356788 0.00009413950 0.00062936089 0.00009096646 0.00010390297 0.00061639069 0.00010808276 0.00011515943 0.00060513267 0.00012484339 0.00012847338 0.00059611588 0.00014117499 0.00014440930 0.00058986934 0.00015700417 0.00016353167 0.00058692207 0.00017225757 0.00005982866 0.00068073315 0.00005959179 0.00006831916 0.00066918978 0.00008175240 0.00007635253 0.00065715954 0.00010370425 0.00008452111 0.00064547072 0.00012549100 0.00009341725 0.00063495161 0.00014715632 0.00010363327 0.00062643050 0.00016874388 0.00011576152 0.00062073568 0.00019029735 0.00013039433 0.00061869543 0.00021186039 0.00014812404 0.00062113805 0.00023347667 0.00016954300 0.00062889181 0.00025518986 0.00005984172 0.00067486790 0.00009722786 0.00006658608 0.00066704576 0.00012458931 0.00007338136 0.00065840937 0.00015146446 0.00008082069 0.00065025464 0.00017810535 0.00008949719 0.00064387748 0.00020476403 0.00010000398 0.00064057379 0.00023169255 0.00011293418 0.00064163948 0.00025914297 0.00012888092 0.00064837045 0.00028736733 0.00014843733 0.00066206262 0.00031661770 0.00017219651 0.00068401188 0.00034714612 0.00002636229 0.00073587346 -0.00024461724 0.00002754497 0.00072408188 -0.00026275435 0.00002959589 0.00070747985 -0.00027500927 0.00003247455 0.00068666274 -0.00028250028 0.00003614050 0.00066222594 -0.00028634565 0.00004055323 0.00063476483 -0.00028766364 0.00004567228 0.00060487479 -0.00028757252 0.00005145716 0.00057315120 -0.00028719056 0.00005786740 0.00054018944 -0.00028763604 0.00006486251 0.00050658490 -0.00029002722 0.00002892314 0.00073657791 -0.00021335448 0.00003159471 0.00072170851 -0.00022304857 0.00003470153 0.00070292213 -0.00022884074 0.00003826639 0.00068079853 -0.00023147138 0.00004231209 0.00065591747 -0.00023168088 0.00004686141 0.00062885869 -0.00023020963 0.00005193717 0.00060020195 -0.00022779802 0.00005756214 0.00057052701 -0.00022518644 0.00006375912 0.00054041362 -0.00022311528 0.00007055091 0.00051044153 -0.00022232492 0.00003165607 0.00073414807 -0.00017888138 0.00003572537 0.00071706969 -0.00018161442 0.00003983688 0.00069695179 -0.00018198456 0.00004407698 0.00067427851 -0.00018048375 0.00004853202 0.00064953401 -0.00017760395 0.00005328839 0.00062320244 -0.00017383710 0.00005843244 0.00059576795 -0.00016967516 0.00006405055 0.00056771470 -0.00016561008 0.00007022908 0.00053952682 -0.00016213381 0.00007705441 0.00051168848 -0.00015973830 0.00003444596 0.00072917430 -0.00014175718 0.00003975063 0.00071075842 -0.00013865959 0.00004476451 0.00069013563 -0.00013436592 0.00004963679 0.00066765430 -0.00012921390 0.00005451665 0.00064366278 -0.00012354127 0.00005955327 0.00061850940 -0.00011768579 0.00006489584 0.00059254252 -0.00011198519 0.00007069355 0.00056611050 -0.00010677722 0.00007709558 0.00053956167 -0.00010239961 0.00008425111 0.00051324439 -0.00009919012 0.00003717767 0.00072224696 -0.00010254109 0.00004348416 0.00070336766 -0.00009439177 0.00004924698 0.00068304047 -0.00008591000 0.00005467629 0.00066147752 -0.00007733831 0.00005998230 0.00063889094 -0.00006891927 0.00006537518 0.00061549285 -0.00006089543 0.00007106512 0.00059149538 -0.00005350935 0.00007726230 0.00056711065 -0.00004700357 0.00008417691 0.00054255079 -0.00004162065 0.00009201912 0.00051802794 -0.00003760315 0.00003973608 0.00071395640 -0.00006179234 0.00004673964 0.00069549040 -0.00004901865 0.00005304683 0.00067623311 -0.00003654198 0.00005892596 0.00065629979 -0.00002453349 0.00006464533 0.00063580570 -0.00001316436 0.00007047325 0.00061486610 -0.00000260577 0.00007667802 0.00059359624 0.00000697113 0.00008352796 0.00057211139 0.00001539514 0.00009129136 0.00055052681 0.00002249511 0.00010023653 0.00052895776 0.00002809985 0.00004200604 0.00070489296 -0.00002007017 0.00004933073 0.00068771961 -0.00000274793 0.00005592664 0.00067028035 0.00001381294 0.00006211625 0.00065267272 0.00002952406 0.00006822207 0.00063499424 0.00004429703 0.00007456659 0.00061734244 0.00005804347 0.00008147229 0.00059981483 0.00007067499 0.00008926167 0.00058250896 0.00008210320 0.00009825723 0.00056552234 0.00009223970 0.00010878144 0.00054895251 0.00010099612 0.00004387244 0.00069564702 0.00002206621 0.00005107111 0.00068064827 0.00004421271 0.00005764895 0.00066574901 0.00006522959 0.00006397765 0.00065114793 0.00008515785 0.00007042888 0.00063704375 0.00010403850 0.00007737433 0.00062363517 0.00012191255 0.00008518568 0.00061112088 0.00013882100 0.00009423461 0.00059969960 0.00015480487 0.00010489281 0.00058957002 0.00016990516 0.00011753196 0.00058093084 0.00018416288 0.00004522013 0.00068680892 0.00006405757 0.00005177445 0.00067486936 0.00009165558 0.00005797634 0.00066320588 0.00011778278 0.00006424061 0.00065227705 0.00014269138 0.00007098208 0.00064254143 0.00016663361 0.00007861558 0.00063445760 0.00018986171 0.00008755592 0.00062848411 0.00021262791 0.00009821792 0.00062507954 0.00023518443 0.00011101640 0.00062470245 0.00025778351 0.00012636618 0.00062781142 0.00028067737 0.00004593400 0.00067896901 0.00010534467 0.00005125443 0.00067097585 0.00013937299 0.00005667135 0.00066321778 0.00017154732 0.00006263561 0.00065661168 0.00020244815 0.00006959803 0.00065207446 0.00023265596 0.00007800947 0.00065052301 0.00026275124 0.00008832076 0.00065287423 0.00029331448 0.00010098275 0.00066004502 0.00032492617 0.00011644629 0.00067295227 0.00035816679 0.00013516220 0.00069251289 0.00039361682 0.00001685800 0.00074077191 -0.00024981109 0.00001759710 0.00072904460 -0.00027103298 0.00001894598 0.00071252252 -0.00028523145 0.00002083820 0.00069177645 -0.00029368237 0.00002320729 0.00066737717 -0.00029766159 0.00002598680 0.00063989548 -0.00029844496 0.00002911026 0.00060990215 -0.00029730833 0.00003251123 0.00057796798 -0.00029552756 0.00003612325 0.00054466376 -0.00029437850 0.00003987985 0.00051056027 -0.00029513701 0.00001824089 0.00074266350 -0.00021733540 0.00001992096 0.00072789257 -0.00022882964 0.00002191915 0.00070915003 -0.00023560310 0.00002421603 0.00068700456 -0.00023851539 0.00002679213 0.00066202482 -0.00023842611 0.00002962799 0.00063477947 -0.00023619487 0.00003270417 0.00060583719 -0.00023268128 0.00003600121 0.00057576663 -0.00022874494 0.00003949966 0.00054513646 -0.00022524546 0.00004318005 0.00051451534 -0.00022304243 0.00001981828 0.00074092566 -0.00018194295 0.00002238493 0.00072391418 -0.00018542015 0.00002500367 0.00070378115 -0.00018602966 0.00002769865 0.00068099002 -0.00018435242 0.00003049401 0.00065600426 -0.00018096940 0.00003341388 0.00062928732 -0.00017646153 0.00003648241 0.00060130265 -0.00017140976 0.00003972374 0.00057251370 -0.00016639505 0.00004316201 0.00054338393 -0.00016199832 0.00004682135 0.00051437680 -0.00015880054 0.00002151732 0.00073620394 -0.00014407025 0.00002487221 0.00071778015 -0.00014084073 0.00002805251 0.00069708072 -0.00013620948 0.00003112310 0.00067440606 -0.00013057729 0.00003414888 0.00065005658 -0.00012434494 0.00003719473 0.00062433270 -0.00011791323 0.00004032552 0.00059753482 -0.00011168295 0.00004360616 0.00056996336 -0.00010605489 0.00004710153 0.00054191873 -0.00010142984 0.00005087650 0.00051370134 -0.00009820859 0.00002326515 0.00072914391 -0.00010415379 0.00002726599 0.00071016122 -0.00009512761 0.00003091863 0.00068971362 -0.00008584092 0.00003432642 0.00066792590 -0.00007657376 0.00003759269 0.00064492286 -0.00006760619 0.00004082079 0.00062082930 -0.00005921826 0.00004411406 0.00059577001 -0.00005169001 0.00004757583 0.00056986977 -0.00004530149 0.00005130944 0.00054325339 -0.00004033275 0.00005541825 0.00051604565 -0.00003706384 0.00002498895 0.00072039114 -0.00006263006 0.00002944947 0.00070172808 -0.00004831700 0.00003345501 0.00068234467 -0.00003462232 0.00003714563 0.00066222275 -0.00002172566 0.00004066139 0.00064134418 -0.00000980665 0.00004414234 0.00061969082 0.00000095507 0.00004772856 0.00059724450 0.00001037988 0.00005156008 0.00057398709 0.00001828813 0.00005577699 0.00054990045 0.00002450020 0.00006051934 0.00052496642 0.00002883645 0.00002661585 0.00071059117 -0.00001993557 0.00003130584 0.00069315147 -0.00000044511 0.00003551462 0.00067563875 0.00001774797 0.00003941777 0.00065796985 0.00003458323 0.00004319092 0.00064006163 0.00005000022 0.00004700965 0.00062183093 0.00006393847 0.00005104957 0.00060319460 0.00007633753 0.00005548628 0.00058406949 0.00008713694 0.00006049540 0.00056437245 0.00009627626 0.00006625251 0.00054402033 0.00010369503 0.00002807301 0.00070038959 0.00002349319 0.00003271830 0.00068510210 0.00004845182 0.00003695041 0.00067026069 0.00007157161 0.00004097988 0.00065584041 0.00009296912 0.00004501722 0.00064181627 0.00011276093 0.00004927297 0.00062816332 0.00013106362 0.00005395764 0.00061485659 0.00014799376 0.00005928177 0.00060187112 0.00016366793 0.00006545589 0.00058918194 0.00017820270 0.00007269051 0.00057676408 0.00019171464 0.00002928759 0.00069043194 0.00006721973 0.00003357004 0.00067825068 0.00009833760 0.00003761538 0.00066687536 0.00012715024 0.00004166898 0.00065650765 0.00015404820 0.00004597625 0.00064734920 0.00017942202 0.00005078257 0.00063960169 0.00020366224 0.00005633333 0.00063346678 0.00022715941 0.00006287390 0.00062914615 0.00025030407 0.00007064969 0.00062684144 0.00027348676 0.00007990608 0.00062675434 0.00029709802 0.00003018674 0.00068136380 0.00011080754 0.00003374426 0.00067326795 0.00014917599 0.00003736247 0.00066614761 0.00018478552 0.00004132212 0.00066064479 0.00021843668 0.00004590396 0.00065740150 0.00025093000 0.00005138872 0.00065705972 0.00028306603 0.00005805716 0.00066026146 0.00031564530 0.00006619002 0.00066764873 0.00034946834 0.00007606804 0.00067986351 0.00038533570 0.00008797196 0.00069754782 0.00042404791 0.00000707427 0.00074250900 -0.00025112802 0.00000757709 0.00073079261 -0.00027376018 0.00000830230 0.00071429862 -0.00028878932 0.00000920849 0.00069358738 -0.00029756966 0.00001025424 0.00066921926 -0.00030145539 0.00001139816 0.00064175462 -0.00030180074 0.00001259882 0.00061175381 -0.00029995992 0.00001381482 0.00057977720 -0.00029728712 0.00001500475 0.00054638514 -0.00029513657 0.00001612720 0.00051213800 -0.00029486247 0.00000731810 0.00074492295 -0.00021804913 0.00000812598 0.00073017079 -0.00023028033 0.00000904951 0.00071144136 -0.00023739532 0.00001006905 0.00068929546 -0.00024030842 0.00001116494 0.00066429391 -0.00023993391 0.00001231752 0.00063699750 -0.00023718609 0.00001350715 0.00060796704 -0.00023297926 0.00001471415 0.00057776335 -0.00022822773 0.00001591888 0.00054694723 -0.00022384579 0.00001710168 0.00051607948 -0.00022074774 0.00000777217 0.00074348765 -0.00018225422 0.00000887786 0.00072647861 -0.00018594454 0.00001000237 0.00070633393 -0.00018654120 0.00001114484 0.00068350287 -0.00018466272 0.00001230442 0.00065843470 -0.00018092766 0.00001348024 0.00063157867 -0.00017595454 0.00001467144 0.00060338405 -0.00017036192 0.00001587717 0.00057430009 -0.00016476833 0.00001709657 0.00054477607 -0.00015979231 0.00001832877 0.00051526124 -0.00015605242 0.00000839488 0.00073887476 -0.00014410891 0.00000977445 0.00072042202 -0.00014068508 0.00001109015 0.00069968635 -0.00013578701 0.00001235751 0.00067694059 -0.00012984003 0.00001359208 0.00065245756 -0.00012326945 0.00001480940 0.00062651010 -0.00011650061 0.00001602501 0.00059937105 -0.00010995882 0.00001725445 0.00057131324 -0.00010406941 0.00001851325 0.00054260951 -0.00009925770 0.00001981697 0.00051353269 -0.00009594902 0.00000914469 0.00073175592 -0.00010397882 0.00001075748 0.00071270698 -0.00009443418 0.00001224212 0.00069220865 -0.00008469283 0.00001362870 0.00067033958 -0.00007504779 0.00001494733 0.00064717841 -0.00006579210 0.00001622811 0.00062280376 -0.00005721880 0.00001750114 0.00059729429 -0.00004962091 0.00001879653 0.00057072862 -0.00004329146 0.00002014438 0.00054318540 -0.00003852350 0.00002157480 0.00051474327 -0.00003561006 0.00000998001 0.00072280276 -0.00006222957 0.00001176867 0.00070403943 -0.00004712410 0.00001338756 0.00068461086 -0.00003281872 0.00001488005 0.00066443084 -0.00001949347 0.00001628956 0.00064341317 -0.00000732841 0.00001765945 0.00062147162 0.00000349639 0.00001903313 0.00059851998 0.00001280088 0.00002045398 0.00057447205 0.00002040501 0.00002196540 0.00054924160 0.00002612873 0.00002361077 0.00052274243 0.00002979196 0.00001085928 0.00071268693 -0.00001922677 0.00001274974 0.00069512532 0.00000131292 0.00001445573 0.00067760299 0.00002027527 0.00001603322 0.00065994534 0.00003761549 0.00001753816 0.00064197776 0.00005328881 0.00001902653 0.00062352563 0.00006725044 0.00002055427 0.00060441436 0.00007945561 0.00002217736 0.00058446933 0.00008985953 0.00002395175 0.00056351594 0.00009841743 0.00002593341 0.00054137958 0.00010508452 0.00001174092 0.00070208008 0.00002466395 0.00001364240 0.00068667062 0.00005094464 0.00001537591 0.00067189509 0.00007502906 0.00001700984 0.00065761406 0.00009707163 0.00001861255 0.00064368810 0.00011722676 0.00002025243 0.00062997778 0.00013564885 0.00002199786 0.00061634365 0.00015249233 0.00002391722 0.00060264630 0.00016791159 0.00002607888 0.00058874628 0.00018206105 0.00002855122 0.00057450416 0.00019509513 0.00001258336 0.00069165383 0.00006907698 0.00001438838 0.00067938126 0.00010183880 0.00001607737 0.00066819716 0.00013188260 0.00001773155 0.00065816798 0.00015966750 0.00001943212 0.00064936012 0.00018565263 0.00002126027 0.00064184001 0.00021029712 0.00002329720 0.00063567408 0.00023406011 0.00002562412 0.00063092876 0.00025740070 0.00002832223 0.00062767046 0.00028077805 0.00003147272 0.00062596561 0.00030465126 0.00001334504 0.00068207985 0.00011364671 0.00001492939 0.00067396320 0.00015406316 0.00001648939 0.00066721925 0.00019127581 0.00001812002 0.00066233807 0.00022619563 0.00001991627 0.00065980973 0.00025973361 0.00002197313 0.00066012431 0.00029280074 0.00002438558 0.00066377188 0.00032630800 0.00002724863 0.00067124253 0.00036116638 0.00003065725 0.00068302633 0.00039828685 0.00003470643 0.00069961336 0.00043858042 -0.00000274597 0.00074114519 -0.00024870317 -0.00000241234 0.00072938887 -0.00027109193 -0.00000228845 0.00071287276 -0.00028586357 -0.00000236948 0.00069216065 -0.00029437013 -0.00000265062 0.00066781631 -0.00029796364 -0.00000312705 0.00064040350 -0.00029799613 -0.00000379395 0.00061048601 -0.00029581965 -0.00000464650 0.00057862761 -0.00029278622 -0.00000567989 0.00054539207 -0.00029024789 -0.00000688930 0.00051134316 -0.00028955668 -0.00000360530 0.00074342882 -0.00021562402 -0.00000362301 0.00072861541 -0.00022755561 -0.00000375667 0.00070986489 -0.00023439740 -0.00000400911 0.00068773436 -0.00023705460 -0.00000438315 0.00066278092 -0.00023643246 -0.00000488163 0.00063556170 -0.00023343621 -0.00000550737 0.00060663379 -0.00022897108 -0.00000626320 0.00057655429 -0.00022394230 -0.00000715195 0.00054588033 -0.00021925512 -0.00000817646 0.00051516900 -0.00021581476 -0.00000425018 0.00074191596 -0.00017993423 -0.00000457996 0.00072483962 -0.00018332980 -0.00000493870 0.00070467948 -0.00018368088 -0.00000533791 0.00068187776 -0.00018159378 -0.00000578907 0.00065687667 -0.00017767481 -0.00000630367 0.00063011842 -0.00017253027 -0.00000689320 0.00060204524 -0.00016676646 -0.00000756915 0.00057309933 -0.00016098969 -0.00000834301 0.00054372291 -0.00015580627 -0.00000922627 0.00051435819 -0.00015182250 -0.00000469356 0.00073727472 -0.00014198023 -0.00000528486 0.00071876101 -0.00013831279 -0.00000583112 0.00069801944 -0.00013322866 -0.00000635343 0.00067531518 -0.00012714066 -0.00000687287 0.00065091344 -0.00012046159 -0.00000741054 0.00062507942 -0.00011360427 -0.00000798752 0.00059807831 -0.00010698150 -0.00000862490 0.00057017531 -0.00010100611 -0.00000934377 0.00054163561 -0.00009609090 -0.00001016522 0.00051272442 -0.00009264867 -0.00000494835 0.00073017319 -0.00010210845 -0.00000573942 0.00071107910 -0.00009240289 -0.00000643053 0.00069058763 -0.00008255537 -0.00000705323 0.00066877093 -0.00007284820 -0.00000763908 0.00064570115 -0.00006356370 -0.00000821961 0.00062145045 -0.00005498417 -0.00000882640 0.00059609097 -0.00004739193 -0.00000949099 0.00056969486 -0.00004106929 -0.00001024493 0.00054233428 -0.00003629857 -0.00001111978 0.00051408137 -0.00003336207 -0.00000502748 0.00072127947 -0.00006066531 -0.00000594533 0.00070249339 -0.00004549840 -0.00000673352 0.00068308694 -0.00003117564 -0.00000743487 0.00066296932 -0.00001786940 -0.00000809218 0.00064204969 -0.00000575204 -0.00000874826 0.00062023725 0.00000500406 -0.00000944592 0.00059744115 0.00001422654 -0.00001022796 0.00057357058 0.00002174303 -0.00001113720 0.00054853472 0.00002738115 -0.00001221645 0.00052224274 0.00003096853 -0.00000494389 0.00071126167 -0.00001799723 -0.00000590428 0.00069370339 0.00000250237 -0.00000673669 0.00067622026 0.00002139589 -0.00000749590 0.00065863467 0.00003864277 -0.00000823669 0.00064076898 0.00005420248 -0.00000901384 0.00062244557 0.00006803448 -0.00000988214 0.00060348681 0.00008009821 -0.00001089636 0.00058371509 0.00009035312 -0.00001211128 0.00056295276 0.00009875869 -0.00001358169 0.00054102221 0.00010527436 -0.00000471049 0.00070078788 0.00002554936 -0.00000561796 0.00068540862 0.00005170113 -0.00000643663 0.00067069047 0.00007564458 -0.00000723388 0.00065649129 0.00009753533 -0.00000807712 0.00064266890 0.00011752897 -0.00000903374 0.00062908116 0.00013578111 -0.00001017114 0.00061558591 0.00015244734 -0.00001155672 0.00060204098 0.00016768327 -0.00001325788 0.00058830423 0.00018164450 -0.00001534201 0.00057423348 0.00019448662 -0.00000434023 0.00069052621 0.00006962804 -0.00000508808 0.00067830858 0.00010219957 -0.00000582993 0.00066720045 0.00013205581 -0.00000664636 0.00065726349 0.00015965530 -0.00000761796 0.00064855937 0.00018545653 -0.00000882532 0.00064114978 0.00020991800 -0.00001034900 0.00063509639 0.00023349823 -0.00001226960 0.00063046089 0.00025665573 -0.00001466770 0.00062730494 0.00027984900 -0.00001762388 0.00062569023 0.00030353655 -0.00000384602 0.00068114474 0.00011389239 -0.00000431631 0.00067310280 0.00015409938 -0.00000491319 0.00066645309 0.00019111495 -0.00000573091 0.00066167559 0.00022584969 -0.00000686374 0.00065925029 0.00025921424 -0.00000840594 0.00065965717 0.00029211919 -0.00001045178 0.00066337621 0.00032547517 -0.00001309552 0.00067088740 0.00036019278 -0.00001643144 0.00068267072 0.00039718264 -0.00002055378 0.00069920616 0.00043735536 -0.00001235978 0.00073674095 -0.00024267167 -0.00001226849 0.00072489636 -0.00026318422 -0.00001277957 0.00070830960 -0.00027663491 -0.00001385063 0.00068756137 -0.00028429180 -0.00001543930 0.00066323239 -0.00028742290 -0.00001750319 0.00063590335 -0.00028729625 -0.00001999994 0.00060615498 -0.00028517988 -0.00002288715 0.00057456796 -0.00028234181 -0.00002612245 0.00054172301 -0.00028005007 -0.00002966347 0.00050820084 -0.00027957270 -0.00001428938 0.00073825370 -0.00021018842 -0.00001515880 0.00072329865 -0.00022081047 -0.00001634868 0.00070448937 -0.00022678930 -0.00001785303 0.00068238435 -0.00022895807 -0.00001966583 0.00065754207 -0.00022814997 -0.00002178110 0.00063052102 -0.00022519817 -0.00002419281 0.00060187969 -0.00022093583 -0.00002689498 0.00057217658 -0.00021619615 -0.00002988160 0.00054197016 -0.00021181229 -0.00003314666 0.00051181892 -0.00020861742 -0.00001601668 0.00073629249 -0.00017510205 -0.00001777262 0.00071907383 -0.00017771810 -0.00001959121 0.00069888714 -0.00017761040 -0.00002150306 0.00067617539 -0.00017532475 -0.00002353878 0.00065138153 -0.00017140695 -0.00002572898 0.00062494851 -0.00016640284 -0.00002810426 0.00059731930 -0.00016085821 -0.00003069524 0.00056893685 -0.00015531887 -0.00003353252 0.00054024411 -0.00015033065 -0.00003664671 0.00051168405 -0.00014643936 -0.00001752023 0.00073149175 -0.00013779132 -0.00002004795 0.00071287411 -0.00013384402 -0.00002241985 0.00069214689 -0.00012866457 -0.00002470316 0.00066958715 -0.00012261769 -0.00002696511 0.00064547199 -0.00011606810 -0.00002927295 0.00062007848 -0.00010938053 -0.00003169389 0.00059368370 -0.00010291969 -0.00003429519 0.00056656472 -0.00009705031 -0.00003714408 0.00053899863 -0.00009213712 -0.00004030779 0.00051126250 -0.00008854482 -0.00001877858 0.00072448593 -0.00009863497 -0.00002192279 0.00070535173 -0.00008912513 -0.00002474729 0.00068491258 -0.00007951818 -0.00002735574 0.00066327229 -0.00007006279 -0.00002985180 0.00064053468 -0.00006100767 -0.00003233912 0.00061680358 -0.00005260150 -0.00003492135 0.00059218279 -0.00004509298 -0.00003770214 0.00056677613 -0.00003873078 -0.00004078515 0.00054068743 -0.00003376361 -0.00004427403 0.00051402050 -0.00003044016 -0.00001977028 0.00071590948 -0.00005801176 -0.00002333511 0.00069715892 -0.00004349835 -0.00002648621 0.00067782820 -0.00002973758 -0.00002936324 0.00065788345 -0.00001688593 -0.00003210582 0.00063729082 -0.00000509991 -0.00003485361 0.00061601645 0.00000546398 -0.00003774624 0.00059402647 0.00001464925 -0.00004092335 0.00057128703 0.00002229939 -0.00004452459 0.00054776426 0.00002825791 -0.00004868960 0.00052342432 0.00003236832 -0.00002047386 0.00070639682 -0.00001630043 -0.00002422290 0.00068894790 0.00000309941 -0.00002754932 0.00067153772 0.00002111087 -0.00003062807 0.00065407329 0.00003768701 -0.00003363416 0.00063646163 0.00005278092 -0.00003674254 0.00061860974 0.00006634565 -0.00004012820 0.00060042465 0.00007833428 -0.00004396612 0.00058181335 0.00008869989 -0.00004843127 0.00056268287 0.00009739553 -0.00005369863 0.00054294021 0.00010437428 -0.00002086787 0.00069658240 0.00002612028 -0.00002452416 0.00068137090 0.00005073125 -0.00002784928 0.00066668513 0.00007346080 -0.00003105267 0.00065249447 0.00009443016 -0.00003434377 0.00063876834 0.00011376057 -0.00003793202 0.00062547612 0.00013157326 -0.00004202685 0.00061258722 0.00014798945 -0.00004683771 0.00060007104 0.00016313038 -0.00005257404 0.00058789698 0.00017711729 -0.00005944528 0.00057603443 0.00019007139 -0.00002093086 0.00068710067 0.00006887162 -0.00002417687 0.00067508016 0.00009946025 -0.00002729880 0.00066391440 0.00012774586 -0.00003053946 0.00065379964 0.00015411764 -0.00003414164 0.00064493216 0.00017896480 -0.00003834816 0.00063750823 0.00020267653 -0.00004340182 0.00063172410 0.00022564205 -0.00004954542 0.00062777605 0.00024825055 -0.00005702178 0.00062586034 0.00027089125 -0.00006607369 0.00062617324 0.00029395333 -0.00002064137 0.00067858606 0.00011157483 -0.00002311902 0.00067072790 0.00014934951 -0.00002581057 0.00066386951 0.00018439968 -0.00002899086 0.00065864146 0.00021752356 -0.00003293475 0.00065567433 0.00024951933 -0.00003791708 0.00065559871 0.00028118521 -0.00004421273 0.00065904517 0.00031331939 -0.00005209653 0.00066664430 0.00034672008 -0.00006184334 0.00067902668 0.00038218547 -0.00007372802 0.00069682288 0.00042051378 -0.00002152425 0.00072935672 -0.00023316867 -0.00002188867 0.00071737805 -0.00025019300 -0.00002312435 0.00070067375 -0.00026128404 -0.00002518986 0.00067985465 -0.00026754266 -0.00002804376 0.00065553160 -0.00027006976 -0.00003164462 0.00062831542 -0.00026996624 -0.00003595102 0.00059881695 -0.00026833297 -0.00004092153 0.00056764701 -0.00026627085 -0.00004651472 0.00053541645 -0.00026488076 -0.00005268916 0.00050273610 -0.00026526360 -0.00002449420 0.00072947017 -0.00020187068 -0.00002631416 0.00071429275 -0.00021019987 -0.00002857579 0.00069538358 -0.00021475101 -0.00003129727 0.00067330856 -0.00021622296 -0.00003449678 0.00064863354 -0.00021531463 -0.00003819251 0.00062192441 -0.00021272490 -0.00004240264 0.00059374704 -0.00020915264 -0.00004714534 0.00056466731 -0.00020529676 -0.00005243879 0.00053525110 -0.00020185614 -0.00005830118 0.00050606427 -0.00019952966 -0.00002729523 0.00072669915 -0.00016787673 -0.00003048425 0.00070925786 -0.00016925165 -0.00003372684 0.00068902625 -0.00016849144 -0.00003710408 0.00066645647 -0.00016603474 -0.00004069705 0.00064200063 -0.00016232018 -0.00004458682 0.00061611087 -0.00015778638 -0.00004885447 0.00058923932 -0.00015287200 -0.00005358108 0.00056183811 -0.00014801564 -0.00005884773 0.00053435937 -0.00014365595 -0.00006473549 0.00050725523 -0.00014023157 -0.00002985736 0.00072161382 -0.00013164925 -0.00003425705 0.00070283831 -0.00012739893 -0.00003838459 0.00068213562 -0.00012222489 -0.00004238512 0.00065981381 -0.00011640966 -0.00004640376 0.00063618095 -0.00011023576 -0.00005058565 0.00061154510 -0.00010398572 -0.00005507594 0.00058621430 -0.00009794207 -0.00006001974 0.00056049663 -0.00009238734 -0.00006556221 0.00053470014 -0.00008760406 -0.00007184847 0.00050913290 -0.00008387474 -0.00003211065 0.00071478437 -0.00009365066 -0.00003749068 0.00069559904 -0.00008469231 -0.00004235612 0.00067524554 -0.00007567089 -0.00004691520 0.00065389602 -0.00006677937 -0.00005137613 0.00063172258 -0.00005821072 -0.00005594715 0.00060889737 -0.00005015792 -0.00006083647 0.00058559249 -0.00004281393 -0.00006625232 0.00056198009 -0.00003637173 -0.00007240292 0.00053823229 -0.00003102429 -0.00007949650 0.00051452122 -0.00002696459 -0.00003398513 0.00070678097 -0.00005434338 -0.00004004323 0.00068810498 -0.00004118239 -0.00004544850 0.00066888990 -0.00002854899 -0.00005046915 0.00064921850 -0.00001657555 -0.00005537339 0.00062917359 -0.00000539442 -0.00006042943 0.00060883796 0.00000486201 -0.00006590550 0.00058829441 0.00001406138 -0.00007206980 0.00056762572 0.00002207133 -0.00007919055 0.00054691469 0.00002875948 -0.00008753596 0.00052624412 0.00003399347 -0.00003541085 0.00069817379 -0.00001418983 -0.00004177282 0.00068092108 0.00000308023 -0.00004746881 0.00066360254 0.00001942127 -0.00005282179 0.00064629670 0.00003477016 -0.00005815473 0.00062908206 0.00004906379 -0.00006379063 0.00061203717 0.00006223904 -0.00007005244 0.00059524055 0.00007423281 -0.00007726317 0.00057877072 0.00008498198 -0.00008574577 0.00056270621 0.00009442343 -0.00009582323 0.00054712554 0.00010249404 -0.00003631786 0.00068953302 0.00002634758 -0.00004253756 0.00067461228 0.00004804497 -0.00004822412 0.00065991735 0.00006852034 -0.00005374793 0.00064564602 0.00008782607 -0.00005947938 0.00063199607 0.00010601455 -0.00006578886 0.00061916528 0.00012313817 -0.00007304674 0.00060735144 0.00013924930 -0.00008162341 0.00059675232 0.00015440034 -0.00009188927 0.00058756571 0.00016864368 -0.00010421468 0.00057998940 0.00018203171 -0.00003663620 0.00068142882 0.00006680641 -0.00004219554 0.00066974350 0.00009366123 -0.00004752151 0.00065836818 0.00011902869 -0.00005302241 0.00064778190 0.00014316055 -0.00005910655 0.00063846369 0.00016630853 -0.00006618225 0.00063089257 0.00018872436 -0.00007465780 0.00062554758 0.00021065980 -0.00008494152 0.00062290774 0.00023236657 -0.00009744172 0.00062345209 0.00025409641 -0.00011256670 0.00062765965 0.00027610106 -0.00003629592 0.00067443138 0.00010672426 -0.00004060489 0.00066687968 0.00013987840 -0.00004516806 0.00065948890 0.00017122678 -0.00005042004 0.00065321976 0.00020134192 -0.00005679546 0.00064903299 0.00023079635 -0.00006472893 0.00064788932 0.00026016262 -0.00007465507 0.00065074948 0.00029001325 -0.00008700849 0.00065857420 0.00032092079 -0.00010222382 0.00067232420 0.00035345775 -0.00012073567 0.00069296021 0.00038819668 -0.00002999643 0.00071905297 -0.00022032929 -0.00003117018 0.00070689691 -0.00023227427 -0.00003327610 0.00069002985 -0.00023999164 -0.00003634208 0.00066910561 -0.00024433072 -0.00004039599 0.00064477803 -0.00024614080 -0.00004546571 0.00061770094 -0.00024627122 -0.00005157911 0.00058852816 -0.00024557128 -0.00005876408 0.00055791353 -0.00024489029 -0.00006704848 0.00052651088 -0.00024507759 -0.00007646021 0.00049497404 -0.00024698246 -0.00003397985 0.00071715081 -0.00019079915 -0.00003692188 0.00070166993 -0.00019587879 -0.00004028727 0.00068261629 -0.00019846249 -0.00004417640 0.00066057009 -0.00019905340 -0.00004868969 0.00063611153 -0.00019815463 -0.00005392752 0.00060982080 -0.00019626933 -0.00005999030 0.00058227810 -0.00019390063 -0.00006697842 0.00055406361 -0.00019155165 -0.00007499229 0.00052575755 -0.00018972552 -0.00008413231 0.00049794009 -0.00018892539 -0.00003785374 0.00071321784 -0.00015837734 -0.00004249895 0.00069546833 -0.00015807263 -0.00004711726 0.00067516615 -0.00015648571 -0.00005189442 0.00065278169 -0.00015390291 -0.00005701619 0.00062878532 -0.00015061057 -0.00006266832 0.00060364743 -0.00014689504 -0.00006903657 0.00057783838 -0.00014304265 -0.00007630669 0.00055182856 -0.00013933974 -0.00008466443 0.00052608834 -0.00013607265 -0.00009429555 0.00050108810 -0.00013352771 -0.00004147716 0.00070772887 -0.00012366113 -0.00004765438 0.00068873058 -0.00011909768 -0.00005343390 0.00066805254 -0.00011403976 -0.00005909275 0.00064605247 -0.00010865508 -0.00006490794 0.00062308807 -0.00010311131 -0.00007115651 0.00059951709 -0.00009757617 -0.00007811547 0.00057569722 -0.00009221734 -0.00008606186 0.00055198621 -0.00008720252 -0.00009527270 0.00052874176 -0.00008269941 -0.00010602501 0.00050632159 -0.00007887570 -0.00004470916 0.00070115870 -0.00008724780 -0.00005214116 0.00068189517 -0.00007919583 -0.00005890500 0.00066164857 -0.00007110316 -0.00006536797 0.00064069447 -0.00006308574 -0.00007189736 0.00061930844 -0.00005525954 -0.00007886046 0.00059776604 -0.00004774053 -0.00008662455 0.00057634284 -0.00004064468 -0.00009555694 0.00055531440 -0.00003408793 -0.00010602491 0.00053495629 -0.00002818627 -0.00011839574 0.00051554408 -0.00002305566 -0.00004740878 0.00069398215 -0.00004973463 -0.00005571228 0.00067540054 -0.00003860897 -0.00006319837 0.00065632732 -0.00002765436 -0.00007031669 0.00063701974 -0.00001697072 -0.00007751688 0.00061773506 -0.00000665795 -0.00008524855 0.00059873054 0.00000318404 -0.00009396135 0.00058026343 0.00001245535 -0.00010410491 0.00056259098 0.00002105607 -0.00011612886 0.00054597045 0.00002888631 -0.00013048283 0.00053065910 0.00003584614 -0.00004943509 0.00068667402 -0.00001171890 -0.00005812074 0.00066968517 0.00000242103 -0.00006598184 0.00065246190 0.00001632813 -0.00007353553 0.00063534034 0.00002991414 -0.00008129893 0.00061865662 0.00004309076 -0.00008978918 0.00060274687 0.00005576973 -0.00009952341 0.00058794722 0.00006786275 -0.00011101876 0.00057459379 0.00007928156 -0.00012479236 0.00056302273 0.00008993787 -0.00014136133 0.00055357015 0.00009974340 -0.00005064713 0.00067970913 0.00002620212 -0.00005911953 0.00066518753 0.00004365226 -0.00006692322 0.00065042542 0.00006086584 -0.00007462106 0.00063596831 0.00007779301 -0.00008277594 0.00062236176 0.00009438391 -0.00009195072 0.00061015128 0.00011058870 -0.00010270828 0.00059988241 0.00012635754 -0.00011561148 0.00059210068 0.00014164057 -0.00013122321 0.00058735162 0.00015638796 -0.00015010633 0.00058618078 0.00017054984 -0.00005090394 0.00067356229 0.00006343115 -0.00005846164 0.00066234609 0.00008484286 -0.00006569032 0.00065059096 0.00010598029 -0.00007316991 0.00063921571 0.00012689006 -0.00008148035 0.00062913913 0.00014761880 -0.00009120156 0.00062128003 0.00016821315 -0.00010291349 0.00061655722 0.00018871973 -0.00011719607 0.00061588948 0.00020918518 -0.00013462922 0.00062019564 0.00022965611 -0.00015579289 0.00063039448 0.00025017917 -0.00005006458 0.00066870829 0.00009937090 -0.00005590007 0.00066159931 0.00012575092 -0.00006195097 0.00065333165 0.00015169298 -0.00006877867 0.00064539458 0.00017742945 -0.00007694458 0.00063927741 0.00020319275 -0.00008701009 0.00063646940 0.00022921524 -0.00009953660 0.00063845985 0.00025572934 -0.00011508550 0.00064673804 0.00028296742 -0.00013421820 0.00066279326 0.00031116188 -0.00015749609 0.00068811479 0.00034054511 -0.00003753342 0.00070589016 -0.00020428867 -0.00004001031 0.00069351593 -0.00020958400 -0.00004318811 0.00067644253 -0.00021293843 -0.00004726220 0.00065537935 -0.00021486396 -0.00005242798 0.00063103576 -0.00021587259 -0.00005888081 0.00060412114 -0.00021647633 -0.00006681609 0.00057534485 -0.00021718717 -0.00007642920 0.00054541626 -0.00021851712 -0.00008791552 0.00051504476 -0.00022097818 -0.00010147045 0.00048493972 -0.00022508236 -0.00004250638 0.00070136820 -0.00017710218 -0.00004681476 0.00068550241 -0.00017800219 -0.00005133241 0.00066625624 -0.00017810374 -0.00005632500 0.00064423206 -0.00017765351 -0.00006205822 0.00062003224 -0.00017689818 -0.00006879774 0.00059425914 -0.00017608441 -0.00007680923 0.00056751514 -0.00017545889 -0.00008635837 0.00054040260 -0.00017526829 -0.00009771084 0.00051352390 -0.00017575929 -0.00011113232 0.00048748140 -0.00017717855 -0.00004746013 0.00069593048 -0.00014672292 -0.00005360085 0.00067778187 -0.00014432323 -0.00005953415 0.00065737618 -0.00014175488 -0.00006562755 0.00063521177 -0.00013910838 -0.00007224854 0.00061178696 -0.00013647424 -0.00007976462 0.00058760011 -0.00013394294 -0.00008854329 0.00056314956 -0.00013160501 -0.00009895205 0.00053893364 -0.00012955093 -0.00011135840 0.00051545070 -0.00012787120 -0.00012612984 0.00049319908 -0.00012665635 -0.00005215186 0.00068992484 -0.00011393403 -0.00005998216 0.00067062793 -0.00010906042 -0.00006727632 0.00064996458 -0.00010423934 -0.00007451948 0.00062836042 -0.00009949248 -0.00008219678 0.00060624111 -0.00009484153 -0.00009079335 0.00058403227 -0.00009030820 -0.00010079433 0.00056215955 -0.00008591418 -0.00011268486 0.00054104860 -0.00008168117 -0.00012695007 0.00052112505 -0.00007763087 -0.00014407512 0.00050281455 -0.00007378497 -0.00005633875 0.00068369914 -0.00007951866 -0.00006557229 0.00066431428 -0.00007272708 -0.00007404189 0.00064418369 -0.00006590460 -0.00008235041 0.00062371999 -0.00005906970 -0.00009110075 0.00060333583 -0.00005224083 -0.00010089578 0.00058344381 -0.00004543648 -0.00011233837 0.00056445655 -0.00003867511 -0.00012603140 0.00054678670 -0.00003197520 -0.00014257775 0.00053084686 -0.00002535521 -0.00016258029 0.00051704966 -0.00001883362 -0.00005977800 0.00067760123 -0.00004425998 -0.00006998482 0.00065911454 -0.00003583652 -0.00007931381 0.00064019573 -0.00002709816 -0.00008846997 0.00062133243 -0.00001810394 -0.00009815830 0.00060301228 -0.00000891289 -0.00010908380 0.00058572293 0.00000041594 -0.00012195146 0.00056995200 0.00000982353 -0.00013746629 0.00055618715 0.00001925084 -0.00015633329 0.00054491600 0.00002863883 -0.00017925747 0.00053662621 0.00003792847 -0.00006222679 0.00067197894 -0.00000894111 -0.00007283334 0.00065530239 0.00000109798 -0.00008257508 0.00063816296 0.00001183251 -0.00009222778 0.00062123970 0.00002314090 -0.00010256725 0.00060521164 0.00003490152 -0.00011436927 0.00059075784 0.00004699278 -0.00012840964 0.00057855733 0.00005929307 -0.00014546415 0.00056928917 0.00007168079 -0.00016630860 0.00056363239 0.00008403434 -0.00019171877 0.00056226603 0.00009623210 -0.00006344230 0.00066718014 0.00002565477 -0.00007373144 0.00065315148 0.00003756309 -0.00008330865 0.00063824762 0.00005053993 -0.00009297346 0.00062348375 0.00006440091 -0.00010352543 0.00060987506 0.00007896164 -0.00011576408 0.00059843674 0.00009403774 -0.00013048895 0.00059018398 0.00010944482 -0.00014849959 0.00058613197 0.00012499849 -0.00017059553 0.00058729590 0.00014051437 -0.00019757632 0.00059469094 0.00015580806 -0.00006318174 0.00066355267 0.00005874453 -0.00007229271 0.00065293545 0.00007304551 -0.00008099750 0.00064061193 0.00008867660 -0.00009005664 0.00062810654 0.00010541220 -0.00010023067 0.00061694370 0.00012302671 -0.00011228009 0.00060864785 0.00014129454 -0.00012696543 0.00060474340 0.00015999010 -0.00014504722 0.00060675478 0.00017888778 -0.00016728599 0.00061620643 0.00019776199 -0.00019444224 0.00063462276 0.00021638713 -0.00006120229 0.00066144438 0.00008954500 -0.00006813072 0.00065492796 0.00010703194 -0.00007512460 0.00064541814 0.00012589504 -0.00008282695 0.00063515003 0.00014591086 -0.00009188080 0.00062635873 0.00016685597 -0.00010292918 0.00062127935 0.00018850690 -0.00011661512 0.00062214701 0.00021064022 -0.00013358166 0.00063119681 0.00023303249 -0.00015447183 0.00065066388 0.00025546027 -0.00017992865 0.00068278330 0.00027770009 </DataArray>
</PointData>
<Points>
<DataArray type="Float32" NumberOfComponents="3">
-0.16662343915 0.55890335066 -2.23002605826 -0.18032081883 0.56126647164 -2.23440775705 -0.19401155365 0.56276395215 -2.24062233204 -0.20825048723 0.56368663693 -2.24838204932 -0.22359246322 0.56432537072 -2.25739917498 -0.24059232526 0.56497099828 -2.26738597512 -0.25980491700 0.56591436433 -2.27805471583 -0.28178508208 0.56744631363 -2.28911766321 -0.30708766413 0.56985769091 -2.30028708336 -0.33626750681 0.57343934091 -2.31127524236 -0.17896387521 0.54797867910 -2.23017816821 -0.19966137352 0.54859594978 -2.23525728156 -0.21814116833 0.54882227063 -2.24184914667 -0.23532580408 0.54878629776 -2.24967200938 -0.25213782520 0.54861668729 -2.25844411552 -0.26949977610 0.54844209534 -2.26788371094 -0.28833420121 0.54839117801 -2.27770904148 -0.30956364497 0.54859259143 -2.28763835296 -0.33411065180 0.54917499170 -2.29738989124 -0.36289776612 0.55026703495 -2.30668190215 -0.18821781428 0.53489494770 -2.23119008870 -0.21416040152 0.53401593782 -2.23670840398 -0.23622524414 0.53298683730 -2.24347943402 -0.25562164590 0.53184005226 -2.25123163575 -0.27355891051 0.53060798877 -2.25969346611 -0.29124634174 0.52932305296 -2.26859338202 -0.30989324332 0.52801765092 -2.27765984042 -0.33070891899 0.52672418874 -2.28662129824 -0.35490267250 0.52547507254 -2.29520621242 -0.38368380758 0.52430270841 -2.30314303989 -0.19438552257 0.52018279789 -2.23293732385 -0.22381168658 0.51800905304 -2.23867478088 -0.24823603546 0.51575034478 -2.24545764386 -0.26907098858 0.51339409975 -2.25302793288 -0.28772896532 0.51092774462 -2.26112766807 -0.30562238505 0.50833870605 -2.26949886953 -0.32416366713 0.50561441070 -2.27788355737 -0.34476523096 0.50274228523 -2.28602375171 -0.36883949588 0.49970975630 -2.29366147266 -0.39779888128 0.49650425058 -2.30053874033 -0.19746726633 0.50437287111 -2.23529537777 -0.22860901244 0.50105791275 -2.24107006882 -0.25414579665 0.49760548566 -2.24772822592 -0.27560680805 0.49399463958 -2.25502790519 -0.29452123576 0.49020442428 -2.26272716274 -0.31241826887 0.48621388950 -2.27058405466 -0.33082709647 0.48200208501 -2.27835663706 -0.35127690768 0.47754806056 -2.28580296605 -0.37529689160 0.47283086589 -2.29268109773 -0.40441623731 0.46782955078 -2.29874908821 -0.19746331179 0.48799580880 -2.23813975459 -0.22854616284 0.48364513424 -2.24380792434 -0.25392678209 0.47904495255 -2.25023562997 -0.27516208023 0.47418787109 -2.25719855713 -0.29380896798 0.46906649720 -2.26447239146 -0.31142435605 0.46367343822 -2.27183281860 -0.32956515515 0.45800130149 -2.27905552421 -0.34978827600 0.45204269437 -2.28591619393 -0.37365062930 0.44579022420 -2.29219051340 -0.40270912577 0.43923649833 -2.29765416827 -0.19437392516 0.47158225238 -2.24134595841 -0.22361692153 0.46625333479 -2.24680200401 -0.24755124616 0.46056143807 -2.25292430575 -0.26766978103 0.45451999362 -2.25950689311 -0.28546540813 0.44814243282 -2.26634379556 -0.30243100945 0.44144218708 -2.27322904254 -0.32005946699 0.43443268779 -2.27995666355 -0.33984366272 0.42712736633 -2.28632068802 -0.36327647865 0.41953965412 -2.29211514544 -0.39185079675 0.41168298252 -2.29713406526 -0.18819937270 0.45566284331 -2.24478949337 -0.21381507225 0.44936513171 -2.24996596438 -0.23499144323 0.44264763482 -2.25573870302 -0.25306288636 0.43553720650 -2.26191991759 -0.26936380235 0.42806070061 -2.26832181637 -0.28522859192 0.42024497100 -2.27475660767 -0.30199165580 0.41211687155 -2.28103649978 -0.32098739468 0.40370325610 -2.28697370099 -0.34355020929 0.39503097853 -2.29238041961 -0.37101450034 0.38612689269 -2.29706886392 -0.17893992063 0.44076822299 -2.24834586357 -0.19913439873 0.43346314228 -2.25321346202 -0.21621962767 0.42579623541 -2.25862327154 -0.23127437214 0.41778570907 -2.26440463499 -0.24537739679 0.40944976999 -2.27038689524 -0.25960746632 0.40080662487 -2.27639939516 -0.27504334539 0.39187448041 -2.28227147763 -0.29276379868 0.38267154333 -2.28783248551 -0.31384759088 0.37321602033 -2.29291176168 -0.33937348664 0.36352611813 -2.29733864900 -0.16659583517 0.42742903289 -2.25189057313 -0.17956868472 0.41902998381 -2.25645815348 -0.19120805387 0.41049993244 -2.26152246105 -0.20223721428 0.40181170068 -2.26692804974 -0.21337943760 0.39293811043 -2.27251947349 -0.22535799548 0.38385198358 -2.27814128622 -0.23889615958 0.37452614203 -2.28363804183 -0.25471720156 0.36493340768 -2.28885429426 -0.27354439306 0.35504660242 -2.29363459742 -0.29610100575 0.34483854815 -2.29782350523 -0.13599590544 0.56492630876 -2.22731378171 -0.14613637505 0.56971175083 -2.23183459645 -0.15717699679 0.57280272792 -2.23826440797 -0.16924818095 0.57457205495 -2.24629742170 -0.18248033785 0.57539254684 -2.25562784306 -0.19700387781 0.57563701852 -2.26594987747 -0.21294921112 0.57567828491 -2.27695773036 -0.23044674811 0.57588916094 -2.28834560715 -0.24962689908 0.57664246153 -2.29980771325 -0.27062007434 0.57831100162 -2.31103825410 -0.14464581616 0.55323911546 -2.22662160344 -0.16009716721 0.55546587128 -2.23213059597 -0.17450522432 0.55662180078 -2.23915464608 -0.18835066389 0.55693510738 -2.24742472905 -0.20211416229 0.55663399447 -2.25667182016 -0.21627639591 0.55594666545 -2.26662689468 -0.23131804113 0.55510132375 -2.27702092789 -0.24771977434 0.55432617275 -2.28758489506 -0.26596227193 0.55384941586 -2.29804977147 -0.28652621028 0.55389925650 -2.30814653241 -0.15113215618 0.53952274178 -2.22708873016 -0.17056045904 0.53950184761 -2.23327271905 -0.18748269617 0.53883785000 -2.24065010686 -0.20265186201 0.53766399387 -2.24898565054 -0.21682095104 0.53611352416 -2.25804410704 -0.23074295771 0.53431968582 -2.26759023329 -0.24517087648 0.53241572377 -2.27738878625 -0.26085770183 0.53053488295 -2.28720452287 -0.27855642821 0.52881040830 -2.29680220009 -0.29902005008 0.52737554476 -2.30594657487 -0.15545510229 0.52421941806 -2.22857692404 -0.17751936079 0.52220729181 -2.23516206681 -0.19608106082 0.51982902210 -2.24268221940 -0.21208750831 0.51716053731 -2.25093257979 -0.22648600920 0.51427776584 -2.25970834596 -0.24022386941 0.51125663608 -2.26880471588 -0.25424839487 0.50817307641 -2.27801688754 -0.26950689151 0.50510301521 -2.28714005891 -0.28694666526 0.50212238088 -2.29596942796 -0.30751502205 0.49930710181 -2.30430019269 -0.15761483131 0.50777137463 -2.23094794728 -0.18096698265 0.50396981583 -2.23769974037 -0.20027196675 0.49997346361 -2.24518241278 -0.21659333576 0.49582656060 -2.25321791043 -0.23099464185 0.49157334942 -2.26162817921 -0.24453943720 0.48725807271 -2.27023516504 -0.25829127397 0.48292497309 -2.27886081383 -0.27331370433 0.47861829318 -2.28732707149 -0.29067028046 0.47438227563 -2.29545588393 -0.31142455451 0.47026116305 -2.30306919706 -0.15761152003 0.49062084183 -2.23406356202 -0.18089643487 0.48517703165 -2.24078684083 -0.20002706245 0.47964932107 -2.24808211609 -0.21610507733 0.47406388662 -2.25579403606 -0.23023215409 0.46844690481 -2.26376724904 -0.24350996728 0.46282455217 -2.27184640333 -0.25704019148 0.45722300524 -2.27987614720 -0.27192450125 0.45166844053 -2.28770112894 -0.28926457117 0.44618703456 -2.29516599685 -0.31016207579 0.44080496388 -2.30211539920 -0.15544534525 0.47321004997 -2.23778553045 -0.17730082766 0.46621655123 -2.24432446932 -0.19531799641 0.45923474101 -2.25131275839 -0.21055846602 0.45227433825 -2.25861335032 -0.22408385099 0.44534506192 -2.26608919775 -0.23695576584 0.43845663094 -2.27360325333 -0.25023582508 0.43161876429 -2.28101846973 -0.26498564321 0.42484118090 -2.28819779959 -0.28226683475 0.41813359972 -2.29500419556 -0.30314101421 0.41150573970 -2.30130061031 -0.15111648378 0.45598122941 -2.24197561473 -0.17017327124 0.44747598654 -2.24821372694 -0.18611641712 0.43910786995 -2.25480576879 -0.19988923480 0.43085973840 -2.26162824682 -0.21243503766 0.42271445066 -2.26855766759 -0.22469713908 0.41465486549 -2.27547053763 -0.23761885246 0.40666384167 -2.28224336350 -0.25214349116 0.39872423795 -2.28875265176 -0.26921436858 0.39081891311 -2.29487490893 -0.28977479810 0.38293072591 -2.30048664158 -0.14462511240 0.43937661046 -2.24649557704 -0.15950687584 0.42934294954 -2.25235571481 -0.17239397307 0.41964685442 -2.25849257635 -0.18403311665 0.41022190994 -2.26479111919 -0.19517101917 0.40100170094 -2.27113630083 -0.20655439320 0.39191981228 -2.27741307880 -0.21892995130 0.38290982880 -2.28350641060 -0.23304440605 0.37390533535 -2.28930125377 -0.24964447002 0.36483991678 -2.29468256580 -0.26947685578 0.35564715793 -2.29953530422 -0.13597140794 0.42383842346 -2.25120717955 -0.14529475168 0.41220505221 -2.25665153404 -0.15412231273 0.40122984096 -2.26230461017 -0.16292584456 0.39076267576 -2.26805436105 -0.17217710062 0.38065344268 -2.27378873976 -0.18234783438 0.37075202778 -2.27939569941 -0.19390979929 0.36090831712 -2.28476319311 -0.20733474882 0.35097219675 -2.28977917394 -0.22309443643 0.34079355274 -2.29433159502 -0.24166061556 0.33022227114 -2.29830840944 -0.10056811645 0.56944309569 -2.22527876539 -0.10753639121 0.57604526483 -2.22990382497 -0.11563262290 0.58033135634 -2.23649496243 -0.12478864469 0.58273566411 -2.24473283910 -0.13493628974 0.58369248205 -2.25429811631 -0.14600739123 0.58363610406 -2.26487145538 -0.15793378233 0.58300082404 -2.27613351765 -0.17064729621 0.58222093589 -2.28776496443 -0.18407976604 0.58173073352 -2.29944645705 -0.19816302500 0.58196451082 -2.31085865685 -0.10623871924 0.55718396032 -2.22395338105 -0.11692888800 0.56061781521 -2.22978466813 -0.12723898213 0.56247095113 -2.23713275119 -0.13738545701 0.56304622964 -2.24573814916 -0.14758476796 0.56264651231 -2.25534138098 -0.15805337035 0.56157466068 -2.26568296561 -0.16900771952 0.56013353632 -2.27650342198 -0.18066427083 0.55862600080 -2.28754326903 -0.19323947961 0.55735491567 -2.29854302571 -0.20694980123 0.55662314249 -2.30924321097 -0.11049085904 0.54299307156 -2.22401195266 -0.12396676742 0.54361575528 -2.23069508838 -0.13592582131 0.54322559190 -2.23852715387 -0.14680538926 0.54203145275 -2.24730012570 -0.15704283978 0.54024220917 -2.25680598038 -0.16707554142 0.53806673250 -2.26683669448 -0.17734086268 0.53571389408 -2.27718424452 -0.18827617212 0.53339256525 -2.28764060706 -0.20031883824 0.53131161733 -2.29799775862 -0.21390622959 0.52967992167 -2.30804767576 -0.11332465098 0.52724635126 -2.22530593139 -0.12864401322 0.52535544015 -2.23252675795 -0.14166926860 0.52288751299 -2.24059981626 -0.15299604245 0.51998487317 -2.24936018235 -0.16321996010 0.51678982411 -2.25864293227 -0.17293664690 0.51344466920 -2.26828314207 -0.18274172818 0.51009171186 -2.27811588780 -0.19323082926 0.50687325547 -2.28797624549 -0.20499957549 0.50393160346 -2.29769929120 -0.21864359220 0.50140905921 -2.30712010096 -0.11474021018 0.51031972128 -2.22768676839 -0.13095460915 0.50615322494 -2.23517134911 -0.14444545216 0.50174894876 -2.24327238411 -0.15590501758 0.49720003067 -2.25185973275 -0.16602558383 0.49259960859 -2.26080325441 -0.17549942929 0.48804082046 -2.26997280848 -0.18501883237 0.48361680419 -2.27923825432 -0.19527607144 0.47942069773 -2.28846945132 -0.20696342493 0.47554563900 -2.29753625885 -0.22077317120 0.47208476593 -2.30630853629 -0.11473765177 0.49258910348 -2.23100591483 -0.13089253896 0.48632546476 -2.23852053412 -0.14423050015 0.48010213357 -2.24646650320 -0.15547991567 0.47397046498 -2.25474019052 -0.16536916587 0.46798181407 -2.26323796456 -0.17462663107 0.46218753593 -2.27185619377 -0.18398069162 0.45663898564 -2.28049124661 -0.19415972785 0.45138751828 -2.28903949153 -0.20589212010 0.44648448893 -2.29739729700 -0.21990624871 0.44198125268 -2.30546103148 -0.11331709090 0.47443041971 -2.23511482188 -0.12845178640 0.46618851473 -2.24246598522 -0.14100054074 0.45823930177 -2.25010381929 -0.15166833772 0.45058971585 -2.25794296931 -0.16116016111 0.44324669202 -2.26589808048 -0.17018099471 0.43621716531 -2.27388379803 -0.17943582230 0.42950807074 -2.28181476717 -0.18962962766 0.42312634336 -2.28960563311 -0.20146739458 0.41707891820 -2.29717104107 -0.21565410684 0.41137273029 -2.30442563626 -0.11047864268 0.45621959184 -2.23986494070 -0.12362633520 0.44605872996 -2.24689937468 -0.13473170209 0.43645268771 -2.25410597818 -0.14441788473 0.42735132304 -2.26140948274 -0.15330802448 0.41870449390 -2.26873461994 -0.16202526271 0.41046205825 -2.27600612134 -0.17119274077 0.40257387404 -2.28314871852 -0.18143360006 0.39498979923 -2.29008714303 -0.19337098192 0.38765969176 -2.29674612646 -0.20762802772 0.38053340958 -2.30305040035 -0.10622242225 0.43833254173 -2.24510772245 -0.11641016912 0.42625246556 -2.25171237476 -0.12540011237 0.41503452574 -2.25839462561 -0.13367615772 0.40454882628 -2.26508114444 -0.14172221087 0.39466547117 -2.27169860068 -0.15002217753 0.38525456444 -2.27817366378 -0.15905996341 0.37618621009 -2.28443300317 -0.16931947423 0.36733051213 -2.29040328830 -0.18128461568 0.35855757457 -2.29601118859 -0.19543929347 0.34973750141 -2.30118337349 -0.10054854474 0.42114519123 -2.25069461829 -0.10679727190 0.40708607665 -2.25679665770 -0.11298189973 0.39427705022 -2.26289140736 -0.11939075768 0.38247576532 -2.26889936804 -0.12631217518 0.37143987530 -2.27474104048 -0.13403448167 0.36092703355 -2.28033692543 -0.14284600658 0.35069489344 -2.28560752365 -0.15303507935 0.34050110833 -2.29047333588 -0.16489002942 0.33010333159 -2.29485486288 -0.17869918622 0.31925921659 -2.29867260540 -0.06171154941 0.57245377191 -2.22392114442 -0.06578242678 0.58026707661 -2.22861559859 -0.07072407221 0.58534990204 -2.23531417613 -0.07643106578 0.58817752953 -2.24368850953 -0.08279798760 0.58922524045 -2.25341023132 -0.08971941777 0.58896831614 -2.26415097399 -0.09708993638 0.58788203795 -2.27558237006 -0.10480412353 0.58644168724 -2.28737605202 -0.11275655932 0.58512254533 -2.29920365239 -0.12084182385 0.58439989360 -2.31073680368 -0.06491084690 0.55981328627 -2.22217362941 -0.07118623397 0.56405185381 -2.22821965304 -0.07737963016 0.56636979044 -2.23578364198 -0.08357015920 0.56711972767 -2.24461247383 -0.08983694484 0.56665429701 -2.25445302619 -0.09625911082 0.56532612996 -2.26505217667 -0.10291578089 0.56348785802 -2.27615680286 -0.10988607878 0.56149211270 -2.28751378237 -0.11724912823 0.55969152551 -2.29886999280 -0.12508405300 0.55843872796 -2.30997231175 -0.06730977980 0.54530601894 -2.22195987528 -0.07523463862 0.54635773743 -2.22897565416 -0.08235866314 0.54615013234 -2.23711073675 -0.08890408321 0.54494248959 -2.24617524035 -0.09509312870 0.54299409515 -2.25597928224 -0.10114802947 0.54056423495 -2.26633297971 -0.10729101536 0.53791219494 -2.27704645005 -0.11374431623 0.53529726107 -2.28792981055 -0.12073016195 0.53297871929 -2.29879317848 -0.12847078237 0.53121585554 -2.30944667114 -0.06890842096 0.52926368542 -2.22312445297 -0.07792360229 0.52745357505 -2.23076897445 -0.08564541045 0.52492588436 -2.23921056456 -0.09239881319 0.52186716464 -2.24831087907 -0.09850877824 0.51846396717 -2.25793157376 -0.10430027337 0.51490284324 -2.26793430443 -0.11009826631 0.51137034415 -2.27818072684 -0.11622772481 0.50805302118 -2.28853249679 -0.12301361663 0.50513742561 -2.29885127006 -0.13078090951 0.50281010875 -2.30899870242 -0.06970684321 0.51201800125 -2.22551193340 -0.07924908655 0.50760821423 -2.23348498644 -0.08722411140 0.50293200315 -2.24199822953 -0.09402032447 0.49811510214 -2.25095345996 -0.10002613250 0.49328324537 -2.26025247505 -0.10562994219 0.48856216696 -2.26979707211 -0.11122016026 0.48407760108 -2.27948904844 -0.11718519344 0.47995528186 -2.28923020135 -0.12391344842 0.47632094345 -2.29892232816 -0.13179333194 0.47330032000 -2.30846722617 -0.06970511942 0.49390068194 -2.22896688749 -0.07920705295 0.48709050253 -2.23700906263 -0.08707900527 0.48040344533 -2.24538883577 -0.09373459244 0.47390765145 -2.25403705300 -0.09958743053 0.46767126204 -2.26288456040 -0.10505113561 0.46176241824 -2.27186220405 -0.11053932375 0.45624926116 -2.28090083005 -0.11646561102 0.45119993196 -2.28993128448 -0.12324361348 0.44668257176 -2.29888441342 -0.13128694721 0.44276532170 -2.30769106296 -0.06890332242 0.47524344302 -2.23333388619 -0.07779346307 0.46616928753 -2.24122657553 -0.08519433137 0.45757516753 -2.24929748741 -0.09150759244 0.44946616189 -2.25749572815 -0.09713491138 0.44184734949 -2.26577040409 -0.10247795329 0.43472380918 -2.27407062156 -0.10793838329 0.42810061984 -2.28234548689 -0.11391786648 0.42198286032 -2.29054410642 -0.12081806796 0.41637560951 -2.29861558646 -0.12904065284 0.41128394626 -2.30650903337 -0.06730152507 0.45637800001 -2.23845750041 -0.07500427845 0.44511341678 -2.24602289765 -0.08155432900 0.43468212639 -2.25363928856 -0.08730529983 0.42501198281 -2.26126355539 -0.09261081409 0.41603084000 -2.26885258043 -0.09782449490 0.40766655192 -2.27636324593 -0.10329996541 0.39984697253 -2.28375243417 -0.10939084873 0.39249995579 -2.29097702741 -0.11645076801 0.38555335565 -2.29799390792 -0.12483334638 0.37893502608 -2.30475995797 -0.06489980020 0.43763606843 -2.24418230108 -0.07083546067 0.42419173785 -2.25128340150 -0.07614323745 0.41195927855 -2.25832934334 -0.08109368998 0.40076646355 -2.26527460470 -0.08595737772 0.39044106589 -2.27207366370 -0.09100486012 0.38081085859 -2.27868099846 -0.09650669663 0.37170361468 -2.28505108709 -0.10273344670 0.36294710719 -2.29113840771 -0.10995566979 0.35436910914 -2.29689743842 -0.11844392535 0.34579739358 -2.30228265735 -0.06169822066 0.41934936380 -2.25035285912 -0.06528297128 0.40367309831 -2.25689345959 -0.06894529602 0.38964158062 -2.26328275586 -0.07283873824 0.37695095344 -2.26946294604 -0.07711684131 0.36529735943 -2.27537622821 -0.08193314859 0.35437694129 -2.28096480045 -0.08744120347 0.34388584171 -2.28617086087 -0.09379454930 0.33352020337 -2.29093660756 -0.10114672945 0.32297616895 -2.29520423860 -0.10965128729 0.31194988116 -2.29891595209 -0.02079768156 0.57395839789 -2.22324105395 -0.02213604123 0.58237724915 -2.22797007329 -0.02379698491 0.58785842964 -2.23472222975 -0.02573463158 0.59089771632 -2.24316464099 -0.02790310018 0.59199088613 -2.25296442466 -0.03025650968 0.59163371601 -2.26378869842 -0.03274897904 0.59032198289 -2.27530457995 -0.03533462723 0.58855146373 -2.28717918689 -0.03796757319 0.58681793546 -2.29907963690 -0.04060193590 0.58561717503 -2.31067304766 -0.02183046155 0.56112716590 -2.22128247686 -0.02389890322 0.56576805930 -2.22743570565 -0.02596435678 0.56831838747 -2.23510749842 -0.02804474622 0.56915566457 -2.24404790719 -0.03015799554 0.56865740477 -2.25400698397 -0.03232202871 0.56720112222 -2.26473478079 -0.03455476972 0.56516433110 -2.27598134965 -0.03687414255 0.56292454557 -2.28749674258 -0.03929807119 0.56085927979 -2.29903101159 -0.04184447962 0.55934604793 -2.31033420869 -0.02260477536 0.54646166583 -2.22093261707 -0.02521938464 0.54772787071 -2.22811455858 -0.02758526522 0.54761154066 -2.23640101718 -0.02976979947 0.54639716511 -2.24561117364 -0.03184036976 0.54436923344 -2.25556420870 -0.03386435845 0.54181223508 -2.26607930313 -0.03590914793 0.53901065942 -2.27697563767 -0.03804212055 0.53624899588 -2.28807239309 -0.04033065868 0.53381173385 -2.29918875015 -0.04284214469 0.53198336274 -2.31014388959 -0.02312066456 0.53027150851 -2.22203259588 -0.02609608641 0.52850177351 -2.22988883648 -0.02865423802 0.52594420313 -2.23851459446 -0.03089804271 0.52280746901 -2.24778480848 -0.03293042380 0.51930024276 -2.25757441720 -0.03485430463 0.51563119601 -2.26775835927 -0.03677260850 0.51200900038 -2.27821157336 -0.03878825876 0.50864232748 -2.28880899813 -0.04100417872 0.50573984894 -2.29942557224 -0.04352329170 0.50351023639 -2.30993623434 -0.02337817071 0.51286630477 -2.22442353458 -0.02652760945 0.50833485786 -2.23264074376 -0.02916580298 0.50352268881 -2.24136003869 -0.03141772736 0.49857182738 -2.25049917987 -0.03340835865 0.49362430334 -2.25997592782 -0.03526267294 0.48882214645 -2.26970804305 -0.03710564627 0.48430738649 -2.27961328606 -0.03906225473 0.48022205321 -2.28960941738 -0.04125747437 0.47670817640 -2.29961419752 -0.04381628127 0.47390778580 -2.30954538697 -0.02337733539 0.49455566543 -2.22794655447 -0.02651255468 0.48747221392 -2.23625248482 -0.02911448789 0.48055331161 -2.24484915829 -0.03131710482 0.47387549129 -2.25368465596 -0.03325437528 0.46751528577 -2.26270705893 -0.03506026910 0.46154922783 -2.27186444830 -0.03686875606 0.45605385028 -2.28110490514 -0.03881380599 0.45110568591 -2.29037651056 -0.04102938869 0.44678126751 -2.29962734564 -0.04364947398 0.44315712788 -2.30880549148 -0.02311820017 0.47564920134 -2.23244277684 -0.02604952301 0.46615893184 -2.24060626405 -0.02849482053 0.45724238546 -2.24889376168 -0.03058442649 0.44890371184 -2.25727160490 -0.03244867466 0.44114706066 -2.26570612889 -0.03421789881 0.43397658158 -2.27416366885 -0.03602243270 0.42739642427 -2.28261055994 -0.03799261009 0.42141073838 -2.29101313735 -0.04025876475 0.41602367360 -2.29933773627 -0.04295123044 0.41123937958 -2.30755069188 -0.02260080661 0.45645652330 -2.23775332299 -0.02513711535 0.44464010179 -2.24558428587 -0.02730132869 0.43379622428 -2.25340565730 -0.02920794378 0.42384174012 -2.26119039484 -0.03097145777 0.41469349863 -2.26891145607 -0.03270636780 0.40626834914 -2.27654179853 -0.03452717102 0.39848314098 -2.28405437981 -0.03654836457 0.39125472348 -2.29142215747 -0.03888444560 0.38449994598 -2.29861808907 -0.04164991126 0.37813565779 -2.30561513217 -0.02182519629 0.43728724216 -2.24371931422 -0.02377393262 0.42316081390 -2.25106875467 -0.02552854017 0.41042114200 -2.25829665357 -0.02717590809 0.39887482721 -2.26537139394 -0.02880292557 0.38832847027 -2.27226135881 -0.03049648177 0.37858867193 -2.27893493119 -0.03234346584 0.36946203293 -2.28536049411 -0.03443076697 0.36075515402 -2.29150643060 -0.03684527431 0.35227463595 -2.29734112368 -0.03967387703 0.34382707946 -2.30283295637 -0.02079141079 0.41845096874 -2.25018187181 -0.02195857574 0.40196615835 -2.25694187486 -0.02317098275 0.38732345255 -2.26347855892 -0.02447657083 0.37418822421 -2.26974497035 -0.02592327904 0.36222584620 -2.27569415548 -0.02755904642 0.35110169139 -2.28127916065 -0.02943181200 0.34048113265 -2.28645303219 -0.03158951482 0.33002954284 -2.29116881645 -0.03408009393 0.31941229484 -2.29537955977 -0.03695148836 0.30829476150 -2.29903830847 0.02080200986 0.57395703408 -2.22323862910 0.02214120598 0.58237584540 -2.22796740505 0.02380299877 0.58785700379 -2.23471930401 0.02574147058 0.59089628959 -2.24316144146 0.02791070380 0.59198948318 -2.25296093290 0.03026478078 0.59163236489 -2.26378489381 0.03275778391 0.59032071509 -2.27530043968 0.03534379554 0.58855031414 -2.28717468598 0.03797689805 0.58681694239 -2.29907474822 0.04061117380 0.58561638020 -2.31066774186 0.02183417436 0.56112567177 -2.22128005175 0.02390340618 0.56576650392 -2.22743298094 0.02596964961 0.56831681100 -2.23510450050 0.02805080616 0.56915410347 -2.24404465338 0.03016477733 0.56865589179 -2.25400348253 0.03232946460 0.56719968642 -2.26473103091 0.03456276949 0.56516299785 -2.27597734146 0.03688259350 0.56292333651 -2.28749245715 0.03930683812 0.56085821289 -2.29902642091 0.04185340485 0.55934513745 -2.31032927571 0.02260829734 0.54646009414 -2.22093029708 0.02522368254 0.54772623172 -2.22811194383 0.02759032888 0.54760988622 -2.23639815687 0.02977560640 0.54639554000 -2.24560810470 0.03184688511 0.54436767542 -2.25556095585 0.03387153502 0.54181077483 -2.26607587885 0.03591692617 0.53900932061 -2.27697204221 0.03805042857 0.53624779511 -2.28806861445 0.04033941223 0.53381068068 -2.29918476410 0.04285124719 0.53198245970 -2.31013965967 0.02312436588 0.53026990846 -2.22203046720 0.02610057600 0.52850011250 -2.22988646419 0.02865949705 0.52594253622 -2.23851203611 0.03090404679 0.52280584361 -2.24778210911 0.03293714301 0.51929869865 -2.25757160933 0.03486170349 0.51562976533 -2.26775546293 0.03678064599 0.51200770764 -2.27820859604 0.03879688831 0.50864118955 -2.28880593483 0.04101334820 0.50573887505 -2.29942240543 0.04353294345 0.50350942812 -2.30993293400 0.02338236705 0.51286472204 -2.22442166421 0.02653262752 0.50833322998 -2.23263871247 0.02917161457 0.50352106778 -2.24135790123 0.03142430283 0.49857025872 -2.25049698028 0.03341566691 0.49362282608 -2.25997369941 0.03527068143 0.48882079314 -2.26970580842 0.03711432101 0.48430618317 -2.27961105709 0.03907156027 0.48022101945 -2.28960719522 0.04126737382 0.47670732527 -2.29961197258 0.04382673628 0.47390712389 -2.30954313899 0.02338228792 0.49455414215 -2.22794499021 0.02651837802 0.48747066788 -2.23625085912 0.02912114192 0.48055178769 -2.24484751521 0.03132455000 0.47387402977 -2.25368303189 0.03326257266 0.46751392229 -2.26270548256 0.03506918029 0.46154799346 -2.27186294062 0.03687834327 0.45605277145 -2.28110347948 0.03882403201 0.45110478444 -2.29037517255 0.04104021689 0.44678056063 -2.29962609322 0.04366086830 0.44315662820 -2.30880431491 0.02312411556 0.47564777608 -2.23244154730 0.02605636846 0.46615750991 -2.24060507461 0.02850253956 0.45724100272 -2.24889264107 0.03059296381 0.44890240117 -2.25727057762 0.03245797614 0.44114585188 -2.26570521522 0.03422791149 0.43397550152 -2.27416288481 0.03603310483 0.42739549672 -2.28260991734 0.03800389109 0.42140998414 -2.29101264376 0.04027060521 0.41602311042 -2.29933739501 0.04296358215 0.41123902221 -2.30755050205 0.02260783704 0.45645523111 -2.23775243758 0.02514513978 0.44463883979 -2.24558352939 0.02731026797 0.43379501967 -2.25340504178 0.02921771974 0.42384061734 -2.26118993115 0.03098199320 0.41469247943 -2.26891115385 0.03271758649 0.40626745253 -2.27654166628 0.03453899774 0.39848238324 -2.28405442480 0.03656072506 0.39125411817 -2.29142238579 0.03889726660 0.38449950393 -2.29861850562 0.04166312046 0.37813538712 -2.30561574068 0.02183343943 0.43728611453 -2.24371876316 0.02378323292 0.42315974123 -2.25106839391 0.02553878761 0.41042014529 -2.25829648036 0.02718699328 0.39887392273 -2.26537140614 0.02881473973 0.38832766953 -2.27226155491 0.03050891672 0.37858798170 -2.27893531031 0.03235641404 0.36946145524 -2.28536105598 0.03444412149 0.36075468615 -2.29150717557 0.03685892884 0.35227427044 -2.29734205272 0.03968772587 0.34382680409 -2.30283407108 0.02080090981 0.41845003363 -2.25018162613 0.02196918882 0.40196529794 -2.25694183864 0.02318255895 0.38732268638 -2.26347871978 0.02448895994 0.37418756174 -2.26974531629 0.02593633158 0.36222528677 -2.27569467485 0.02757261361 0.35110122426 -2.28127984220 0.02944574580 0.34048073698 -2.28645386502 0.03160366793 0.33002918771 -2.29116979005 0.03409431974 0.31941193923 -2.29538066398 0.03696564101 0.30829435430 -2.29903953353 0.06171604763 0.57244974095 -2.22391400501 0.06578775539 0.58026292836 -2.22860774983 0.07073023862 0.58534568911 -2.23530557959 0.07643805335 0.58817331446 -2.24367911896 0.08280575559 0.58922109567 -2.25339999263 0.08972790137 0.58896432402 -2.26413982529 0.09709904670 0.58787829078 -2.27557024161 0.10481374761 0.58643828721 -2.28736286627 0.11276656011 0.58511960458 -2.29918932396 0.12085204023 0.58439753417 -2.31072123936 0.06491479842 0.55980887647 -2.22216648243 0.07119099613 0.56404725990 -2.22821163387 0.07738520063 0.56636512978 -2.23577482818 0.08357652220 0.56711510746 -2.24460291652 0.08984407113 0.56664981426 -2.25444275005 0.09626695772 0.56532187150 -2.26504117996 0.10292429225 0.56348390052 -2.27614505741 0.10989518501 0.56148852265 -2.28750123358 0.11725874629 0.55968835921 -2.29885655963 0.12509408639 0.55843603154 -2.30995788674 0.06731358140 0.54530138577 -2.22195303438 0.07523925093 0.54635289709 -2.22896795211 0.08236407560 0.54614523833 -2.23710231749 0.08891027880 0.54493767496 -2.24616621267 0.09510008393 0.54298947241 -2.25596971979 0.10115571437 0.54055989614 -2.26632292102 0.10729939351 0.53790821159 -2.27703589849 0.11375334474 0.53529368422 -2.28791873437 0.12073979144 0.53297557947 -2.29878151081 0.12848095701 0.53121316279 -2.30943430995 0.06891241804 0.52925897323 -2.22311817403 0.07792842654 0.52744866901 -2.23076197774 0.08565104311 0.52492095052 -2.23920301965 0.09240523313 0.52186234573 -2.24830291947 0.09851596201 0.51845938258 -2.25792329693 0.10430819515 0.51489858902 -2.26792577173 0.11010689794 0.51136649303 -2.27817196359 0.11623703578 0.50804962254 -2.28852349222 0.12302357407 0.50513450551 -2.29884197733 0.13079147822 0.50280766990 -2.30898903865 0.06971132978 0.51201334327 -2.22550641458 0.07925442975 0.50760340475 -2.23347898397 0.08723028274 0.50292720211 -2.24199190679 0.09402729515 0.49811044853 -2.25094694899 0.10003387339 0.49327885718 -2.26024587653 0.10563842386 0.48855814124 -2.26979045535 0.11122935297 0.48407401386 -2.27948245141 0.11719506712 0.47995218822 -2.28922363065 0.12392397272 0.47631837749 -2.29891575902 0.13180447616 0.47329829485 -2.30846060248 0.06971033809 0.49389620028 -2.22896226919 0.07921316732 0.48708593337 -2.23700424399 0.08708597407 0.48039892885 -2.24538395103 0.09374237483 0.47390331215 -2.25403221327 0.09959598609 0.46766720868 -2.26287985366 0.10506042434 0.46175874387 -2.27185769515 0.11054930607 0.45624604313 -2.28089656068 0.11647624775 0.45119723190 -2.28992727322 0.12325486588 0.44668043558 -2.29888065570 0.13129877695 0.44276377960 -2.30768753109 0.06890946441 0.47523924867 -2.23333025104 0.07780054601 0.46616508396 -2.24122303101 0.08520229667 0.45757106650 -2.24929412451 0.09151638214 0.44946226534 -2.25749262437 0.09714446814 0.44184374949 -2.26576762339 0.10248822040 0.43472058800 -2.27406821437 0.10794930466 0.42809784989 -2.28234349013 0.11392938665 0.42198060418 -2.29054254347 0.12083013209 0.41637391992 -2.29861446720 0.12905320672 0.41128286614 -2.30650835412 0.06730873021 0.45637419282 -2.23845487332 0.07501247259 0.44510968558 -2.24602061822 0.08156343013 0.43467855083 -2.25363739936 0.08731522704 0.42500863688 -2.26126209435 0.09262148754 0.41602779207 -2.26885158079 0.09783583586 0.40766386472 -2.27636273630 0.10331189620 0.39984470316 -2.28375243848 0.10940329280 0.39249815571 -2.29097756496 0.11646364986 0.38555207069 -2.29799499333 0.12484659161 0.37893429644 -2.30476160122 0.06490815693 0.43763273715 -2.24418064919 0.07084485384 0.42418856733 -2.25128227884 0.07615355402 0.41195631758 -2.25832874772 0.08110481950 0.40076375554 -2.26527453526 0.08596921233 0.39043864885 -2.27207412093 0.09101729453 0.38080876512 -2.27868198418 0.09651962813 0.37170187199 -2.28505260446 0.10274677518 0.36294573709 -2.29114046123 0.10996929770 0.35436812804 -2.29690003393 0.11845775774 0.34579681247 -2.30228580204 0.06170776604 0.41934658606 -2.25035209184 0.06529359652 0.40367055826 -2.25689328607 0.06895684792 0.38963930252 -2.26328314170 0.07285106950 0.37694895010 -2.26946385916 0.07712981052 0.36529563226 -2.27537763887 0.08194662023 0.35437548028 -2.28096668127 0.08745504790 0.34388462542 -2.28617318678 0.09380864279 0.33351919894 -2.29093935582 0.10116095415 0.32297533212 -2.29520738883 0.10966553124 0.31194915622 -2.29891948622 0.10057295449 0.56943657894 -2.22526731682 0.10754204751 0.57603856100 -2.22989126362 0.11563909444 0.58032455024 -2.23648123720 0.12479592938 0.58272885603 -2.24471788148 0.13494438648 0.58368578771 -2.25428184043 0.14601629983 0.58362965465 -2.26485375799 0.15794350358 0.58299476619 -2.27611427810 0.17065783184 0.58221543170 -2.28774404471 0.18409111872 0.58172596053 -2.29942370177 0.19817519836 0.58196066203 -2.31083389323 0.10624314818 0.55717685258 -2.22394189725 0.11693416855 0.56061039945 -2.22977181944 0.12724510788 0.56246341259 -2.23711866145 0.13739242613 0.56303873967 -2.24572290074 0.14759258326 0.56263922838 -2.25532501473 0.15806203925 0.56156772640 -2.26566548087 0.16901725405 0.56012708141 -2.27648477660 0.18067468762 0.55862014110 -2.28752337936 0.19325079994 0.55734975315 -2.29852176658 0.20696205096 0.55661876523 -2.30922041570 0.11049521989 0.54298562263 -2.22400094801 0.12397200854 0.54360794344 -2.23068272561 0.13593193135 0.54321766636 -2.23851366076 0.14681236215 0.54202363070 -2.24728567668 0.15705067476 0.54023467579 -2.25679069661 0.16708424299 0.53805964093 -2.26682064376 0.17735044065 0.53570736545 -2.27716744135 0.18828664158 0.53338668866 -2.28762301261 0.20033021959 0.53130644988 -2.29797928076 0.21391854850 0.52967548842 -2.30802816903 0.11332923958 0.52723879077 -2.22529582346 0.12864950680 0.52534752004 -2.23251549729 0.14167564852 0.52287951297 -2.24058767523 0.15300329412 0.51997703268 -2.24934737811 0.16322807299 0.51678234229 -2.25862962675 0.17294561452 0.51343770490 -2.26826944200 0.18275154808 0.51008538364 -2.27810184468 0.19324150307 0.50686764161 -2.28796185561 0.20501110886 0.50392674193 -2.29768449564 0.21865599484 0.50140494771 -2.30710478558 0.11474527720 0.51031225869 -2.22767787796 0.13096060264 0.50614545632 -2.23516164965 0.14445234301 0.50174115383 -2.24326214500 0.15591277868 0.49719244916 -2.25184917381 0.16603419000 0.49259244023 -2.26079254586 0.17550885733 0.48803422497 -2.26996207096 0.18502906102 0.48361090131 -2.27922755890 0.19528708142 0.47941556718 -2.28845881948 0.20697519891 0.47554132050 -2.29752566249 0.22078569382 0.47208125921 -2.30629789773 0.11474340272 0.49258192805 -2.23099846587 0.13089923537 0.48631807935 -2.23851269786 0.14423809848 0.48009479036 -2.24645851021 0.15548837248 0.47396338369 -2.25473223258 0.16537843781 0.46797518197 -2.26323019462 0.17463667489 0.46218150780 -2.27184872599 0.18399146414 0.45663368381 -2.28048415635 0.19417118601 0.45138303260 -2.28903281534 0.20590422091 0.44648087681 -2.29739103263 0.21991894927 0.44197853904 -2.30545513786 0.11332368608 0.47442370054 -2.23510894154 0.12845934430 0.46618171621 -2.24246015706 0.14100899857 0.45823262396 -2.25009821097 0.15167763219 0.45058333983 -2.25793772321 0.16117022846 0.44324077985 -2.26589331373 0.17019177068 0.43621186004 -2.27387960246 0.17944724215 0.42950349646 -2.28181120935 0.18964162617 0.42312260512 -2.28960275433 0.20147990603 0.41707610206 -2.29716885734 0.21566706505 0.41137090331 -2.30442413833 0.11048619725 0.45621347784 -2.23986065933 0.12363486875 0.44605269397 -2.24689554242 0.13474112693 0.43644685605 -2.25410268742 0.14442811445 0.42734582112 -2.26140681451 0.15331897397 0.41869944622 -2.26873264388 0.16203684817 0.41045758836 -2.27600489572 0.17120487971 0.40257010460 -2.28314829022 0.18144621125 0.39498685195 -2.29008754756 0.19338398546 0.38765768745 -2.29674738793 0.20764134499 0.38053246814 -2.30305253152 0.10623100618 0.43832716164 -2.24510497360 0.11641974802 0.42624733970 -2.25171036911 0.12541056720 0.41502968804 -2.25839337969 0.13368737591 0.40454433113 -2.26508067527 0.14173408639 0.39466139343 -2.27169892577 0.15003461086 0.38525099942 -2.27817480113 0.15907286153 0.37618327356 -2.28443497129 0.16933275062 0.36732834033 -2.29040610616 0.18129819035 0.35855632420 -2.29601487569 0.19545309295 0.34973734963 -2.30118794980 0.10055818282 0.42114065360 -2.25069323871 0.10680792144 0.40708198048 -2.25679615228 0.11299340303 0.39427332134 -2.26289172791 0.11940297324 0.38247237339 -2.26890047427 0.12632497775 0.37143683383 -2.27474290009 0.13404776220 0.36092439986 -2.28033951405 0.14285967227 0.35069276868 -2.28561082488 0.15304905361 0.34049963750 -2.29047734127 0.16490425189 0.33010270351 -2.29485957192 0.17871361276 0.31925966391 -2.29867802554 0.13600125322 0.56491760853 -2.22729869966 0.14614252289 0.56970280628 -2.23181810240 0.15718392600 0.57279365181 -2.23824645753 0.16925591134 0.57456297941 -2.24627793703 0.18248892771 0.57538362338 -2.25560671287 0.19701342392 0.57562841800 -2.26592695704 0.21295984877 0.57567019757 -2.27693284151 0.23045865105 0.57588179637 -2.28831853827 0.24964027958 0.57663604870 -2.29977821928 0.27063518314 0.57830578885 -2.31100605654 0.14465096122 0.55322967268 -2.22660642456 0.16010322535 0.55545599482 -2.23211369259 0.17451218297 0.55661172818 -2.23913618029 0.18835854219 0.55692506320 -2.24740481018 0.20212301110 0.55662419034 -2.25665050477 0.21628629781 0.55593730005 -2.26660418659 0.23132911041 0.55509258278 -2.27699677815 0.24773215699 0.55431822898 -2.28755920198 0.26597614566 0.55384242909 -2.29802238060 0.28654178452 0.55389337356 -2.30811723652 0.15113735588 0.53951288664 -2.22707415704 0.17056664339 0.53949144740 -2.23325640650 0.18748985259 0.53882723963 -2.24063234835 0.20266000087 0.53765346792 -2.24896667588 0.21683010564 0.53610333689 -2.25802408239 0.23075318427 0.53431005113 -2.26756926121 0.24518225418 0.53240681526 -2.27736690561 0.26087033274 0.53052683387 -2.28718170892 0.27857043735 0.52880331158 -2.29677836443 0.29903558541 0.52736945298 -2.30592156546 0.15546057817 0.52420944903 -2.22856352258 0.17752585835 0.52219674257 -2.23514714300 0.19608856163 0.51981829047 -2.24266613299 0.21209600757 0.51714996178 -2.25091562353 0.22649551576 0.51426762554 -2.25969074557 0.24023440578 0.51124715079 -2.26878663007 0.25425999719 0.50816440657 -2.27799840801 0.26951960957 0.50509526192 -2.28712121035 0.28696056251 0.50211558589 -2.29595016804 0.30753017557 0.49930124752 -2.30428041205 0.15762076902 0.50776155849 -2.23093614665 0.18097395156 0.50395945885 -2.23768680093 0.20027993686 0.49996298499 -2.24516870552 0.21660228248 0.49581631297 -2.25320374253 0.23100454593 0.49156361881 -2.26161379411 0.24455028477 0.48724907856 -2.27022074237 0.25830305653 0.48291686827 -2.27884646947 0.27332641875 0.47861116398 -2.28731285752 0.29068392897 0.47437614172 -2.29544178866 0.31143914472 0.47025597755 -2.30305514502 0.15761806939 0.49061141364 -2.23405365471 0.18090400434 0.48516717478 -2.24077627917 0.20003560507 0.47963942750 -2.24807123722 0.21611454577 0.47405428968 -2.25578312229 0.23024250060 0.46843787921 -2.26375652783 0.24352114372 0.46281631400 -2.27183604729 0.25705214932 0.45721571193 -2.27986627410 0.27193719155 0.45166219089 -2.28769180170 0.28927794458 0.44618186878 -2.29515722355 0.31017608259 0.44080086349 -2.30210713308 0.15545262024 0.47320121312 -2.23777767226 0.17730909801 0.46620746890 -2.24431647658 0.19532719303 0.45922572227 -2.25130489939 0.21056851764 0.45226566011 -2.25860585221 0.22409468421 0.44533696928 -2.26608224657 0.23696730509 0.43844933666 -2.27359699400 0.25024799264 0.43161244912 -2.28101300602 0.26499835923 0.42483599353 -2.28819319417 0.28228001720 0.41812965677 -2.29500046996 0.30315457892 0.41150312571 -2.30129774494 0.15112456250 0.45597315556 -2.24196982476 0.17018231391 0.44746791975 -2.24820829202 0.18612632750 0.43909997362 -2.25480086332 0.19989991827 0.43085219246 -2.26162402169 0.21244640122 0.42270745152 -2.26855425014 0.22470909133 0.41464862608 -2.27546803168 0.23763130361 0.40665859140 -2.28224184935 0.25215635306 0.39872022275 -2.28875218617 0.26922755467 0.39081639540 -2.29487552515 0.28978822344 0.38292998462 -2.30048834931 0.14463403713 0.43936943959 -2.24649173768 0.15951673336 0.42933610586 -2.25235262435 0.17240463528 0.41964028585 -2.25849030031 0.18404446785 0.41021565493 -2.26478972013 0.19518295607 0.40099588846 -2.27113583835 0.20656682490 0.39191466181 -2.27741360953 0.21894279932 0.38290565034 -2.28350798822 0.23305760431 0.37390252940 -2.28930392898 0.24965796484 0.36483897437 -2.29468638636 0.26949060588 0.35564866060 -2.29954031491 0.13598118507 0.42383226385 -2.25120503650 0.14530543768 0.41219960576 -2.25665037243 0.15413374312 0.40122476324 -2.26230438166 0.16293788657 0.39075781571 -2.26805503694 0.17218965323 0.38064884262 -2.27379031104 0.18236082827 0.37074792340 -2.27939817672 0.19392319688 0.36090513749 -2.28476660674 0.20734854424 0.35097056434 -2.28978357386 0.22310865555 0.34079428338 -2.29433705084 0.24167531598 0.33022637405 -2.29831501044 0.16662946658 0.55889289016 -2.23000828867 0.18032762207 0.56125572718 -2.23438842214 0.19401909310 0.56275305845 -2.24060142129 0.20825881187 0.56367574972 -2.24835949359 0.22360171057 0.56431466677 -2.25737484653 0.24060272138 0.56496067532 -2.26735968757 0.25981677650 0.56590464114 -2.27802622420 0.28179880811 0.56743742998 -2.28908666389 0.30710374840 0.56984990759 -2.30025321412 0.33628652955 0.57343293972 -2.31123808236 0.17896997510 0.54796740935 -2.23016019272 0.19966846844 0.54858411823 -2.23523740832 0.21814923752 0.54881014532 -2.24182756467 0.23533489463 0.54877414117 -2.24964884896 0.25214805203 0.54860475635 -2.25841944835 0.26951132201 0.54843064141 -2.26785755004 0.28834731682 0.54838044691 -2.27768134118 0.30957864875 0.54858282339 -2.28760900896 0.33412793006 0.54916642142 -2.29735874055 0.36291777303 0.55025989155 -2.30664872313 0.18822413246 0.53488325970 -2.23117278053 0.21416784349 0.53400348560 -2.23668913700 0.23623379573 0.53297402749 -2.24345854196 0.25563133937 0.53182724733 -2.25120938939 0.27356982461 0.53059550707 -2.25967007324 0.29125860164 0.52931116868 -2.26856898749 0.30990702065 0.52800659411 -2.27763452610 0.33072443183 0.52671414531 -2.28659508305 0.35492018538 0.52546618425 -2.29517905230 0.38370363148 0.52429507288 -2.30311482781 0.19439218148 0.52017103595 -2.23292137847 0.22381952279 0.51799641359 -2.23865703502 0.24824503079 0.51573734994 -2.24543852309 0.26908115130 0.51338119033 -2.25300779426 0.28774033012 0.51091528007 -2.26110680013 0.30563501309 0.50832696449 -2.26947749227 0.32417764600 0.50560358891 -2.27786182228 0.34478067469 0.50273249863 -2.28600174173 0.36885654497 0.49970103899 -2.29363920223 0.39781770266 0.49649655530 -2.30051615534 0.19747436495 0.50436133289 -2.23528131290 0.22861728191 0.50104548649 -2.24105452921 0.25415520578 0.49759275763 -2.24771167797 0.27561733561 0.49398209230 -2.25501074297 0.29453287040 0.49019243649 -2.26270970796 0.31243100916 0.48620273622 -2.27056655671 0.33084095092 0.48199193748 -2.27833927299 0.35129189469 0.47753898626 -2.28578584056 0.37531303948 0.47282282858 -2.29266424318 0.40443358432 0.46782241043 -2.29873246463 0.19747092571 0.48798474526 -2.23812791018 0.22855489639 0.48363328862 -2.24379504638 0.25393658377 0.47903289553 -2.25022217654 0.27517289750 0.47417607536 -2.25718491489 0.29382074725 0.46905533747 -2.26445887568 0.31143704266 0.46366319122 -2.27181967314 0.32957869341 0.45799214598 -2.27904292153 0.34980260915 0.45203471110 -2.28590423507 0.37366569953 0.44578339595 -2.29217922801 0.40272487422 0.43923070989 -2.29764351460 0.19438210655 0.47157186783 -2.24133649667 0.22362614181 0.46624240426 -2.24679201339 0.24756142782 0.46055040861 -2.25291418872 0.26768084218 0.45450926165 -2.25949698942 0.28547726250 0.44813234414 -2.26633438223 0.30244356641 0.44143303686 -2.27322033390 0.32007263151 0.43442472057 -2.27994881118 0.33985733542 0.42712077603 -2.28631378083 0.36329055575 0.41953458402 -2.29210920958 0.39186517012 0.41167952529 -2.29712906419 0.18820815029 0.45565329537 -2.24478239873 0.21382479374 0.44935541772 -2.24995885705 0.23500200100 0.44263794183 -2.25573188444 0.25307417484 0.43552777329 -2.26191364593 0.26937571799 0.42805181765 -2.26831630655 0.28524103320 0.42023698051 -2.27475203131 0.30200452324 0.41211016742 -2.28103298525 0.32100059085 0.40369828397 -2.28697133338 0.34356363877 0.39502823572 -2.29237924073 0.37102806977 0.38612692825 -2.29706887232 0.17894929974 0.44075962263 -2.24834094272 0.19914462773 0.43345491329 -2.25320900419 0.21623056639 0.42578814017 -2.25861943362 0.23128590068 0.41777773241 -2.26440156382 0.24538941552 0.40944211915 -2.27038472759 0.25961989586 0.40079972953 -2.27639825772 0.27505612663 0.39186899270 -2.28227148702 0.29277689277 0.38266833780 -2.28783374828 0.31386097922 0.37321619398 -2.29291437432 0.33938717093 0.36353099039 -2.29734269792 0.16660579771 0.42742144438 -2.25188745500 0.17957941935 0.41902347529 -2.25645588164 0.19121938706 0.41049364860 -2.26152100619 0.20224902490 0.40180526114 -2.26692742247 0.21339165693 0.39293160975 -2.27251972428 0.22537060717 0.38384599128 -2.27814250545 0.23890919969 0.37452170256 -2.28364035978 0.25473075853 0.36493204044 -2.28885788109 0.27355860773 0.35505030174 -2.29363966319 0.29611607135 0.34484978330 -2.29783029991 </DataArray>
</Points>
</Piece>
</StructuredGrid>
</VTKFile>
