<?xml version="1.0"?>
<VTKFile type="StructuredGrid" version="0.1">
<StructuredGrid WholeExtent="0 9 0 9 0 9">
<Piece Extent="0 9 0 9 0 9">
<PointData>
<DataArray type="Float32" Name="Deformation" format="ascii" NumberOfComponents="3">
-0.00452938324 -0.56468585363 0.44226909311 -0.00452226838 -0.55933751756 0.44433686378 -0.00452182774 -0.55321487339 0.44668470120 -0.00452638241 -0.54655024093 0.44922483624 -0.00453425351 -0.53957593994 0.45186949977 -0.00454376212 -0.53252429023 0.45453092265 -0.00455322934 -0.52562761158 0.45712133574 -0.00456097628 -0.51911822376 0.45955296991 -0.00456532403 -0.51322844658 0.46173805603 -0.00456459369 -0.50819059982 0.46358882495 -0.00463395425 -0.56860114852 0.45258084850 -0.00462625939 -0.56324354225 0.45465898796 -0.00462489140 -0.55712902831 0.45700896691 -0.00462830003 -0.55048499583 0.45954486700 -0.00463493508 -0.54353883394 0.46218076987 -0.00464324629 -0.53651793176 0.46483075717 -0.00465168343 -0.52964967842 0.46740891056 -0.00465869629 -0.52316146306 0.46982931167 -0.00466273462 -0.51728067479 0.47200604216 -0.00466224819 -0.51223470274 0.47385318366 -0.00473588866 -0.57223402322 0.46255003632 -0.00472826141 -0.56686939273 0.46465460752 -0.00472639240 -0.56079060793 0.46700889805 -0.00472888636 -0.55421248656 0.46953176903 -0.00473434801 -0.54734984635 0.47214208160 -0.00474138207 -0.54041750503 0.47475869689 -0.00474859327 -0.53363028032 0.47730047604 -0.00475458632 -0.52720298996 0.47968628016 -0.00475796596 -0.52135045166 0.48183497040 -0.00475733689 -0.51628748317 0.48366540789 -0.00483387814 -0.57553154543 0.47208598692 -0.00482703442 -0.57018681087 0.47423926708 -0.00482515881 -0.56418340447 0.47660717196 -0.00482703167 -0.55771904540 0.47911507867 -0.00483143336 -0.55099145282 0.48168836430 -0.00483714426 -0.54419834588 0.48425240597 -0.00484294472 -0.53753744376 0.48673258078 -0.00484761511 -0.53120646561 0.48905426583 -0.00484993581 -0.52540313061 0.49114283823 -0.00484868717 -0.52032515790 0.49292367508 -0.00492661435 -0.57844078282 0.48109803065 -0.00492133844 -0.57316753856 0.48332851127 -0.00492001871 -0.56729121016 0.48572646602 -0.00492162626 -0.56099100462 0.48822433225 -0.00492513220 -0.55444612895 0.49075454732 -0.00492950763 -0.54783579016 0.49324954858 -0.00493372367 -0.54133919523 0.49564177339 -0.00493675140 -0.53513555118 0.49786365911 -0.00493756195 -0.52940406501 0.49984764310 -0.00493512642 -0.52432394371 0.50152616271 -0.00501278896 -0.58090880309 0.48949549785 -0.00500993347 -0.57578331767 0.49183788472 -0.00500980017 -0.57009781719 0.49428945759 -0.00501156043 -0.56401469649 0.49678906612 -0.00501438559 -0.55769635039 0.49927556000 -0.00501744700 -0.55130517369 0.50168778889 -0.00501991599 -0.54500356122 0.50396460249 -0.00502096393 -0.53895390781 0.50604485046 -0.00501976215 -0.53331860825 0.50786738248 -0.00501548201 -0.52826005739 0.50937104823 -0.00509109365 -0.58288267394 0.49718771888 -0.00509157949 -0.57800589008 0.49968293206 -0.00509333127 -0.57258701780 0.50221882402 -0.00509572447 -0.56677645329 0.50473881660 -0.00509813459 -0.56072459274 0.50718633167 -0.00509993713 -0.55458183232 0.50950479107 -0.00510050758 -0.54849856822 0.51163761666 -0.00509922143 -0.54262519664 0.51352823030 -0.00509545419 -0.53711211374 0.51512005383 -0.00508858134 -0.53210971573 0.51635650911 -0.00516022006 -0.58430946305 0.50408402410 -0.00516503652 -0.57980699767 0.50677919792 -0.00516944006 -0.57474260419 0.50943724267 -0.00517300866 -0.56926260729 0.51200312004 -0.00517532026 -0.56351333162 0.51442179169 -0.00517595282 -0.55764110188 0.51663821929 -0.00517448430 -0.55179224272 0.51859736453 -0.00517049264 -0.54611307883 0.52024418908 -0.00516355582 -0.54074993487 0.52152365461 -0.00515325178 -0.53584913551 0.52238072279 -0.00521885988 -0.58513623812 0.51009374384 -0.00522906455 -0.58115838233 0.51304222692 -0.00523695464 -0.57654836859 0.51586739092 -0.00524230330 -0.57145949075 0.51851151276 -0.00524488366 -0.56604504268 0.52091686939 -0.00524446886 -0.56045831821 0.52302573773 -0.00524083203 -0.55485261121 0.52478039470 -0.00523374631 -0.54938121553 0.52612311724 -0.00522298483 -0.54419742502 0.52699618229 -0.00520832073 -0.53945453353 0.52734186676 -0.00526570477 -0.58531006683 0.51512620847 -0.00528242358 -0.58203178592 0.51838756370 -0.00529470307 -0.57798810320 0.52143194611 -0.00530249868 -0.57335343597 0.52419353112 -0.00530576586 -0.56830220152 0.52660649412 -0.00530446004 -0.56300881715 0.52860501054 -0.00529853666 -0.55764770018 0.53012325577 -0.00528795116 -0.55239326789 0.53109540523 -0.00527265898 -0.54741993758 0.53145563433 -0.00525261555 -0.54290212656 0.53113811846 -0.00454014598 -0.56906956370 0.44054161661 -0.00453618340 -0.56251284236 0.44305888855 -0.00453633682 -0.55541239199 0.44577022544 -0.00453946436 -0.54793148031 0.44861416649 -0.00454442416 -0.54023337503 0.45152925091 -0.00455007435 -0.53248134386 0.45445401794 -0.00455527305 -0.52483865454 0.45732700678 -0.00455887841 -0.51746857477 0.46008675666 -0.00455974854 -0.51053437227 0.46267180679 -0.00455674159 -0.50419931476 0.46502069638 -0.00464452567 -0.57300197406 0.45084456028 -0.00464025003 -0.56644514620 0.45338184513 -0.00463974299 -0.55935532644 0.45610429483 -0.00464197735 -0.55189237613 0.45895170854 -0.00464592594 -0.54421615658 0.46186388546 -0.00465056157 -0.53648652914 0.46478062477 -0.00465485707 -0.52886335512 0.46764172565 -0.00465778524 -0.52150649586 0.47038698729 -0.00465831891 -0.51457581269 0.47295620887 -0.00465543089 -0.50823116695 0.47528918957 -0.00474605371 -0.57666128914 0.46081800727 -0.00474215922 -0.57012680459 0.46341287665 -0.00474150058 -0.56308435645 0.46616705554 -0.00474317093 -0.55568523693 0.46902357096 -0.00474626347 -0.54808073823 0.47192544992 -0.00474987134 -0.54042215256 0.47481571943 -0.00475308772 -0.53286077212 0.47763740651 -0.00475500578 -0.52554788912 0.48033353818 -0.00475471868 -0.51863479577 0.48284714145 -0.00475131959 -0.51227278428 0.48512124333 -0.00484363842 -0.57996512833 0.47039921256 -0.00484092684 -0.57350426812 0.47309403094 -0.00484071201 -0.56656467131 0.47590525293 -0.00484221251 -0.55928630208 0.47878018674 -0.00484464686 -0.55180912461 0.48166614057 -0.00484723364 -0.54427310308 0.48451042265 -0.00484919138 -0.53681820168 0.48726034117 -0.00484973863 -0.52958438459 0.48986320434 -0.00484809396 -0.52271161599 0.49226632039 -0.00484347590 -0.51633986006 0.49441699750 -0.00493618815 -0.58283111101 0.47952543114 -0.00493556873 -0.57652398737 0.48236735584 -0.00493647972 -0.56976146032 0.48526563233 -0.00493826945 -0.56267181095 0.48817198887 -0.00494028625 -0.55538332037 0.49103815372 -0.00494187846 -0.54802426968 0.49381585515 -0.00494239441 -0.54072293996 0.49645682142 -0.00494118244 -0.53360761231 0.49891278079 -0.00493759088 -0.52680656783 0.50113546154 -0.00493096806 -0.52044808763 0.50307659191 -0.00502261122 -0.58517685658 0.48813391796 -0.00502510078 -0.57913241292 0.49117489919 -0.00502790614 -0.57263991277 0.49419493910 -0.00503050916 -0.56581800293 0.49714941036 -0.00503239176 -0.55878533017 0.49999368566 -0.00503303581 -0.55166054129 0.50268313766 -0.00503192319 -0.54456228308 0.50517313906 -0.00502853581 -0.53760920231 0.50741906253 -0.00502235554 -0.53091994578 0.50937628076 -0.00501286427 -0.52461316028 0.51100016641 -0.00510181598 -0.58691998443 0.49616192801 -0.00510853885 -0.58127599536 0.49945870883 -0.00511409367 -0.57516521798 0.50263991858 -0.00511809903 -0.56870111738 0.50566288421 -0.00512017350 -0.56199715865 0.50848493267 -0.00511993566 -0.55516680689 0.51106339092 -0.00511700409 -0.54832352719 0.51335558590 -0.00511099736 -0.54158078464 0.51531884458 -0.00510153406 -0.53505204433 0.51691049390 -0.00508823276 -0.52885077134 0.51808786082 -0.00517271075 -0.58797811396 0.50354671625 -0.00518489879 -0.58290118527 0.50716083260 -0.00519414476 -0.57730256523 0.51054731612 -0.00520020644 -0.57129739367 0.51366284342 -0.00520284160 -0.56500081046 0.51646409106 -0.00520180802 -0.55852795543 0.51890773564 -0.00519686347 -0.55199396844 0.52095045373 -0.00518776573 -0.54551398933 0.52254892193 -0.00517427257 -0.53920315794 0.52365981683 -0.00515614176 -0.53317661414 0.52423981499 -0.00523420387 -0.58826886455 0.51022553768 -0.00525319647 -0.58395443324 0.51422331833 -0.00526716182 -0.57901714382 0.51786387707 -0.00527599877 -0.57358307119 0.52109972098 -0.00527960618 -0.56777829024 0.52388335711 -0.00527788287 -0.56172887587 0.52616729255 -0.00527072770 -0.55556090296 0.52790403436 -0.00525803952 -0.54940044641 0.52904608961 -0.00523971716 -0.54337358112 0.52954596539 -0.00521565948 -0.53760638197 0.52935616875 -0.00528520368 -0.58770985559 0.51613564724 -0.00531244775 -0.58438218985 0.52058821387 -0.00533224728 -0.58027414306 0.52453634678 -0.00534464343 -0.57553438931 0.52792394989 -0.00534967735 -0.57031160266 0.53069492712 -0.00534739021 -0.56475445716 0.53279318238 -0.00533782316 -0.55901162690 0.53416261958 -0.00532101736 -0.55323178594 0.53474714263 -0.00529701397 -0.54756360834 0.53449065544 -0.00526585414 -0.54215576816 0.53333706193 -0.00454686539 -0.57244031706 0.43916027810 -0.00454409720 -0.56498075549 0.44200989070 -0.00454349050 -0.55714927917 0.44499068394 -0.00454437307 -0.54905741445 0.44806083118 -0.00454607273 -0.54081668767 0.45117850577 -0.00454791725 -0.53253862516 0.45430188105 -0.00454923444 -0.52433475328 0.45738913039 -0.00454935210 -0.51631659835 0.46039842713 -0.00454759802 -0.50859568673 0.46328794463 -0.00454330000 -0.50128354476 0.46601585623 -0.00465100304 -0.57638479514 0.44945779260 -0.00464814861 -0.56893214150 0.45233461975 -0.00464716382 -0.56111327867 0.45533322674 -0.00464746214 -0.55303747297 0.45841259853 -0.00464845706 -0.54481399075 0.46153172011 -0.00464956205 -0.53655209833 0.46464957644 -0.00465019057 -0.52836106206 0.46772515251 -0.00464975611 -0.52035014826 0.47071743329 -0.00464767213 -0.51262862328 0.47358540376 -0.00464335212 -0.50530575343 0.47628804888 -0.00475217929 -0.58006212386 0.45943666965 -0.00474998259 -0.57265415013 0.46239426197 -0.00474918791 -0.56489163076 0.46544499528 -0.00474928968 -0.55687826557 0.46854992318 -0.00474978232 -0.54871775436 0.47167009928 -0.00475016024 -0.54051379696 0.47476657715 -0.00474991786 -0.53237009319 0.47780041040 -0.00474854960 -0.52439034285 0.48073265263 -0.00474554987 -0.51667824577 0.48352435742 -0.00474041310 -0.50933750176 0.48613657837 -0.00484944760 -0.58336808001 0.46905484916 -0.00484878901 -0.57607438541 0.47215060010 -0.00484885544 -0.56843560309 0.47529073670 -0.00484921958 -0.56054843149 0.47843892948 -0.00484945410 -0.55250956906 0.48155884897 -0.00484913169 -0.54441571422 0.48461416570 -0.00484782504 -0.53636356544 0.48756855019 -0.00484510683 -0.52844982114 0.49038567296 -0.00484054974 -0.52077117977 0.49302920454 -0.00483372647 -0.51342433976 0.49546281546 -0.00494186141 -0.58619844038 0.47827027103 -0.00494375773 -0.57912045136 0.48156541691 -0.00494545905 -0.57169646328 0.48483519813 -0.00494661570 -0.56401661000 0.48804574176 -0.00494687799 -0.55617102539 0.49116317489 -0.00494589626 -0.54824984330 0.49415362461 -0.00494332085 -0.54034319760 0.49698321799 -0.00493880207 -0.53254122215 0.49961808211 -0.00493199025 -0.52493405081 0.50202434407 -0.00492253573 -0.51761181746 0.50416813093 -0.00502847419 -0.58844898176 0.48704087518 -0.00503407863 -0.58171995202 0.49060049516 -0.00503829140 -0.57462547898 0.49404312669 -0.00504084192 -0.56725144036 0.49733648435 -0.00504145960 -0.55968371391 0.50044828272 -0.00503987383 -0.55200817736 0.50334623638 -0.00503581402 -0.54431070844 0.50599805992 -0.00502900957 -0.53667718490 0.50837146791 -0.00501918990 -0.52919348446 0.51043417493 -0.00500608441 -0.52194548486 0.51215389556 -0.00510833940 -0.59001548095 0.49532460152 -0.00511894155 -0.58380049142 0.49921761761 -0.00512664514 -0.57717391780 0.50287926952 -0.00513126214 -0.57022156182 0.50627728159 -0.00513260451 -0.56302922518 0.50937937816 -0.00513048424 -0.55568270959 0.51215328355 -0.00512471328 -0.54826781676 0.51456672211 -0.00511510361 -0.54087034842 0.51658741817 -0.00510146721 -0.53357610626 0.51818309607 -0.00508361603 -0.52647089200 0.51932148013 -0.00518051049 -0.59079371475 0.50307938997 -0.00519753637 -0.58528967359 0.50737856702 -0.00520981292 -0.57929304740 0.51130837374 -0.00521724022 -0.57289561364 0.51483425781 -0.00521971834 -0.56618914975 0.51792166689 -0.00521714736 -0.55926543316 0.52053604863 -0.00520942738 -0.55221624134 0.52264285069 -0.00519645845 -0.54513335172 0.52420752073 -0.00517814067 -0.53810854176 0.52519550641 -0.00515437411 -0.53123358889 0.52557225540 -0.00524404093 -0.59067945994 0.51026318044 -0.00526905296 -0.58611510256 0.51504512614 -0.00528708740 -0.58093413541 0.51929518649 -0.00529814004 -0.57524223508 0.52297353736 -0.00530220667 -0.56914507817 0.52604035461 -0.00529928307 -0.56274834126 0.52845581412 -0.00528936503 -0.55615770096 0.53018009176 -0.00527244835 -0.54947883384 0.53117336340 -0.00524852879 -0.54281741651 0.53139580491 -0.00521760216 -0.53627912556 0.53080759215 -0.00529798416 -0.58956849333 0.51683391285 -0.00533268116 -0.58620438237 0.52217907775 -0.00535776122 -0.58204844946 0.52680445490 -0.00537332548 -0.57723006540 0.53066124456 -0.00537947510 -0.57187860100 0.53370064702 -0.00537631122 -0.56612342706 0.53587386256 -0.00536393499 -0.56009391439 0.53713209147 -0.00534244756 -0.55391943379 0.53742653401 -0.00531195009 -0.54772935607 0.53670839049 -0.00527254371 -0.54165305202 0.53492886116 -0.00454991852 -0.57478780146 0.43813732654 -0.00454685319 -0.56673293648 0.44120111608 -0.00454454318 -0.55841875871 0.44435643755 -0.00454270986 -0.54992235817 0.44757445655 -0.00454107461 -0.54132082490 0.45082633871 -0.00453935881 -0.53269124891 0.45408324964 -0.00453728384 -0.52411072024 0.45731635496 -0.00453457107 -0.51565632891 0.46049682029 -0.00453094190 -0.50740516496 0.46359581125 -0.00452611768 -0.49943431841 0.46658449344 -0.00465382868 -0.57873957340 0.44843235198 -0.00465087539 -0.57069643876 0.45152808826 -0.00464847284 -0.56239631132 0.45470562822 -0.00464639098 -0.55391478708 0.45793664771 -0.00464439975 -0.54532746200 0.46119282262 -0.00464226911 -0.53670993207 0.46444582879 -0.00463976901 -0.52813779328 0.46766734211 -0.00463666940 -0.51968664159 0.47082903843 -0.00463274023 -0.51143207300 0.47390259362 -0.00462775145 -0.50344968348 0.47685968355 -0.00475472649 -0.58242704239 0.45841707471 -0.00475266261 -0.57444377835 0.46160881040 -0.00475076388 -0.56620621092 0.46485187968 -0.00474884131 -0.55778637090 0.46811925954 -0.00474670593 -0.54925628908 0.47138392697 -0.00474416875 -0.54068799625 0.47461885896 -0.00474104078 -0.53215352321 0.47779703250 -0.00473713305 -0.52372490076 0.48089142457 -0.00473225658 -0.51547415967 0.48387501215 -0.00472622238 -0.50747333076 0.48672077225 -0.00485175172 -0.58573164122 0.46806299927 -0.00485151255 -0.57789007419 0.47141813269 -0.00485083159 -0.56979041932 0.47477195826 -0.00484955643 -0.56150058806 0.47809897153 -0.00484753465 -0.55308849184 0.48137366807 -0.00484461382 -0.54462204209 0.48457054341 -0.00484064152 -0.53616915027 0.48766409312 -0.00483546533 -0.52779772780 0.49062881275 -0.00482893284 -0.51957568612 0.49343919785 -0.00482089162 -0.51157093667 0.49606974398 -0.00494404414 -0.58853480266 0.47734163015 -0.00494672291 -0.58095044518 0.48093090533 -0.00494809128 -0.57309089832 0.48444263030 -0.00494803190 -0.56502091695 0.48785246321 -0.00494642740 -0.55680525596 0.49113606219 -0.00494316042 -0.54850867024 0.49426908539 -0.00493811358 -0.54019591466 0.49722719094 -0.00493116953 -0.53193174410 0.49998603700 -0.00492221090 -0.52378091346 0.50252128171 -0.00491112032 -0.51580817760 0.50480858321 -0.00503074351 -0.59071795951 0.48622447187 -0.00503759137 -0.58354001027 0.49012197852 -0.00504195824 -0.57604960973 0.49384066215 -0.00504376328 -0.56831083599 0.49735641407 -0.00504292569 -0.56038776715 0.50064512562 -0.00503936465 -0.55234448132 0.50368268814 -0.00503299935 -0.54424505658 0.50644499294 -0.00502374895 -0.53615357105 0.50890793136 -0.00501153266 -0.52813410282 0.51104739473 -0.00499626965 -0.52025072998 0.51283927438 -0.00511098960 -0.59216254454 0.49468302896 -0.00512341565 -0.58557388835 0.49896620246 -0.00513184776 -0.57860851535 0.50294282012 -0.00513624614 -0.57133382358 0.50658750362 -0.00513657102 -0.56381721110 0.50987487466 -0.00513278262 -0.55612607598 0.51277955492 -0.00512484117 -0.54832781627 0.51527616609 -0.00511270689 -0.54048983003 0.51733932986 -0.00509634001 -0.53267951532 0.51894366792 -0.00507570075 -0.52496427021 0.52006380197 -0.00518392217 -0.59274999054 0.50268880592 -0.00520349344 -0.58696719837 0.50743842734 -0.00521717514 -0.58070957699 0.51172587056 -0.00522497603 -0.57405335812 0.51552241138 -0.00522690487 -0.56707477350 0.51879932558 -0.00522297041 -0.55985005486 0.52152788898 -0.00521318142 -0.55245543392 0.52367937736 -0.00519754665 -0.54496714243 0.52522506653 -0.00517607485 -0.53746141211 0.52613623228 -0.00514877480 -0.53001447468 0.52638415041 -0.00524868100 -0.59236173028 0.51021330728 -0.00527712243 -0.58763505923 0.51551350337 -0.00529735568 -0.58229475645 0.52016657981 -0.00530944853 -0.57643291803 0.52413781684 -0.00531346875 -0.57014164005 0.52739249468 -0.00530948413 -0.56351301860 0.52989589357 -0.00529756246 -0.55663914976 0.53161329373 -0.00527777151 -0.54961212963 0.53250997540 -0.00525017907 -0.54252405429 0.53255121880 -0.00521485293 -0.53546701982 0.53170230417 -0.00530440584 -0.59087919656 0.51722803755 -0.00534360033 -0.58749258987 0.52316628073 -0.00537180468 -0.58330601555 0.52824171420 -0.00538915919 -0.57843598171 0.53241039951 -0.00539580416 -0.57299899644 0.53562839824 -0.00539187988 -0.56711156784 0.53785177194 -0.00537752666 -0.56089020400 0.53903658217 -0.00535288479 -0.55445141302 0.53913889050 -0.00531809457 -0.54791170299 0.53811475849 -0.00527329631 -0.54138758202 0.53592024771 -0.00454968239 -0.57610170465 0.43748501089 -0.00454529479 -0.56776106490 0.44064381057 -0.00454074929 -0.55921405440 0.44387784710 -0.00453607605 -0.55052062630 0.44716466883 -0.00453130524 -0.54174073375 0.45048182413 -0.00452646702 -0.53293432990 0.45380686137 -0.00452159156 -0.52416136788 0.45711732890 -0.00451670902 -0.51548180085 0.46039077510 -0.00451184957 -0.50695558195 0.46360474832 -0.00450704338 -0.49864266433 0.46673679693 -0.00465344488 -0.58005627047 0.44778004488 -0.00464935066 -0.57172994856 0.45097302710 -0.00464498901 -0.56319785075 0.45423136485 -0.00464040041 -0.55451881916 0.45753296686 -0.00463562530 -0.54575169589 0.46085574181 -0.00463070416 -0.53695532306 0.46417759842 -0.00462567744 -0.52818854278 0.46747644539 -0.00462058561 -0.51951019716 0.47073019142 -0.00461546913 -0.51097912832 0.47391674523 -0.00461036846 -0.50265417836 0.47701401552 -0.00475415637 -0.58374655974 0.45777027369 -0.00475113040 -0.57548803824 0.46106656887 -0.00474753794 -0.56702187699 0.46439687115 -0.00474342452 -0.55840435135 0.46774001386 -0.00473883564 -0.54969173671 0.47107483029 -0.00473381683 -0.54094030843 0.47438015376 -0.00472841358 -0.53220634189 0.47763481758 -0.00472267141 -0.52354611245 0.48081765506 -0.00471663584 -0.51501589550 0.48390749950 -0.00471035237 -0.50667196640 0.48688318422 -0.00485099686 -0.58704705271 0.46743376546 -0.00484998906 -0.57894424590 0.47090578684 -0.00484788296 -0.57062333950 0.47435725259 -0.00484472663 -0.56213792619 0.47776797751 -0.00484056810 -0.55354159863 0.48111777640 -0.00483545541 -0.54488794949 0.48438646405 -0.00482943663 -0.53623057143 0.48755385525 -0.00482255979 -0.52762305712 0.49059976479 -0.00481487293 -0.51911899924 0.49350400747 -0.00480642412 -0.51077199044 0.49624639809 -0.00494314634 -0.58983222962 0.47674858832 -0.00494528171 -0.58200748348 0.48047203196 -0.00494551098 -0.57393944469 0.48409539576 -0.00494388498 -0.56568024698 0.48759902550 -0.00494045449 -0.55728202407 0.49096326696 -0.00493527031 -0.54879690972 0.49416846591 -0.00492838324 -0.54027703765 0.49719496814 -0.00491984409 -0.53177454159 0.50002311941 -0.00490970365 -0.52334155529 0.50263326550 -0.00489801272 -0.51503021248 0.50500575218 -0.00502978480 -0.59197657071 0.48569281041 -0.00503636340 -0.58458666295 0.48974665518 -0.00503990890 -0.57690739895 0.49359418725 -0.00504047781 -0.56899201701 0.49721532550 -0.00503812665 -0.56089375546 0.50058998879 -0.00503291190 -0.55266585261 0.50369809600 -0.00502489007 -0.54436154677 0.50651956601 -0.00501411768 -0.53603407626 0.50903431769 -0.00500065122 -0.52773667940 0.51122226992 -0.00498454719 -0.51952259450 0.51306334157 -0.00511009224 -0.59335455623 0.49424449985 -0.00512258919 -0.58659069625 0.49871100747 -0.00513056361 -0.57946440866 0.50283651367 -0.00513408338 -0.57203393960 0.50659904518 -0.00513321641 -0.56435753521 0.50997662870 -0.00512803057 -0.55649344164 0.51294729094 -0.00511859378 -0.54849990504 0.51548905861 -0.00510497391 -0.54043517155 0.51757995842 -0.00508723887 -0.53235748731 0.51919801708 -0.00506545654 -0.52432509847 0.52032126130 -0.00518324865 -0.59384066642 0.50238172478 -0.00520331415 -0.58792849535 0.50734643976 -0.00521696201 -0.58154768023 0.51180526161 -0.00522427992 -0.57476671804 0.51573235224 -0.00522535560 -0.56765410575 0.51910187353 -0.00522027673 -0.56027834030 0.52188798739 -0.00520913101 -0.55270791869 0.52406485571 -0.00519200615 -0.54501133785 0.52560664040 -0.00516898984 -0.53725709477 0.52648750333 -0.00514016978 -0.52951368641 0.52668160642 -0.00524843402 -0.59330938154 0.51008255332 -0.00527789333 -0.58850897218 0.51563430301 -0.00529859100 -0.58309442005 0.52048331766 -0.00531064569 -0.57715105565 0.52459741434 -0.00531417605 -0.57076420949 0.52794441009 -0.00530930074 -0.56401921208 0.53049212198 -0.00529613842 -0.55700139395 0.53220836706 -0.00527480774 -0.54979608559 0.53306096239 -0.00524542736 -0.54248861753 0.53301772502 -0.00520811593 -0.53516432027 0.53204647201 -0.00530482835 -0.59163518182 0.51732505361 -0.00534568179 -0.58824103872 0.52355594818 -0.00537493748 -0.58404183451 0.52885356843 -0.00539275892 -0.57914765571 0.53317639917 -0.00539930960 -0.57366858885 0.53648292521 -0.00539475302 -0.56771472046 0.53873163136 -0.00537925267 -0.56139613706 0.53988100241 -0.00535297205 -0.55482292517 0.53988952319 -0.00531607466 -0.54810517134 0.53871567849 -0.00526872399 -0.54135296207 0.53631795311 -0.00454653404 -0.57637171437 0.43721558013 -0.00454026540 -0.56805682027 0.44034922004 -0.00453336323 -0.55952839001 0.44356527342 -0.00452607295 -0.55084653366 0.44684109423 -0.00451864002 -0.54207136127 0.45015403640 -0.00451130986 -0.53326298291 0.45348145388 -0.00450432792 -0.52448150866 0.45680070060 -0.00449793965 -0.51578704857 0.46008913051 -0.00449239047 -0.50723971270 0.46332409754 -0.00448792584 -0.49889961113 0.46648295564 -0.00465029396 -0.58032484799 0.44751267779 -0.00464449469 -0.57202458151 0.45068021270 -0.00463803129 -0.56351132330 0.45392030223 -0.00463112700 -0.55484406994 0.45721066672 -0.00462400502 -0.54608181799 0.46052902650 -0.00461688859 -0.53728356402 0.46385310192 -0.00461000092 -0.52850830461 0.46716061331 -0.00460356524 -0.51981503631 0.47042928101 -0.00459780476 -0.51126275571 0.47363682537 -0.00459294271 -0.50291045935 0.47676096672 -0.00475093002 -0.58401119092 0.45750731782 -0.00474631705 -0.57577927881 0.46077758431 -0.00474081957 -0.56733240902 0.46408913214 -0.00473463801 -0.55872700535 0.46742061998 -0.00472797283 -0.55001949158 0.47075070653 -0.00472102446 -0.54126629150 0.47405805045 -0.00471399335 -0.53252382890 0.47732131043 -0.00470707994 -0.52384852756 0.48051914515 -0.00470048468 -0.51529681127 0.48363021329 -0.00469440802 -0.50692510381 0.48663317352 -0.00484762908 -0.58730555523 0.46717725031 -0.00484511014 -0.57922981200 0.47062272068 -0.00484125205 -0.57092858315 0.47405495467 -0.00483623371 -0.56245560031 0.47745361205 -0.00483023403 -0.55386459512 0.48079835254 -0.00482343189 -0.54520929919 0.48406883589 -0.00481600619 -0.53654344417 0.48724472185 -0.00480813583 -0.52792076167 0.49030567016 -0.00479999971 -0.51939498333 0.49323134056 -0.00479177673 -0.51101984077 0.49600139280 -0.00493957802 -0.59008275298 0.47650022539 -0.00494025160 -0.58228508091 0.48019700765 -0.00493885274 -0.57423678167 0.48380096138 -0.00493554183 -0.56599011526 0.48729230092 -0.00493047923 -0.55759734169 0.49065124056 -0.00492382531 -0.54911072096 0.49385799462 -0.00491574044 -0.54058251307 0.49689277742 -0.00490638499 -0.53206497803 0.49973580325 -0.00489591933 -0.52361037583 0.50236728644 -0.00488450382 -0.51527096649 0.50476744130 -0.00502596370 -0.59221759623 0.48545399316 -0.00503111907 -0.58485398537 0.48948183104 -0.00503314565 -0.57719394056 0.49331034380 -0.00503219009 -0.56929081063 0.49691934462 -0.00502839904 -0.56119794439 0.50028864664 -0.00502191916 -0.55296869066 0.50339806305 -0.00501289709 -0.54465639827 0.50622740700 -0.00500147948 -0.53631441602 0.50875649167 -0.00498781299 -0.52799609274 0.51096513022 -0.00497204426 -0.51975477725 0.51283313581 -0.00510597300 -0.59358489705 0.49401630373 -0.00511709020 -0.58684542521 0.49845857669 -0.00512365477 -0.57973699581 0.50256629347 -0.00512580621 -0.57231794685 0.50631740115 -0.00512368407 -0.56464661630 0.50968984682 -0.00511742787 -0.55678134215 0.51266157757 -0.00510717713 -0.54878046240 0.51521054048 -0.00509307139 -0.54070231502 0.51731468264 -0.00507525017 -0.53260523800 0.51895195114 -0.00505385301 -0.52454756932 0.52010029306 -0.00517879279 -0.59405946752 0.50216490720 -0.00519754265 -0.58816830026 0.50710863043 -0.00520990410 -0.58180288340 0.51155200192 -0.00521601792 -0.57503178434 0.51546912854 -0.00521602491 -0.56792357050 0.51883411715 -0.00521006586 -0.56054680929 0.52162107458 -0.00519828156 -0.55297006812 0.52380410772 -0.00518081279 -0.54526191440 0.52535732340 -0.00515780036 -0.53749091554 0.52625482848 -0.00512938504 -0.52972563896 0.52647072983 -0.00524360994 -0.59351611968 0.50987755369 -0.00527185405 -0.58873151035 0.51541337808 -0.00529141764 -0.58332853930 0.52025066070 -0.00530245295 -0.57739258354 0.52435718480 -0.00530511218 -0.57100902008 0.52770073365 -0.00529954758 -0.56426322592 0.53024909049 -0.00528591136 -0.55724057808 0.53197003858 -0.00526435576 -0.55002645355 0.53283136117 -0.00523503300 -0.54270622933 0.53280084151 -0.00519809531 -0.53536528245 0.53184626287 -0.00529961131 -0.59182966562 0.51713199330 -0.00533940205 -0.58844395531 0.52335420547 -0.00536771941 -0.58425089950 0.52864546133 -0.00538473901 -0.57936060488 0.53296422795 -0.00539063648 -0.57388317813 0.53626897237 -0.00538558745 -0.56792872592 0.53851816168 -0.00536976754 -0.56160735493 0.53967026293 -0.00534335238 -0.55502917183 0.53968374317 -0.00530651759 -0.54830428332 0.53851706949 -0.00525943880 -0.54154279605 0.53612870893 -0.00454085049 -0.57558751836 0.43734128322 -0.00453260845 -0.56761188215 0.44032859034 -0.00452363942 -0.55935498933 0.44342907737 -0.00451430189 -0.55089439505 0.44661335899 -0.00450495436 -0.54230765447 0.44985204992 -0.00449595532 -0.53367232275 0.45311576484 -0.00448766326 -0.52506595502 0.45637511846 -0.00448043666 -0.51656610646 0.45960072548 -0.00447463402 -0.50825033220 0.46276320059 -0.00447061382 -0.50019618740 0.46583315850 -0.00464481823 -0.57953526760 0.44764205720 -0.00463722775 -0.57157224820 0.45066042152 -0.00462891863 -0.56333015531 0.45378230593 -0.00462020731 -0.55488504013 0.45697885805 -0.00461141022 -0.54631295386 0.46022122550 -0.00460284381 -0.53768994767 0.46348055589 -0.00459482452 -0.52909207278 0.46672799683 -0.00458766878 -0.52059538036 0.46993469594 -0.00458169306 -0.51227592162 0.47307180083 -0.00457721377 -0.50420974774 0.47611045912 -0.00474550850 -0.58321145094 0.45763925833 -0.00473915369 -0.57530984904 0.46075190364 -0.00473191823 -0.56713158707 0.46393782504 -0.00472408049 -0.55874913130 0.46716951175 -0.00471591883 -0.55023494801 0.47041945297 -0.00470771160 -0.54166150346 0.47366013793 -0.00469973718 -0.53310126393 0.47686405584 -0.00469227390 -0.52462669568 0.48000369592 -0.00468560015 -0.51631026499 0.48305154737 -0.00467999427 -0.50822443812 0.48598009941 -0.00484209444 -0.58649838953 0.46730355639 -0.00483776740 -0.57873968392 0.47057809234 -0.00483218135 -0.57070036975 0.47387339949 -0.00482558124 -0.56244876483 0.47716353975 -0.00481821202 -0.55405318697 0.48042257502 -0.00481031863 -0.54558195400 0.48362456720 -0.00480214601 -0.53710338373 0.48674357820 -0.00479393911 -0.52868579398 0.48975366992 -0.00478594286 -0.52039750256 0.49262890426 -0.00477840222 -0.51230682730 0.49534334313 -0.00493374917 -0.58927840449 0.47660562118 -0.00493245004 -0.58177675210 0.48011404325 -0.00492925114 -0.57397758851 0.48356679407 -0.00492436937 -0.56594603698 0.48693916175 -0.00491802163 -0.55774722079 0.49020643434 -0.00491042480 -0.54944626319 0.49334389994 -0.00490179579 -0.54110828745 0.49632684662 -0.00489235147 -0.53279841683 0.49913056248 -0.00488230875 -0.52458177461 0.50173033558 -0.00487188452 -0.51652348404 0.50410145401 -0.00501964584 -0.59143381695 0.48551612249 -0.00502258277 -0.58433605281 0.48933481199 -0.00502267075 -0.57690432849 0.49299577358 -0.00502010468 -0.56920304404 0.49647459740 -0.00501507948 -0.56129659950 0.49974687362 -0.00500779004 -0.55324939492 0.50278819237 -0.00499843128 -0.54512583034 0.50557414381 -0.00498719809 -0.53699030582 0.50808031810 -0.00497428538 -0.52890722139 0.51028230538 -0.00495988806 -0.52094097710 0.51215569580 -0.00509895756 -0.59284694806 0.49400573013 -0.00510754674 -0.58633258531 0.49821545421 -0.00511198332 -0.57942167485 0.50213810280 -0.00511244698 -0.57218188227 0.50574806641 -0.00510911740 -0.56468087315 0.50901973555 -0.00510217426 -0.55698631309 0.51192750073 -0.00509179725 -0.54916586768 0.51444575248 -0.00507816604 -0.54128720251 0.51654888130 -0.00506146032 -0.53341798317 0.51821127771 -0.00504185976 -0.52562587526 0.51940733222 -0.00517085746 -0.59340011893 0.50204511387 -0.00518672311 -0.58768134885 0.50673102553 -0.00519673200 -0.58147071274 0.51097154652 -0.00520105607 -0.57484464794 0.51473778843 -0.00519986722 -0.56787959178 0.51800086282 -0.00519333738 -0.56065198160 0.52073188126 -0.00518163848 -0.55323825472 0.52290195533 -0.00516494242 -0.54571484848 0.52448219660 -0.00514342112 -0.53815820022 0.52544371664 -0.00511724652 -0.53064474726 0.52575762702 -0.00523451869 -0.59297565070 0.50960494352 -0.00525949303 -0.58829734266 0.51485658158 -0.00527645994 -0.58299252730 0.51947386954 -0.00528559175 -0.57715343732 0.52342198315 -0.00528706077 -0.57087230543 0.52666609813 -0.00528103932 -0.56424136433 0.52917139019 -0.00526769973 -0.55735284672 0.53090303508 -0.00524721430 -0.55029898531 0.53182620852 -0.00521975536 -0.54317201279 0.53190608623 -0.00518549522 -0.53606416187 0.53110784394 -0.00528911437 -0.59145586451 0.51665588887 -0.00532523765 -0.58809556600 0.52256717799 -0.00535071028 -0.58392820369 0.52762283665 -0.00536571383 -0.57907034669 0.53177887025 -0.00537042988 -0.57363856415 0.53499128416 -0.00536504000 -0.56774942519 0.53721608376 -0.00534972577 -0.56151949895 0.53840927443 -0.00532466877 -0.55506535457 0.53852686157 -0.00529005059 -0.54850356116 0.53752485053 -0.00524605279 -0.54195068787 0.53535924671 -0.00453300879 -0.57373880438 0.43787436912 -0.00452316733 -0.56641793008 0.44059316736 -0.00451283226 -0.55868707613 0.44347961977 -0.00450236419 -0.55065852531 0.44649108934 -0.00449212370 -0.54244456040 0.44958493906 -0.00448247140 -0.53415746418 0.45271853191 -0.00447376788 -0.52590951943 0.45584923089 -0.00446637375 -0.51781300892 0.45893439898 -0.00446064961 -0.50998021544 0.46193139917 -0.00445695606 -0.50252342175 0.46479759445 -0.00463745999 -0.57767749093 0.44817998960 -0.00462847013 -0.57036485922 0.45092442998 -0.00461896999 -0.56264777313 0.45382724153 -0.00460927789 -0.55463623046 0.45684665162 -0.00459971219 -0.54644022905 0.45994088763 -0.00459059120 -0.53816976673 0.46306817694 -0.00458223328 -0.52993484132 0.46618674692 -0.00457495675 -0.52184545064 0.46925482494 -0.00456907995 -0.51401159253 0.47223063839 -0.00456492122 -0.50654326480 0.47507241464 -0.00473835289 -0.58133785482 0.45817714646 -0.00473057141 -0.57407209794 0.46099957379 -0.00472214339 -0.56641319120 0.46395211229 -0.00471335066 -0.55846552764 0.46699512298 -0.00470447501 -0.55033350033 0.47008896691 -0.00469579824 -0.54212150232 0.47319400511 -0.00468760216 -0.53393392667 0.47627059859 -0.00468016857 -0.52587516644 0.47927910841 -0.00467377928 -0.51804961469 0.48217989558 -0.00466871609 -0.51056166447 0.48493332114 -0.00483483900 -0.58461679636 0.46782278626 -0.00482885243 -0.57746677313 0.47078105995 -0.00482191336 -0.56993291882 0.47382092202 -0.00481427277 -0.56211257416 0.47690542525 -0.00480618167 -0.55410307987 0.47999762241 -0.00479789105 -0.54600177670 0.48306056627 -0.00478965191 -0.53790600537 0.48605730960 -0.00478171525 -0.52991310660 0.48895090517 -0.00477433206 -0.52212042114 0.49170440575 -0.00476775335 -0.51462528972 0.49428086412 -0.00492606981 -0.58741121590 0.47707385552 -0.00492269449 -0.58047601171 0.48023134961 -0.00491784075 -0.57315654449 0.48340036072 -0.00491173451 -0.56554352733 0.48654648026 -0.00490460168 -0.55772767333 0.48963529965 -0.00489666817 -0.54979969562 0.49263241029 -0.00488815990 -0.54185030727 0.49550340361 -0.00487930279 -0.53397022141 0.49821387102 -0.00487032275 -0.52625015113 0.50072940393 -0.00486144569 -0.51878080954 0.50301559376 -0.00501119684 -0.58961801376 0.48588730078 -0.00501147886 -0.58302694058 0.48931290394 -0.00500948646 -0.57603365667 0.49265711837 -0.00500542617 -0.56872454445 0.49588720984 -0.00499950455 -0.56118598635 0.49897044414 -0.00499192815 -0.55350436481 0.50187408704 -0.00498290353 -0.54576606226 0.50456540432 -0.00497263723 -0.53805746114 0.50701166175 -0.00496133581 -0.53046494388 0.50918012513 -0.00494920582 -0.52307489290 0.51103806023 -0.00508937158 -0.59113409027 0.49422006858 -0.00509458683 -0.58504668666 0.49798818410 -0.00509641135 -0.57851384385 0.50155788495 -0.00509503803 -0.57162178283 0.50489653583 -0.00509065979 -0.56445672456 0.50797150140 -0.00508346953 -0.55710489003 0.51075014636 -0.00507366015 -0.54965250021 0.51319983539 -0.00506142457 -0.54218577608 0.51528793317 -0.00504695569 -0.53479093861 0.51698180439 -0.00503044642 -0.52755420879 0.51824881372 -0.00515974554 -0.59185634576 0.50202910546 -0.00517139968 -0.58646237685 0.50621965124 -0.00517817630 -0.58054669452 0.51006935045 -0.00518026039 -0.57420139978 0.51354338004 -0.00517783691 -0.56751859361 0.51660691695 -0.00517109085 -0.56059037701 0.51922513813 -0.00516020717 -0.55350885098 0.52136322052 -0.00514537085 -0.54636611650 0.52298634107 -0.00512676686 -0.53925427457 0.52405967671 -0.00510458019 -0.53226542619 0.52454840439 -0.00522147023 -0.59168168057 0.50927135796 -0.00524129868 -0.58720113806 0.51396976652 -0.00525434220 -0.58208179715 0.51815820485 -0.00526078353 -0.57642955260 0.52179666432 -0.00526080543 -0.57035029914 0.52484513631 -0.00525459065 -0.56394993151 0.52726361221 -0.00524232195 -0.55733434445 0.52901208339 -0.00522418207 -0.55060943269 0.53005054123 -0.00520035378 -0.54388109099 0.53033897712 -0.00517101982 -0.53725521406 0.52983738243 -0.00527369714 -0.59050699502 0.51590377261 -0.00530366512 -0.58719009719 0.52120099111 -0.00532446990 -0.58306874023 0.52579113813 -0.00533629773 -0.57827239861 0.52962531049 -0.00533933484 -0.57293054680 0.53265460499 -0.00533376748 -0.56717265926 0.53483011845 -0.00531978187 -0.56112821048 0.53610294767 -0.00529756426 -0.55492667493 0.53642418946 -0.00526730090 -0.54869752708 0.53574494064 -0.00522917801 -0.54257024140 0.53401629800 -0.00452338595 -0.57081526015 0.43882708680 -0.00451278547 -0.56446664360 0.44115419696 -0.00450219619 -0.55751787420 0.44372726147 -0.00449186116 -0.55013323926 0.44648391150 -0.00448202343 -0.54247702609 0.44936177820 -0.00447292607 -0.53471352201 0.45229849274 -0.00446481212 -0.52700701433 0.45523168627 -0.00445792464 -0.51952179036 0.45809898995 -0.00445250668 -0.51242213741 0.46083803495 -0.00444880131 -0.50587234279 0.46338645241 -0.00462866155 -0.57474147962 0.44913828146 -0.00461914210 -0.56839432519 0.45148301454 -0.00460950431 -0.56145760309 0.45406497462 -0.00459997532 -0.55409214164 0.45682315819 -0.00459078223 -0.54645876914 0.45969656171 -0.00458215218 -0.53871831390 0.46262418166 -0.00457431227 -0.53103160424 0.46554501451 -0.00456748963 -0.52355946847 0.46839805675 -0.00456191137 -0.51646273489 0.47112230483 -0.00455780463 -0.50990223182 0.47365675524 -0.00472992427 -0.57838091755 0.45913203346 -0.00472150132 -0.57205837451 0.46153064169 -0.00471280453 -0.56517100146 0.46414115630 -0.00470404722 -0.55787099279 0.46690588753 -0.00469544272 -0.55031054286 0.46976714564 -0.00468720433 -0.54264184608 0.47266724087 -0.00467954539 -0.53501709681 0.47554848347 -0.00467267921 -0.52758848945 0.47835318368 -0.00466681911 -0.52050821838 0.48102365175 -0.00466217841 -0.51392847797 0.48350219794 -0.00482630882 -0.58165201648 0.46874504249 -0.00481925685 -0.57540399107 0.47124078164 -0.00481169057 -0.56862044987 0.47390585725 -0.00480381184 -0.56144218272 0.47668693318 -0.00479582254 -0.55400997951 0.47953067326 -0.00478792454 -0.54646463009 0.48238374136 -0.00478031970 -0.53894692433 0.48519280131 -0.00477320990 -0.53159765210 0.48790451696 -0.00476679700 -0.52455760326 0.49046555217 -0.00476128287 -0.51796756769 0.49282257077 -0.00491694994 -0.58447321895 0.47791400823 -0.00491180242 -0.57837637439 0.48055713760 -0.00490575616 -0.57176832886 0.48330912823 -0.00489900415 -0.56477810147 0.48612112876 -0.00489173936 -0.55753471130 0.48894428784 -0.00488415479 -0.55016717747 0.49172975412 -0.00487644341 -0.54280451906 0.49442867622 -0.00486879820 -0.53557575518 0.49699220281 -0.00486141215 -0.52860990492 0.49937148251 -0.00485447824 -0.52203598739 0.50151766398 -0.00500098234 -0.58676296753 0.48657563037 -0.00499853174 -0.58092072397 0.48942341278 -0.00499459504 -0.57457701901 0.49230101996 -0.00498935911 -0.56785113904 0.49516330792 -0.00498301084 -0.56086237049 0.49796513264 -0.00497573709 -0.55372999977 0.50066135013 -0.00496772473 -0.54657331330 0.50320681640 -0.00495916063 -0.53951159749 0.50555638743 -0.00495023168 -0.53266413875 0.50766491923 -0.00494112474 -0.52615022350 0.50948726781 -0.00507754075 -0.58843970474 0.49466660861 -0.00507883853 -0.58298223934 0.49778331042 -0.00507780094 -0.57700890087 0.50083158322 -0.00507461172 -0.57063368547 0.50376830429 -0.00506945463 -0.56397058932 0.50655035092 -0.00506251343 -0.55713360855 0.50913460040 -0.00505397187 -0.55023673932 0.51147793001 -0.00504401370 -0.54339397779 0.51353721704 -0.00503282269 -0.53671932012 0.51526933878 -0.00502058259 -0.53032676245 0.51663117251 -0.00514575989 -0.58942187313 0.50212364263 -0.00515211652 -0.58450612000 0.50558053372 -0.00515496759 -0.57902635500 0.50885086873 -0.00515449693 -0.57309813078 0.51189095151 -0.00515088839 -0.56683700001 0.51465708595 -0.00514432581 -0.56035851533 0.51710557591 -0.00513499304 -0.55377822940 0.51919272525 -0.00512307393 -0.54721169488 0.52087483786 -0.00510875230 -0.54077446441 0.52210821760 -0.00509221202 -0.53458209066 0.52284916834 -0.00520477448 -0.58962791526 0.50888343212 -0.00521775943 -0.58543756546 0.51275878591 -0.00522568872 -0.58059176196 0.51630892724 -0.00522874972 -0.57521686499 0.51948608323 -0.00522712978 -0.56943923481 0.52224248099 -0.00522101624 -0.56338523167 0.52453034764 -0.00521059647 -0.55718121582 0.52630191031 -0.00519605781 -0.55095354752 0.52750939610 -0.00517758762 -0.54482858701 0.52810503213 -0.00515537325 -0.53893269455 0.52804104553 -0.00525371926 -0.58897627366 0.51488267676 -0.00527516098 -0.58572177525 0.51926177020 -0.00528955808 -0.58166750231 0.52315580951 -0.00529710507 -0.57696227812 0.52650853307 -0.00529799645 -0.57175492596 0.52926367931 -0.00529242671 -0.56619426911 0.53136498660 -0.00528059035 -0.56042913087 0.53275619335 -0.00526268186 -0.55460833451 0.53338103796 -0.00523889575 -0.54888070331 0.53318325883 -0.00520942650 -0.54339506056 0.53210659435 -0.00451235902 -0.56680657344 0.44021168523 -0.00450230628 -0.56174970226 0.44202292500 -0.00449298560 -0.55584060731 0.44418236330 -0.00448439412 -0.54931285171 0.44660145169 -0.00447652898 -0.54239999857 0.44919164173 -0.00446938733 -0.53533561103 0.45186438499 -0.00446296629 -0.52835325219 0.45453113301 -0.00445726302 -0.52168648518 0.45710333737 -0.00445227465 -0.51556887312 0.45949244962 -0.00444799832 -0.51023397913 0.46160992133 -0.00461886523 -0.57071719531 0.45052873928 -0.00461016393 -0.56565255669 0.45234695162 -0.00460184057 -0.55975307155 0.45450537078 -0.00459393614 -0.55324727439 0.45691748850 -0.00458649166 -0.54636369968 0.45949679654 -0.00457954813 -0.53933088192 0.46215678665 -0.00457314655 -0.53237735559 0.46481095059 -0.00456732792 -0.52573165517 0.46737278010 -0.00456213326 -0.51962231517 0.46975576694 -0.00455760356 -0.51427787005 0.47187340286 -0.00472068370 -0.57433115415 0.46051497056 -0.00471287453 -0.56926102774 0.46235515426 -0.00470521111 -0.56339879792 0.46451411950 -0.00469776888 -0.55696032516 0.46691023923 -0.00469062332 -0.55016146994 0.46946188645 -0.00468384986 -0.54321809275 0.47208743413 -0.00467752397 -0.53634605405 0.47470525525 -0.00467172109 -0.52976121433 0.47723372279 -0.00466651667 -0.52367943408 0.47959120974 -0.00466198618 -0.51831657376 0.48169608907 -0.00481694997 -0.57759529062 0.47008042765 -0.00480987225 -0.57254424919 0.47196641554 -0.00480275548 -0.56675718238 0.47413654016 -0.00479570201 -0.56043274493 0.47651572815 -0.00478881423 -0.55376959154 0.47902890613 -0.00478219451 -0.54696637695 0.48160100074 -0.00477594520 -0.54022175586 0.48415693862 -0.00477016870 -0.53373438301 0.48662164638 -0.00476496736 -0.52770291311 0.48892005067 -0.00476044355 -0.52232600087 0.49097707812 -0.00490679955 -0.58045644539 0.47913515915 -0.00490059127 -0.57547135478 0.48109961805 -0.00489413194 -0.56980762090 0.48330056347 -0.00488754520 -0.56364527459 0.48566997951 -0.00488095468 -0.55716434667 0.48813985027 -0.00487448404 -0.55054486797 0.49064215983 -0.00486825692 -0.54396686932 0.49310889231 -0.00486239695 -0.53761038156 0.49547203178 -0.00485702778 -0.53165543551 0.49766356235 -0.00485227304 -0.52628206200 0.49961546812 -0.00498936796 -0.58286145913 0.48758921366 -0.00498446575 -0.57801147828 0.48967364442 -0.00497899875 -0.57252950944 0.49193412015 -0.00497310810 -0.56657865503 0.49430901760 -0.00496693495 -0.56032201749 0.49673671354 -0.00496062046 -0.55392269924 0.49915558474 -0.00495430577 -0.54754380272 0.50150400794 -0.00494813203 -0.54134843034 0.50372035991 -0.00494224040 -0.53549968454 0.50574301742 -0.00493677203 -0.53016066774 0.50751035721 -0.00506379073 -0.58475717249 0.49535263976 -0.00506092987 -0.58013375345 0.49760737725 -0.00505701416 -0.57490224396 0.49996514088 -0.00505220038 -0.56921362716 0.50236886667 -0.00504664531 -0.56321888620 0.50476149063 -0.00504050573 -0.55706900422 0.50708594878 -0.00503393841 -0.55091496434 0.50928517713 -0.00502710015 -0.54490774970 0.51130211169 -0.00502014771 -0.53919834346 0.51307968850 -0.00501323788 -0.53393772873 0.51456084355 -0.00512920337 -0.58609042614 0.50233548606 -0.00512941780 -0.58180731404 0.50481969916 -0.00512783644 -0.57690522043 0.50732155639 -0.00512463172 -0.57153093188 0.50978555099 -0.00511997605 -0.56583123499 0.51215617621 -0.00511404184 -0.55995291633 0.51437792529 -0.00510700151 -0.55404276247 0.51639529149 -0.00509902748 -0.54824756001 0.51815276805 -0.00509029216 -0.54271409551 0.51959484822 -0.00508096796 -0.53758915556 0.52066602525 -0.00518474141 -0.58680806075 0.50844780114 -0.00518936370 -0.58300129382 0.51122949276 -0.00519112384 -0.57851783481 0.51393129737 -0.00519021177 -0.57351131009 0.51649509482 -0.00518681744 -0.56813534603 0.51886276495 -0.00518113078 -0.56254356902 0.52097618761 -0.00517334173 -0.55688960542 0.52277724265 -0.00516364023 -0.55132708161 0.52420780990 -0.00515221623 -0.54600962396 0.52520976923 -0.00513925966 -0.54109085886 0.52572500046 -0.00522954036 -0.58685691696 0.51359963360 -0.00524020174 -0.58368482655 0.51675564065 -0.00524653461 -0.57971948307 0.51972229453 -0.00524875020 -0.57513550268 0.52243352242 -0.00524705976 -0.57010750152 0.52482325154 -0.00524167452 -0.56481009573 0.52682540907 -0.00523280571 -0.55941790146 0.52837392222 -0.00522066459 -0.55410553485 0.52940271817 -0.00520546238 -0.54904761206 0.52984572414 -0.00518741033 -0.54441874923 0.52963686731 </DataArray>
</PointData>
<Points>
<DataArray type="Float32" NumberOfComponents="3">
0.78585461676 0.30346614637 1.70405209311 0.81719684273 0.30881448244 1.69825779382 0.84069861671 0.31493712661 1.69151143782 0.85636161759 0.32160175907 1.68407728068 0.86418752427 0.32857606006 1.67621957796 0.86417801566 0.33562770977 1.66820258520 0.85633477066 0.34252438842 1.66029055796 0.84065946817 0.34903377624 1.65274775180 0.81715378708 0.35492355342 1.64583842228 0.78581940631 0.35996140018 1.63982682495 0.77036060816 0.31520971842 1.71426118047 0.80181032589 0.32057096072 1.70846569315 0.82539321103 0.32668820169 1.70173569860 0.84111081382 0.33333405218 1.69432993909 0.84896468449 0.34028112308 1.68650715692 0.84895637328 0.34730202526 1.67852609436 0.84108743042 0.35416936959 1.67064549370 0.82535940613 0.36065576694 1.66312409723 0.80177385066 0.36653382819 1.65622064723 0.77033231422 0.37157616420 1.65019388599 0.75322542547 0.32664661601 1.72390769202 0.78474513686 0.33204033475 1.71812187632 0.80838106897 0.33814093574 1.71144577674 0.82413461707 0.34473360123 1.70412396168 0.83200717646 0.35160351350 1.69640099959 0.83200014239 0.35853585482 1.68852145888 0.82411491016 0.36531580747 1.68072990798 0.80835287504 0.37172855371 1.67327091532 0.78471543231 0.37755927582 1.66638904931 0.75320397724 0.38259315606 1.66032887839 0.73471797371 0.33768252865 1.73287894988 0.76599780508 0.34312543604 1.72714674521 0.78945442144 0.34920247207 1.72057959233 0.80508904241 0.35571591756 1.71340274122 0.81290288763 0.36246805335 1.70584144188 0.81289717673 0.36926116029 1.69812094430 0.80507312936 0.37589751920 1.69046649847 0.78943196513 0.38217941093 1.68310335438 0.76597490370 0.38790911631 1.67625676202 0.73470316468 0.39288891617 1.67015197138 0.71510715794 0.34822314585 1.74106227619 0.74556486000 0.35372909610 1.73546070170 0.76840549935 0.35977995400 1.72907506546 0.78363010488 0.36619651252 1.72210967047 0.79123970547 0.37279956469 1.71476881970 0.79123533004 0.37940990349 1.70725681616 0.78361800747 0.38584832191 1.69977796285 0.76838876666 0.39193561297 1.69253656275 0.74554863649 0.39749256965 1.68573691886 0.71509864587 0.40233998496 1.67958333418 0.69466188319 0.35817415712 1.74834499305 0.72344283105 0.36375414644 1.74298414768 0.74502653362 0.36978052483 1.73687011624 0.75941381954 0.37609089747 1.73018814218 0.76660551747 0.38252286955 1.72312346894 0.76660245607 0.38891404625 1.71586133999 0.75940546398 0.39510203274 1.70858699877 0.74501536986 0.40092443422 1.70148568873 0.72343300236 0.40621885585 1.69474265333 0.69465919014 0.41082290283 1.68854313602 0.67365105450 0.36744125198 1.75461442259 0.69962824767 0.37310341856 1.74963748503 0.71910975515 0.37911132788 1.74390266474 0.73209620146 0.38531458375 1.73758154911 0.73858821109 0.39156278998 1.73084572551 0.73858640855 0.39770555040 1.72386678132 0.73209141835 0.40359246881 1.71681630391 0.71910386499 0.40907314904 1.70986588066 0.69962437297 0.41399719490 1.70318709894 0.67365356681 0.41821421020 1.69695154614 0.65234357692 0.37593011994 1.75975788692 0.67411763929 0.38167974398 1.75534111563 0.69044739487 0.38767950646 1.75011063107 0.70133326569 0.39378308270 1.74423328404 0.70677567380 0.39984414803 1.73787592532 0.70677504124 0.40571637777 1.73120540569 0.70133179005 0.41125344726 1.72438857593 0.69044634229 0.41630903182 1.71759228684 0.67411911999 0.42073680679 1.71098338919 0.65235054520 0.42439044748 1.70472873377 0.63100835548 0.38354645050 1.76366270818 0.64690753536 0.38938595421 1.76001544136 0.65883168368 0.39539220389 1.75543193531 0.66678102729 0.40141190568 1.75008673971 0.67075579306 0.40729176574 1.74415440426 0.67075620786 0.41287849020 1.73780947863 0.66678249856 0.41801878522 1.73122651252 0.65883489201 0.42255935694 1.72458005561 0.64691361508 0.42634691152 1.71804465758 0.63101889464 0.42922815509 1.71179486813 0.60991429523 0.39019593317 1.76621620847 0.61799446531 0.39612488075 1.76358086411 0.62405485249 0.40215656347 1.75980449755 0.62809550132 0.40811656403 1.75508530889 0.63011645636 0.41383046515 1.74962149824 0.63011776218 0.41912384951 1.74361126568 0.62809946334 0.42382229982 1.73725281133 0.62406160439 0.42775139878 1.73074433527 0.61800422991 0.43073672909 1.72428403762 0.60992738445 0.43260387344 1.71807011846 0.74696507076 0.29908243630 1.70866120920 0.76893369970 0.30563915764 1.70142151793 0.78540704605 0.31273960801 1.69350883932 0.79638625169 0.32022051969 1.68510943123 0.80187245848 0.32791862497 1.67640955153 0.80186680829 0.33567065614 1.66759545807 0.79637044300 0.34331334546 1.65885340870 0.78538450446 0.35068342523 1.65036966130 0.76891013456 0.35761762773 1.64233047371 0.74694847515 0.36395268524 1.63492210379 0.73139472177 0.31081252891 1.71888212640 0.75346937437 0.31739238497 1.71165673881 0.77002266414 0.32449947587 1.70376741519 0.78105561825 0.33197394029 1.69539654491 0.78656926390 0.33965591688 1.68672651733 0.78656462827 0.34738554433 1.67793972183 0.78104273854 0.35500296130 1.66921854777 0.77000462188 0.36234830646 1.66074538453 0.75345130549 0.36926171847 1.65270262148 0.73138381655 0.37558333603 1.64527264798 0.71417690062 0.32224843834 1.72856005477 0.73635820405 0.32888957980 1.72139742096 0.75299191941 0.33601202063 1.71359036758 0.76407895353 0.34346446860 1.70531154988 0.76962021323 0.35109563153 1.69673362314 0.76961660536 0.35875421720 1.68802924262 0.76406903674 0.36628893341 1.67937106357 0.75297841421 0.37354848795 1.67093174125 0.73634564460 0.38038158862 1.66288393094 0.71417163473 0.38663694320 1.65540028789 0.69567111974 0.33334711859 1.73755809048 0.71771713571 0.34008068113 1.73054489880 0.73424982881 0.34722480469 1.72290445016 0.74526998050 0.35463952508 1.71479652073 0.75077837224 0.36218487813 1.70638088667 0.75077578547 0.36972089966 1.69781732416 0.74526300163 0.37710762548 1.68926560937 0.73424080219 0.38420509140 1.68088551846 0.71770996858 0.39087333325 1.67283682762 0.69567128226 0.39697238685 1.66527931300 0.67623689160 0.34406552365 1.74573932968 0.69766311630 0.35091562793 1.73900050677 0.71373140927 0.35808539047 1.73163641663 0.72444242219 0.36544653015 1.72379353200 0.72979680671 0.37287076589 1.71561832561 0.72979521450 0.38022981659 1.70725727019 0.72443829723 0.38739540115 1.69885683846 0.71372670656 0.39423923847 1.69056350318 0.69766109416 0.40063304747 1.68252373706 0.67624211169 0.40644854703 1.67488401284 0.65623372863 0.35436060752 1.75296686853 0.67631309280 0.36134435922 1.74666557929 0.69137167775 0.36854134039 1.73971302067 0.70141000158 0.37583290425 1.73224465827 0.70642858242 0.38310040401 1.72439595765 0.70642793838 0.39022519289 1.71630238442 0.70140858756 0.39708862410 1.70809940414 0.69137104807 0.40357205085 1.69992248240 0.67631583805 0.40955682635 1.69190708480 0.65624347558 0.41492430383 1.68418867690 0.63602114328 0.36418932421 1.75910380318 0.65378401217 0.37131681397 1.75344145078 0.66710565117 0.37854021687 1.74706101597 0.67598644169 0.38574606781 1.74009197408 0.68042676516 0.39282090171 1.73266380050 0.68042700300 0.39965125346 1.72490597058 0.67598753663 0.40612365799 1.71694795967 0.66710874747 0.41212465020 1.70891924315 0.65379101695 0.41754076500 1.70094929638 0.63603472649 0.42225853730 1.69316759471 0.61595864799 0.37350862770 1.76401322979 0.63019282138 0.38078293118 1.75922945569 0.64086834648 0.38802958231 1.75360715620 0.64798546551 0.39513344126 1.74727755402 0.65154442070 0.40197936817 1.74037187185 0.65154545428 0.40845222320 1.73302133240 0.64798880848 0.41443686649 1.72535715836 0.64087472551 0.41981815821 1.71751057244 0.63020344760 0.42448095850 1.70961279734 0.61597521698 0.42831012752 1.70179505576 0.59640575521 0.38227547199 1.76755824453 0.60565646739 0.38969264983 1.76393092844 0.61259478061 0.39695699914 1.75927819506 0.61722079604 0.40394244504 1.75374347263 0.61953461483 0.41052291262 1.74747018940 0.61953633814 0.41657232700 1.74060177360 0.61722606711 0.42196461327 1.73328165348 0.61260390291 0.42657369655 1.72565325727 0.60566994669 0.43027350195 1.71786001322 0.59642429961 0.43293795457 1.71004534956 0.57772197739 0.39044681107 1.76960194354 0.58029189717 0.39799590892 1.76744720345 0.58221997052 0.40527002978 1.76400088623 0.58350615629 0.41212049958 1.75943180449 0.58415041333 0.41839864426 1.75390877085 0.58415270048 0.42395578975 1.74760059792 0.58351297656 0.42864326198 1.74067609832 0.58223120044 0.43231238690 1.73330408466 0.58030733095 0.43481449043 1.72565336956 0.57774132693 0.43600089850 1.71789276563 0.70198657220 0.29571168294 1.71203231514 0.71638887704 0.30317124451 1.70370379457 0.72718913624 0.31100272083 1.69491320576 0.73438802199 0.31909458555 1.68578821115 0.73798620650 0.32733531233 1.67645647320 0.73798436197 0.33561337484 1.66704565436 0.73438316062 0.34381724672 1.65768341709 0.72718327463 0.35183540165 1.64849742383 0.71638537622 0.35955631327 1.63961533705 0.70199013759 0.36686845524 1.63116481920 0.68646179160 0.30743243485 1.72226328435 0.70093868015 0.31492266081 1.71396065480 0.71179519053 0.32276970289 1.70519863861 0.71903190926 0.33086429475 1.69610225810 0.72264942287 0.33909717005 1.68679653559 0.72264831789 0.34735906246 1.67740649341 0.71902918084 0.35554070566 1.66805715387 0.71179259824 0.36353283329 1.65887353931 0.70093915663 0.37122617904 1.64998067203 0.68646944252 0.37851147656 1.64150357436 0.66949178970 0.31886941980 1.73196701101 0.68403025671 0.32644222694 1.72376676291 0.69493325411 0.33432837137 1.71510813232 0.70220128749 0.34242415327 1.70610974181 0.70583486243 0.35062587283 1.69689021393 0.70583448452 0.35882983023 1.68756817124 0.70220065932 0.36693232565 1.67826223629 0.69493389243 0.37482965928 1.66909103164 0.68403468943 0.38241813131 1.66017317985 0.66950355589 0.38959404191 1.65162730346 0.65145400869 0.33001779653 1.74098816328 0.66584668028 0.33771509059 1.73300901026 0.67664062360 0.34565657249 1.72456001659 0.68383626597 0.35374554382 1.71575176706 0.68743403470 0.36188530612 1.70669484646 0.68743435711 0.36997916095 1.69749983960 0.68383766051 0.37793040987 1.68827733127 0.67664437222 0.38564235445 1.67913790625 0.66585491955 0.39301829623 1.67019214935 0.65146972982 0.39996153678 1.66155064536 0.63272589074 0.34087272377 1.74917140932 0.64657102443 0.34872639942 1.74157428821 0.65695459562 0.35673215248 1.73347262107 0.66387695399 0.36479984907 1.72496943858 0.66733844920 0.37283935535 1.71616777141 0.66733943092 0.38076053744 1.70717065024 0.66388024884 0.38847326148 1.69808110573 0.65696125261 0.39588739361 1.68900216856 0.64658279192 0.40291279997 1.68003686941 0.63274521642 0.40945934670 1.67128823894 0.61368487806 0.35142936026 1.75636141727 0.62638636274 0.35946130114 1.74934948811 0.63591246680 0.36753295754 1.74176427545 0.64226346084 0.37555845173 1.73370386114 0.64543961544 0.38345190597 1.72526632701 0.64544120122 0.39112744252 1.71654975488 0.64226848875 0.39849918365 1.70765222659 0.63592174863 0.40548125162 1.69867182397 0.62640125146 0.41198776870 1.68970662886 0.61370726784 0.41793285716 1.68085472308 0.59470841282 0.36168286472 1.76240285529 0.60547576877 0.36990494342 1.75622150130 0.61355153376 0.37803683391 1.74935330940 0.61893589582 0.38599273448 1.74189613949 0.62162904297 0.39368684341 1.73394785148 0.62163116324 0.40103335900 1.72560630528 0.61894244467 0.40794647953 1.71696936079 0.61356307529 0.41434040330 1.70813487791 0.60549324312 0.42012932858 1.69920071656 0.59473313619 0.42522745368 1.69026473664 0.57617393722 0.37162839590 1.76714039155 0.58402231610 0.38004247395 1.76207721915 0.58990909313 0.38822162780 1.75615805258 0.59383436821 0.39607408000 1.74948737837 0.59579824128 0.40350805312 1.74216968306 0.59580081226 0.41043176970 1.73430945317 0.59384218106 0.41675345230 1.72601117523 0.58992244760 0.42238132348 1.71737933579 0.58404171181 0.42722360578 1.70851842137 0.57620007360 0.43118852176 1.69953291851 0.55845889343 0.38126111253 1.77041869419 0.56220907830 0.38985904040 1.76680353300 0.56502244152 0.39806518542 1.76209683467 0.56689898733 0.40577387100 1.75641868255 0.56783871992 0.41287942054 1.74988915997 0.56784164352 0.41927615744 1.74262835029 0.56690776233 0.42485840512 1.73475633686 0.56503708057 0.42952048699 1.72639320303 0.56222960246 0.43315672645 1.71765903214 0.55848533220 0.43566144692 1.70867390755 0.54194072366 0.39057617334 1.77208243137 0.54021912893 0.39933979047 1.77028733422 0.53892887557 0.40754535301 1.76708798535 0.53806986245 0.41506349016 1.76263115677 0.53764198840 0.42176483110 1.75706362045 0.53764515228 0.42752000503 1.75053214839 0.53807925294 0.43219964116 1.74318351259 0.53894418923 0.43567436868 1.73516448504 0.54023986000 0.43781481677 1.72662183772 0.54196616411 0.43849161465 1.71770234264 0.65265960000 0.29336419854 1.71417765987 0.66078658302 0.30141906352 1.70511586963 0.66688183130 0.30973324129 1.69573489800 0.67094562347 0.31822964183 1.68612324668 0.67297823815 0.32683117510 1.67636941736 0.67297995395 0.33546075109 1.66656191174 0.67095104949 0.34404127976 1.65678923151 0.66689180341 0.35249567109 1.64713987836 0.66080249432 0.36074683504 1.63770235400 0.65268340084 0.36871768159 1.62856516011 0.63726774796 0.30507947461 1.72441646080 0.64541822578 0.31316987766 1.71538821755 0.65153127173 0.32150545640 1.70603923442 0.65560711586 0.33001061485 1.69645618942 0.65764598822 0.33860975702 1.68672576051 0.65764811886 0.34722728695 1.67693462569 0.65561373782 0.35578760865 1.66716946295 0.65154307517 0.36421512613 1.65751695028 0.64543636094 0.37243424342 1.64806376566 0.63729382519 0.38036936453 1.63889658707 0.62078388526 0.31651904540 1.73413961198 0.62889779035 0.32470592718 1.72523994909 0.63498357000 0.33309620792 1.71600823339 0.63904141317 0.34161785681 1.70652697130 0.64107150886 0.35019884306 1.69687866925 0.64107404604 0.35876713589 1.68714583365 0.63904921370 0.36725070450 1.67741097094 0.63499720082 0.37557751808 1.66775658754 0.62891819638 0.38367554586 1.65826518987 0.62081238937 0.39147275703 1.64901928436 0.60355345953 0.32770332174 1.74317927087 0.61143768590 0.33603575297 1.73454823772 0.61735135725 0.34450355599 1.72555462659 0.62129462601 0.35303881935 1.71627614483 0.62326764459 0.36157363162 1.70679049982 0.62327056543 0.37004008136 1.69717539890 0.62130354092 0.37837025714 1.68750854945 0.61736672351 0.38649624751 1.67786765883 0.61146026561 0.39435014104 1.66833043438 0.60358431963 0.40186402630 1.65897458349 0.58592191842 0.33865271448 1.75136759494 0.59325032157 0.34716789592 1.74319025688 0.59874726463 0.35572556076 1.73459114568 0.60241286496 0.36426095411 1.72564426249 0.60424723994 0.37270932108 1.71642360846 0.60425050693 0.38100590681 1.70700318474 0.60242278328 0.38908595640 1.69745699248 0.59876418637 0.39688471497 1.68785903283 0.59327483357 0.40433742765 1.67828330693 0.58595484224 0.41137933954 1.66880381595 0.56823470957 0.34938763445 1.75853674165 0.57454810652 0.35811089691 1.75104318004 0.57928392327 0.36676028236 1.74303052237 0.58244224063 0.37527171271 1.73457187679 0.58402313942 0.38358110985 1.72574035143 0.58402670046 0.39162439568 1.71660905446 0.58245300457 0.39933749211 1.70725109401 0.57930213255 0.40665632104 1.69773957823 0.57457416523 0.41351680436 1.68814761526 0.56826918343 0.41985486398 1.67854831325 0.55083728063 0.35992849250 1.76451886846 0.55554344992 0.36887329683 1.75798418065 0.55907396431 0.37760578095 1.75078548833 0.56142886360 0.38605854680 1.74299954020 0.56260818756 0.39416419631 1.73470308497 0.56261197595 0.40185533143 1.72597287135 0.56144026857 0.40906455410 1.71688564803 0.55909310518 0.41572446626 1.70751816371 0.55557052556 0.42176766986 1.69794716710 0.55087256948 0.42712676683 1.68824940691 0.53407507925 0.37029569945 1.76914613285 0.53644876091 0.37946363656 1.76389043217 0.53823001890 0.38826011666 1.75776877524 0.53941884447 0.39660890800 1.75086780523 0.54001522887 0.40443377885 1.74327416533 0.54001916332 0.41165849750 1.73507449870 0.53943063909 0.41820683219 1.72635544852 0.53824964740 0.42400255121 1.71720365796 0.53647617950 0.42896942283 1.70770577020 0.53411022663 0.43303121530 1.69794842842 0.51829355306 0.38050966615 1.77225069228 0.51747644865 0.38989045700 1.76863910806 0.51686471817 0.39872134963 1.76389311479 0.51645829384 0.40691024795 1.75811722438 0.51625710787 0.41436505588 1.75141594875 0.51626109249 0.42099367733 1.74389379981 0.51647017991 0.42670401622 1.73565528948 0.51688430234 0.43140397645 1.72680492967 0.51750339201 0.43500146195 1.71744723231 0.51832738113 0.43740437662 1.70768670929 0.50383814972 0.39059080344 1.77366470421 0.49883892230 0.40016229902 1.77210738178 0.49509069326 0.40898754000 1.76907123866 0.49259332229 0.41695001829 1.76468835013 0.49134666909 0.42393322578 1.75909079147 0.49135059337 0.42982065439 1.75241063796 0.49260495482 0.43449579600 1.74477996489 0.49510961315 0.43784214254 1.73633084752 0.49886442806 0.43974318590 1.72719536114 0.50386925925 0.44008241798 1.71750558104 0.60072463311 0.29205029535 1.71510949237 0.60335102589 0.30039093510 1.70566898895 0.60532207528 0.30893794560 1.69598427686 0.60663775111 0.31763137370 1.68612416403 0.60729802322 0.32641126625 1.67615745838 0.60730286144 0.33521767010 1.66615296785 0.60665223560 0.34399063212 1.65617950037 0.60534611555 0.35267019915 1.64630586385 0.60338447111 0.36119641805 1.63660086624 0.60076727212 0.36950933567 1.62713331545 0.58551852117 0.30376368655 1.72535346224 0.58810799379 0.31214212490 1.71595020351 0.59005138923 0.32071331005 1.70629906823 0.59134866704 0.32941839986 1.69646744963 0.59199978675 0.33819855224 1.68652274091 0.59200470789 0.34699492507 1.67653233529 0.59136339001 0.35574867624 1.66656362598 0.59007579264 0.36440096363 1.65668400620 0.58814187532 0.37289294515 1.64696086915 0.58556159759 0.38116577866 1.63746160806 0.56966697982 0.31520680011 1.73508890891 0.57209730050 0.32368833152 1.72582702644 0.57392136398 0.33232175020 1.71629983321 0.57513912476 0.34105078079 1.70657167219 0.57575053731 0.34981914791 1.69670688638 0.57575555613 0.35857057619 1.68676981875 0.57515413570 0.36724879026 1.67682481230 0.57394623051 0.37579751474 1.66693621001 0.57213179506 0.38416047426 1.65716835486 0.56971078382 0.39228139345 1.64758558984 0.55345629125 0.32641245346 1.74414151580 0.55554139965 0.33504975684 1.73517173930 0.55710658119 0.34377153567 1.72589661514 0.55815178783 0.35252419727 1.71637731867 0.55867697151 0.36125414897 1.70667502528 0.55868208419 0.36990779811 1.69685091034 0.55816707783 0.37843155203 1.68696614921 0.55713190437 0.38677181805 1.67708191726 0.55557651578 0.39487500350 1.66725938986 0.55350086400 0.40268751573 1.65755974239 0.53717273767 0.33741346403 1.75233696637 0.53866274488 0.34624660278 1.74385662363 0.53978162252 0.35507093604 1.73499945735 0.54052931981 0.36383433007 1.72582487602 0.54090578595 0.37248465113 1.71639228811 0.54091097013 0.38096976548 1.70676110214 0.54054482155 0.38923753940 1.69699072657 0.53980728942 0.39723583914 1.68714056992 0.53869832293 0.40491253098 1.67727004066 0.53721787129 0.41221548116 1.66743854729 0.52110260126 0.34824264923 1.75950094403 0.52168378980 0.35729907124 1.75175396098 0.52212106964 0.36622822093 1.74351840321 0.52241438429 0.37497685999 1.73485483118 0.52256367724 0.38349175010 1.72582380536 0.52256889199 0.39171965296 1.71648588624 0.52242997203 0.39960733023 1.70690163427 0.52214686086 0.40710154361 1.69713160995 0.52171950198 0.41414905479 1.68723637374 0.52114783887 0.42069662544 1.67727648611 0.50553216423 0.35893282649 1.76545913222 0.50482698804 0.36822736410 1.75873603290 0.50429950420 0.37725165993 1.75136349605 0.50394964481 0.38594746781 1.74340767110 0.50377734198 0.39425654161 1.73493470752 0.50378252781 0.40212063518 1.72601075473 0.50396513441 0.40948150237 1.71670196219 0.50432509389 0.41628089704 1.70707447933 0.50486233836 0.42246057305 1.69719445560 0.50557679992 0.42796228424 1.68712804044 0.49074770875 0.36951681323 1.77003721439 0.48831479324 0.37905168329 1.76467512093 0.48649150787 0.38814952263 1.75844477921 0.48527776495 0.39674183431 1.75142388275 0.48467347678 0.40476012135 1.74369012507 0.48467855565 0.41213588679 1.73532119971 0.48529291386 0.41880063367 1.72639480018 0.48651646373 0.42468586501 1.71698862002 0.48834911754 0.42972308386 1.70718035274 0.49079078761 0.43384379325 1.69704769188 0.47703551702 0.38002742688 1.77306087395 0.47236965901 0.38979223068 1.76944350662 0.46887166231 0.39893007865 1.76467229604 0.46654140827 0.40735564028 1.75884395306 0.46537877823 0.41498358506 1.75205518852 0.46538365354 0.42172858246 1.74440271326 0.46655591554 0.42750530198 1.73598323814 0.46889544557 0.43222841311 1.72689347399 0.47240212498 0.43581258534 1.71723013166 0.47707583511 0.43817248814 1.70708992199 0.46468187124 0.39049748485 1.77435579435 0.45721403899 0.40046920819 1.77291347152 0.45161454919 0.40960159759 1.76995608989 0.44788323834 0.41778456651 1.76560836899 0.44601994296 0.42490802843 1.75999502835 0.44602449954 0.43086189682 1.75324078748 0.44789674459 0.43553608517 1.74547036593 0.45163651461 0.43882050692 1.73680848320 0.45724364611 0.44060507558 1.72737985884 0.46471797560 0.44077970460 1.71730921237 0.54792215046 0.29178028563 1.71484006161 0.54530641391 0.30009517973 1.70537439841 0.54334681220 0.30862360999 1.69567170318 0.54204309989 0.31730546634 1.68580058943 0.54139503153 0.32608063873 1.67582967066 0.54140236168 0.33488901709 1.66582756037 0.54206484492 0.34367049134 1.65586287207 0.54338223578 0.35236495143 1.64600421926 0.54535428884 0.36091228730 1.63632021546 0.54798075866 0.36925238887 1.62687947416 0.53292004152 0.30349510903 1.72508609516 0.53020796672 0.31184749196 1.71565738911 0.52817602456 0.32039983750 1.70598800561 0.52682399182 0.32909314908 1.69614514949 0.52615164528 0.33786843014 1.68619602560 0.52615876171 0.34666668411 1.67620783879 0.52684511790 0.35542891441 1.66624779390 0.52821049062 0.36409612448 1.65638309579 0.53025465665 0.37260931776 1.64668094929 0.53297739277 0.38090949767 1.63720855926 0.51775486591 0.31494216893 1.73482595303 0.51476528267 0.32339709096 1.72553804188 0.51252513299 0.33201121817 1.71599209419 0.51103421644 0.34072812680 1.70625227832 0.51029233258 0.34949139304 1.69638276262 0.51029928095 0.35824459312 1.68644771544 0.51105486111 0.36693130325 1.67651130515 0.51255887262 0.37549509964 1.66663770010 0.51481111504 0.38387955850 1.65689106865 0.51781138792 0.39202825604 1.64733557915 0.50264932286 0.32615395094 1.74388500066 0.49920906864 0.33476419075 1.73488867314 0.49663084687 0.34346629203 1.72559431722 0.49491447863 0.35220652315 1.71606295320 0.49405978503 0.36093115248 1.70635560142 0.49406658717 0.36958644841 1.69653328218 0.49493470615 0.37811867929 1.68665701581 0.49666396309 0.38647411350 1.67678782262 0.49925417907 0.39459901942 1.66698672295 0.50270517521 0.40243966541 1.65731473710 0.48782611156 0.33716294067 1.75208860343 0.48377003153 0.34596900536 1.74358159932 0.48072987555 0.35477359907 1.73470502298 0.47870548324 0.36352446179 1.72551815143 0.47769669423 0.37216933351 1.71608026171 0.47770334815 0.38065595424 1.70645063084 0.47872528463 0.38893206397 1.69668853585 0.48076234331 0.39694540270 1.68685325376 0.48381436380 0.40464371043 1.67700406161 0.48788118575 0.41197472715 1.66720023641 0.47350793124 0.34800162371 1.75926212678 0.46867887822 0.35703174882 1.75148913684 0.46505892841 0.36594167931 1.74323455976 0.46264793514 0.37467806637 1.73455885030 0.46144575178 0.38318756117 1.72552246322 0.46145223166 0.39141681490 1.71618585329 0.46266722814 0.39931247873 1.70660947527 0.46509059457 0.40682120386 1.69685378393 0.46872218430 0.41388964144 1.68697923404 0.47356185068 0.42046444268 1.67704628035 0.45991748110 0.35870248566 1.76523093610 0.45416631559 0.36797263515 1.75848360213 0.44985471481 0.37697907278 1.75109327584 0.44698253921 0.38566346056 1.74312602707 0.44554964928 0.39396746052 1.73464792564 0.44555590548 0.40183273466 1.72572504136 0.44700116829 0.40920094501 1.71642344405 0.44988529818 0.41601375357 1.70680920355 0.45420815562 0.42221282236 1.69694838966 0.45996960109 0.42773981340 1.68690707221 0.44727746036 0.36929801214 1.76982039681 0.44046305054 0.37881187837 1.76443731160 0.43535394412 0.38789431947 1.75819151952 0.43195000032 0.39647676802 1.75116065905 0.43025107834 0.40449065660 1.74342236869 0.43025703739 0.41186741781 1.73505428690 0.43196773668 0.41853848424 1.72613405218 0.43538303543 0.42443528847 1.71673930302 0.44050279283 0.42948926309 1.70694767789 0.44732686811 0.43363184069 1.69683681528 0.43581056822 0.37982068873 1.77285587432 0.42779978994 0.38956969252 1.76922258169 0.42179332572 0.39869595941 1.76443963908 0.41779102333 0.40711411239 1.75860372352 0.41579273055 0.41473877446 1.75181151207 0.41579829516 0.42148456862 1.74415968177 0.41780756491 0.42726611785 1.73574490965 0.42182038760 0.43199804516 1.72666387276 0.42783661099 0.43559497353 1.71701324815 0.43585608285 0.43797152596 1.70688971285 0.42573950391 0.39030300104 1.77416273404 0.41640724069 0.40026629161 1.77271172882 0.40940956896 0.40939253260 1.76974798280 0.40474631312 0.41757161734 1.76539619777 0.40241729752 0.42469343916 1.75978107551 0.40242234656 0.43064789137 1.75302731780 0.40476128459 0.43532486730 1.74525962644 0.40943393599 0.43861426026 1.73660270319 0.41644012515 0.44040596360 1.72718124985 0.42577967643 0.44058987061 1.71711996819 0.49599263099 0.29256448164 1.71338161655 0.48787695534 0.30054011785 1.70424334389 0.48179298610 0.30879701067 1.69480753782 0.47774036477 0.31725760495 1.68516214912 0.47571873288 0.32584434553 1.67539512856 0.47572773192 0.33447967725 1.66559442694 0.47776700341 0.34308604498 1.65584799501 0.48183618886 0.35158589354 1.64624378355 0.48793492977 0.35990166780 1.63686974335 0.49606286766 0.36795581260 1.62781382517 0.48117823933 0.30428378041 1.72362616603 0.47291812712 0.31229406822 1.71452055081 0.46672565923 0.32057161241 1.70511591214 0.46260051921 0.32904036179 1.69549839976 0.46054239063 0.33762426517 1.68575416340 0.46055095704 0.34624727135 1.67596935279 0.46262590200 0.35483332914 1.66623011768 0.46676690907 0.36330638735 1.65662260779 0.47297366182 0.37159039479 1.64723297287 0.48124584379 0.37960930027 1.63814736264 0.46666133609 0.31573463685 1.73336179559 0.45803823238 0.32383985649 1.72438304234 0.45157337395 0.33217083177 1.71509417876 0.44726648243 0.34065509641 1.70557722351 0.44511727946 0.34922018414 1.69591419525 0.44512548669 0.35779362868 1.68618711262 0.44729082575 0.36630296378 1.67647799428 0.45161301828 0.37467572316 1.66686885889 0.45809178592 0.38283944054 1.65744172509 0.46672685031 0.39072164967 1.64827861153 0.45261937332 0.32693657343 1.74241982799 0.44349193997 0.33518614324 1.73370819737 0.43664870571 0.34359360556 1.72465606782 0.43208942562 0.35209064258 1.71534071305 0.42981385474 0.36060893649 1.70583940677 0.42982174813 0.36908016946 1.69622942270 0.43211286085 0.37743602368 1.68658803454 0.43668694795 0.38560818133 1.67699251600 0.44354376450 0.39352832460 1.66752014080 0.45268306554 0.40112813566 1.65824818264 0.43922980313 0.33790911266 1.75063158597 0.42953391871 0.34634158901 1.74237339480 0.42226422994 0.35483887057 1.73371530945 0.41742051992 0.36333583407 1.72473096103 0.41500257178 0.37176735626 1.71549398061 0.41501016860 0.38006831386 1.70607799930 0.41744309351 0.38817358361 1.69655664816 0.42230112960 0.39601804224 1.68700355830 0.42958405999 0.40353656650 1.67749236080 0.43929166779 0.41066403311 1.66809668675 0.42667007758 0.34867177701 1.75782839227 0.41641883744 0.35731485436 1.75025601351 0.40873252206 0.36590556359 1.74218563380 0.40361093652 0.37437950466 1.73369006012 0.40105388592 0.38267227750 1.72484209943 0.40106117536 0.39071948208 1.71571455869 0.40363260993 0.39845671835 1.70638024488 0.40876799472 0.40581958627 1.69691196496 0.41646713483 0.41274368579 1.68738252590 0.42672983535 0.41916461686 1.67786473466 0.41511764875 0.35924408898 1.76384156963 0.40440136501 0.36811459987 1.75723343240 0.39636615751 0.37679262144 1.74998077101 0.39101184657 0.38521048810 1.74216010299 0.38833825251 0.39330053426 1.73384794586 0.38834519565 0.40099509432 1.72512081716 0.39103249630 0.40822650269 1.71605523442 0.39639997479 0.41492709379 1.70672771515 0.40444745143 0.42102920202 1.69721477689 0.41517474655 0.42646516178 1.68759293716 0.40474996873 0.36964557106 1.76850244080 0.39373617025 0.37874948609 1.76318303036 0.38547771173 0.38749898090 1.75701445120 0.37997442125 0.39581761818 1.75008318229 0.37722612689 0.40362896057 1.74247570257 0.37723265672 0.41085657076 1.73427849099 0.37999383884 0.41742401140 1.72557802649 0.38550950132 0.42325484516 1.71646078804 0.39377947224 0.42827263472 1.70701325456 0.40480357968 0.43240094273 1.69732190503 0.39574448959 0.37989574573 1.77164232853 0.38467792200 0.38922817357 1.76798218627 0.37637976015 0.39802357878 1.76320040452 0.37084983171 0.40618972866 1.75740139069 0.36808796438 0.41363439050 1.75068955219 0.36809398583 0.42026533160 1.74316929643 0.37086772374 0.42599031926 1.73494503083 0.37640900579 0.43071712077 1.72612116279 0.38471765967 0.43435350344 1.71680209973 0.39579351306 0.43680723456 1.70709224906 0.38827866341 0.39001413549 1.77309255554 0.37748128909 0.39955932288 1.77150827904 0.36938487819 0.40836535187 1.76845236111 0.36398924913 0.41631565331 1.76405682087 0.36129422033 0.42329365808 1.75845367739 0.36129961021 0.42918279703 1.75177494979 0.36400523719 0.43386650105 1.74415265715 0.36941091970 0.43722820099 1.73571881858 0.37751647616 0.43915132773 1.72660545318 0.38832172499 0.43951931213 1.71694458005 0.44667655363 0.29441319562 1.71074640616 0.43228685843 0.30173406992 1.70228707124 0.42149754100 0.30946492387 1.69340214159 0.41430824075 0.31749347469 1.68421846931 0.41071859708 0.32570743960 1.67486290649 0.41072824938 0.33399453582 1.66546230522 0.41433683706 0.34224248057 1.65614351758 0.42154399951 0.35033899108 1.64703339567 0.43234937615 0.35817178456 1.63825879159 0.44675260636 0.36562857825 1.62994655741 0.43199904491 0.30613973907 1.72098548134 0.41743845753 0.31348994309 1.71255046503 0.40652077473 0.32123520843 1.70369265340 0.39924567821 0.32926553726 1.69453631119 0.39561284960 0.33747093175 1.68520570312 0.39562197059 0.34574139407 1.67582509390 0.39927272282 0.35396692640 1.66651874827 0.40656478798 0.36203753092 1.65741093095 0.41749784771 0.36984320979 1.64862590666 0.43207158368 0.37727396519 1.64028794012 0.41800018286 0.31759368885 1.73070748783 0.40305264516 0.32502427914 1.72237207473 0.39184458378 0.33280681094 1.71361524933 0.38437571692 0.34083689120 1.70455494161 0.38064576277 0.34901012686 1.69530908157 0.38065443954 0.35722212487 1.68599559919 0.38440146541 0.36536849217 1.67673242448 0.39188655860 0.37334483569 1.66763748742 0.40310943728 0.38104676239 1.65882871800 0.41806981967 0.38836987920 1.65042404623 0.40485326165 0.32876908018 1.73975610039 0.38944126071 0.33632270286 1.73163947011 0.37788470916 0.34415925676 1.72309020191 0.37018335600 0.35218140115 1.71421826283 0.36633695022 0.36029179530 1.70513361990 0.36634524084 0.36839309847 1.69594624017 0.37020797686 0.37638796994 1.68676609068 0.37792490727 0.38417906898 1.67770313846 0.38949578108 0.39166905485 1.66886735056 0.40492034730 0.39876058683 1.66036869402 0.39273157543 0.33965994825 1.74797499381 0.37691614357 0.34737083907 1.74024022091 0.36505689192 0.35527207127 1.73203778367 0.35715359457 0.36327293175 1.72347017709 0.35320602561 0.37128270740 1.71463989617 0.35321395911 0.37921068512 1.70564943592 0.35717716917 0.38696615180 1.69660129135 0.36509542988 0.39445839435 1.68759795747 0.37696851531 0.40159669965 1.67874192927 0.39279619955 0.40829035461 1.67013570177 0.38180841840 0.35026032826 1.75520784287 0.36578913312 0.35815431258 1.74806189689 0.35377687309 0.36612477985 1.74037826714 0.34577143175 0.37408534764 1.73225458664 0.34177260256 0.38194963353 1.72378848843 0.34178017896 0.38963125506 1.71507760553 0.34579395439 0.39704382982 1.70621957099 0.35381372232 0.40410097538 1.69731201782 0.36583927617 0.41071630929 1.68845257906 0.38187040941 0.41680344912 1.67973888775 0.37225708470 0.36056425541 1.76129832235 0.35637206874 0.36865874818 1.75499206779 0.34446039369 0.37669690786 1.74803192483 0.33652186666 0.38459251347 1.74051539372 0.33255629472 0.39225934403 1.73253997472 0.33256348498 0.39961117856 1.72420316809 0.33654324454 0.40656179609 1.71560247407 0.34449538047 0.41302497564 1.70683539291 0.35641969988 0.41891449623 1.69799942488 0.37231600986 0.42414413689 1.68919207023 0.36425086853 0.37056576489 1.76609010703 0.34897678983 0.37886977069 1.76091830337 0.33752319478 0.38696798068 1.75491902929 0.32988989841 0.39476829387 1.74819650060 0.32607671574 0.40217860925 1.74085493312 0.32608346181 0.40910682585 1.73299854267 0.32990995163 0.41546084266 1.72473154507 0.33755600023 0.42114855870 1.71615815613 0.34902142264 0.42607787296 1.70738259167 0.36430603388 0.43015668447 1.69850906750 0.35796306404 0.38025889190 1.76942687170 0.34391513575 0.38877300491 1.76572817338 0.33338101736 0.39691752368 1.76095985303 0.32636052612 0.40458655348 1.75524180951 0.32285347926 0.41167419956 1.74869394167 0.32285969404 0.41807456719 1.74143614837 0.32637898770 0.42368176163 1.73358832848 0.33341117749 0.42838988814 1.72527038086 0.34395608066 0.43209305198 1.71660220435 0.35801351445 0.43468535841 1.70770369783 0.35356696541 0.38963767165 1.77115229113 0.34149894591 0.39835407565 1.76930924757 0.33244960249 0.40652506224 1.76607466859 0.32641874891 0.41402115695 1.76159522270 0.32340619892 0.42071288530 1.75601757842 0.32341176628 0.42647077284 1.74948840428 0.32643526477 0.43116534507 1.74215436879 0.33247650813 0.43466712754 1.73416214048 0.34153531014 0.43684664576 1.72565838788 0.35361148454 0.43757442526 1.71678977948 0.40171439731 0.29733673985 1.70694667939 0.37976033143 0.30368535640 1.69951682633 0.36329742094 0.31063412580 1.69146587535 0.35232542279 0.31801876074 1.68297917624 0.34684409393 0.32567497391 1.67424207882 0.34685319129 0.33343847799 1.66543993286 0.35235247183 0.34114498567 1.65675808819 0.36334169249 0.34863020964 1.64838189459 0.37982061022 0.35572986259 1.64049670187 0.40178898196 0.36227965721 1.63328785982 0.38708838857 0.30907302335 1.71717584759 0.36496894048 0.31544320598 1.70975790821 0.34838185260 0.32239719922 1.70172809498 0.33732689782 0.32977417478 1.69326799455 0.33180384902 0.33741330432 1.68455919357 0.33181247908 0.34515375956 1.67578327872 0.33735256087 0.35283471217 1.66712183664 0.34842386729 0.36029533385 1.65875645399 0.36502617120 0.36737479628 1.65086871745 0.38715924550 0.37391227116 1.64364021365 0.37338519878 0.32052880993 1.72687408097 0.35094501652 0.32695800988 1.71951518600 0.33411725939 0.33392537561 1.71156446833 0.32290171409 0.34127871275 1.70319386646 0.31729816729 0.34886582690 1.69457531887 0.31730640567 0.35653452368 1.68588076406 0.32292621592 0.36413260872 1.67728214052 0.33415738471 0.37150788762 1.66895138675 0.35099969873 0.37850816602 1.66106044125 0.37345294465 0.38498124951 1.65378124250 0.36083780681 0.33166023044 1.73590392040 0.33810827798 0.33818095817 1.72869164950 0.32106340866 0.34516902613 1.72090505449 0.30970299698 0.35248364444 1.71270326717 0.30402684108 0.35998402324 1.70424541936 0.30403473908 0.36752937266 1.69569064287 0.30972648912 0.37497890283 1.68719806951 0.32110188932 0.38219182390 1.67892683108 0.33816073783 0.38902734598 1.67103605940 0.36090283276 0.39534467923 1.66368488627 0.34967919152 0.34242341571 1.74412790677 0.32687844329 0.34906324091 1.73719028852 0.30978006774 0.35607852192 1.72967991253 0.29838387187 0.36334023964 1.72174267189 0.29268966272 0.37071937496 1.71352445973 0.29269724729 0.37808690880 1.70517116915 0.29840643261 0.38531382204 1.69682869327 0.30981702569 0.39227109560 1.68864292519 0.32692883356 0.39882971038 1.68075975803 0.34974166322 0.40486064727 1.67332508490 0.34014233178 0.35277449658 1.75140858094 0.31767523090 0.35955604816 1.74491409288 0.30082700398 0.36660423415 1.73781910154 0.28959746416 0.37379976814 1.73025855582 0.28398642457 0.38102336369 1.72236740464 0.28399369832 0.38815573441 1.71428059689 0.28961909855 0.39507759388 1.70613308147 0.30086243839 0.40166965568 1.69805980730 0.31772353095 0.40781263339 1.69019572327 0.34020218938 0.41338724061 1.68267577830 0.33246020645 0.36266960390 1.75760848378 0.31091835922 0.36961056999 1.75176605237 0.29476398473 0.37669653397 1.74525268060 0.28399689923 0.38381349971 1.73819739416 0.27861691896 0.39084747104 1.73072921875 0.27862386016 0.39768445181 1.72297718006 0.28401753908 0.40421044587 1.71507030379 0.29479777196 0.41031145705 1.70713761562 0.31096437506 0.41587348921 1.69930814126 0.33251716461 0.42078254620 1.69171090639 0.32686579440 0.37206486852 1.76259015617 0.30702754670 0.37917799645 1.75764915682 0.29215077733 0.38630579254 1.75191070880 0.28223530246 0.39333270415 1.74550566212 0.27728093824 0.40014317862 1.73856486674 0.27728750081 0.40662166330 1.73121917267 0.28225480635 0.41265260553 1.72359942988 0.29218267100 0.41812045266 1.71583648837 0.30707091092 0.42290965204 1.70806119811 0.32691934227 0.42690465100 1.70040440910 0.32359207449 0.38091642128 1.76621613897 0.30642251176 0.38820951760 1.76246639602 0.29354714913 0.39538238101 1.75772324523 0.28496579924 0.40230865124 1.75212983488 0.28067827474 0.40886196806 1.74582931328 0.28068438828 0.41491597119 1.73896482870 0.28498395250 0.42034430041 1.73167952943 0.29357678005 0.42502059544 1.72411656375 0.30646268358 0.42881849605 1.71641907997 0.32364147573 0.43161164198 1.70873022635 0.32287202559 0.38918039301 1.76834897306 0.30952297285 0.39665632352 1.76612075979 0.29951286747 0.40387667053 1.76262034896 0.29284151496 0.41069261077 1.75801638767 0.28950872082 0.41695532096 1.75247752303 0.28951429056 0.42251597780 1.74617240214 0.29285802968 0.42722575802 1.73926967209 0.29953974368 0.43093583833 1.73193797999 0.30955923807 0.43349739546 1.72434597295 0.32291631835 0.43476160611 1.71666229806 0.36284664098 0.30134542656 1.70199468523 0.33152158261 0.30640229774 1.69594385504 0.30802956995 0.31231139269 1.68900909993 0.29237060588 0.31883914829 1.68145389614 0.28454469324 0.32575200143 1.67354171992 0.28455183490 0.33281638897 1.66553604754 0.29239203371 0.33979874781 1.65770035523 0.30806529254 0.34646551482 1.65029811926 0.33157161424 0.35258312688 1.64359281588 0.36291100168 0.35791802087 1.63784792133 0.34815220061 0.31309367163 1.71220907124 0.31670955852 0.31816194628 1.70615365681 0.29312937434 0.32406415844 1.69923210246 0.27741160707 0.33057177362 1.69170256059 0.26955621570 0.33745625734 1.68382318359 0.26956315923 0.34448907510 1.67585212383 0.27743239666 0.35144169242 1.66804753373 0.29316388698 0.35808557482 1.66066756566 0.31675758919 0.36419218780 1.65397037202 0.34821346228 0.36953299689 1.64821410519 0.33443017638 0.32454948509 1.72187262625 0.30285184198 0.32964869974 1.71582242306 0.27916989772 0.33553274574 1.70895099818 0.26338426815 0.34198576263 1.70150243188 0.25549487782 0.34879188991 1.69372080443 0.25550165128 0.35573526711 1.68585019611 0.26340451307 0.36260003374 1.67813468719 0.27920338774 0.36917032934 1.67081835795 0.30289819983 0.37523029340 1.66414528865 0.33448887390 0.38056406547 1.65835955958 0.32205982781 0.33561878345 1.73087339061 0.29054423886 0.34076799773 1.72487389367 0.26690935563 0.34662869416 1.71810896052 0.25115507576 0.35300221803 1.71080339070 0.24328129688 0.35968991463 1.70318198371 0.24328791661 0.36649312922 1.69546953907 0.25117483257 0.37321320710 1.68789085631 0.26694194242 0.37965149353 1.68067073493 0.29058914376 0.38560933381 1.67403397446 0.32211633423 0.39088807320 1.66820537441 0.31142041444 0.34620748327 1.73909940469 0.28038255505 0.35142527988 1.73323180848 0.25710596362 0.35726354325 1.72664916291 0.24159051653 0.36354224256 1.71955531773 0.23383609013 0.37008134698 1.71215412265 0.23384256077 0.37670082568 1.70464942741 0.24160980481 0.38322064782 1.69724508176 0.25713769862 0.38946078259 1.69014493541 0.28042611854 0.39524119915 1.68355283811 0.31147494095 0.40038186667 1.67767263958 0.30289119582 0.35622150109 1.74643870886 0.27296259643 0.36152598583 1.74081990738 0.25051793724 0.36734883258 1.73451477880 0.23555707709 0.37352693893 1.72770809366 0.22807987483 0.37989720245 1.72058462249 0.22808618933 0.38629652069 1.71332913583 0.23557587942 0.39256179125 1.70612640422 0.25054880395 0.39852991168 1.69916119819 0.27300482178 0.40403777957 1.69261828827 0.30294379176 0.40892229248 1.68668244501 0.29685143149 0.36556675343 1.75277934346 0.26888016889 0.37097555520 1.74756193022 0.24790349201 0.37679610172 1.74164898161 0.23392124406 0.38287740987 1.73521159918 0.22693326827 0.38906849651 1.72842088447 0.22693940785 0.39521837850 1.72144793902 0.23393950603 0.40117607270 1.71446386437 0.24793340603 0.40679059597 1.70763976205 0.26892095106 0.41191096519 1.70114673361 0.29690198434 0.41638619720 1.69515588058 0.29368038099 0.37414915685 1.75800934888 0.26873107832 0.37967942762 1.75338161687 0.25002084349 0.38551689023 1.74799494478 0.23754950408 0.39151475810 1.74201571499 0.23131688769 0.39752624466 1.73561030983 0.23132282190 0.40340456332 1.72894511168 0.23756713429 0.40900292751 1.72218650289 0.25004965244 0.41417455065 1.71550086581 0.26877020395 0.41877264614 1.70905458280 0.29372861640 0.42265042743 1.70301403622 0.29375730386 0.38187462787 1.76201676548 0.27311113059 0.38754304271 1.75820270720 0.25762820721 0.39342273766 1.75349584176 0.24730834378 0.39936008634 1.74807032176 0.24215135037 0.40520146238 1.74210029982 0.24215703703 0.41079323940 1.73575992852 0.24732521383 0.41598179102 1.72922336046 0.25765569082 0.42061349087 1.72266474827 0.27314827806 0.42453471257 1.71625824452 0.29380278561 0.42759182975 1.71017800183 0.29746145964 0.38864908304 1.76468963360 0.28261613159 0.39447184012 1.76194894106 0.27148379872 0.40042518359 1.75809484597 0.26406424980 0.40633449732 1.75332530020 0.26035727357 0.41202516515 1.74783825565 0.26036265882 0.41732257094 1.74183166421 0.26408019429 0.42205209854 1.73550347777 0.27150966875 0.42603913181 1.72905164821 0.28265087095 0.42910905460 1.72267412743 0.29750358967 0.43108725077 1.71656886731 </DataArray>
</Points>
</Piece>
</StructuredGrid>
</VTKFile>
