<?xml version="1.0"?>
<VTKFile type="StructuredGrid" version="0.1">
<StructuredGrid WholeExtent="0 9 0 9 0 9">
<Piece Extent="0 9 0 9 0 9">
<PointData>
<DataArray type="Float32" Name="Deformation" format="ascii" NumberOfComponents="3">
-0.00031126988 0.00660740659 0.03474016740 -0.00033753164 0.00626684130 0.03489594198 -0.00035994658 0.00579262380 0.03498258828 -0.00038388492 0.00520486127 0.03501945371 -0.00041471688 0.00452366092 0.03502588570 -0.00045781268 0.00376912994 0.03502123166 -0.00051854252 0.00296137552 0.03502483901 -0.00060227664 0.00212050488 0.03505605518 -0.00071438523 0.00126662520 0.03513422759 -0.00086023853 0.00041984367 0.03527870366 -0.00034427705 0.00660862780 0.03390353226 -0.00038049225 0.00621724866 0.03391349934 -0.00041310873 0.00571484044 0.03389243430 -0.00044591023 0.00512170421 0.03384824759 -0.00048268049 0.00445814104 0.03378884967 -0.00052720324 0.00374445198 0.03372215099 -0.00058326223 0.00300093811 0.03365606200 -0.00065464120 0.00224790049 0.03359849316 -0.00074512390 0.00150564018 0.03355735491 -0.00085849406 0.00079445824 0.03354055772 -0.00036770053 0.00655357026 0.03291316310 -0.00041157400 0.00613115523 0.03280242681 -0.00045097148 0.00561681827 0.03268098105 -0.00048872776 0.00503055350 0.03254996892 -0.00052767764 0.00439235506 0.03241053349 -0.00057065591 0.00372221708 0.03226381786 -0.00062049737 0.00304013368 0.03211096513 -0.00068003681 0.00236609899 0.03195311837 -0.00075210903 0.00172010715 0.03179142069 -0.00083954884 0.00112215227 0.03162701517 -0.00038205167 0.00645028990 0.03180745470 -0.00043106941 0.00601385493 0.03159649412 -0.00047406961 0.00550136330 0.03138161969 -0.00051341881 0.00493210314 0.03116083744 -0.00055148353 0.00432536256 0.03093215337 -0.00059063031 0.00370042969 0.03069357350 -0.00063322568 0.00307659264 0.03044310384 -0.00068163616 0.00247313955 0.03017875042 -0.00073822829 0.00190935852 0.02989851923 -0.00080536860 0.00140453768 0.02960041631 -0.00038784182 0.00630684269 0.03062480184 -0.00043927100 0.00587064169 0.03032947097 -0.00048293792 0.00537128157 0.03002774135 -0.00052106467 0.00482704712 0.02971707290 -0.00055587336 0.00425622309 0.02939492551 -0.00058958608 0.00367709427 0.02905875910 -0.00062442492 0.00310794542 0.02870603358 -0.00066261197 0.00256706131 0.02833420887 -0.00070636933 0.00207272671 0.02794074486 -0.00075791909 0.00164322639 0.02752310146 -0.00038558233 0.00613128457 0.02940359931 -0.00043647129 0.00570680942 0.02903512709 -0.00047811118 0.00522937911 0.02865273718 -0.00051274665 0.00471607944 0.02825489504 -0.00054262233 0.00418399623 0.02784006612 -0.00056998284 0.00365021529 0.02740671589 -0.00059707284 0.00313182241 0.02695330980 -0.00062613695 0.00264590342 0.02647831331 -0.00065941980 0.00220954412 0.02598019187 -0.00069916603 0.00183983033 0.02545741093 -0.00037578455 0.00593167149 0.02818224189 -0.00042296281 0.00552765206 0.02774723218 -0.00046012421 0.00507846195 0.02728999830 -0.00048954604 0.00459989412 0.02681052360 -0.00051350561 0.00410774155 0.02630879141 -0.00053428023 0.00361779720 0.02578478508 -0.00055414719 0.00314585405 0.02523848794 -0.00057538380 0.00270770505 0.02466988332 -0.00060026735 0.00231914319 0.02407895457 -0.00063107516 0.00199596142 0.02346568503 -0.00035895983 0.00571605941 0.02699912436 -0.00039903808 0.00533846353 0.02649955595 -0.00042951177 0.00492133611 0.02597291586 -0.00045254413 0.00447918515 0.02542017833 -0.00047029841 0.00402651861 0.02484231759 -0.00048493786 0.00357784448 0.02424030788 -0.00049862572 0.00314767073 0.02361512344 -0.00051352523 0.00275050535 0.02296773850 -0.00053179964 0.00240085630 0.02229912729 -0.00055561220 0.00211323158 0.02161026407 -0.00033561951 0.00549250427 0.02589264150 -0.00036498963 0.00514453774 0.02532586812 -0.00038680867 0.00476080763 0.02473488100 -0.00040282223 0.00435464653 0.02412007897 -0.00041477592 0.00393938698 0.02348186086 -0.00042441537 0.00352836158 0.02282062551 -0.00043348617 0.00313490288 0.02213677174 -0.00044373395 0.00277234346 0.02143069841 -0.00045690432 0.00245401589 0.02070280433 -0.00047474288 0.00219325274 0.01995348836 -0.00030627494 0.00526906202 0.02490118809 -0.00032110998 0.00495116862 0.02425993841 -0.00033254969 0.00459968254 0.02360928486 -0.00034146162 0.00422697226 0.02294644527 -0.00034871334 0.00384540624 0.02226863743 -0.00035517238 0.00346735296 0.02157307917 -0.00036170631 0.00310518091 0.02085698830 -0.00036918268 0.00277125855 0.02011758264 -0.00037846904 0.00247795437 0.01935208001 -0.00039043294 0.00223763683 0.01855769821 -0.00025379794 0.00681071037 0.03522897549 -0.00026779202 0.00645678191 0.03557298881 -0.00028341205 0.00596426710 0.03578495066 -0.00030274818 0.00535478478 0.03589191680 -0.00032789056 0.00464995381 0.03592094296 -0.00036092931 0.00387139304 0.03589908489 -0.00040395459 0.00304072133 0.03585339831 -0.00045905654 0.00217955752 0.03581093896 -0.00052832529 0.00130952047 0.03579876260 -0.00061385099 0.00045222903 0.03584392494 -0.00027990577 0.00687951857 0.03434160144 -0.00030492735 0.00645597455 0.03448224336 -0.00032923840 0.00592180662 0.03454006268 -0.00035459861 0.00529637979 0.03453145649 -0.00038276766 0.00459905903 0.03447282191 -0.00041550523 0.00384920934 0.03438055604 -0.00045457100 0.00306619570 0.03427105597 -0.00050172467 0.00226938311 0.03416071882 -0.00055872590 0.00147813655 0.03406594169 -0.00062733440 0.00071182102 0.03400312168 -0.00029860111 0.00686772033 0.03330728217 -0.00033164872 0.00639786495 0.03327290550 -0.00036170165 0.00584070317 0.03318985023 -0.00039039495 0.00521340742 0.03306749882 -0.00041936365 0.00453315012 0.03291523373 -0.00045024279 0.00381710369 0.03274243743 -0.00048466742 0.00308244055 0.03255849237 -0.00052427256 0.00234633313 0.03237278101 -0.00057069326 0.00162595384 0.03219468583 -0.00062556456 0.00093847513 0.03203358926 -0.00031022558 0.00678495534 0.03215816437 -0.00034832893 0.00628934658 0.03197214732 -0.00038139426 0.00572558015 0.03175985234 -0.00041106615 0.00510876350 0.03152640971 -0.00043898914 0.00445400408 0.03127694971 -0.00046680781 0.00377640935 0.03101660261 -0.00049616672 0.00309108676 0.03075049869 -0.00052871042 0.00241314375 0.03048376823 -0.00056608349 0.00175768779 0.03022154150 -0.00060993048 0.00113982632 0.02996894879 -0.00031512080 0.00664086331 0.03092639468 -0.00035534080 0.00613731289 0.03060714090 -0.00038890871 0.00558106094 0.03027560804 -0.00041754116 0.00498534383 0.02993455511 -0.00044295474 0.00436339793 0.02958674113 -0.00046686608 0.00372845961 0.02923492514 -0.00049099177 0.00309376524 0.02888186614 -0.00051704845 0.00247255120 0.02853032316 -0.00054675270 0.00187805385 0.02818305521 -0.00058182116 0.00132350956 0.02784282132 -0.00031362839 0.00644508394 0.02964411979 -0.00035305714 0.00594865735 0.02920505835 -0.00038483748 0.00541176896 0.02876265634 -0.00041074893 0.00484604424 0.02831830094 -0.00043257106 0.00426310867 0.02787337930 -0.00045208339 0.00367458773 0.02742927857 -0.00047106546 0.00309210690 0.02698738592 -0.00049129683 0.00252729165 0.02654908849 -0.00051455703 0.00199176747 0.02611577345 -0.00054262559 0.00149715984 0.02568882795 -0.00030608997 0.00620725692 0.02834348634 -0.00034185077 0.00573027341 0.02779307173 -0.00036977302 0.00522232759 0.02724653628 -0.00039161843 0.00469376053 0.02670401315 -0.00040914870 0.00415491330 0.02616563549 -0.00042412554 0.00361612698 0.02563153646 -0.00043831066 0.00308774263 0.02510184922 -0.00045346577 0.00258010132 0.02457670692 -0.00047135257 0.00210354412 0.02405624271 -0.00049373278 0.00166841211 0.02354058975 -0.00029284715 0.00593702195 0.02705664102 -0.00032209450 0.00548905452 0.02639835316 -0.00034430782 0.00501736024 0.02575278688 -0.00036107859 0.00453138853 0.02511805767 -0.00037399827 0.00404058885 0.02449228100 -0.00038465833 0.00355441064 0.02387357237 -0.00039465024 0.00308230334 0.02326004725 -0.00040556546 0.00263371639 0.02264982113 -0.00041899547 0.00221809925 0.02204100949 -0.00043653172 0.00184490136 0.02143172781 -0.00027424156 0.00564401873 0.02581573047 -0.00029416114 0.00523189415 0.02504807470 -0.00030903435 0.00480149030 0.02430694715 -0.00032005838 0.00436182405 0.02358680042 -0.00032843039 0.00392191231 0.02288208712 -0.00033534756 0.00349077197 0.02218725984 -0.00034200707 0.00307741993 0.02149677121 -0.00034960610 0.00269087308 0.02080507382 -0.00035934182 0.00234014832 0.02010662029 -0.00037241142 0.00203426255 0.01939586321 -0.00025061480 0.00533788696 0.02465290137 -0.00025842351 0.00496568576 0.02376940846 -0.00026454509 0.00457934116 0.02293455613 -0.00026948674 0.00418796290 0.02213660735 -0.00027375565 0.00380066069 0.02136382512 -0.00027785902 0.00342654425 0.02060447244 -0.00028230403 0.00307472330 0.01984681230 -0.00028759788 0.00275430757 0.01907910768 -0.00029424777 0.00247440678 0.01828962159 -0.00030276087 0.00224413065 0.01746661702 -0.00018758364 0.00696318995 0.03559558460 -0.00019413339 0.00659923920 0.03608077709 -0.00020431845 0.00609300154 0.03638672586 -0.00021851389 0.00546722955 0.03654626785 -0.00023709479 0.00474467582 0.03659224001 -0.00026043626 0.00394809293 0.03655747929 -0.00028891336 0.00310023344 0.03647482265 -0.00032290119 0.00222384994 0.03637710701 -0.00036277483 0.00134169502 0.03629716935 -0.00040890937 0.00047652124 0.03626784659 -0.00020646587 0.00708268843 0.03467015640 -0.00022265279 0.00663502087 0.03490880466 -0.00023945102 0.00607703331 0.03502578751 -0.00025748362 0.00542738868 0.03504386701 -0.00027737361 0.00470474991 0.03498580524 -0.00029974405 0.00392777991 0.03487436429 -0.00032521798 0.00311514162 0.03473230621 -0.00035441845 0.00228549795 0.03458239310 -0.00038796849 0.00145751183 0.03444738703 -0.00042649116 0.00064984617 0.03435005006 -0.00022007567 0.00710333470 0.03360287459 -0.00024310423 0.00659789920 0.03362576789 -0.00026425445 0.00600861897 0.03357150575 -0.00028438895 0.00535055013 0.03345565015 -0.00030437038 0.00463874882 0.03329376309 -0.00032506136 0.00388827119 0.03310140653 -0.00034732451 0.00311417338 0.03289414246 -0.00037202248 0.00233151153 0.03268753287 -0.00040001790 0.00155534177 0.03249713974 -0.00043217338 0.00080072024 0.03233852505 -0.00022862699 0.00703595626 0.03242119974 -0.00025583184 0.00649596732 0.03225389064 -0.00027924648 0.00589374494 0.03204353052 -0.00029994055 0.00524126107 0.03180059286 -0.00031898370 0.00455048765 0.03153555114 -0.00033744558 0.00383339665 0.03125887883 -0.00035639582 0.00310196000 0.03098104941 -0.00037690409 0.00236814966 0.03071253635 -0.00040004002 0.00164393758 0.03046381312 -0.00042687326 0.00094129570 0.03024535321 -0.00023233381 0.00689138062 0.03115259244 -0.00026117977 0.00633731832 0.03081539678 -0.00028494489 0.00573839765 0.03046151175 -0.00030484907 0.00510406868 0.03009767070 -0.00032211218 0.00444378148 0.02973060700 -0.00033795412 0.00376698615 0.02936705399 -0.00035359478 0.00308313274 0.02901374505 -0.00037025405 0.00240167133 0.02867741353 -0.00038915182 0.00173205199 0.02836479279 -0.00041150798 0.00108372481 0.02808261619 -0.00023141008 0.00668043530 0.02982451326 -0.00025949214 0.00613004531 0.02933251020 -0.00028186744 0.00554856351 0.02884509938 -0.00029982514 0.00494352013 0.02836585926 -0.00031465440 0.00432244540 0.02789836826 -0.00032764439 0.00369286957 0.02744620483 -0.00034008426 0.00306232286 0.02701294742 -0.00035326317 0.00243833551 0.02660217445 -0.00036847028 0.00182843775 0.02621746438 -0.00038699476 0.00124015983 0.02586239563 -0.00022606976 0.00641394781 0.02846442277 -0.00025111308 0.00588224141 0.02782745475 -0.00027053188 0.00533022896 0.02721394336 -0.00028557943 0.00476416260 0.02662413411 -0.00029750898 0.00419029449 0.02605827253 -0.00030757379 0.00361487678 0.02551660416 -0.00031702711 0.00304416163 0.02499937451 -0.00032712222 0.00248440118 0.02450682912 -0.00033911237 0.00194184759 0.02403921350 -0.00035425081 0.00142275301 0.02359677320 -0.00021652682 0.00610274566 0.02709978155 -0.00023638673 0.00560199972 0.02632245432 -0.00025145599 0.00508938040 0.02558769360 -0.00026282259 0.00457054326 0.02489147082 -0.00027157450 0.00405114383 0.02422975740 -0.00027879971 0.00353683767 0.02359852477 -0.00028558622 0.00303328032 0.02299374434 -0.00029302200 0.00254612734 0.02241138754 -0.00030219504 0.00208103425 0.02184742580 -0.00031419333 0.00164365662 0.02129783054 -0.00020299521 0.00575765636 0.02575805019 -0.00021565722 0.00529741335 0.02483973278 -0.00022515752 0.00483200428 0.02398600006 -0.00023226526 0.00436720929 0.02318684498 -0.00023774956 0.00390880852 0.02243226047 -0.00024237958 0.00346258211 0.02171223947 -0.00024692445 0.00303431020 0.02101677492 -0.00025215330 0.00262977294 0.02033585975 -0.00025883529 0.00225475046 0.01965948690 -0.00026773954 0.00191502291 0.01897764931 -0.00018568889 0.00538950742 0.02446668925 -0.00018926868 0.00497657541 0.02340151399 -0.00019215424 0.00456408700 0.02242851267 -0.00019461810 0.00415870785 0.02152923216 -0.00019693277 0.00376710363 0.02068521934 -0.00019937079 0.00339593997 0.01987802108 -0.00020220466 0.00305188254 0.01908918426 -0.00020570691 0.00274159699 0.01830025575 -0.00021015006 0.00247174897 0.01749278242 -0.00021580663 0.00224900414 0.01664831115 -0.00011512481 0.00706484516 0.03583999438 -0.00011767554 0.00669421297 0.03641930652 -0.00012339702 0.00617882691 0.03678791353 -0.00013206715 0.00554219535 0.03698250645 -0.00014346382 0.00480782668 0.03703977637 -0.00015736495 0.00399922928 0.03699641435 -0.00017354843 0.00313991153 0.03688911144 -0.00019179217 0.00225338181 0.03675455872 -0.00021187407 0.00136314852 0.03662944726 -0.00023357202 0.00049272002 0.03655046811 -0.00012654838 0.00721813723 0.03488919686 -0.00013558564 0.00675438747 0.03519318299 -0.00014543723 0.00618052034 0.03534960853 -0.00015622341 0.00551473072 0.03538547885 -0.00016806447 0.00477521348 0.03532779933 -0.00018108068 0.00398016349 0.03520357537 -0.00019539232 0.00314777563 0.03503981234 -0.00021111966 0.00229624478 0.03486351562 -0.00022838299 0.00144376580 0.03470169059 -0.00024730257 0.00060853357 0.03458134265 -0.00013481734 0.00726041322 0.03379994009 -0.00014840317 0.00673125787 0.03386101376 -0.00016096628 0.00612056553 0.03382594741 -0.00017290214 0.00544198149 0.03371442271 -0.00018460623 0.00470915105 0.03354612133 -0.00019647401 0.00393571947 0.03334072494 -0.00020890097 0.00313533205 0.03311791519 -0.00022228258 0.00232163408 0.03289737376 -0.00023701432 0.00150827083 0.03269878230 -0.00025349165 0.00070888759 0.03254182250 -0.00014004803 0.00720329251 0.03259656060 -0.00015636575 0.00663371704 0.03244172389 -0.00017033268 0.00600585758 0.03223265406 -0.00018254859 0.00532959575 0.03198338673 -0.00019361325 0.00461481318 0.03170795751 -0.00020412642 0.00387139149 0.03142040202 -0.00021468787 0.00310921229 0.03113475588 -0.00022589738 0.00233815721 0.03086505470 -0.00023835471 0.00156810787 0.03062533409 -0.00025265962 0.00080894589 0.03042962968 -0.00014235681 0.00705839449 0.03130339490 -0.00015971099 0.00647065786 0.03095423844 -0.00017388490 0.00584329159 0.03058545235 -0.00018560798 0.00518322158 0.03020641956 -0.00019560966 0.00449737369 0.02982652299 -0.00020461935 0.00379267383 0.02945514559 -0.00021336650 0.00307604786 0.02910167028 -0.00022258051 0.00235442169 0.02877547999 -0.00023299083 0.00163472118 0.02848595766 -0.00024532687 0.00092387222 0.02824248622 -0.00014186004 0.00683733854 0.02994477950 -0.00015867649 0.00625097321 0.02941748248 -0.00017197143 0.00563976268 0.02890006616 -0.00018252556 0.00500850705 0.02839756987 -0.00019111960 0.00436200638 0.02791503292 -0.00019853429 0.00370506076 0.02745749462 -0.00020555032 0.00304247027 0.02702999428 -0.00021294843 0.00237903499 0.02663757121 -0.00022150933 0.00171955500 0.02628526473 -0.00023201374 0.00106883039 0.02597811414 -0.00013867407 0.00655174405 0.02854505094 -0.00015349989 0.00598355596 0.02785038106 -0.00016494074 0.00540216595 0.02719221938 -0.00017374655 0.00481110024 0.02657088635 -0.00018066722 0.00421388503 0.02598670243 -0.00018645268 0.00361404655 0.02543998808 -0.00019185283 0.00301511101 0.02493106375 -0.00019761760 0.00242060463 0.02446024990 -0.00020449689 0.00183405361 0.02402786699 -0.00021324063 0.00125898417 0.02363423547 -0.00013291526 0.00621323041 0.02712854572 -0.00014441878 0.00567729899 0.02627185925 -0.00015314133 0.00513739651 0.02547763587 -0.00015971619 0.00459664923 0.02474041765 -0.00016477665 0.00405818347 0.02405474665 -0.00016895599 0.00352512550 0.02341516494 -0.00017288750 0.00300060161 0.02281621457 -0.00017720446 0.00248773809 0.02225243762 -0.00018254016 0.00198966124 0.02171837615 -0.00018952788 0.00150949733 0.02120857222 -0.00012469996 0.00583341699 0.02571960037 -0.00013167079 0.00534109518 0.02470084211 -0.00013692168 0.00485234945 0.02377203953 -0.00014087973 0.00437080211 0.02292021246 -0.00014397203 0.00390007548 0.02213238073 -0.00014662569 0.00344379185 0.02139556418 -0.00014926781 0.00300557355 0.02069678264 -0.00015232548 0.00258904288 0.02002305594 -0.00015622580 0.00219782215 0.01936140392 -0.00016139588 0.00183553367 0.01869884641 -0.00011414452 0.00542392320 0.02434255141 -0.00011549353 0.00498383740 0.02315625471 -0.00011663027 0.00455391989 0.02209115423 -0.00011768239 0.00413920695 0.02112431944 -0.00011877751 0.00374473486 0.02023281979 -0.00012004325 0.00337553991 0.01939372477 -0.00012160724 0.00303665836 0.01858410382 -0.00012359711 0.00273312650 0.01778102641 -0.00012614048 0.00246998061 0.01696156201 -0.00012936498 0.00225225696 0.01610278008 -0.00003891930 0.00711567578 0.03596220449 -0.00003953823 0.00674170306 0.03658857678 -0.00004137900 0.00622174303 0.03698851332 -0.00004429306 0.00557968196 0.03720063222 -0.00004813186 0.00483940612 0.03726355158 -0.00005274683 0.00402480180 0.03721588950 -0.00005798942 0.00315975526 0.03709626410 -0.00006371107 0.00226815279 0.03694329348 -0.00006976323 0.00137388064 0.03679559574 -0.00007599733 0.00050082510 0.03669178900 -0.00004274434 0.00728586479 0.03499872252 -0.00004564298 0.00681407420 0.03533537808 -0.00004888764 0.00623226757 0.03551152547 -0.00005247615 0.00555840574 0.03555629171 -0.00005640636 0.00481044956 0.03549880386 -0.00006067608 0.00400635987 0.03536818893 -0.00006528317 0.00316409753 0.03519357396 -0.00007022544 0.00230162338 0.03500408600 -0.00007550073 0.00143689827 0.03482885206 -0.00008110687 0.00058788306 0.03469699918 -0.00004551925 0.00733895574 0.03389847843 -0.00005000818 0.00679794080 0.03397864290 -0.00005417357 0.00617654274 0.03395317501 -0.00005812689 0.00548770140 0.03384381629 -0.00006197960 0.00474435666 0.03367230825 -0.00006584319 0.00395944838 0.03346039243 -0.00006982912 0.00314591642 0.03322981032 -0.00007404886 0.00231670066 0.03300230346 -0.00007861390 0.00148474094 0.03279961336 -0.00008363569 0.00066297715 0.03264348155 -0.00004728080 0.00728696396 0.03268424671 -0.00005271823 0.00670259562 0.03253564689 -0.00005735927 0.00606191796 0.03232722280 -0.00006139682 0.00537376746 0.03207479116 -0.00006502380 0.00464698059 0.03179416868 -0.00006843313 0.00389039380 0.03150117205 -0.00007181773 0.00311284357 0.03121161799 -0.00007537051 0.00232316637 0.03094132320 -0.00007928439 0.00153019866 0.03070610439 -0.00008375228 0.00074277692 0.03052177828 -0.00004806576 0.00714190478 0.03137880184 -0.00005385751 0.00653733141 0.03102366571 -0.00005856719 0.00589574270 0.03064742970 -0.00006243749 0.00522280246 0.03026080156 -0.00006571116 0.00452417449 0.02987448902 -0.00006863091 0.00380552260 0.02949919984 -0.00007143946 0.00307251059 0.02914564176 -0.00007437953 0.00233080227 0.02882452253 -0.00007769385 0.00158606144 0.02854654989 -0.00008162513 0.00084395190 0.02832243158 -0.00004791091 0.00691579352 0.03000491832 -0.00005351042 0.00631144093 0.02945997502 -0.00005791979 0.00568536639 0.02892755655 -0.00006140047 0.00504100492 0.02841343268 -0.00006421389 0.00438179153 0.02792337319 -0.00006662151 0.00371116125 0.02746314786 -0.00006888476 0.00303254910 0.02703852646 -0.00007126509 0.00234939010 0.02665527877 -0.00007402394 0.00166511927 0.02631917457 -0.00007742275 0.00098317163 0.02603598363 -0.00004685304 0.00662064549 0.02858537064 -0.00005176134 0.00603421695 0.02786185049 -0.00005553954 0.00543813849 0.02718136421 -0.00005843728 0.00483457338 0.02654426976 -0.00006070420 0.00422568487 0.02595092509 -0.00006258992 0.00361363623 0.02540168815 -0.00006434409 0.00300059073 0.02489691688 -0.00006621634 0.00238871162 0.02443696924 -0.00006845630 0.00178016217 0.02402220318 -0.00007131361 0.00117710564 0.02365297664 -0.00004492891 0.00626847603 0.02714293329 -0.00004869466 0.00571495222 0.02624656776 -0.00005154891 0.00516140844 0.02542261353 -0.00005369950 0.00460970636 0.02466489802 -0.00005535429 0.00406170766 0.02396724863 -0.00005672114 0.00351927401 0.02332349277 -0.00005800791 0.00298426710 0.02272745784 -0.00005942244 0.00245854858 0.02217297127 -0.00006117259 0.00194398015 0.02165386045 -0.00006346623 0.00144242348 0.02116395279 -0.00004217531 0.00587130046 0.02570038076 -0.00004439478 0.00536293950 0.02463140249 -0.00004607035 0.00486252568 0.02366506536 -0.00004733866 0.00437260239 0.02278690266 -0.00004833638 0.00389571305 0.02198244769 -0.00004920016 0.00343440106 0.02123723376 -0.00005006666 0.00299120982 0.02053679415 -0.00005107255 0.00256868274 0.01986666217 -0.00005235447 0.00216936322 0.01921237111 -0.00005404908 0.00179579466 0.01855945428 -0.00003862902 0.00544113410 0.02428048754 -0.00003894609 0.00498747156 0.02303363035 -0.00003922632 0.00454883966 0.02192248055 -0.00003950631 0.00412946001 0.02092186891 -0.00003982266 0.00373355421 0.02000662620 -0.00004021196 0.00336534384 0.01915158317 -0.00004071081 0.00302905052 0.01833157060 -0.00004135582 0.00272889583 0.01752141926 -0.00004218358 0.00246910137 0.01669595990 -0.00004323068 0.00225388875 0.01583002331 0.00003853505 0.00711568162 0.03596221458 0.00003915879 0.00674170927 0.03658858754 0.00004100438 0.00622174969 0.03698852490 0.00004392326 0.00557968915 0.03720064475 0.00004776688 0.00483941389 0.03726356516 0.00005238667 0.00402481020 0.03721590424 0.00005763407 0.00315976432 0.03709628005 0.00006336052 0.00226816251 0.03694331068 0.00006941746 0.00137389105 0.03679561422 0.00007565634 0.00050083619 0.03669180876 0.00004235521 0.00728587093 0.03499873310 0.00004525813 0.00681408092 0.03533538967 0.00004850711 0.00623227485 0.03551153806 0.00005209999 0.00555841358 0.03555630531 0.00005603460 0.00481045796 0.03549881848 0.00006030876 0.00400636884 0.03536820460 0.00006492033 0.00316410709 0.03519359071 0.00006986711 0.00230163354 0.03500410385 0.00007514696 0.00143690906 0.03482887108 0.00008075770 0.00058789450 0.03469701944 0.00004512546 0.00733896211 0.03389848935 0.00004961810 0.00679794789 0.03397865508 0.00005378728 0.00617655047 0.03395318833 0.00005774445 0.00548770972 0.03384383066 0.00006160110 0.00474436553 0.03367232362 0.00006546870 0.00395945779 0.03346040876 0.00006945873 0.00314592636 0.03322982763 0.00007368266 0.00231671115 0.03300232179 0.00007825197 0.00148475203 0.03279963278 0.00008327814 0.00066298888 0.03264350216 0.00004688259 0.00728697048 0.03268425784 0.00005232312 0.00670260295 0.03253565944 0.00005696735 0.00606192599 0.03232723658 0.00006100820 0.00537377610 0.03207480601 0.00006463860 0.00464698976 0.03179418449 0.00006805147 0.00389040348 0.03150118877 0.00007143973 0.00311285376 0.03121163561 0.00007499630 0.00232317708 0.03094134178 0.00007891411 0.00153020994 0.03070612402 0.00008338608 0.00074278885 0.03052179910 0.00004766339 0.00714191137 0.03137881305 0.00005345757 0.00653733886 0.03102367842 0.00005816980 0.00589575087 0.03064744366 0.00006204281 0.00522281124 0.03026081658 0.00006531932 0.00452418381 0.02987450498 0.00006824207 0.00380553240 0.02949921667 0.00007105377 0.00307252088 0.02914565945 0.00007399716 0.00233081306 0.02882454113 0.00007731497 0.00158607280 0.02854656952 0.00008124991 0.00084396393 0.02832245241 0.00004750467 0.00691580010 0.03000492949 0.00005310587 0.00631144838 0.02945998767 0.00005751712 0.00568537455 0.02892757042 0.00006099984 0.00504101368 0.02841344758 0.00006381549 0.00438180081 0.02792338899 0.00006622550 0.00371117101 0.02746316450 0.00006849132 0.00303255933 0.02703854393 0.00007087439 0.00234940084 0.02665529715 0.00007363614 0.00166513059 0.02631919398 0.00007703803 0.00098318364 0.02603600426 0.00004644321 0.00662065200 0.02858538164 0.00005135242 0.00603422426 0.02786186286 0.00005513177 0.00543814647 0.02718137772 0.00005803086 0.00483458193 0.02654428424 0.00006029932 0.00422569393 0.02595094043 0.00006218676 0.00361364576 0.02540170430 0.00006394282 0.00300060074 0.02489693386 0.00006581711 0.00238872215 0.02443698712 0.00006805924 0.00178017331 0.02402222211 0.00007091885 0.00117711749 0.02365299682 0.00004451580 0.00626848239 0.02714294400 0.00004828162 0.00571495927 0.02624657964 0.00005113623 0.00516141609 0.02542262641 0.00005328742 0.00460971453 0.02466491177 0.00005494302 0.00406171631 0.02396726319 0.00005631085 0.00351928313 0.02332350812 0.00005759873 0.00298427671 0.02272747402 0.00005901446 0.00245855874 0.02217298837 0.00006076587 0.00194399094 0.02165387862 0.00006306077 0.00144243502 0.02116397223 0.00004175924 0.00587130659 0.02570039107 0.00004397788 0.00536294617 0.02463141369 0.00004565298 0.00486253283 0.02366507735 0.00004692110 0.00437261000 0.02278691540 0.00004791884 0.00389572110 0.02198246116 0.00004878277 0.00343440957 0.02123724799 0.00004964949 0.00299121884 0.02053680921 0.00005065558 0.00256869234 0.01986667818 0.00005193762 0.00216937349 0.01921238822 0.00005363219 0.00179580573 0.01855947267 0.00003821032 0.00544113994 0.02428049732 0.00003852560 0.00498747772 0.02303364065 0.00003880449 0.00454884616 0.02192249139 0.00003908345 0.00412946687 0.02092188033 0.00003939897 0.00373356146 0.02000663826 0.00003978751 0.00336535156 0.01915159596 0.00004028557 0.00302905876 0.01833158423 0.00004092960 0.00272890469 0.01752143385 0.00004175609 0.00246911094 0.01669597561 0.00004280151 0.00225389914 0.01583004030 0.00011474040 0.00706486250 0.03584002433 0.00011729574 0.00669423143 0.03641933849 0.00012302188 0.00617884671 0.03678794793 0.00013169673 0.00554221669 0.03698254364 0.00014309816 0.00480784973 0.03703981666 0.00015700409 0.00399925416 0.03699645800 0.00017319241 0.00313993835 0.03688915868 0.00019144101 0.00225341066 0.03675460971 0.00021152779 0.00136317942 0.03662950211 0.00023323064 0.00049275300 0.03655052690 0.00012615924 0.00721815550 0.03488922829 0.00013520061 0.00675440746 0.03519321749 0.00014505640 0.00618054201 0.03534964604 0.00015584686 0.00551475406 0.03538551936 0.00016769227 0.00477523849 0.03532784287 0.00018071290 0.00398019020 0.03520362201 0.00019502901 0.00314780409 0.03503986218 0.00021076087 0.00229627504 0.03486356882 0.00022802875 0.00144379796 0.03470174734 0.00024695291 0.00060856775 0.03458140317 0.00013442365 0.00726043217 0.03379997260 0.00014801306 0.00673127900 0.03386105009 0.00016057985 0.00612058860 0.03382598718 0.00017251950 0.00544200633 0.03371446562 0.00018422747 0.00470917753 0.03354616721 0.00019609923 0.00393574755 0.03334077371 0.00020853025 0.00313536174 0.03311796689 0.00022191599 0.00232166543 0.03289742853 0.00023665192 0.00150830399 0.03269884041 0.00025313351 0.00070892274 0.03254188430 0.00013965001 0.00720331192 0.03259659377 0.00015597071 0.00663373892 0.03244176138 0.00016994075 0.00600588157 0.03223269523 0.00018215991 0.00532962157 0.03198343112 0.00019322793 0.00461484063 0.03170800480 0.00020374458 0.00387142046 0.03142045205 0.00021430963 0.00310924278 0.03113480864 0.00022552284 0.00233818928 0.03086511036 0.00023798396 0.00156814170 0.03062539296 0.00025229275 0.00080898172 0.03042969223 0.00014195468 0.00705841412 0.03130342833 0.00015931120 0.00647068011 0.03095427641 0.00017348761 0.00584331603 0.03058549409 0.00018521335 0.00518324785 0.03020646451 0.00019521782 0.00449740157 0.02982657077 0.00020423045 0.00379270318 0.02945519599 0.00021298066 0.00307607868 0.02910172329 0.00022219786 0.00235445406 0.02877553580 0.00023261148 0.00163475530 0.02848601662 0.00024495094 0.00092390840 0.02824254889 0.00014145406 0.00683735816 0.02994481281 0.00015827217 0.00625099545 0.02941752026 0.00017156894 0.00563978708 0.02890010765 0.00018212508 0.00500853324 0.02839761447 0.00019072131 0.00436203414 0.02791508024 0.00019813832 0.00370508997 0.02745754447 0.00020515682 0.00304250093 0.02703004667 0.00021255753 0.00237906721 0.02663762635 0.00022112115 0.00171958900 0.02628532302 0.00023162838 0.00106886651 0.02597817619 0.00013826452 0.00655176343 0.02854508374 0.00015309125 0.00598357780 0.02785041801 0.00016453323 0.00540218982 0.02719225977 0.00017334037 0.00481112582 0.02657092967 0.00018026256 0.00421391213 0.02598674834 0.00018604968 0.00361407508 0.02544003644 0.00019145163 0.00301514099 0.02493111462 0.00019721830 0.00242063620 0.02446030352 0.00020409959 0.00183408702 0.02402792379 0.00021284538 0.00125901978 0.02363429608 0.00013250244 0.00621324932 0.02712857763 0.00014400607 0.00567732004 0.02627189472 0.00015272901 0.00513741935 0.02547767436 0.00015930448 0.00459667365 0.02474045878 0.00016436574 0.00405820932 0.02405479020 0.00016854602 0.00352515276 0.02341521086 0.00017247857 0.00300063035 0.02281626299 0.00017679663 0.00248776848 0.02225248882 0.00018213344 0.00198969355 0.02171843057 0.00018912225 0.00150953193 0.02120863049 0.00012428419 0.00583343522 0.02571963102 0.00013125429 0.00534111505 0.02470087547 0.00013650477 0.00485237078 0.02377207530 0.00014046267 0.00437082480 0.02292025047 0.00014355502 0.00390009950 0.02213242094 0.00014620884 0.00344381726 0.02139560667 0.00014885115 0.00300560047 0.02069682761 0.00015190898 0.00258907152 0.02002310373 0.00015580935 0.00219785280 0.01936145499 0.00016097930 0.00183556669 0.01869890133 0.00011372616 0.00542394051 0.02434258044 0.00011507352 0.00498385570 0.02315628533 0.00011620903 0.00455393920 0.02209118648 0.00011726021 0.00413922734 0.02112435342 0.00011835457 0.00374475644 0.02023285569 0.00011961962 0.00337556283 0.01939376282 0.00012118286 0.00303668284 0.01858414434 0.00012317180 0.00273315278 0.01778106978 0.00012571396 0.00247000899 0.01696160867 0.00012893684 0.00225228779 0.01610283055 0.00018719891 0.00696321820 0.03559563338 0.00019375286 0.00659926935 0.03608082931 0.00020394228 0.00609303390 0.03638678205 0.00021814222 0.00546726438 0.03654632851 0.00023672778 0.00474471336 0.03659230561 0.00026007402 0.00394813340 0.03655755027 0.00028855600 0.00310027705 0.03647489942 0.00032254881 0.00222389687 0.03637718996 0.00036242752 0.00134174542 0.03629725882 0.00040856719 0.00047657525 0.03626794291 0.00020607673 0.00708271830 0.03467020782 0.00022226740 0.00663505367 0.03490886129 0.00023906959 0.00607706892 0.03502584914 0.00025710629 0.00542742702 0.03504393355 0.00027700054 0.00470479097 0.03498587671 0.00029937534 0.00392782374 0.03487444080 0.00032485373 0.00311518831 0.03473238800 0.00035405871 0.00228554767 0.03458248051 0.00038761330 0.00145756479 0.03444748049 0.00042614053 0.00064990266 0.03435015014 0.00021968221 0.00710336578 0.03360292791 0.00024271404 0.00659793399 0.03362582772 0.00026386774 0.00600865701 0.03357157133 0.00028400589 0.00535059110 0.03345572096 0.00030399111 0.00463879252 0.03329383880 0.00032468598 0.00388831754 0.03310148703 0.00034695312 0.00311422241 0.03289422787 0.00037165511 0.00233156339 0.03268762350 0.00039965457 0.00155539674 0.03249723612 0.00043181408 0.00080077873 0.03233862792 0.00022822935 0.00703598814 0.03242125426 0.00025543695 0.00649600342 0.03225395249 0.00027885454 0.00589378459 0.03204359859 0.00029955174 0.00524130377 0.03180066633 0.00031859816 0.00455053309 0.03153562946 0.00033706341 0.00383344464 0.03125896175 0.00035601711 0.00310201056 0.03098113696 0.00037652888 0.00236820294 0.03071262886 0.00039966832 0.00164399392 0.03046391121 0.00042650506 0.00094135559 0.03024545776 0.00023193215 0.00689141290 0.03115264745 0.00026078029 0.00633735506 0.03081545950 0.00028454780 0.00573843807 0.03046158086 0.00030445453 0.00510411220 0.03009774522 0.00032172034 0.00444382772 0.02973068628 0.00033756509 0.00376703489 0.02936713772 0.00035320864 0.00308318397 0.02901383323 0.00036987085 0.00240172525 0.02867750652 0.00038877157 0.00173210897 0.02836489126 0.00041113066 0.00108378542 0.02808272115 0.00023100462 0.00668046757 0.02982456806 0.00025908825 0.00613008203 0.02933257263 0.00028146532 0.00554860388 0.02884516809 0.00029942497 0.00494356355 0.02836593323 0.00031425632 0.00432249148 0.02789844684 0.00032724850 0.00369291810 0.02744628771 0.00033969064 0.00306237387 0.02701303463 0.00035287187 0.00243838921 0.02660226639 0.00036808132 0.00182849456 0.02621756178 0.00038660810 0.00124022036 0.02586249958 0.00022566076 0.00641397966 0.02846447669 0.00025070499 0.00588227744 0.02782751577 0.00027012491 0.00533026842 0.02721401022 0.00028517376 0.00476420497 0.02662420592 0.00029710475 0.00419033942 0.02605834873 0.00030717111 0.00361492413 0.02551668451 0.00031662605 0.00304421145 0.02499945911 0.00032672280 0.00248445373 0.02450691841 0.00033871457 0.00194190332 0.02403930827 0.00035385460 0.00142281256 0.02359687454 0.00021611457 0.00610277669 0.02709983393 0.00023597468 0.00560203438 0.02632251280 0.00025104438 0.00508941812 0.02558775721 0.00026241160 0.00457058362 0.02489153888 0.00027116429 0.00405118661 0.02422982953 0.00027839037 0.00353688281 0.02359860087 0.00028517779 0.00303332794 0.02299382463 0.00029261447 0.00254617774 0.02241147251 0.00030178835 0.00208108791 0.02184751623 0.00031378737 0.00164371419 0.02129792752 0.00020258005 0.00575768618 0.02575810036 0.00021524150 0.00529744598 0.02483978762 0.00022474153 0.00483203939 0.02398605901 0.00023184921 0.00436724666 0.02318690769 0.00023733360 0.00390884810 0.02243232683 0.00024196378 0.00346262397 0.02171230958 0.00024650880 0.00303435455 0.02101684912 0.00025173773 0.00262982013 0.02033593859 0.00025841965 0.00225480099 0.01965957118 0.00026732360 0.00191507740 0.01897774002 0.00018527120 0.00538953562 0.02446673657 0.00018884962 0.00497660534 0.02340156411 0.00019173417 0.00456411864 0.02242856556 0.00019419728 0.00415874126 0.02152928792 0.00019651134 0.00376713895 0.02068527821 0.00019894879 0.00339597744 0.01987808341 0.00020178202 0.00305192249 0.01908925054 0.00020528344 0.00274163982 0.01830032660 0.00020972548 0.00247179519 0.01749285860 0.00021538053 0.00224905434 0.01664839353 0.00025341274 0.00681074853 0.03522904140 0.00026741039 0.00645682286 0.03557305968 0.00028303432 0.00596431104 0.03578502693 0.00030237466 0.00535483198 0.03589199894 0.00032752151 0.00465000453 0.03592103154 0.00036056500 0.00387144760 0.03589918051 0.00040359524 0.00304078007 0.03585350167 0.00045870234 0.00217962081 0.03581105082 0.00052797643 0.00130958871 0.03579888376 0.00061350763 0.00045230266 0.03584405631 0.00027951662 0.00687955919 0.03434167138 0.00030454143 0.00645601941 0.03448232080 0.00032885605 0.00592185540 0.03454014709 0.00035422012 0.00529643229 0.03453154760 0.00038239327 0.00459911520 0.03447291966 0.00041513513 0.00384926924 0.03438066061 0.00045420533 0.00306625953 0.03427116779 0.00050136351 0.00226945119 0.03416083854 0.00055836930 0.00147820935 0.03406607020 0.00062698233 0.00071189911 0.03400326010 0.00029820798 0.00686776278 0.03330735505 0.00033125842 0.00639791274 0.03327298774 0.00036131453 0.00584075557 0.03318994060 0.00039001127 0.00521346391 0.03306759646 0.00041898361 0.00453321038 0.03291533816 0.00044986654 0.00381716761 0.03274254851 0.00048429502 0.00308250824 0.03255861035 0.00052390402 0.00234640489 0.03237290648 0.00057032853 0.00162603020 0.03219481975 0.00062520351 0.00093855679 0.03203373298 0.00030982849 0.00678499901 0.03215823910 0.00034793425 0.00628939632 0.03197223261 0.00038100230 0.00572563495 0.03175994649 0.00041067713 0.00510882262 0.03152651149 0.00043860325 0.00445406705 0.03127705832 0.00046642514 0.00377647595 0.03101671773 0.00049578730 0.00309115703 0.03075062045 0.00052833421 0.00241321801 0.03048389721 0.00056571038 0.00175776660 0.03022167874 0.00060956029 0.00113991051 0.02996909578 0.00031471985 0.00664090758 0.03092647020 0.00035494178 0.00613736360 0.03060722753 0.00038851191 0.00558111692 0.03027570382 0.00041714677 0.00498540423 0.02993465861 0.00044256291 0.00436346218 0.02958685142 0.00046647686 0.00372852745 0.02923504178 0.00049060518 0.00309383671 0.02888198922 0.00051666441 0.00247262662 0.02853045329 0.00054637108 0.00187813385 0.02818319349 0.00058144175 0.00132359507 0.02784296937 0.00031322372 0.00644512820 0.02964419504 0.00035265391 0.00594870803 0.02920514461 0.00038443591 0.00541182487 0.02876275162 0.00041034922 0.00484610452 0.02831840376 0.00043217329 0.00426317275 0.02787348872 0.00045168762 0.00367465535 0.02742939417 0.00047067168 0.00309217812 0.02698750780 0.00049090494 0.00252736683 0.02654921729 0.00051416689 0.00199184729 0.02611591032 0.00054223700 0.00149724527 0.02568897458 0.00030568180 0.00620730055 0.02834356030 0.00034144350 0.00573032308 0.02779315596 0.00036936685 0.00522238220 0.02724662894 0.00039121351 0.00469381929 0.02670411290 0.00040874513 0.00415497572 0.02616574150 0.00042372334 0.00361619285 0.02563164841 0.00043790980 0.00308781207 0.02510196728 0.00045306615 0.00258017474 0.02457683178 0.00047095405 0.00210362222 0.02405637555 0.00049333513 0.00166849590 0.02354073227 0.00029243577 0.00593706435 0.02705671266 0.00032168344 0.00548910219 0.02639843368 0.00034389728 0.00501741229 0.02575287481 0.00036066871 0.00453144434 0.02511815195 0.00037358913 0.00404064807 0.02449238105 0.00038424994 0.00355447318 0.02387367803 0.00039424255 0.00308236940 0.02326015881 0.00040515837 0.00263378642 0.02264993933 0.00041858880 0.00221817398 0.02204113552 0.00043612525 0.00184498177 0.02143186329 0.00027382732 0.00564405929 0.02581579879 0.00029374660 0.00523193884 0.02504814990 0.00030861974 0.00480153852 0.02430702827 0.00031964384 0.00436187546 0.02358688686 0.00032801601 0.00392196677 0.02288217863 0.00033493334 0.00349082955 0.02218735652 0.00034159295 0.00307748092 0.02149687350 0.00034919194 0.00269093799 0.02080518252 0.00035892740 0.00234021787 0.02010673653 0.00037199645 0.00203433768 0.01939598850 0.00025019812 0.00533792508 0.02465296540 0.00025800587 0.00496572646 0.02376947673 0.00026412678 0.00457938430 0.02293462838 0.00026906795 0.00418800845 0.02213668358 0.00027333648 0.00380070879 0.02136390552 0.00027743947 0.00342659517 0.02060455741 0.00028188400 0.00307477747 0.01984690247 0.00028717717 0.00275436553 0.01907920391 0.00029382609 0.00247446923 0.01828972492 0.00030233783 0.00224419842 0.01746672873 0.00031088404 0.00660745331 0.03474024804 0.00033714855 0.00626689176 0.03489602928 0.00035956678 0.00579267796 0.03498268222 0.00038350892 0.00520491926 0.03501955455 0.00041434513 0.00452372299 0.03502599398 0.00045744559 0.00376919648 0.03502134818 0.00051818050 0.00296144708 0.03502496485 0.00060192001 0.00212058214 0.03505619168 0.00071403431 0.00126670898 0.03513437636 0.00085989358 0.00041993494 0.03527886658 0.00034388790 0.00660867798 0.03390361869 0.00038010562 0.00621730451 0.03391359576 0.00041272516 0.00571490132 0.03389253963 0.00044553019 0.00512176971 0.03384836121 0.00048230434 0.00445821100 0.03378897139 0.00052683129 0.00374452650 0.03372228108 0.00058289468 0.00300101754 0.03365620116 0.00065427817 0.00224798541 0.03359864255 0.00074476541 0.00150573144 0.03355751614 0.00085814006 0.00079455693 0.03354073283 0.00036730785 0.00655362302 0.03291325376 0.00041118357 0.00613121512 0.03280252993 0.00045058381 0.00561688417 0.03268109476 0.00048834325 0.00503062463 0.03255009192 0.00052729657 0.00439243097 0.03241066508 0.00057027847 0.00372229764 0.03226395791 0.00062012362 0.00304021911 0.03211111409 0.00067966672 0.00236618984 0.03195327729 0.00075174243 0.00172020428 0.03179159118 0.00083918546 0.00112225691 0.03162719943 0.00038165533 0.00645034439 0.03180754805 0.00043067502 0.00601391752 0.03159660154 0.00047367762 0.00550143256 0.03138173877 0.00051302953 0.00493217802 0.03116096644 0.00055109718 0.00432544243 0.03093229124 0.00059024697 0.00370051429 0.03069371986 0.00063284531 0.00307668211 0.03044325899 0.00068125862 0.00247323442 0.03017891533 0.00073785329 0.00190945972 0.02989869556 0.00080499575 0.00140464653 0.02960060638 0.00038744180 0.00630689804 0.03062489637 0.00043887260 0.00587070562 0.03032958033 0.00048254150 0.00537135248 0.03002786284 0.00052067048 0.00482712384 0.02971720454 0.00055548153 0.00425630489 0.02939506608 0.00058919662 0.00367718083 0.02905890809 0.00062403772 0.00310803686 0.02870619121 0.00066222682 0.00256715817 0.02833437610 0.00070598588 0.00207282997 0.02794092337 0.00075753690 0.00164333745 0.02752329369 0.00038517871 0.00613133991 0.02940369353 0.00043606893 0.00570687334 0.02903523604 0.00047771036 0.00522944998 0.02865285812 0.00051234754 0.00471615608 0.02825502597 0.00054222499 0.00418407790 0.02784020578 0.00056958724 0.00365030167 0.02740686377 0.00059667882 0.00313191365 0.02695346612 0.00062574427 0.00264600009 0.02647847904 0.00065902810 0.00220964724 0.02598036872 0.00069877485 0.00183994134 0.02545760135 0.00037537750 0.00593172596 0.02818233433 0.00042255663 0.00552771461 0.02774733841 0.00045971911 0.00507853106 0.02729011578 0.00048914213 0.00459996871 0.02681065048 0.00051310292 0.00410782096 0.02630892657 0.00053387867 0.00361788119 0.02578492808 0.00055374660 0.00314594280 0.02523863907 0.00057498393 0.00270779919 0.02467004359 0.00059986785 0.00231924374 0.02407912567 0.00063067558 0.00199606985 0.02346586938 0.00035854961 0.00571611214 0.02699921357 0.00039862834 0.00533852334 0.02649965718 0.00042910265 0.00492140174 0.02597302698 0.00045213571 0.00447925571 0.02542029784 0.00046989068 0.00402659361 0.02484244462 0.00048453074 0.00357792379 0.02424044219 0.00049821903 0.00314775463 0.02361526542 0.00051311874 0.00275059447 0.02296788919 0.00053139302 0.00240095169 0.02229928834 0.00055520504 0.00211333464 0.02161043776 0.00033520650 0.00549255440 0.02589272606 0.00036457667 0.00514459346 0.02532596210 0.00038639589 0.00476086805 0.02473498290 0.00040240970 0.00435471106 0.02412018780 0.00041436365 0.00393945537 0.02348197614 0.00042400327 0.00352843387 0.02282074727 0.00043307409 0.00313497943 0.02213690053 0.00044332166 0.00277242494 0.02143083526 0.00045649151 0.00245410330 0.02070295081 0.00047432919 0.00219334737 0.01995364651 0.00030585961 0.00526910868 0.02490126660 0.00032069424 0.00495121889 0.02426002291 0.00033213373 0.00459973601 0.02360937469 0.00034104555 0.00422702874 0.02294654012 0.00034829718 0.00384546578 0.02226873734 0.00035475609 0.00346741580 0.02157318450 0.00036128976 0.00310524752 0.02085709976 0.00036876564 0.00277132961 0.02011770126 0.00037805123 0.00247803077 0.01935220717 0.00039001399 0.00223771970 0.01855783562 </DataArray>
</PointData>
<Points>
<DataArray type="Float32" NumberOfComponents="3">
0.16635573012 0.56479440659 1.10969216740 0.18003010073 0.56682905255 1.11422251674 0.19370233463 0.56786923971 1.12051866784 0.20792218915 0.56822523164 1.12831163890 0.22323942166 0.56820729192 1.13733244811 0.24020378952 0.56812568412 1.14731211369 0.25936505007 0.56829067182 1.15798165383 0.28127296067 0.56901251860 1.16907208673 0.30647727869 0.57060148802 1.18031443061 0.33552776147 0.57336784367 1.19143970366 0.17866820443 0.55387466896 1.10903462279 0.19933479094 0.55411586448 1.11412072008 0.21778746119 0.55385872951 1.12068961127 0.23494530940 0.55325161332 1.12846712997 0.25172742977 0.55244286515 1.13717910980 0.26905291650 0.55158083426 1.14655138437 0.28784086382 0.55081386988 1.15630978729 0.30901036591 0.55029032128 1.16618015218 0.33348051700 0.55015853770 1.17588831265 0.36217041129 0.55056686840 1.18516010230 0.18790389207 0.54074089948 1.10908722071 0.21380987034 0.53945685896 1.11449511341 0.23584235840 0.53793346958 1.12114557269 0.25520823917 0.53622258907 1.12876803349 0.27311439552 0.53437607517 1.13709193074 0.29076771035 0.53244578565 1.14584669938 0.30937506657 0.53048357823 1.15476177435 0.33014334707 0.52854131066 1.16356659060 0.35427943474 0.52667084070 1.17199058304 0.38299021248 0.52492402607 1.17976318664 0.19406228167 0.52593140101 1.10976289914 0.22344843555 0.52333964058 1.11529237970 0.24783823751 0.52058874866 1.12186376474 0.26864225197 0.51768493304 1.12921698284 0.28727104337 0.51463440153 1.13709196259 0.30513517612 0.51144336191 1.14522863258 0.32364521465 0.50811802200 1.15336692140 0.34421172339 0.50466458958 1.16124675763 0.36824526675 0.50108927246 1.16860806986 0.39715640917 0.49739827842 1.17519078668 0.19714286188 0.50998447643 1.11097459608 0.22824358320 0.50625181390 1.11645920192 0.25374630975 0.50231985551 1.12282140005 0.27517862135 0.49818541942 1.12981661143 0.29406809778 0.49384532376 1.13720025704 0.31194231886 0.48929638668 1.14472775785 0.33032886437 0.48453542634 1.15215453483 0.35075531411 0.47955926087 1.15923600894 0.37474924790 0.47436470843 1.16572760117 0.40383824552 0.46894858716 1.17138473247 0.19714512137 0.49343842860 1.11263524952 0.22818840992 0.48868098349 1.11794226303 0.25353778640 0.48362207891 1.12399569124 0.27474862082 0.47827082237 1.13056955266 0.29337628322 0.47263632142 1.13743786577 0.31097614362 0.46672768358 1.14437464906 0.32910357203 0.46055401639 1.15115392104 0.34931393849 0.45412442737 1.15754970019 0.37316261303 0.44744802407 1.16333600502 0.40220496565 0.44053391401 1.16828685400 0.19406854878 0.47683156038 1.11465779745 0.22327601235 0.47111475393 1.11968824599 0.24718387869 0.46499070759 1.12536385096 0.26728352392 0.45848791607 1.13147843992 0.28506632414 0.45163487405 1.13782584044 0.30202365545 0.44446007622 1.14419988009 0.31964689396 0.43699201728 1.15039438643 0.33942741578 0.42925919192 1.15620318704 0.36285659700 0.42129009482 1.16142010948 0.39142581373 0.41311322068 1.16583898133 0.18791263277 0.46070217463 1.11695517786 0.21349948710 0.45404072977 1.12164383378 0.23465579788 0.44692103033 1.12690309184 0.25271460417 0.43938347469 1.13254590662 0.26900894500 0.43146846120 1.13838523274 0.28487185942 0.42321638824 1.14423402480 0.30163638648 0.41466765417 1.14990523739 0.32063556521 0.40586265734 1.15521182513 0.34320243467 0.39684179613 1.15996674262 0.37067003389 0.38764546889 1.16398294445 0.17867686197 0.44558857423 1.11944032874 0.19885193080 0.43794651558 1.12375570936 0.21592475523 0.42990833588 1.12859062650 0.23097313510 0.42150427240 1.13377458616 0.24507487026 0.41276456243 1.13913709435 0.25930776058 0.40371944326 1.14450765707 0.27474960589 0.39439915218 1.14971578033 0.29247820604 0.38483392648 1.15459097014 0.31357136089 0.37505400345 1.15896273249 0.33910687029 0.36508962037 1.16266057340 0.16636072506 0.43202906202 1.12202618809 0.17932644009 0.42331971595 1.12597055569 0.19096196197 0.41444791300 1.13040366758 0.20199039023 0.40539708337 1.13516711193 0.21313482439 0.39615065727 1.14010247694 0.22511836397 0.38669206490 1.14505135078 0.23866410850 0.37700473646 1.14985532164 0.25449515751 0.36707210217 1.15435597771 0.27333461052 0.35687759223 1.15839490717 0.29590556706 0.34640463683 1.16181369821 0.13577745171 0.57100926592 1.10745534586 0.14590590106 0.57545269128 1.11230663119 0.15693379005 0.57806788906 1.11893912950 0.16898950524 0.57924865858 1.12707319938 0.18220143315 0.57938879916 1.13642919943 0.19669796032 0.57888211011 1.14672748823 0.21260747329 0.57812239074 1.15768842437 0.23005835859 0.57750344036 1.16903236644 0.24917900277 0.57741905829 1.18047967303 0.27009779236 0.57826304384 1.19175070272 0.14440503530 0.55939204044 1.10590522685 0.15983521988 0.56121029944 1.11154792384 0.17422323184 0.56185091851 1.11862557432 0.18804811998 0.56156087290 1.12688498055 0.20178893313 0.56058713785 1.13607294477 0.21592472010 0.55917668859 1.14593626923 0.23093452970 0.55757650039 1.15622175619 0.24729741074 0.55603354847 1.16667620789 0.26549241205 0.55479480809 1.17704642660 0.28599858243 0.55410725449 1.18707921455 0.15087660852 0.54566738913 1.10537106188 0.17027749363 0.54519384403 1.11151914065 0.18717526820 0.54399277665 1.11881355963 0.20232150035 0.54221409365 1.12702809776 0.21646775818 0.54000770168 1.13593653400 0.23036560980 0.53752350739 1.14531264731 0.24476662333 0.53491141742 1.15493021663 0.26042236686 0.53232133844 1.16456302092 0.27808440852 0.52990317708 1.17398483913 0.29850431641 0.52780684001 1.18296945021 0.15519182975 0.53028667551 1.10574602582 0.17722518380 0.52779735856 1.11214811243 0.19576060127 0.52487581807 1.11945981960 0.21174403417 0.52161267281 1.12748123276 0.22612143456 0.51809854154 1.13601243730 0.23983875447 0.51442404305 1.14485351866 0.25384194594 0.51067979610 1.15380456225 0.26907696101 0.50695641947 1.16266565348 0.28648975172 0.50334453192 1.17123687776 0.30702627010 0.49993475224 1.17931832053 0.15735035738 0.51370126310 1.10692329353 0.18067075192 0.50941487658 1.11336266999 0.19994993315 0.50488239737 1.12052108845 0.21625010929 0.50016096233 1.12822306728 0.23063348855 0.49530770830 1.13629312483 0.24416227915 0.49037977213 1.14455577948 0.25789868931 0.48543429067 1.15283554959 0.27290492724 0.48052840077 1.16095695352 0.29024320117 0.47571923928 1.16874450965 0.31097571930 0.47106394304 1.17602273632 0.15735184979 0.49636251543 1.10879603987 0.18060665947 0.49044043159 1.11509064414 0.19971396597 0.48439486913 1.12195410037 0.21577411353 0.47826331417 1.12923228306 0.22988744642 0.47208325282 1.13677106675 0.24315430889 0.46589217119 1.14441632596 0.25667504521 0.45972755540 1.15201393521 0.27154999963 0.45362689157 1.15940976902 0.28887951642 0.44762766580 1.16644970191 0.30976393983 0.44176736423 1.17297960842 0.15519596536 0.47872179601 1.11125743971 0.17702536798 0.47126805714 1.11725986570 0.19502340185 0.46379558796 1.12371558954 0.21025043474 0.45632408030 1.13048756185 0.22376683444 0.44887322597 1.13743873323 0.23663296873 0.44146271677 1.14443205429 0.24990920540 0.43411224453 1.15133047565 0.26465591222 0.42684150106 1.15799694792 0.28193345699 0.41967017817 1.16429442171 0.30280220747 0.41261796767 1.17008584764 0.15088236247 0.46123046837 1.11420066789 0.16991933894 0.45229178674 1.11979816547 0.18584894290 0.44346690844 1.12576229018 0.19961346074 0.43474761268 1.13196758538 0.21215517889 0.42612567862 1.13828859442 0.22441638372 0.41759288544 1.14459986067 0.23733936165 0.40914101233 1.15077592747 0.25186639909 0.40076183847 1.15669133819 0.26893978242 0.39244714303 1.16222063618 0.28950179805 0.38418870520 1.16723836481 0.14441069951 0.44433989603 1.11751889929 0.15928103386 0.43390565392 1.12263337427 0.17216129124 0.42379118518 1.12805093648 0.18379757939 0.41393826326 1.13365103539 0.19493600603 0.40428866164 1.13931312050 0.20632267891 0.39478415375 1.14491664128 0.21870370575 0.38536651305 1.15034104722 0.23282519428 0.37597751300 1.15546578779 0.24943325224 0.36655892705 1.16017031247 0.26927398736 0.35705252866 1.16433407075 0.13578063486 0.42850144252 1.12110530877 0.14510291425 0.41650369221 1.12569332291 0.15393114900 0.40515077275 1.13053826263 0.16273717851 0.39430038402 1.13551659363 0.17199284216 0.38381022589 1.14050478163 0.18216997934 0.37353799824 1.14537929234 0.19374042944 0.36334140094 1.15001659145 0.20717603186 0.35307813387 1.15429314467 0.22294862599 0.34260589690 1.15808541771 0.24153005120 0.33178238991 1.16126987628 0.10040689510 0.57567041218 1.10577773275 0.10736980279 0.58192042215 1.11086972019 0.11545790034 0.58571687803 1.11775447915 0.12460260535 0.58751623092 1.12614437347 0.13473533544 0.58777493193 1.13575176701 0.14578750820 0.58694943215 1.14628902362 0.15769054125 0.58549618268 1.15746850714 0.17037585218 0.58387163463 1.16900258143 0.18377485862 0.58253223909 1.18060361033 0.19781897815 0.58193444716 1.19198395770 0.10606117651 0.56353007084 1.10355818297 0.11673782992 0.56653112757 1.10961832995 0.12703423264 0.56784506231 1.11707755016 0.13716623978 0.56779281979 1.12569837232 0.14734970644 0.56669534475 1.13524332514 0.15780048772 0.56487358190 1.14547493733 0.16873443871 0.56264847599 1.15615573762 0.18036741452 0.56034097174 1.16704825471 0.19291527024 0.55827201388 1.17791501731 0.20659386098 0.55676254713 1.18851855415 0.11030243945 0.54936225818 1.10258394587 0.12375938856 0.54949658479 1.10928716445 0.13570140375 0.54853725907 1.11706455347 0.14656507728 0.54670772436 1.12572314987 0.15678700143 0.54423142398 1.13506999063 0.16680376845 0.54133180125 1.14491211268 0.17705197061 0.53823229951 1.15505655300 0.18796820018 0.53515636208 1.16531034854 0.19998904943 0.53232743228 1.17548053626 0.21355111061 0.52996895344 1.18537415311 0.11313046994 0.53355313321 1.10273337396 0.12842793201 0.53114064905 1.10978991540 0.14143478663 0.52809112229 1.11765686444 0.15274573868 0.52455847994 1.12617942413 0.16295549305 0.52069664899 1.13520279751 0.17265875459 0.51665955645 1.14457218761 0.18245022819 0.51260112933 1.15413279746 0.19292461872 0.50867529463 1.16372983012 0.20467663105 0.50503597936 1.17320848861 0.21830097006 0.50183711052 1.18241397598 0.11454505404 0.51648885494 1.10388481974 0.13073691354 0.51178717560 1.11104027448 0.14420975424 0.50680430594 1.11879585845 0.15565484481 0.50164262182 1.12702791309 0.16576345395 0.49640449913 1.13561277981 0.17522685036 0.49119231375 1.14442680003 0.18473630270 0.48610844155 1.15334631516 0.19498307969 0.48125525841 1.16224766662 0.20665845001 0.47673514020 1.17100719582 0.22045368234 0.47265046281 1.17950124419 0.11454597777 0.49855558239 1.10591663575 0.13067978646 0.49176001968 1.11295193339 0.14400167954 0.48497446397 1.12042291087 0.15523901649 0.47825768532 1.12822933474 0.16511915679 0.47166845378 1.13627097156 0.17436945993 0.46526553940 1.14444758788 0.18371728538 0.45910771226 1.15265895025 0.19388999264 0.45325374239 1.16080482521 0.20561494117 0.44776239987 1.16878497933 0.21961949047 0.44269245475 1.17649917915 0.11313302717 0.48013947456 1.10870717448 0.12825000404 0.47138303654 1.11543858383 0.14078593549 0.46289925037 1.12247939706 0.15144487454 0.45470120573 1.12974440708 0.16093087421 0.44680199227 1.13714840679 0.16994798752 0.43921469965 1.14460618909 0.17920026748 0.43195241754 1.15203254689 0.18939176711 0.42502823558 1.15934227309 0.20122653944 0.41845524345 1.16645016058 0.21540863747 0.41224653079 1.17327100228 0.11030598830 0.46162669049 1.11213478846 0.12344101958 0.45098008141 1.11841391750 0.13453789505 0.44087631910 1.12490669240 0.14421903979 0.43127071836 1.13153384810 0.15310687886 0.42211859398 1.13821611952 0.16182383732 0.41337526076 1.14487424160 0.17099234023 0.40499603348 1.15142894925 0.18123481266 0.39693622696 1.15780097742 0.19317367968 0.38915115599 1.16391106102 0.20743136634 0.38159613536 1.16967993500 0.10606464717 0.44340338918 1.11607783020 0.11624628635 0.43087500955 1.12179162609 0.12523293118 0.41920332414 1.12764617226 0.13350813307 0.40826375851 1.13355837579 0.14155544338 0.39793173826 1.13944514378 0.14985841353 0.38808268896 1.14522338332 0.15890059488 0.37859203619 1.15081000149 0.16916553884 0.36933520554 1.15612190539 0.18113679679 0.36018762258 1.16107600210 0.19529792011 0.35102471290 1.16558919872 0.10040878985 0.42585572964 1.12041465221 0.10665925765 0.41139167620 1.12548540130 0.11284641684 0.39817791944 1.13063921200 0.11925877519 0.38597786149 1.13577870816 0.12618484043 0.37455490447 1.14080651360 0.13391312035 0.36367245051 1.14562525219 0.14273212268 0.35309390174 1.15013754777 0.15293035519 0.34258266029 1.15424602418 0.16479632565 0.33190212828 1.15785330525 0.17861854179 0.32081570785 1.16086201485 0.06161328260 0.57877784516 1.10465932771 0.06568234833 0.58623224498 1.10991178343 0.07061962117 0.59081620643 1.11696471645 0.07631983683 0.59302794844 1.12552516077 0.08267773107 0.59336568996 1.13530015040 0.08958803961 0.59232764995 1.14599671933 0.09694549821 0.59041204733 1.15732190156 0.10464484259 0.58811710106 1.16898273110 0.11258080850 0.58594103009 1.18068624195 0.12064813168 0.58438205336 1.19213946811 0.06480253941 0.56628876000 1.10199349087 0.07107056928 0.57007834871 1.10833193815 0.07725611208 0.57184116075 1.11604553851 0.08343815182 0.57194745383 1.12490730499 0.08969567250 0.57076748567 1.13469025059 0.09610765814 0.56867151397 1.14516738832 0.10275309274 0.56602979646 1.15611173120 0.10971096033 0.56321259085 1.16729629225 0.11706024490 0.56059015486 1.17849408447 0.12487993047 0.55853274619 1.18947812088 0.06719478074 0.55182550650 1.10072587242 0.07510862037 0.55236508112 1.10779918460 0.08222270053 0.55156691672 1.11589855401 0.08875887972 0.54970348106 1.12485318962 0.09493901648 0.54704724193 1.13449230039 0.10098496933 0.54387066710 1.14464509528 0.10711859679 0.54044622435 1.15514078325 0.11356175739 0.53704638145 1.16580857327 0.12053630964 0.53394360619 1.17647767429 0.12826411207 0.53141036633 1.18697729529 0.06878989024 0.53573077399 1.10072494332 0.07779210875 0.53336951194 1.10821778841 0.08550313028 0.53023466122 1.11645489909 0.09224738770 0.52652235433 1.12531155682 0.09834931388 0.52242872377 1.13466304307 0.10413334167 0.51814990203 1.14438463928 0.10992390396 0.51388202162 1.15435162693 0.11604543359 0.50982121503 1.16443928749 0.12282236345 0.50616361476 1.17452290240 0.13057912638 0.50310535329 1.18447775314 0.06958775156 0.51834725183 1.10185917450 0.07911664155 0.51336871087 1.10949201520 0.08708114513 0.50808558113 1.11764570991 0.09386904291 0.50263039782 1.12623114876 0.09986811554 0.49713569620 1.13515922189 0.10546614363 0.49173401149 1.14434081942 0.11105090782 0.48655787894 1.15368683148 0.11701018875 0.48173983377 1.16310814822 0.12373176704 0.47741241124 1.17251565976 0.13160342332 0.47370814657 1.18182025623 0.06958824833 0.50001762935 1.10399703693 0.07907782593 0.49263974766 1.11152613060 0.08694048886 0.48536086334 1.11940212263 0.09358921251 0.47825393574 1.12756070761 0.09943697232 0.47139192423 1.13593758013 0.10489674367 0.46484778818 1.14446843477 0.11038150198 0.45869448693 1.15308896613 0.11630422267 0.45300497986 1.16173486879 0.12307788114 0.44785222632 1.17034183734 0.13111545280 0.44330918567 1.17884556636 0.06879126420 0.48108459590 1.10700700156 0.07767126902 0.47145969202 1.11422440021 0.08506490524 0.46230169473 1.12165527338 0.09137326366 0.45361929228 1.12924897551 0.09699743507 0.44542117290 1.13695486104 0.10233851026 0.43771602481 1.14472228442 0.10779758003 0.43051253625 1.15250060010 0.11377573517 0.42381939546 1.16023916251 0.12067406647 0.41764529066 1.16788732611 0.12889366472 0.41199891009 1.17539444534 0.06719668282 0.46189084083 1.11075753932 0.07489257797 0.45010561367 1.11749108967 0.08143813808 0.43914926220 1.12433629834 0.08718656352 0.42895279164 1.13124469464 0.09249105466 0.41944720720 1.13816780791 0.09770481188 0.41056351410 1.14505716746 0.10318103555 0.40223271754 1.15186430262 0.10927292605 0.39438582276 1.15854074271 0.11633368374 0.38695383495 1.16503801706 0.12471650900 0.37986775934 1.17130765498 0.06480438783 0.44277905348 1.11511712118 0.07073735992 0.42885458234 1.12123046460 0.07604393114 0.41614475263 1.12737633364 0.08099447923 0.40448075801 1.13349660716 0.08585938194 0.39369379216 1.13953316399 0.09090901699 0.38361504875 1.14542788297 0.09641376214 0.37407572145 1.15112264292 0.10264399513 0.36490700392 1.15655932270 0.10987009368 0.35594008985 1.16167980114 0.11836243555 0.34700617290 1.16642595707 0.06161426288 0.42409192320 1.11995421808 0.06520122201 0.40798366776 1.12534679060 0.06886602821 0.39352935290 1.13070651545 0.07276237796 0.38042951559 1.13595345524 0.07704396775 0.36838469280 1.14100767256 0.08186449407 0.35709542148 1.14578923003 0.08737765339 0.34626223861 1.15021819024 0.09373714221 0.33558568114 1.15421461580 0.10109665701 0.32476628605 1.15769856933 0.10960989428 0.31350459029 1.16059011342 0.02076583653 0.58033156467 1.10410013041 0.02210408009 0.58838815960 1.10943282059 0.02376390822 0.59336587405 1.11656984107 0.02569954700 0.59578381090 1.12521556089 0.02786522256 0.59616107299 1.13507434912 0.03021516101 0.59501676319 1.14585057482 0.03270358844 0.59286998434 1.15724860704 0.03528473097 0.59023983932 1.16897281485 0.03791281471 0.58764543096 1.18072756729 0.04054206577 0.58560586214 1.19221723344 0.02179503531 0.56766810774 1.10121115025 0.02386138621 0.57185196272 1.10768874817 0.02592451865 0.57383921369 1.11552953912 0.02800233912 0.57402477485 1.12451177828 0.03011275412 0.57280356042 1.13441372079 0.03227367015 0.57057048460 1.14501362183 0.03450299370 0.56772046159 1.15608973656 0.03681863126 0.56464840560 1.16742032014 0.03923848934 0.56174923084 1.17878362773 0.04178047443 0.55941785151 1.18995791449 0.02256702828 0.55305713391 1.09979684128 0.02517825431 0.55379933290 1.10705520087 0.02754109401 0.55308174947 1.11531556105 0.02972281742 0.55120136364 1.12441821679 0.03179069457 0.54845515541 1.13420346306 0.03381199550 0.54514010479 1.14451159486 0.03585399025 0.54155319180 1.15518290714 0.03798394885 0.53799139644 1.16605769489 0.04026914135 0.53475169872 1.17697625309 0.04277683777 0.53213107866 1.18777887671 0.02308177865 0.53681959771 1.09972073368 0.02605314263 0.53448394710 1.10743173129 0.02860796890 0.53130643474 1.11585392339 0.03084900340 0.52750429589 1.12487763067 0.03287899208 0.52329476579 1.13439317382 0.03480068089 0.51889507971 1.14429087355 0.03671681578 0.51452247290 1.15446105054 0.03873014270 0.51039418061 1.16479402550 0.04094340758 0.50672743810 1.17518011911 0.04345935639 0.50373948062 1.18550965208 0.02333924964 0.51927645363 1.10084635760 0.02648450942 0.51415948229 1.10871789201 0.02911947792 0.50872622285 1.11707064269 0.03136891856 0.50312429025 1.12583277417 0.03335759482 0.49750129942 1.13493245096 0.03521027013 0.49200486529 1.14429783757 0.03705170795 0.48678260279 1.15385709852 0.03900667172 0.48198212686 1.16353839833 0.04119992490 0.47775105243 1.17326990151 0.04375623093 0.47423699442 1.18297977258 0.02333940449 0.50074865619 1.10303724322 0.02647081293 0.49307961542 1.11081323561 0.02906995565 0.48555406714 1.11889173550 0.03127058441 0.47825206537 1.12722640154 0.03320645095 0.47125366413 1.13577089235 0.03501130703 0.46463891747 1.14447886657 0.03681890443 0.45848787940 1.15330398282 0.03876299488 0.45288060396 1.16219989976 0.04097733015 0.44789714518 1.17112027601 0.04359566200 0.44361755709 1.18001877020 0.02308220640 0.48155715989 1.10615692071 0.02601051140 0.47149802347 1.11361731468 0.02845373671 0.46200292095 1.12124321837 0.03054202242 0.45307833987 1.12900126702 0.03240550863 0.44473076777 1.13685809588 0.03417433542 0.43696669218 1.14478034020 0.03597864288 0.42979260064 1.15273463522 0.03794857111 0.42321498068 1.16068761618 0.04021426020 0.41724031983 1.16860591833 0.04290585023 0.41187510564 1.17645617692 0.02256761862 0.46202291926 1.11006892023 0.02510206308 0.44966838339 1.11702968180 0.02726515569 0.43828573763 1.12405110783 0.02917125412 0.42779383242 1.13110012486 0.03093471603 0.41811151818 1.13814365945 0.03266989909 0.40915764537 1.14514863813 0.03449116097 0.40085106442 1.15208198745 0.03651285935 0.39311062577 1.15891063396 0.03884935188 0.38585517985 1.16560150420 0.04161499625 0.37900357711 1.17212152471 0.02179560434 0.44246688879 1.11463677196 0.02374392622 0.42784437215 1.12094988956 0.02549854719 0.41461547052 1.12724142043 0.02714630099 0.40258926163 1.13346572931 0.02877402131 0.39157482321 1.13957718093 0.03046854188 0.38138123298 1.14553014001 0.03231669638 0.37181756867 1.15127897129 0.03440531854 0.36269290800 1.15677803948 0.03682124207 0.35381632871 1.16198170933 0.03965130066 0.34499690852 1.16684434556 0.02076612681 0.42321002299 1.11972400606 0.02193455905 0.40627966670 1.12527749054 0.02314824581 0.39120507296 1.13074017273 0.02445518454 0.37765534616 1.13604083462 0.02590337265 0.36529959069 1.14110825821 0.02754080758 0.35380691093 1.14587122550 0.02941548677 0.34284641129 1.15025851847 0.03157540763 0.33208719614 1.15419891913 0.03406856760 0.32119836988 1.15762120946 0.03694296411 0.30984903689 1.16045417146 -0.02076622078 0.58033157051 1.10410014051 -0.02210445953 0.58838816581 1.10943283136 -0.02376428283 0.59336588072 1.11656985265 -0.02569991680 0.59578381809 1.12521557342 -0.02786558754 0.59616108076 1.13507436271 -0.03021552117 0.59501677158 1.14585058955 -0.03270394379 0.59286999340 1.15724862298 -0.03528508153 0.59023984905 1.16897283204 -0.03791316048 0.58764544137 1.18072758577 -0.04054240676 0.58560587323 1.19221725320 -0.02179542445 0.56766811388 1.10121116083 -0.02386177106 0.57185196943 1.10768875975 -0.02592489917 0.57383922096 1.11552955171 -0.02800271528 0.57402478269 1.12451179188 -0.03011312588 0.57280356882 1.13441373541 -0.03227403747 0.57057049357 1.14501363750 -0.03450335654 0.56772047115 1.15608975330 -0.03681898959 0.56464841576 1.16742033799 -0.03923884311 0.56174924162 1.17878364675 -0.04178082361 0.55941786295 1.18995793475 -0.02256742207 0.55305714028 1.09979685220 -0.02517864439 0.55379933999 1.10705521306 -0.02754148031 0.55308175720 1.11531557437 -0.02972319986 0.55120137195 1.12441823116 -0.03179107308 0.54845516428 1.13420347843 -0.03381236999 0.54514011420 1.14451161119 -0.03585436064 0.54155320174 1.15518292445 -0.03798431506 0.53799140693 1.16605771322 -0.04026950327 0.53475170981 1.17697627251 -0.04277719532 0.53213109038 1.18777889733 -0.02308217685 0.53681960422 1.09972074481 -0.02605353775 0.53448395443 1.10743174385 -0.02860836082 0.53130644277 1.11585393717 -0.03084939202 0.52750430452 1.12487764552 -0.03287937729 0.52329477497 1.13439318964 -0.03480106256 0.51889508939 1.14429089027 -0.03671719379 0.51452248308 1.15446106817 -0.03873051691 0.51039419131 1.16479404408 -0.04094377786 0.50672744938 1.17518013874 -0.04345972260 0.50373949255 1.18550967290 -0.02333965200 0.51927646022 1.10084636881 -0.02648490937 0.51415948974 1.10871790472 -0.02911987530 0.50872623103 1.11707065666 -0.03136931325 0.50312429903 1.12583278919 -0.03335798666 0.49750130873 1.13493246691 -0.03521065897 0.49200487509 1.14429785439 -0.03705209364 0.48678261308 1.15385711621 -0.03900705409 0.48198213765 1.16353841693 -0.04120030379 0.47775106379 1.17326992114 -0.04375660616 0.47423700645 1.18297979342 -0.02333981073 0.50074866277 1.10303725439 -0.02647121748 0.49307962287 1.11081324826 -0.02907035833 0.48555407530 1.11889174938 -0.03127098503 0.47825207412 1.12722641644 -0.03320684935 0.47125367341 1.13577090815 -0.03501170304 0.46463892722 1.14447888320 -0.03681929787 0.45848788963 1.15330400030 -0.03876338558 0.45288061470 1.16219991814 -0.04097771795 0.44789715650 1.17112029542 -0.04359604672 0.44361756910 1.18001879083 -0.02308261624 0.48155716640 1.10615693171 -0.02601092032 0.47149803079 1.11361732705 -0.02845414449 0.46200292894 1.12124323188 -0.03054242885 0.45307834843 1.12900128150 -0.03240591351 0.44473077683 1.13685811122 -0.03417473858 0.43696670171 1.14478035635 -0.03597904415 0.42979261065 1.15273465219 -0.03794897034 0.42321499121 1.16068763406 -0.04021465725 0.41724033097 1.16860593726 -0.04290624500 0.41187511749 1.17645619709 -0.02256803173 0.46202292561 1.11006893095 -0.02510247612 0.44966839045 1.11702969369 -0.02726556837 0.43828574528 1.12405112071 -0.02917166620 0.42779384059 1.13110013862 -0.03093512730 0.41811152683 1.13814367401 -0.03267030938 0.40915765449 1.14514865348 -0.03449157016 0.40085107403 1.15208200363 -0.03651326733 0.39311063593 1.15891065106 -0.03884975861 0.38585519064 1.16560152237 -0.04161540170 0.37900358865 1.17212154415 -0.02179602042 0.44246689492 1.11463678227 -0.02374434312 0.42784437882 1.12094990075 -0.02549896456 0.41461547767 1.12724143242 -0.02714671855 0.40258926924 1.13346574205 -0.02877443886 0.39157483126 1.13957719440 -0.03046895926 0.38138124149 1.14553015425 -0.03231711355 0.37181757769 1.15127898636 -0.03440573551 0.36269291760 1.15677805550 -0.03682165892 0.35381633898 1.16198172644 -0.03965171756 0.34499691958 1.16684436395 -0.02076654551 0.42321002883 1.11972401584 -0.02193497954 0.40627967286 1.12527750083 -0.02314866765 0.39120507945 1.13074018356 -0.02445560740 0.37765535301 1.13604084604 -0.02590379634 0.36529959794 1.14110827027 -0.02754123203 0.35380691865 1.14587123829 -0.02941591202 0.34284641953 1.15025853211 -0.03157583385 0.33208720500 1.15419893373 -0.03406899509 0.32119837945 1.15762122517 -0.03694339327 0.30984904729 1.16045418845 -0.06161366701 0.57877786250 1.10465935766 -0.06568272814 0.58623226344 1.10991181540 -0.07061999630 0.59081622623 1.11696475085 -0.07632020725 0.59302796978 1.12552519797 -0.08267809672 0.59336571301 1.13530019069 -0.08958840047 0.59232767483 1.14599676299 -0.09694585423 0.59041207416 1.15732194880 -0.10464519375 0.58811712991 1.16898278209 -0.11258115478 0.58594106099 1.18068629681 -0.12064847306 0.58438208633 1.19213952690 -0.06480292855 0.56628877827 1.10199352230 -0.07107095431 0.57007836870 1.10833197264 -0.07725649291 0.57184118242 1.11604557603 -0.08343852837 0.57194747717 1.12490734550 -0.08969604469 0.57076751068 1.13469029413 -0.09610802592 0.56867154068 1.14516743496 -0.10275345605 0.56602982492 1.15611178104 -0.10971131912 0.56321262112 1.16729634545 -0.11706059914 0.56059018702 1.17849414121 -0.12488028013 0.55853278037 1.18947818140 -0.06719517443 0.55182552545 1.10072590492 -0.07510901049 0.55236510225 1.10779922093 -0.08222308696 0.55156693979 1.11589859378 -0.08875926237 0.54970350590 1.12485323253 -0.09493939524 0.54704726841 1.13449234626 -0.10098534412 0.54387069518 1.14464514404 -0.10711896752 0.54044625403 1.15514083495 -0.11356212398 0.53704641280 1.16580862804 -0.12053667203 0.53394363934 1.17647773240 -0.12826447021 0.53141040148 1.18697735710 -0.06879028826 0.53573079340 1.10072497648 -0.07779250379 0.53336953382 1.10821782590 -0.08550352221 0.53023468521 1.11645494027 -0.09224777638 0.52652238014 1.12531160121 -0.09834969919 0.52242875121 1.13466309035 -0.10413372351 0.51814993100 1.14438468931 -0.10992428220 0.51388205210 1.15435167970 -0.11604580814 0.50982124710 1.16443934315 -0.12282273420 0.50616364858 1.17452296127 -0.13057949325 0.50310538913 1.18447781569 -0.06958815368 0.51834727146 1.10185920794 -0.07911704134 0.51336873313 1.10949205317 -0.08708154242 0.50808560556 1.11764575166 -0.09386943755 0.50263042409 1.12623119372 -0.09986850737 0.49713572407 1.13515926966 -0.10546653253 0.49173404085 1.14434086982 -0.11105129366 0.48655790975 1.15368688450 -0.11701057140 0.48173986615 1.16310820402 -0.12373214638 0.47741244536 1.17251571872 -0.13160379925 0.47370818275 1.18182031889 -0.06958865431 0.50001764897 1.10399707024 -0.07907823026 0.49263976990 1.11152616838 -0.08694089134 0.48536088773 1.11940216411 -0.09358961299 0.47825396194 1.12756075220 -0.09943737061 0.47139195200 1.13593762744 -0.10489713964 0.46484781739 1.14446848462 -0.11038189548 0.45869451759 1.15308901852 -0.11630461357 0.45300501208 1.16173492393 -0.12307826933 0.44785226032 1.17034189563 -0.13111583816 0.44330922179 1.17884562841 -0.06879167375 0.48108461528 1.10700703435 -0.07767167766 0.47145971385 1.11422443716 -0.08506531275 0.46230171860 1.12165531378 -0.09137366984 0.45361931786 1.12924901883 -0.09699783974 0.44542119999 1.13695490695 -0.10233891326 0.43771605334 1.14472233279 -0.10779798123 0.43051256623 1.15250065097 -0.11377613446 0.42381942703 1.16023921614 -0.12067446377 0.41764532407 1.16788738292 -0.12889405997 0.41199894571 1.17539450596 -0.06719709564 0.46189085975 1.11075757123 -0.07489299068 0.45010563472 1.11749112514 -0.08143855040 0.43914928505 1.12433633683 -0.08718697523 0.42895281605 1.13124473577 -0.09249146557 0.41944723305 1.13816785146 -0.09770522185 0.41056354136 1.14505721338 -0.10318144448 0.40223274629 1.15186435103 -0.10927333388 0.39438585315 1.15854079390 -0.11633409046 0.38695386726 1.16503807148 -0.12471691463 0.37986779394 1.17130771325 -0.06480480360 0.44277907171 1.11511715183 -0.07073777643 0.42885460221 1.12123049795 -0.07604434805 0.41614477396 1.12737636941 -0.08099489629 0.40448078070 1.13349664518 -0.08585979895 0.39369381618 1.13953320420 -0.09090943385 0.38361507415 1.14542792546 -0.09641417881 0.37407574837 1.15112268790 -0.10264441163 0.36490703257 1.15655937049 -0.10987051013 0.35594012050 1.16167985220 -0.11836285213 0.34700620593 1.16642601199 -0.06161468125 0.42409194051 1.11995424711 -0.06520164203 0.40798368606 1.12534682122 -0.06886644946 0.39352937222 1.13070654770 -0.07276280015 0.38042953598 1.13595348922 -0.07704439069 0.36838471438 1.14100770846 -0.08186491770 0.35709544440 1.14578926808 -0.08737807777 0.34626226308 1.15021823076 -0.09373756752 0.33558570742 1.15421465917 -0.10109708353 0.32476631443 1.15769861599 -0.10961032242 0.31350462112 1.16059016388 -0.10040727983 0.57567044042 1.10577778153 -0.10737018332 0.58192045230 1.11086977241 -0.11545827651 0.58571691039 1.11775453534 -0.12460297702 0.58751626575 1.12614443413 -0.13473570245 0.58777496947 1.13575183261 -0.14578787044 0.58694947262 1.14628909460 -0.15769089860 0.58549622629 1.15746858392 -0.17037620456 0.58387168156 1.16900266438 -0.18377520593 0.58253228949 1.18060369981 -0.19781932033 0.58193450118 1.19198405402 -0.10606156565 0.56353010072 1.10355823439 -0.11673821530 0.56653116037 1.10961838657 -0.12703461408 0.56784509792 1.11707761179 -0.13716661710 0.56779285813 1.12569843886 -0.14735007951 0.56669538581 1.13524339660 -0.15780085642 0.56487362573 1.14547501385 -0.16873480296 0.56264852268 1.15615581941 -0.18036777426 0.56034102146 1.16704834211 -0.19291562543 0.55827206684 1.17791511078 -0.20659421160 0.55676260362 1.18851865423 -0.11030283291 0.54936228927 1.10258399919 -0.12375977874 0.54949661957 1.10928722428 -0.13570179046 0.54853729711 1.11706461905 -0.14656546034 0.54670776533 1.12572322068 -0.15678738070 0.54423146768 1.13507006634 -0.16680414382 0.54133184760 1.14491219319 -0.17705234200 0.53823234853 1.15505663841 -0.18796856755 0.53515641394 1.16531043917 -0.19998941275 0.53232748725 1.17548063263 -0.21355146991 0.52996901192 1.18537425598 -0.11313086759 0.53355316510 1.10273342847 -0.12842832690 0.53114068515 1.10978997725 -0.14143517857 0.52809116194 1.11765693252 -0.15274612750 0.52455852264 1.12617949760 -0.16295587859 0.52069669442 1.13520287583 -0.17265913676 0.51665960445 1.14457227053 -0.18245060691 0.51260117989 1.15413288502 -0.19292499393 0.50867534792 1.16372992263 -0.20467700275 0.50503603570 1.17320858670 -0.21830133826 0.50183717041 1.18241408054 -0.11454545569 0.51648888722 1.10388487475 -0.13073731302 0.51178721234 1.11104033719 -0.14421015133 0.50680434636 1.11879592757 -0.15565523935 0.50164266535 1.12702798762 -0.16576384579 0.49640454537 1.13561285909 -0.17522723938 0.49119236249 1.14442688375 -0.18473668884 0.48610849279 1.15334640334 -0.19498346290 0.48125531233 1.16224775960 -0.20665883026 0.47673519718 1.17100729429 -0.22045405966 0.47265052342 1.17950134916 -0.11454638322 0.49855561465 1.10591669056 -0.13068019035 0.49176005640 1.11295199582 -0.14400208166 0.48497450434 1.12042297957 -0.15523941666 0.47825772874 1.12822940872 -0.16511955488 0.47166849985 1.13627105014 -0.17436985582 0.46526558794 1.14444767076 -0.18371767900 0.45910776327 1.15265903746 -0.19389038393 0.45325379609 1.16080491715 -0.20561533014 0.44776245668 1.16878507673 -0.21961987713 0.44269251528 1.17649928310 -0.11313343617 0.48013950641 1.10870722841 -0.12825041214 0.47138307256 1.11543864485 -0.14078634247 0.46289928984 1.12247946393 -0.15144528021 0.45470124810 1.12974447890 -0.16093127844 0.44680203720 1.13714848299 -0.16994839020 0.43921474700 1.14460626945 -0.17920066854 0.43195246736 1.15203263150 -0.18939216654 0.42502828813 1.15934236239 -0.20122693723 0.41845529917 1.16645025535 -0.21540903368 0.41224659034 1.17327110362 -0.11030640054 0.46162672152 1.11213484084 -0.12344143163 0.45098011608 1.11841397598 -0.13453830667 0.44087635682 1.12490675601 -0.14421945077 0.43127075872 1.13153391616 -0.15310728907 0.42211863675 1.13821619165 -0.16182424666 0.41337530589 1.14487431770 -0.17099274866 0.40499608110 1.15142902954 -0.18123522020 0.39693627736 1.15780106238 -0.19317408637 0.38915120965 1.16391115145 -0.20743177231 0.38159619293 1.16968003198 -0.10606506233 0.44340341899 1.11607788037 -0.11624670207 0.43087504219 1.12179168093 -0.12523334718 0.41920335925 1.12764623121 -0.13350854911 0.40826379589 1.13355843850 -0.14155585934 0.39793177784 1.13944521014 -0.14985882933 0.38808273081 1.14522345343 -0.15890101053 0.37859208053 1.15081007569 -0.16916595441 0.36933525272 1.15612198424 -0.18113721242 0.36018767310 1.16107608638 -0.19529833605 0.35102476739 1.16558928943 -0.10040920754 0.42585575785 1.12041469953 -0.10665967671 0.41139170614 1.12548545142 -0.11284683691 0.39817795108 1.13063926489 -0.11925919601 0.38597789490 1.13577876392 -0.12618526186 0.37455493979 1.14080657247 -0.13391354234 0.36367248799 1.14562531453 -0.14273254532 0.35309394169 1.15013761405 -0.15293077866 0.34258270313 1.15424609503 -0.16479675023 0.33190217450 1.15785338144 -0.17861896789 0.32081575804 1.16086209723 -0.13577783692 0.57100930409 1.10745541177 -0.14590628268 0.57545273222 1.11230670206 -0.15693416778 0.57806793300 1.11893920576 -0.16898987876 0.57924870578 1.12707328152 -0.18220180219 0.57938884988 1.13642928800 -0.19669832463 0.57888216467 1.14672758385 -0.21260783265 0.57812244948 1.15768852773 -0.23005871279 0.57750350365 1.16903247829 -0.24917935163 0.57741912654 1.18047979419 -0.27009813572 0.57826311748 1.19175083408 -0.14440542444 0.55939208106 1.10590529679 -0.15983560580 0.56121034430 1.11154800128 -0.17422361419 0.56185096729 1.11862565874 -0.18804849847 0.56156092540 1.12688507165 -0.20178930752 0.56058719401 1.13607304251 -0.21592509020 0.55917674849 1.14593637380 -0.23093489537 0.55757656422 1.15622186801 -0.24729777190 0.55603361656 1.16667632762 -0.26549276865 0.55479488089 1.17704655511 -0.28599893450 0.55410733258 1.18707935298 -0.15087700164 0.54566743158 1.10537113476 -0.17027788392 0.54519389182 1.11151922289 -0.18717565532 0.54399282905 1.11881365000 -0.20232188403 0.54221415014 1.12702819541 -0.21646813822 0.54000776194 1.13593663843 -0.23036598606 0.53752357132 1.14531275840 -0.24476699573 0.53491148512 1.15493033461 -0.26042273540 0.53232141021 1.16456314639 -0.27808477325 0.52990325344 1.17398497306 -0.29850467746 0.52780692167 1.18296959393 -0.15519222683 0.53028671918 1.10574610055 -0.17722557848 0.52779740830 1.11214819772 -0.19576099323 0.52487587288 1.11945991376 -0.21174442318 0.52161273194 1.12748133453 -0.22612182045 0.51809860451 1.13601254592 -0.23983913714 0.51442410965 1.14485363378 -0.25384232536 0.51067986637 1.15380468401 -0.26907733722 0.50695649372 1.16266578246 -0.28649012483 0.50334461073 1.17123701501 -0.30702664029 0.49993483644 1.17931846753 -0.15735075833 0.51370130737 1.10692336905 -0.18067115093 0.50941492728 1.11336275662 -0.19995032995 0.50488245335 1.12052118424 -0.21625050367 0.50016102272 1.12822317077 -0.23063388038 0.49530777255 1.13629323511 -0.24416266837 0.49037983998 1.14455589612 -0.25789907590 0.48543436214 1.15283567267 -0.27290531129 0.48052847620 1.16095708365 -0.29024358279 0.47571931928 1.16874464792 -0.31097609871 0.47106402854 1.17602288437 -0.15735225446 0.49636255969 1.10879611512 -0.18060706271 0.49044048227 1.11509073041 -0.19971436753 0.48439492505 1.12195419564 -0.21577451325 0.47826337445 1.12923238588 -0.22988784418 0.47208331690 1.13677117617 -0.24315470465 0.46589223881 1.14441644155 -0.25667543899 0.45972762662 1.15201405709 -0.27155039152 0.45362696675 1.15940989781 -0.28887990655 0.44762774562 1.16644983879 -0.30976432842 0.44176744966 1.17297975505 -0.15519637352 0.47872183965 1.11125751366 -0.17702577525 0.47126810680 1.11725994992 -0.19502380801 0.46379564257 1.12371568220 -0.21025083965 0.45632413906 1.13048766160 -0.22376723801 0.44887328838 1.13743883924 -0.23663337093 0.44146278265 1.14443216624 -0.24990960626 0.43411231398 1.15133059371 -0.26465631184 0.42684157448 1.15799707278 -0.28193385551 0.41967025627 1.16429455456 -0.30280260512 0.41261805146 1.17008599016 -0.15088277385 0.46123051077 1.11420073953 -0.16991975000 0.45229183441 1.11979824600 -0.18584935344 0.44346696049 1.12576237811 -0.19961387063 0.43474766849 1.13196767967 -0.21215558803 0.42612573783 1.13828869447 -0.22441679211 0.41759294799 1.14459996632 -0.23733976934 0.40914107839 1.15077603903 -0.25186680617 0.40076190850 1.15669145639 -0.26894018908 0.39244721775 1.16222076221 -0.28950220453 0.38418878561 1.16723850029 -0.14441111374 0.44433993660 1.11751896762 -0.15928144840 0.43390569860 1.12263344947 -0.17216170586 0.42379123340 1.12805101760 -0.18379799393 0.41393831468 1.13365112184 -0.19493642041 0.40428871610 1.13931321202 -0.20632309313 0.39478421133 1.14491673796 -0.21870411987 0.38536657404 1.15034114951 -0.23282560844 0.37597757791 1.15546589648 -0.24943366666 0.36655899661 1.16017042871 -0.26927440233 0.35705260380 1.16433419604 -0.13578105153 0.42850148064 1.12110537280 -0.14510333188 0.41650373291 1.12569339117 -0.15393156731 0.40515081589 1.13053833488 -0.16273759729 0.39430042958 1.13551666986 -0.17199326132 0.38381027400 1.14050486203 -0.18217039889 0.37353804917 1.14537937731 -0.19374084948 0.36334145511 1.15001668162 -0.20717645257 0.35307819183 1.15429324089 -0.22294904766 0.34260595935 1.15808552104 -0.24153047424 0.33178245768 1.16126998799 -0.16635611596 0.56479445331 1.10969224804 -0.18003048382 0.56682910301 1.11422260404 -0.19370271442 0.56786929388 1.12051876178 -0.20792256516 0.56822528963 1.12831173974 -0.22323979342 0.56820735399 1.13733255639 -0.24020415660 0.56812575066 1.14731223021 -0.25936541210 0.56829074338 1.15798177966 -0.28127331730 0.56901259585 1.16907222323 -0.30647762961 0.57060157180 1.18031457938 -0.33552810642 0.57336793494 1.19143986658 -0.17866859358 0.55387471913 1.10903470923 -0.19933517757 0.55411592032 1.11412081650 -0.21778784476 0.55385879039 1.12068971660 -0.23494568944 0.55325167882 1.12846724359 -0.25172780591 0.55244293511 1.13717923153 -0.26905328845 0.55158090878 1.14655151446 -0.28784123137 0.55081394930 1.15630992646 -0.30901072895 0.55029040620 1.16618030158 -0.33348087550 0.55015862896 1.17588847388 -0.36217076529 0.55056696708 1.18516027741 -0.18790428475 0.54074095224 1.10908731137 -0.21381026077 0.53945691886 1.11449521653 -0.23584274608 0.53793353548 1.12114568640 -0.25520862368 0.53622266020 1.12876815649 -0.27311477658 0.53437615108 1.13709206233 -0.29076808779 0.53244586621 1.14584683943 -0.30937544031 0.53048366366 1.15476192332 -0.33014371716 0.52854140150 1.16356674951 -0.35427980134 0.52667093783 1.17199075353 -0.38299057586 0.52492413071 1.17976337090 -0.19406267800 0.52593145550 1.10976299250 -0.22344882993 0.52333970317 1.11529248713 -0.24783862950 0.52058881791 1.12186388382 -0.26864264125 0.51768500793 1.12921711185 -0.28727142972 0.51463448139 1.13709210047 -0.30513555946 0.51144344651 1.14522877894 -0.32364559502 0.50811811147 1.15336707655 -0.34421210093 0.50466468445 1.16124692254 -0.36824564175 0.50108937366 1.16860824619 -0.39715678203 0.49739838727 1.17519097675 -0.19714326190 0.50998453178 1.11097469061 -0.22824398160 0.50625187783 1.11645931128 -0.25374670617 0.50231992643 1.12282152153 -0.27517901554 0.49818549615 1.12981674307 -0.29406848962 0.49384540556 1.13720039761 -0.31194270832 0.48929647325 1.14472790684 -0.33032925156 0.48453551778 1.15215469246 -0.35075569927 0.47955935774 1.15923617617 -0.37474963135 0.47436481169 1.16572777968 -0.40383862771 0.46894869822 1.17138492469 -0.19714552499 0.49343848394 1.11263534374 -0.22818881228 0.48868104741 1.11794237198 -0.25353818722 0.48362214978 1.12399581218 -0.27474901994 0.47827089901 1.13056968359 -0.29337668056 0.47263640308 1.13743800543 -0.31097653922 0.46672776996 1.14437479694 -0.32910396605 0.46055410762 1.15115407736 -0.34931433117 0.45412452404 1.15754986592 -0.37316300473 0.44744812718 1.16333618187 -0.40220535684 0.44053402502 1.16828704443 -0.19406895584 0.47683161485 1.11465788988 -0.22327641852 0.47111481647 1.11968835223 -0.24718428379 0.46499077670 1.12536396844 -0.26728392783 0.45848799066 1.13147856680 -0.28506672683 0.45163495346 1.13782597559 -0.30202405701 0.44446016021 1.14420002309 -0.31964729455 0.43699210604 1.15039453756 -0.33942781565 0.42925928606 1.15620334730 -0.36285699650 0.42129019537 1.16142028058 -0.39142621331 0.41311332911 1.16583916567 -0.18791304298 0.46070222737 1.11695526707 -0.21349989684 0.45404078958 1.12164393501 -0.23465620700 0.44692109596 1.12690320296 -0.25271501259 0.43938354525 1.13254602613 -0.26900935273 0.43146853620 1.13838535977 -0.28487226655 0.42321646756 1.14423415911 -0.30163679316 0.41466773806 1.14990537938 -0.32063597170 0.40586274647 1.15521197582 -0.34320284129 0.39684189151 1.15996690366 -0.37067044105 0.38764557195 1.16398311815 -0.17867727498 0.44558862436 1.11944041330 -0.19885234377 0.43794657131 1.12375580334 -0.21592516801 0.42990839630 1.12859072839 -0.23097354762 0.42150433693 1.13377469499 -0.24507528254 0.41276463082 1.13913720963 -0.25930817268 0.40371951555 1.14450777884 -0.27475001797 0.39439922873 1.14971590912 -0.29247861833 0.38483400796 1.15459110699 -0.31357177369 0.37505409085 1.15896287897 -0.33910728398 0.36508971500 1.16266073156 -0.16636114039 0.43202910868 1.12202626660 -0.17932685583 0.42331976621 1.12597064019 -0.19096237793 0.41444796646 1.13040375741 -0.20199080630 0.40539713985 1.13516720679 -0.21313524054 0.39615071680 1.14010257684 -0.22511878026 0.38669212774 1.14505145610 -0.23866452506 0.37700480308 1.14985543309 -0.25449557455 0.36707217323 1.15435609632 -0.27333502833 0.35687766863 1.15839503433 -0.29590598601 0.34640471970 1.16181383562 </DataArray>
</Points>
</Piece>
</StructuredGrid>
</VTKFile>
