<?xml version="1.0"?>
<VTKFile type="StructuredGrid" version="0.1">
<StructuredGrid WholeExtent="0 9 0 9 0 9">
<Piece Extent="0 9 0 9 0 9">
<PointData>
<DataArray type="Float32" Name="Deformation" format="ascii" NumberOfComponents="3">
-0.00029756924 -0.01574174801 0.00532088178 -0.00031843259 -0.01580997409 0.00559501620 -0.00034487078 -0.01586211958 0.00592989316 -0.00037845752 -0.01589952869 0.00632273630 -0.00042076651 -0.01592354567 0.00677076929 -0.00047337148 -0.01593551475 0.00727121580 -0.00053784612 -0.01593678016 0.00782129947 -0.00061576415 -0.01592868613 0.00841824398 -0.00070869927 -0.01591257689 0.00905927298 -0.00081822519 -0.01588979669 0.00974161014 -0.00036315212 -0.01549965721 0.00504041181 -0.00039083439 -0.01556466053 0.00531820563 -0.00042387103 -0.01561038566 0.00566021066 -0.00046449537 -0.01563908229 0.00606226713 -0.00051494071 -0.01565300011 0.00652021527 -0.00057744040 -0.01565438883 0.00702989531 -0.00065422776 -0.01564549813 0.00758714746 -0.00074753610 -0.01562857769 0.00818781196 -0.00085959875 -0.01560587723 0.00882772902 -0.00099264905 -0.01557964642 0.00950273888 -0.00042644272 -0.01519202358 0.00471514165 -0.00045911309 -0.01525672553 0.00500104157 -0.00049752058 -0.01529933274 0.00535461162 -0.00054408796 -0.01532260929 0.00577045573 -0.00060123800 -0.01532931927 0.00624317780 -0.00067139348 -0.01532222677 0.00676738175 -0.00075697717 -0.01530409586 0.00733767149 -0.00086041186 -0.01527769065 0.00794865093 -0.00098412031 -0.01524577520 0.00859492398 -0.00113052531 -0.01521111361 0.00927109455 -0.00048306750 -0.01483254250 0.00435368216 -0.00051954124 -0.01490106181 0.00465222924 -0.00056261539 -0.01494473447 0.00502197794 -0.00061449828 -0.01496658108 0.00545627556 -0.00067739828 -0.01496962221 0.00594846939 -0.00075352371 -0.01495687846 0.00649190676 -0.00084508294 -0.01493137041 0.00707993496 -0.00095428431 -0.01489611864 0.00770590130 -0.00108333616 -0.01485414374 0.00836315309 -0.00123444684 -0.01480846629 0.00904503762 -0.00052865292 -0.01443490936 0.00396464418 -0.00056839139 -0.01451256206 0.00428047388 -0.00061595143 -0.01456236449 0.00467119151 -0.00067298934 -0.01458746901 0.00512870008 -0.00074116147 -0.01459102800 0.00564490257 -0.00082212412 -0.01457619381 0.00621170197 -0.00091753363 -0.01454611880 0.00682100128 -0.00102904631 -0.01450395533 0.00746470348 -0.00115831849 -0.01445285577 0.00813471156 -0.00130700649 -0.01439597248 0.00882292852 -0.00055882545 -0.01401281954 0.00355663859 -0.00060193610 -0.01410611898 0.00389448069 -0.00065432466 -0.01416799643 0.00431113423 -0.00071682413 -0.01420174448 0.00479670277 -0.00079026748 -0.01421065571 0.00534128985 -0.00087548771 -0.01419802271 0.00593499902 -0.00097331781 -0.01416713807 0.00656793385 -0.00108459075 -0.01412129437 0.00723019787 -0.00121013952 -0.01406378422 0.00791189464 -0.00135079712 -0.01399790018 0.00860312770 -0.00056921155 -0.01357996841 0.00313827624 -0.00061644792 -0.01369662528 0.00350295491 -0.00067453107 -0.01377740394 0.00395068800 -0.00074326564 -0.01382587884 0.00446925709 -0.00082245625 -0.01384562440 0.00504644375 -0.00091190751 -0.01384021506 0.00567002955 -0.00101142405 -0.01381322526 0.00632779607 -0.00112081049 -0.01376822943 0.00700752487 -0.00123987146 -0.01370880201 0.00769699753 -0.00136841157 -0.01363851743 0.00838399563 -0.00055543768 -0.01315005135 0.00271816799 -0.00060819940 -0.01329897365 0.00311460174 -0.00067336662 -0.01340636066 0.00359873470 -0.00074957687 -0.01347634347 0.00415533650 -0.00083546766 -0.01351305315 0.00476917678 -0.00092967651 -0.01352062077 0.00542502519 -0.00103084092 -0.01350317741 0.00610765134 -0.00113759842 -0.01346485415 0.00680182490 -0.00124858651 -0.01340978206 0.00749231548 -0.00136244272 -0.01334209223 0.00816389274 -0.00051313031 -0.01273676376 0.00230492470 -0.00057346309 -0.01292805680 0.00273812642 -0.00064762728 -0.01307064023 0.00326415624 -0.00073302082 -0.01316960974 0.00386391448 -0.00082704166 -0.01323006101 0.00451830148 -0.00092708773 -0.01325708973 0.00520821757 -0.00103055700 -0.01325579156 0.00591456308 -0.00113484740 -0.01323126219 0.00661823835 -0.00123735688 -0.01318859731 0.00730014371 -0.00133548340 -0.01313289260 0.00794117949 -0.00043791590 -0.01235380101 0.00190715723 -0.00050851156 -0.01259876742 0.00238223416 -0.00059410902 -0.01278601629 0.00295583450 -0.00069086048 -0.01292214903 0.00360396448 -0.00079491814 -0.01301376707 0.00430263035 -0.00090243419 -0.01306747184 0.00502783833 -0.00100956085 -0.01308986474 0.00575559469 -0.00111245032 -0.01308754722 0.00646190564 -0.00120725479 -0.01306712069 0.00712277744 -0.00129012647 -0.01303518657 0.00771421632 -0.00027044770 -0.01591530289 0.00511449870 -0.00029127212 -0.01604805200 0.00540866518 -0.00031671330 -0.01615016982 0.00576463954 -0.00034845929 -0.01622531443 0.00618044137 -0.00038819812 -0.01627714393 0.00665409029 -0.00043761784 -0.01630931640 0.00718360588 -0.00049840649 -0.01632548991 0.00776700775 -0.00057225210 -0.01632932254 0.00840231550 -0.00066084273 -0.01632447239 0.00908754872 -0.00076586640 -0.01631459754 0.00982072701 -0.00033645594 -0.01567053793 0.00483107410 -0.00036098924 -0.01580083973 0.00513044954 -0.00039179173 -0.01589676591 0.00549457507 -0.00043066033 -0.01596310267 0.00591891692 -0.00047939194 -0.01600463618 0.00639894132 -0.00053978347 -0.01602615261 0.00693011453 -0.00061363182 -0.01603243816 0.00750790276 -0.00070273390 -0.01602827901 0.00812777226 -0.00080888661 -0.01601846132 0.00878518926 -0.00093388687 -0.01600777130 0.00947562000 -0.00039882362 -0.01536411576 0.00450176448 -0.00042709903 -0.01549191020 0.00481064323 -0.00046300415 -0.01558314404 0.00518723687 -0.00050818100 -0.01564309611 0.00562491429 -0.00056427159 -0.01567704526 0.00611704438 -0.00063291794 -0.01569027032 0.00665699603 -0.00071576208 -0.01568805014 0.00723813814 -0.00081444601 -0.01567566354 0.00785383961 -0.00093061177 -0.01565838937 0.00849746932 -0.00106590136 -0.01564150646 0.00916239616 -0.00045359851 -0.01500831974 0.00413534484 -0.00048581563 -0.01513533590 0.00445795130 -0.00052682773 -0.01522451993 0.00485143454 -0.00057788606 -0.01528121212 0.00530731543 -0.00064024184 -0.01531075277 0.00581711485 -0.00071514633 -0.01531848218 0.00637235368 -0.00080385077 -0.01530974065 0.00696455280 -0.00090760641 -0.01528986847 0.00758523309 -0.00102766447 -0.01526420595 0.00822591542 -0.00116527621 -0.01523809338 0.00887812067 -0.00049682838 -0.01461543320 0.00374059020 -0.00053335317 -0.01474518932 0.00408107881 -0.00057973966 -0.01483610934 0.00449597767 -0.00063664029 -0.01489336806 0.00497500228 -0.00070470750 -0.01492214029 0.00550786814 -0.00078459374 -0.01492760084 0.00608429075 -0.00087695144 -0.01491492451 0.00669398562 -0.00098243305 -0.01488928612 0.00732666823 -0.00110169101 -0.01485586047 0.00797205410 -0.00123537777 -0.01481982237 0.00861985872 -0.00052456099 -0.01419773949 0.00332627557 -0.00056592577 -0.01433554293 0.00368873081 -0.00061821711 -0.01443312799 0.00412967586 -0.00068130848 -0.01449548127 0.00463685678 -0.00075507336 -0.01452758938 0.00519801965 -0.00083938524 -0.01453443894 0.00580091053 -0.00093411760 -0.01452101655 0.00643327548 -0.00103914392 -0.01449230882 0.00708286057 -0.00115433768 -0.01445330236 0.00773741188 -0.00127957237 -0.01440898378 0.00838467547 -0.00053284411 -0.01376752194 0.00290117595 -0.00057974757 -0.01392046923 0.00328961236 -0.00063873726 -0.01403079164 0.00376133871 -0.00070875540 -0.01410346913 0.00430176089 -0.00078874421 -0.01414348164 0.00489628478 -0.00087764593 -0.01415580914 0.00553031628 -0.00097440277 -0.01414543157 0.00618926128 -0.00107795698 -0.01411732888 0.00685852565 -0.00118725077 -0.01407648102 0.00752351530 -0.00130122637 -0.01402786795 0.00816963611 -0.00051772551 -0.01333706390 0.00247406637 -0.00057103270 -0.01351404068 0.00289242852 -0.00063777729 -0.01364431602 0.00339977582 -0.00071584582 -0.01373324898 0.00397859653 -0.00080312484 -0.01378619864 0.00461137894 -0.00089750088 -0.01380852409 0.00528061130 -0.00099686048 -0.01380558439 0.00596878190 -0.00109909019 -0.01378273863 0.00665837900 -0.00120207655 -0.01374534588 0.00733189089 -0.00130370609 -0.01369876522 0.00797180582 -0.00047525296 -0.01291864871 0.00205372183 -0.00053599529 -0.01313032979 0.00250588435 -0.00061181438 -0.01328891687 0.00305379679 -0.00069944454 -0.01340073818 0.00367624566 -0.00079562004 -0.01347212196 0.00435201751 -0.00089707518 -0.01350939644 0.00505989886 -0.00100054425 -0.01351888984 0.00577867623 -0.00110276153 -0.01350693040 0.00648713616 -0.00120046131 -0.01347984634 0.00716406517 -0.00129037789 -0.01344396591 0.00778824979 -0.00040147422 -0.01252455971 0.00164891735 -0.00047084946 -0.01278340902 0.00213868491 -0.00055732571 -0.01297980993 0.00273221121 -0.00065641632 -0.01312185410 0.00340359022 -0.00076363461 -0.01321763318 0.00412691591 -0.00087449393 -0.01327523884 0.00487628224 -0.00098450760 -0.01330276272 0.00562578317 -0.00108918896 -0.01330829650 0.00634951266 -0.00118405135 -0.01329993183 0.00702156467 -0.00126460809 -0.01328576036 0.00761603318 -0.00024122252 -0.01613043804 0.00488467116 -0.00026169844 -0.01631784325 0.00519811615 -0.00028642794 -0.01646128232 0.00557572131 -0.00031703387 -0.01656699311 0.00601580436 -0.00035513907 -0.01664121347 0.00651668304 -0.00040236638 -0.01669018124 0.00707667508 -0.00046033865 -0.01672013428 0.00769409821 -0.00053067872 -0.01673731043 0.00836727017 -0.00061500944 -0.01674794755 0.00909450869 -0.00071495365 -0.01675828348 0.00987413149 -0.00030227686 -0.01588876500 0.00460168923 -0.00032597098 -0.01607104489 0.00492018829 -0.00035621596 -0.01620638645 0.00530581044 -0.00039449654 -0.01630183855 0.00575331983 -0.00044229750 -0.01636445002 0.00625748060 -0.00050110359 -0.01640126975 0.00681305690 -0.00057239956 -0.01641934658 0.00741481288 -0.00065767018 -0.01642572938 0.00805751267 -0.00075840020 -0.01642746700 0.00873592042 -0.00087607438 -0.01643160830 0.00944480029 -0.00036156399 -0.01558415463 0.00427016086 -0.00038879373 -0.01576163973 0.00459836855 -0.00042434566 -0.01589061845 0.00499659285 -0.00046937644 -0.01597844064 0.00545676711 -0.00052504274 -0.01603245612 0.00597082466 -0.00059250122 -0.01606001475 0.00653069885 -0.00067290856 -0.01606846637 0.00712832302 -0.00076742143 -0.01606516081 0.00775563051 -0.00087719649 -0.01605744792 0.00840455465 -0.00100339041 -0.01605267754 0.00906702879 -0.00041444699 -0.01522919595 0.00389870182 -0.00044568701 -0.01540362205 0.00424100418 -0.00048663638 -0.01552882471 0.00465643387 -0.00053795302 -0.01561211182 0.00513456999 -0.00060029484 -0.01566079130 0.00566499161 -0.00067431978 -0.01568217105 0.00623727783 -0.00076068573 -0.01568355897 0.00684100773 -0.00086005063 -0.01567226298 0.00746576040 -0.00097307239 -0.01565559096 0.00810111492 -0.00110040892 -0.01564085084 0.00873665038 -0.00045628895 -0.01483647800 0.00349592790 -0.00049217111 -0.01501098613 0.00385644244 -0.00053890742 -0.01513585159 0.00429369884 -0.00059650572 -0.01521816452 0.00479515227 -0.00066497387 -0.01526501509 0.00534825785 -0.00074431972 -0.01528349344 0.00594047075 -0.00083455112 -0.01528068974 0.00655924611 -0.00093567592 -0.01526369414 0.00719203908 -0.00104770198 -0.01523959679 0.00782630480 -0.00117063713 -0.01521548786 0.00844949843 -0.00048245298 -0.01441858979 0.00307045487 -0.00052376636 -0.01459772626 0.00345303058 -0.00057697810 -0.01472654548 0.00391675311 -0.00064131400 -0.01481191117 0.00444693774 -0.00071599988 -0.01486068701 0.00502889977 -0.00080026154 -0.01487973672 0.00564795451 -0.00089332480 -0.01487592400 0.00628941723 -0.00099441546 -0.01485611255 0.00693860325 -0.00110275933 -0.01482716607 0.00758082785 -0.00121758223 -0.01479594826 0.00820140633 -0.00048830216 -0.01398812037 0.00263089853 -0.00053599306 -0.01417783672 0.00303911587 -0.00059666773 -0.01431575277 0.00353396200 -0.00066865731 -0.01440866419 0.00409835020 -0.00075029293 -0.01446336661 0.00471519378 -0.00083990572 -0.01448665570 0.00536740601 -0.00093582683 -0.01448532710 0.00603790021 -0.00103638739 -0.01446617646 0.00670958965 -0.00113991854 -0.01443599943 0.00736538763 -0.00124475141 -0.01440159167 0.00798820745 -0.00046919958 -0.01355765875 0.00218587463 -0.00052437153 -0.01376531179 0.00262304555 -0.00059379564 -0.01391831984 0.00315369085 -0.00067481510 -0.01402373601 0.00375781345 -0.00076477307 -0.01408861342 0.00441541626 -0.00086101273 -0.01412000517 0.00510650217 -0.00096087727 -0.01412496437 0.00581107411 -0.00106170985 -0.01411054413 0.00650913499 -0.00116085367 -0.01408379756 0.00718068770 -0.00125565189 -0.01405177777 0.00780573517 -0.00042050835 -0.01313979397 0.00174399898 -0.00048442208 -0.01337414575 0.00221316689 -0.00056418114 -0.01354909306 0.00278430502 -0.00065606681 -0.01367243907 0.00343375129 -0.00075636036 -0.01375198697 0.00413784361 -0.00086134305 -0.01379553993 0.00487291989 -0.00096729618 -0.01381090115 0.00561531805 -0.00107050101 -0.01380587381 0.00634137599 -0.00116723881 -0.01378826110 0.00702743162 -0.00125379085 -0.01376586619 0.00764982286 -0.00033759154 -0.01274711504 0.00131388735 -0.00041166501 -0.01301833290 0.00181782713 -0.00050364354 -0.01322291882 0.00243416983 -0.00060869190 -0.01337008579 0.00313458751 -0.00072197485 -0.01346904678 0.00389075224 -0.00083865717 -0.01352901478 0.00467433608 -0.00095390363 -0.01355920278 0.00545701110 -0.00106287899 -0.01356882376 0.00621044937 -0.00116074802 -0.01356709071 0.00690632295 -0.00124267551 -0.01356321660 0.00751630391 -0.00020949742 -0.01640219476 0.00463597297 -0.00022962934 -0.01662881833 0.00496804163 -0.00025413597 -0.01680087609 0.00536783091 -0.00028442078 -0.01692706014 0.00583335253 -0.00032188725 -0.01701606263 0.00636261821 -0.00036793887 -0.01707657567 0.00695363966 -0.00042397910 -0.01711729139 0.00760442861 -0.00049141143 -0.01714690191 0.00831299676 -0.00057163935 -0.01717409937 0.00907735585 -0.00066606632 -0.01720757588 0.00989551759 -0.00026154398 -0.01616855142 0.00435514803 -0.00028624453 -0.01638490685 0.00469089828 -0.00031740229 -0.01654536174 0.00509780396 -0.00035624822 -0.01665876037 0.00556950878 -0.00040401326 -0.01673394698 0.00609965646 -0.00046192837 -0.01677976584 0.00668189068 -0.00053122450 -0.01680506120 0.00730985517 -0.00061313260 -0.01681867732 0.00797719364 -0.00070888361 -0.01682945846 0.00867754978 -0.00081970848 -0.01684624887 0.00940456730 -0.00031581159 -0.01586784265 0.00402183737 -0.00034462329 -0.01607650960 0.00436648027 -0.00038165634 -0.01622848414 0.00478555315 -0.00042776794 -0.01633258004 0.00526925247 -0.00048381525 -0.01639761104 0.00580777468 -0.00055065548 -0.01643239088 0.00639131622 -0.00062914581 -0.01644573333 0.00701007354 -0.00072014342 -0.01644645213 0.00765424309 -0.00082450549 -0.01644336102 0.00831402132 -0.00094308923 -0.01644527377 0.00897960468 -0.00036632588 -0.01551370881 0.00364437494 -0.00039923538 -0.01571785127 0.00400274172 -0.00044188882 -0.01586479293 0.00443900705 -0.00049459639 -0.01596320959 0.00494056908 -0.00055766826 -0.01602177707 0.00549482599 -0.00063141463 -0.01604917114 0.00608917594 -0.00071614567 -0.01605406762 0.00671101710 -0.00081217157 -0.01604514231 0.00734774763 -0.00091980251 -0.01603107099 0.00798676569 -0.00103934868 -0.01602052948 0.00861546946 -0.00040711244 -0.01511979025 0.00323109469 -0.00044455053 -0.01532315652 0.00360763676 -0.00049309041 -0.01546883772 0.00406609420 -0.00055235004 -0.01556533946 0.00459144409 -0.00062194734 -0.01562116734 0.00516866351 -0.00070150026 -0.01564482695 0.00578272954 -0.00079062674 -0.01564482391 0.00641861926 -0.00088894472 -0.01562966383 0.00706130975 -0.00099607214 -0.01560785230 0.00769577809 -0.00111162695 -0.01558789492 0.00830700136 -0.00043219690 -0.01469972731 0.00279033057 -0.00047503847 -0.01490665003 0.00318911951 -0.00053025179 -0.01505516817 0.00367474318 -0.00059664532 -0.01515366007 0.00422986298 -0.00067302751 -0.01521050411 0.00483714035 -0.00075820681 -0.01523407865 0.00547923668 -0.00085099168 -0.01523276205 0.00613881341 -0.00095019056 -0.01521493267 0.00679853194 -0.00105461190 -0.01518896887 0.00744105370 -0.00116306417 -0.01516324902 0.00804904010 -0.00043560488 -0.01426716035 0.00233041654 -0.00048516894 -0.01448255648 0.00275514409 -0.00054836365 -0.01463833389 0.00327288253 -0.00062309871 -0.01474286186 0.00386381123 -0.00070728383 -0.01480450967 0.00450810961 -0.00079882873 -0.01483164658 0.00518595705 -0.00089564314 -0.01483264186 0.00587753296 -0.00099563675 -0.01481586480 0.00656301672 -0.00109671928 -0.01478968465 0.00722258774 -0.00119680046 -0.01476247069 0.00783642541 -0.00041136198 -0.01383572973 0.00185968655 -0.00046941169 -0.01406510052 0.00231366463 -0.00054241666 -0.01423288453 0.00286844080 -0.00062732663 -0.01434763527 0.00350127432 -0.00072109133 -0.01441790627 0.00418942441 -0.00082066046 -0.01445225107 0.00491015032 -0.00092298377 -0.01445922320 0.00564071129 -0.00102501097 -0.01444737619 0.00635836657 -0.00112369178 -0.01442526356 0.00704037540 -0.00121597593 -0.01440143885 0.00766399701 -0.00035349383 -0.01341907579 0.00138647454 -0.00042223643 -0.01366850685 0.00187263524 -0.00050740151 -0.01385336971 0.00246934657 -0.00060494556 -0.01398267071 0.00315023772 -0.00071082504 -0.01406541618 0.00388893786 -0.00082099644 -0.01411061247 0.00465907617 -0.00093141623 -0.01412726590 0.00543428182 -0.00103804089 -0.01412438281 0.00618818400 -0.00113682689 -0.01411096954 0.00689441187 -0.00122373072 -0.01409603243 0.00752659462 -0.00025602604 -0.01303083888 0.00091911448 -0.00033811292 -0.01330700012 0.00144001005 -0.00043830889 -0.01351433907 0.00208352839 -0.00055157194 -0.01366265863 0.00281868692 -0.00067286002 -0.01376176168 0.00361450308 -0.00079713112 -0.01382145111 0.00443999428 -0.00091934318 -0.01385152980 0.00526417794 -0.00103445420 -0.01386180064 0.00605607150 -0.00113742213 -0.01386206653 0.00678469237 -0.00122320493 -0.01386213033 0.00741905798 -0.00017487609 -0.01674561435 0.00437297793 -0.00019498261 -0.01699044773 0.00472311412 -0.00021995865 -0.01717437009 0.00514566079 -0.00025085953 -0.01730801093 0.00563761317 -0.00028874056 -0.01740199975 0.00619596647 -0.00033465705 -0.01746696605 0.00681771591 -0.00038966431 -0.01751353933 0.00749985669 -0.00045481764 -0.01755234910 0.00823938404 -0.00053117237 -0.01759402485 0.00903329318 -0.00061978380 -0.01764919609 0.00987857932 -0.00021518638 -0.01652411019 0.00409434133 -0.00024227476 -0.01675205640 0.00444605591 -0.00027560930 -0.01691980623 0.00487444280 -0.00031615957 -0.01703733858 0.00537151668 -0.00036489511 -0.01711463236 0.00592929221 -0.00042278546 -0.01716166647 0.00653978409 -0.00049080018 -0.01718841983 0.00719500699 -0.00056990882 -0.01720487134 0.00788697559 -0.00066108093 -0.01722099991 0.00860770457 -0.00076528606 -0.01724678445 0.00934920860 -0.00026271422 -0.01623088233 0.00375830059 -0.00029501380 -0.01644711527 0.00411724114 -0.00033504742 -0.01660346925 0.00455699136 -0.00038344912 -0.01670945149 0.00506560865 -0.00044085293 -0.01677456918 0.00563115044 -0.00050789287 -0.01680832955 0.00624167412 -0.00058520297 -0.01682023982 0.00688523711 -0.00067341727 -0.01681980718 0.00754989683 -0.00077316980 -0.01681653887 0.00822371067 -0.00088509457 -0.01681994208 0.00889473607 -0.00030994814 -0.01588039601 0.00337298604 -0.00034654077 -0.01608995457 0.00374451778 -0.00039243258 -0.01623956873 0.00420118516 -0.00044771340 -0.01633843486 0.00472784255 -0.00051247309 -0.01639574934 0.00530934429 -0.00058680149 -0.01642070854 0.00593054473 -0.00067078845 -0.01642250884 0.00657629824 -0.00076452381 -0.01641034662 0.00723145915 -0.00086809743 -0.01639341823 0.00788088183 -0.00098159915 -0.01638092007 0.00850942062 -0.00034937664 -0.01548711645 0.00294652797 -0.00039019673 -0.01569490452 0.00333573377 -0.00044192436 -0.01584231423 0.00381490290 -0.00050393764 -0.01593837393 0.00436617181 -0.00057561466 -0.01599211197 0.00497167693 -0.00065633354 -0.01601255671 0.00561355470 -0.00074547236 -0.01600873648 0.00627394157 -0.00084240925 -0.01598967964 0.00693497397 -0.00094652228 -0.01596441454 0.00757878836 -0.00105718958 -0.01594196952 0.00818752116 -0.00037348825 -0.01506550889 0.00248705671 -0.00041932272 -0.01527629533 0.00289873709 -0.00047768236 -0.01542591531 0.00340602327 -0.00054710707 -0.01552335390 0.00398854987 -0.00062613673 -0.01557759620 0.00462595150 -0.00071331124 -0.01559762731 0.00529786277 -0.00080717050 -0.01559243230 0.00598391830 -0.00090625439 -0.01557099627 0.00666375270 -0.00100910282 -0.01554230431 0.00731700058 -0.00111425568 -0.01551534151 0.00792329657 -0.00037477146 -0.01463003854 0.00200270258 -0.00042725978 -0.01484845724 0.00244137570 -0.00049386615 -0.01500458154 0.00298242497 -0.00057220691 -0.01510745999 0.00360293018 -0.00065989835 -0.01516614116 0.00427997116 -0.00075455682 -0.01518967360 0.00499062770 -0.00085379861 -0.01518710585 0.00571197963 -0.00095524007 -0.01516748649 0.00642110673 -0.00105649750 -0.01513986406 0.00709508884 -0.00115518723 -0.01511328713 0.00771100575 -0.00034571480 -0.01419517065 0.00150159587 -0.00040734896 -0.01442572046 0.00197149756 -0.00048463533 -0.01459252249 0.00255198668 -0.00057422238 -0.01470477742 0.00321726619 -0.00067275861 -0.01477168597 0.00394153906 -0.00077689248 -0.01480244884 0.00469900826 -0.00088327248 -0.01480626672 0.00546387674 -0.00098854709 -0.01479234032 0.00621034748 -0.00108936478 -0.01476987033 0.00691262344 -0.00118237403 -0.01474805746 0.00754490759 -0.00027880677 -0.01377537043 0.00099186692 -0.00035293130 -0.01402241522 0.00149695063 -0.00044414946 -0.01420394771 0.00212258710 -0.00054813872 -0.01432939141 0.00283951133 -0.00066057657 -0.01440816977 0.00361845835 -0.00077714045 -0.01444970630 0.00443016319 -0.00089350786 -0.01446342446 0.00524536085 -0.00100535626 -0.01445874775 0.00603478635 -0.00110836311 -0.01444509963 0.00676917473 -0.00119820589 -0.01443190360 0.00741926100 -0.00016653590 -0.01338510313 0.00048164603 -0.00025734785 -0.01365287173 0.00102558288 -0.00036656814 -0.01385306679 0.00170210492 -0.00048894116 -0.01399538716 0.00247761906 -0.00061921130 -0.01408953169 0.00331853219 -0.00075212296 -0.01414519923 0.00419125125 -0.00088242053 -0.01417208865 0.00506218313 -0.00100484839 -0.01417989878 0.00589773475 -0.00111415096 -0.01417832849 0.00666431302 -0.00120507261 -0.01417707664 0.00732832486 -0.00013696225 -0.01717573808 0.00410025984 -0.00015767601 -0.01741220191 0.00446800611 -0.00018401723 -0.01758718332 0.00491390339 -0.00021658962 -0.01771234088 0.00543311355 -0.00025599688 -0.01779933317 0.00602079849 -0.00030284269 -0.01785981876 0.00667212009 -0.00035773076 -0.01790545622 0.00738224022 -0.00042126479 -0.01794790411 0.00814632077 -0.00049404846 -0.01799882101 0.00895952363 -0.00057668548 -0.01806986549 0.00981701068 -0.00016413314 -0.01696965429 0.00382215996 -0.00019452657 -0.01718212437 0.00418913761 -0.00023109559 -0.01733583438 0.00463961415 -0.00027447483 -0.01744104363 0.00516337642 -0.00032529891 -0.01750801148 0.00575021122 -0.00038420247 -0.01754699726 0.00638990537 -0.00045182014 -0.01756826031 0.00707224569 -0.00052878653 -0.01758205996 0.00778701897 -0.00061573627 -0.01759865557 0.00852401205 -0.00071330400 -0.01762830646 0.00927301174 -0.00020341965 -0.01668897615 0.00348105712 -0.00024039134 -0.01688405223 0.00385291394 -0.00028463012 -0.01702230194 0.00431378107 -0.00033651364 -0.01711299215 0.00484907393 -0.00039641956 -0.01716538974 0.00544420795 -0.00046472554 -0.01718876160 0.00608459855 -0.00054180924 -0.01719237461 0.00675566115 -0.00062804831 -0.01718549566 0.00744281117 -0.00072382041 -0.01717739162 0.00813146405 -0.00082950321 -0.01717732940 0.00880703518 -0.00024602674 -0.01634779523 0.00308515697 -0.00028768320 -0.01653186299 0.00346768620 -0.00033811514 -0.01666029626 0.00394499932 -0.00039720127 -0.01674171705 0.00449892023 -0.00046482030 -0.01678474741 0.00511127280 -0.00054085094 -0.01679800934 0.00576388092 -0.00062517192 -0.01679012488 0.00643856848 -0.00071766196 -0.01676971606 0.00711715935 -0.00081819976 -0.01674540489 0.00778147743 -0.00092666404 -0.01672581341 0.00841334659 -0.00028315936 -0.01596020312 0.00264266517 -0.00032881504 -0.01613943416 0.00304180546 -0.00038504499 -0.01626352758 0.00354186410 -0.00045103294 -0.01634074898 0.00412162945 -0.00052596262 -0.01637936394 0.00475988989 -0.00060901775 -0.01638763805 0.00543543380 -0.00069938207 -0.01637383688 0.00612704954 -0.00079623930 -0.01634622603 0.00681352549 -0.00089877317 -0.01631307108 0.00747365002 -0.00100616740 -0.01628263762 0.00808621151 -0.00030602249 -0.01554029139 0.00216178737 -0.00035619972 -0.01572064324 0.00258362282 -0.00041891397 -0.01584570617 0.00311297059 -0.00049250385 -0.01592361856 0.00372591575 -0.00057530800 -0.01596251880 0.00439854336 -0.00066566502 -0.01597054527 0.00510693848 -0.00076191354 -0.01595583636 0.00582718620 -0.00086239216 -0.01592653045 0.00653537156 -0.00096543952 -0.01589076591 0.00720757966 -0.00106939423 -0.01585668114 0.00781989554 -0.00030582109 -0.01510215160 0.00165072922 -0.00036225013 -0.01528936773 0.00210148936 -0.00043321640 -0.01542054226 0.00266691399 -0.00051610923 -0.01550385641 0.00332049326 -0.00060831793 -0.01554749144 0.00403571731 -0.00070723181 -0.01555962858 0.00478607628 -0.00081024019 -0.01554844908 0.00554506032 -0.00091473238 -0.01552213416 0.00628615956 -0.00101809770 -0.01548886509 0.00698286415 -0.00111772546 -0.01545682309 0.00760866423 -0.00027376011 -0.01465987534 0.00111769638 -0.00033937914 -0.01485948516 0.00160375615 -0.00042144662 -0.01500174611 0.00221228947 -0.00051634429 -0.01509499317 0.00291407612 -0.00062045389 -0.01514756132 0.00367989587 -0.00073015718 -0.01516778553 0.00448052850 -0.00084183589 -0.01516400078 0.00528675377 -0.00095187177 -0.01514454206 0.00606935145 -0.00105664656 -0.01511774432 0.00679910132 -0.00115254201 -0.01509194257 0.00744678316 -0.00020104452 -0.01422755417 0.00057089451 -0.00027999964 -0.01444487301 0.00109877429 -0.00037709893 -0.01460302797 0.00175769224 -0.00048770423 -0.01471055946 0.00251537849 -0.00060717737 -0.01477600789 0.00333956318 -0.00073088019 -0.01480791368 0.00419797644 -0.00085417450 -0.01481481724 0.00505834841 -0.00097242216 -0.01480525898 0.00588840922 -0.00108098498 -0.01478777933 0.00665588900 -0.00117522480 -0.01477091869 0.00732851789 -0.00007887928 -0.01381927967 0.00001852925 -0.00017652449 -0.01405940881 0.00059489485 -0.00029366766 -0.01423809809 0.00131171746 -0.00042468428 -0.01436408590 0.00213311450 -0.00056394986 -0.01444611061 0.00302320335 -0.00070583990 -0.01449291058 0.00394610142 -0.00084472990 -0.01451322419 0.00486592612 -0.00097499538 -0.01451578982 0.00574679485 -0.00109101183 -0.01450934582 0.00655282501 -0.00118715477 -0.01450263058 0.00724813400 -0.00009535961 -0.01770760727 0.00382239251 -0.00011762733 -0.01790355135 0.00420739012 -0.00014643298 -0.01804473476 0.00467725114 -0.00018185057 -0.01814254542 0.00522438095 -0.00022395410 -0.01820837126 0.00584118494 -0.00027281756 -0.01825360019 0.00652006848 -0.00032851495 -0.01828962016 0.00725343695 -0.00039112028 -0.01832781907 0.00803369572 -0.00046070755 -0.01837958486 0.00885325017 -0.00053735075 -0.01845630545 0.00970450569 -0.00010931337 -0.01751939672 0.00354149476 -0.00014346485 -0.01768474159 0.00392361977 -0.00018411971 -0.01779956064 0.00439720520 -0.00023143820 -0.01787334597 0.00494912093 -0.00028558055 -0.01791558966 0.00556623682 -0.00034670704 -0.01793578378 0.00623542276 -0.00041497789 -0.01794342043 0.00694354860 -0.00049055337 -0.01794799169 0.00767748422 -0.00057359373 -0.01795898963 0.00842409949 -0.00066425921 -0.01798590635 0.00917026429 -0.00013907566 -0.01725782658 0.00319161353 -0.00018118202 -0.01739791595 0.00357576141 -0.00023051566 -0.01749171035 0.00405879587 -0.00028705513 -0.01754713919 0.00462288659 -0.00035077894 -0.01757213189 0.00525020324 -0.00042166565 -0.01757461785 0.00592291551 -0.00049969376 -0.01756252649 0.00662319307 -0.00058484182 -0.01754378723 0.00733320560 -0.00067708836 -0.01752632948 0.00803512277 -0.00077641190 -0.01751808265 0.00871111427 -0.00017527462 -0.01693444416 0.00278150959 -0.00022274269 -0.01705550755 0.00317360083 -0.00027878402 -0.01713411964 0.00367248063 -0.00034295722 -0.01717698559 0.00425633196 -0.00041482088 -0.01719081053 0.00490333783 -0.00049393359 -0.01718229961 0.00559168123 -0.00057985397 -0.01715815798 0.00629954516 -0.00067214060 -0.01712509079 0.00700511262 -0.00077035208 -0.01708980317 0.00768656659 -0.00087404702 -0.01705900028 0.00832209007 -0.00020853840 -0.01656079675 0.00231994369 -0.00026011076 -0.01666994947 0.00272692383 -0.00032208800 -0.01673972427 0.00324871696 -0.00039340033 -0.01677594567 0.00386011108 -0.00047297796 -0.01678443818 0.00453589422 -0.00055975109 -0.01677102630 0.00525085441 -0.00065264993 -0.01674153455 0.00597977967 -0.00075060468 -0.01670178745 0.00669745803 -0.00085254556 -0.01665760949 0.00737867750 -0.00095740277 -0.01661482520 0.00799822611 -0.00022949513 -0.01614843166 0.00181567659 -0.00028525008 -0.01625367482 0.00224551620 -0.00035359077 -0.01632146000 0.00279796234 -0.00043264031 -0.01635707996 0.00344487797 -0.00052052179 -0.01636582743 0.00415812605 -0.00061535834 -0.01635299514 0.00490956954 -0.00071527306 -0.01632387585 0.00567107140 -0.00081838906 -0.01628376230 0.00641449459 -0.00092282944 -0.01623794722 0.00711170208 -0.00102671733 -0.01619172335 0.00773455682 -0.00022877295 -0.01570889618 0.00127746905 -0.00029012455 -0.01581911669 0.00173916372 -0.00036645555 -0.01589226259 0.00233067426 -0.00045493301 -0.01593344896 0.00302128666 -0.00055272399 -0.01594779087 0.00378028694 -0.00065699556 -0.01594040336 0.00457696109 -0.00076491477 -0.01591640153 0.00538059513 -0.00087364869 -0.01588090043 0.00616047506 -0.00098036438 -0.01583901512 0.00688588689 -0.00108222890 -0.01579586068 0.00752611662 -0.00019700000 -0.01525373761 0.00071408184 -0.00026669803 -0.01537870818 0.00121765220 -0.00035384552 -0.01546506780 0.00185731019 -0.00045453429 -0.01551811320 0.00259999118 -0.00056485617 -0.01554314109 0.00341263052 -0.00068090296 -0.01554544819 0.00426216356 -0.00079876649 -0.01553033123 0.00511552567 -0.00091453857 -0.01550308693 0.00593965220 -0.00102431103 -0.01546901199 0.00670147851 -0.00112417568 -0.01543340314 0.00736793995 -0.00012480443 -0.01479450325 0.00013427571 -0.00020693440 -0.01494488238 0.00069076742 -0.00030892388 -0.01505281138 0.00138832763 -0.00042570001 -0.01512413317 0.00219164556 -0.00055218992 -0.01516469069 0.00306541043 -0.00068332074 -0.01518032686 0.00397431144 -0.00081401961 -0.01517688461 0.00488303781 -0.00093921367 -0.01516020688 0.00575627876 -0.00105383003 -0.01513613659 0.00655872349 -0.00115279586 -0.01511051668 0.00725506123 -0.00000281437 -0.01434274041 -0.00045318858 -0.00010279754 -0.01453007241 0.00016829517 -0.00022485383 -0.01466842909 0.00093418405 -0.00036268602 -0.01476456940 0.00180690383 -0.00050999686 -0.01482525225 0.00274888030 -0.00066048912 -0.01485723658 0.00372253921 -0.00080786557 -0.01486728132 0.00469030636 -0.00094582896 -0.01486214539 0.00561460750 -0.00106808205 -0.01484858771 0.00645786842 -0.00116832762 -0.01483336723 0.00718251489 -0.00004967188 -0.01835626320 0.00354394974 -0.00007475436 -0.01847396653 0.00394593863 -0.00010732717 -0.01855244339 0.00444039648 -0.00014688189 -0.01860111994 0.00501594265 -0.00019291010 -0.01862942233 0.00566119649 -0.00024490340 -0.01864677672 0.00636477736 -0.00030235335 -0.01866260926 0.00711530463 -0.00036475155 -0.01868634610 0.00790139765 -0.00043158957 -0.01872741340 0.00871167577 -0.00050235900 -0.01879523732 0.00953475837 -0.00005165614 -0.01818755047 0.00325523655 -0.00008955451 -0.01826953885 0.00365297881 -0.00013494026 -0.01831709949 0.00415110312 -0.00018729390 -0.01833771605 0.00473278310 -0.00024609591 -0.01833887222 0.00538119235 -0.00031082677 -0.01832805165 0.00607950447 -0.00038096698 -0.01831273804 0.00681089308 -0.00045599703 -0.01830041503 0.00755853176 -0.00053539739 -0.01829856631 0.00830559414 -0.00061864857 -0.01831467556 0.00903525381 -0.00007083003 -0.01795313612 0.00289147641 -0.00011781191 -0.01799930190 0.00328804631 -0.00017281528 -0.01801842264 0.00379490935 -0.00023516723 -0.01801582979 0.00439028490 -0.00030419489 -0.01799685481 0.00505239232 -0.00037922534 -0.01796682914 0.00575945099 -0.00045958572 -0.01793108425 0.00648968028 -0.00054460311 -0.01789495159 0.00722129956 -0.00063360464 -0.01786376260 0.00793252820 -0.00072591740 -0.01784284876 0.00860158556 -0.00009840476 -0.01765888047 0.00246266573 -0.00015179925 -0.01767281926 0.00286361554 -0.00021428672 -0.01766818302 0.00338566018 -0.00028487848 -0.01764816988 0.00400260759 -0.00036258581 -0.01761597798 0.00468826568 -0.00044642003 -0.01757480544 0.00541644239 -0.00053539243 -0.01752785039 0.00616094563 -0.00062851433 -0.01747831095 0.00689558332 -0.00072479701 -0.01742938527 0.00759416340 -0.00082325180 -0.01738427146 0.00823049379 -0.00012559155 -0.01731064385 0.00197880093 -0.00018378920 -0.01729965449 0.00239216088 -0.00025268911 -0.01727815078 0.00293720063 -0.00033080422 -0.01724744505 0.00358391073 -0.00041664745 -0.01720884962 0.00430228171 -0.00050873174 -0.01716367680 0.00506230412 -0.00060557001 -0.01711323894 0.00583396847 -0.00070567520 -0.01705884833 0.00658726532 -0.00080756023 -0.01700181732 0.00729218519 -0.00090973804 -0.01694345822 0.00791871862 -0.00014360164 -0.01691428656 0.00144987844 -0.00020605443 -0.01688937115 0.00188615672 -0.00028135695 -0.01686009608 0.00246337571 -0.00036732105 -0.01682636401 0.00314835388 -0.00046175858 -0.01678807759 0.00390790970 -0.00056248140 -0.01674513950 0.00470886165 -0.00066730134 -0.01669745238 0.00551802819 -0.00077403026 -0.01664491891 0.00630222782 -0.00088048001 -0.01658744175 0.00702827900 -0.00098446244 -0.01652492356 0.00766300020 -0.00014364623 -0.01647566893 0.00088589466 -0.00021086761 -0.01645153283 0.00135807747 -0.00029362475 -0.01642578909 0.00197803045 -0.00038880556 -0.01639763548 0.00271009659 -0.00049329798 -0.01636626978 0.00351861892 -0.00060398992 -0.01633088977 0.00436794044 -0.00071776930 -0.01629069321 0.00522240417 -0.00083152404 -0.01624487789 0.00604635311 -0.00094214206 -0.01619264157 0.00680413028 -0.00104651128 -0.01613318203 0.00746007868 -0.00011693657 -0.01600065129 0.00029684602 -0.00019050143 -0.01599570308 0.00082039752 -0.00028282702 -0.01598699995 0.00149500985 -0.00038963435 -0.01597396819 0.00228329842 -0.00050664441 -0.01595603407 0.00314787866 -0.00062957822 -0.01593262389 0.00405136596 -0.00075415677 -0.01590316392 0.00495637576 -0.00087610105 -0.01586708046 0.00582552346 -0.00099113208 -0.01582379978 0.00662142447 -0.00109497086 -0.01577274818 0.00730669421 -0.00005468386 -0.01549509395 -0.00030727107 -0.00013722855 -0.01553144548 0.00028559124 -0.00024229828 -0.01555549884 0.00102815892 -0.00036418400 -0.01556807084 0.00188211892 -0.00049717666 -0.01556997832 0.00280915819 -0.00063556722 -0.01556203810 0.00377096368 -0.00077364663 -0.01554506698 0.00472922235 -0.00090570584 -0.01551988180 0.00564562114 -0.00102603580 -0.01548729938 0.00648184701 -0.00112892747 -0.01544813654 0.00719958692 0.00005190066 -0.01496485724 -0.00091646019 -0.00004332166 -0.01506832359 -0.00023386695 -0.00016537303 -0.01514305590 0.00059132270 -0.00030683110 -0.01519265217 0.00152071765 -0.00046027349 -0.01522071043 0.00251592680 -0.00061827784 -0.01523082866 0.00353855905 -0.00077342177 -0.01522660489 0.00455022330 -0.00091828293 -0.01521163713 0.00551252843 -0.00104543893 -0.01518952338 0.00638708336 -0.00114746742 -0.01516386166 0.00713549697 0.00000049724 -0.01913674717 0.00326950534 -0.00002897487 -0.01913291793 0.00368832416 -0.00006682104 -0.01911572821 0.00420803186 -0.00011192308 -0.01909055987 0.00481232591 -0.00016316279 -0.01906279476 0.00548490380 -0.00021942198 -0.01903781472 0.00620946301 -0.00027958245 -0.01902100162 0.00696970103 -0.00034252601 -0.01901773731 0.00774931533 -0.00040713446 -0.01903340364 0.00853200339 -0.00047228960 -0.01907338247 0.00930146271 0.00000790945 -0.01898832854 0.00296627618 -0.00003326042 -0.01894614699 0.00338069113 -0.00008381582 -0.01889456536 0.00390519510 -0.00014228616 -0.01883762431 0.00451839585 -0.00020720086 -0.01877936447 0.00519890115 -0.00027708931 -0.01872382646 0.00592531876 -0.00035048095 -0.01867505093 0.00667625647 -0.00042590516 -0.01863707851 0.00743032204 -0.00050189137 -0.01861394982 0.00816612325 -0.00057696897 -0.01860970552 0.00886226785 0.00000016947 -0.01879060726 0.00258215234 -0.00005070712 -0.01869880556 0.00299203140 -0.00011164020 -0.01860916696 0.00352499510 -0.00018094360 -0.01852300111 0.00415450714 -0.00025693118 -0.01844161768 0.00485403120 -0.00033791679 -0.01836632631 0.00559703099 -0.00042221428 -0.01829843667 0.00635697021 -0.00050813749 -0.01823925841 0.00710731253 -0.00059400027 -0.01819010118 0.00782152166 -0.00067811648 -0.01815227466 0.00847306130 -0.00001613009 -0.01853964186 0.00212924725 -0.00007493290 -0.01839572915 0.00253908415 -0.00014447075 -0.01826963053 0.00308656908 -0.00022286226 -0.01815919937 0.00374027695 -0.00030822608 -0.01806228904 0.00446878265 -0.00039868084 -0.01797675291 0.00524066110 -0.00049234518 -0.01790044434 0.00602448720 -0.00058733774 -0.01783121672 0.00678883586 -0.00068177715 -0.01776692340 0.00750228197 -0.00077378205 -0.01770541775 0.00813340045 -0.00003439662 -0.01823149090 0.00161967432 -0.00009955568 -0.01804175324 0.00203858859 -0.00017648404 -0.01788605359 0.00260905428 -0.00026300901 -0.01775872817 0.00329532246 -0.00035695786 -0.01765411320 0.00406164417 -0.00045615789 -0.01756654490 0.00487227048 -0.00055843639 -0.01749035947 0.00569145243 -0.00066162065 -0.01741989315 0.00648344109 -0.00076353795 -0.01734948213 0.00721248750 -0.00086201560 -0.01727346264 0.00784284272 -0.00004803750 -0.01786221294 0.00106554697 -0.00011819336 -0.01764171332 0.00150728389 -0.00020185665 -0.01746853367 0.00211158792 -0.00029635070 -0.01733409662 0.00283926084 -0.00039899884 -0.01722982482 0.00365110444 -0.00050712438 -0.01714714092 0.00450792053 -0.00061805064 -0.01707746757 0.00537051088 -0.00072910096 -0.01701222739 0.00619967730 -0.00083759866 -0.01694284305 0.00695622157 -0.00094086705 -0.01686073719 0.00760094549 -0.00005046013 -0.01742786652 0.00047897862 -0.00012446387 -0.01720044489 0.00096190927 -0.00021476514 -0.01702716829 0.00161330722 -0.00031785421 -0.01689781381 0.00239170926 -0.00043022132 -0.01680215855 0.00325565214 -0.00054835672 -0.01672997963 0.00416367264 -0.00066875067 -0.01667105413 0.00507430753 -0.00078789343 -0.01661515917 0.00594609357 -0.00090227523 -0.01655207183 0.00673756753 -0.00100838634 -0.01647156924 0.00740726618 -0.00003507189 -0.01692451019 -0.00012791732 -0.00011198512 -0.01672278344 0.00041920390 -0.00020938609 -0.01657205497 0.00113334943 -0.00032248639 -0.01646238883 0.00197228490 -0.00044649762 -0.01638384905 0.00289377595 -0.00057663136 -0.01632649965 0.00385558822 -0.00070809922 -0.01628040468 0.00481548734 -0.00083611277 -0.01623562817 0.00573123895 -0.00095588363 -0.01618223415 0.00656060868 -0.00106262337 -0.01611028664 0.00726136218 0.00000471983 -0.01634820252 -0.00074302744 -0.00007437504 -0.01621356445 -0.00010409301 -0.00017989607 -0.01611329124 0.00069085176 -0.00030521412 -0.01604033078 0.00160060494 -0.00044370005 -0.01598763096 0.00258396455 -0.00058872472 -0.01594813964 0.00359972866 -0.00073365900 -0.01591480473 0.00460669530 -0.00087187375 -0.01588057411 0.00556366252 -0.00099673982 -0.01583839565 0.00642942837 -0.00110162807 -0.01578121725 0.00716279089 0.00007550763 -0.01569500204 -0.00135423831 -0.00000525154 -0.01567762342 -0.00059124228 -0.00012047164 -0.01566097463 0.00030495145 -0.00026100424 -0.01564414876 0.00129628653 -0.00041770092 -0.01562623893 0.00234470662 -0.00058141324 -0.01560633824 0.00341215535 -0.00074299277 -0.01558353979 0.00446057638 -0.00089329109 -0.01555693668 0.00545191335 -0.00102315977 -0.01552562203 0.00634810991 -0.00112345037 -0.01548868893 0.00711110972 0.00005554404 -0.02006410047 0.00300363310 0.00001979336 -0.01988987602 0.00343921921 -0.00002503587 -0.01974000820 0.00398484971 -0.00007721366 -0.01961336061 0.00461805802 -0.00013501005 -0.01950879687 0.00531637755 -0.00019669507 -0.01942518058 0.00605734170 -0.00026053874 -0.01936137536 0.00681848389 -0.00032481109 -0.01931624483 0.00757733752 -0.00038778216 -0.01928865260 0.00831143600 -0.00044772196 -0.01927746227 0.00899831275 0.00006845432 -0.01993594393 0.00267750446 0.00002495252 -0.01972419681 0.00311023316 -0.00003100496 -0.01953807274 0.00366336833 -0.00009665919 -0.01937654121 0.00430999208 -0.00016925127 -0.01923857173 0.00502318655 -0.00024602228 -0.01912313381 0.00577603386 -0.00032421331 -0.01902919694 0.00654161613 -0.00040106543 -0.01895573062 0.00729301550 -0.00047381974 -0.01890170436 0.00800331407 -0.00053971732 -0.01886608767 0.00864559399 0.00007277504 -0.01978594247 0.00226514791 0.00001970626 -0.01950702240 0.00268997944 -0.00004710164 -0.01927067146 0.00325192671 -0.00012447787 -0.01907259033 0.00391879159 -0.00020925163 -0.01890847968 0.00465837591 -0.00029825214 -0.01877404019 0.00543848151 -0.00038830861 -0.01866497253 0.00622691025 -0.00047625025 -0.01857697737 0.00699146396 -0.00055890627 -0.01850575540 0.00769994450 -0.00063310590 -0.01844700728 0.00832015371 0.00007083641 -0.01959526600 0.00178187600 0.00000777633 -0.01923616824 0.00220136054 -0.00006918360 -0.01894560630 0.00277723844 -0.00015680580 -0.01871400346 0.00347186988 -0.00025185267 -0.01853178297 0.00424761505 -0.00035108662 -0.01838936810 0.00506683410 -0.00045127007 -0.01827718210 0.00589188723 -0.00054916542 -0.01818564823 0.00668513460 -0.00064153508 -0.01810518975 0.00740893639 -0.00072514147 -0.01802622993 0.00802565278 0.00006496860 -0.01934508443 0.00124300127 -0.00000711550 -0.01890944975 0.00166727896 -0.00009310851 -0.01857067918 0.00226601706 -0.00018977910 -0.01831327609 0.00299664030 -0.00029389595 -0.01812174387 0.00381657340 -0.00040222774 -0.01798058591 0.00468324108 -0.00051154314 -0.01787430560 0.00555406806 -0.00061861083 -0.01778740633 0.00638647908 -0.00072019949 -0.01770439148 0.00713789885 -0.00081307780 -0.01760976445 0.00776575209 0.00005750180 -0.01901656765 0.00066383626 -0.00002124749 -0.01852468240 0.00111063721 -0.00011473405 -0.01815369201 0.00174497615 -0.00021953389 -0.01788290370 0.00252051619 -0.00033222303 -0.01769162463 0.00339092040 -0.00044937747 -0.01755916201 0.00430985190 -0.00056757325 -0.01746482301 0.00523097376 -0.00068338636 -0.01738791483 0.00610794909 -0.00079339282 -0.01730774465 0.00689444097 -0.00089416865 -0.01720361967 0.00754411249 0.00005076619 -0.01859088559 0.00005969352 -0.00003089788 -0.01807968160 0.00055433777 -0.00012991789 -0.01770244673 0.00124082926 -0.00024220628 -0.01743538178 0.00207091087 -0.00036367545 -0.01725468752 0.00299632548 -0.00049023783 -0.01713656476 0.00396881600 -0.00061780583 -0.01705721428 0.00494012531 -0.00074229188 -0.01699283687 0.00586199630 -0.00085960840 -0.01691963332 0.00668617186 -0.00096566781 -0.01681380441 0.00736439487 0.00004709196 -0.01804920815 -0.00055411441 -0.00003234491 -0.01757226280 0.00002128316 -0.00013451772 -0.01722474525 0.00078028995 -0.00025393238 -0.01698320581 0.00167523768 -0.00038509477 -0.01682419481 0.00265845807 -0.00052251079 -0.01672426255 0.00368228284 -0.00066068633 -0.01665995938 0.00469904371 -0.00079412729 -0.01660783560 0.00566107240 -0.00091733955 -0.01654444154 0.00652070062 -0.00102482902 -0.01644632751 0.00723026010 0.00004880928 -0.01737270522 -0.00116227499 -0.00002186682 -0.01700024144 -0.00046562413 -0.00012439121 -0.01672838949 0.00039007179 -0.00025084830 -0.01653887129 0.00136090997 -0.00039332254 -0.01641340874 0.00240298760 -0.00054389835 -0.01633372376 0.00347240187 -0.00069466018 -0.01628153826 0.00452524996 -0.00083769245 -0.01623857416 0.00551762906 -0.00096507961 -0.01618655337 0.00640563636 -0.00106890607 -0.01610719780 0.00714536905 0.00005824836 -0.01654254672 -0.00174947567 0.00000425813 -0.01636143296 -0.00088348161 -0.00009539603 -0.01622118139 0.00009688834 -0.00022909016 -0.01611487370 0.00115534108 -0.00038520031 -0.01603559158 0.00225558351 -0.00055210252 -0.01597641675 0.00336132253 -0.00071817282 -0.01593043088 0.00443626505 -0.00087178726 -0.01589071569 0.00544411796 -0.00100132188 -0.01585035287 0.00634858818 -0.00109515272 -0.01580242410 0.00711338260 </DataArray>
</PointData>
<Points>
<DataArray type="Float32" NumberOfComponents="3">
0.33303543076 0.41501925199 2.17720388178 0.33301427111 0.42555465005 2.18030628506 0.33298575885 0.43844713282 2.18283719220 0.33294654248 0.45356998983 2.18486566222 0.33289327052 0.47079651057 2.18646075420 0.33282259148 0.48999998456 2.18769152718 0.33273115388 0.51105370132 2.18862704021 0.33261560622 0.53383095036 2.18933635235 0.33247259703 0.55820502119 2.18988852264 0.33229877481 0.58404920331 2.19035261014 0.40705435405 0.40864196693 2.17692667107 0.40701462504 0.41956737116 2.18003348550 0.40689753616 0.43298099324 2.18252928271 0.40662898606 0.44874236846 2.18444107524 0.40613487342 0.46671103209 2.18579587563 0.40534109688 0.48674651942 2.18662069642 0.40417355510 0.50870836572 2.18694255015 0.40255814674 0.53245610626 2.18678844935 0.40042077045 0.55784927633 2.18618540657 0.39768732489 0.58474741120 2.18516043435 0.48113675481 0.40112811771 2.17662421573 0.48108823115 0.41253126684 2.17978687428 0.48094105030 0.42657421189 2.18229590069 0.48060096925 0.44309441642 2.18414728411 0.47997374499 0.46192934396 2.18533701366 0.47896513449 0.48291645807 2.18586107849 0.47748089475 0.50589322228 2.18571546771 0.47542678274 0.53069710014 2.18489617048 0.47270855546 0.55716555520 2.18339917591 0.46923196989 0.58513605100 2.18122047316 0.55534826584 0.39258997602 2.17632468216 0.55529634348 0.40457142872 2.17963999940 0.55515255293 0.41936174940 2.18224277980 0.55483312998 0.43676318161 2.18410952658 0.55425431041 0.45657796891 2.18521674298 0.55333233002 0.47860835484 2.18554093222 0.55198342461 0.50265658295 2.18505859752 0.55012382996 0.52852489681 2.18374624210 0.54766978186 0.55601553995 2.18158036921 0.54453751612 0.58493075593 2.17853748206 0.62975451992 0.38313981355 2.17605623678 0.62970021607 0.39581294843 2.17966640889 0.62956829569 0.41147856639 2.18247565370 0.62929610617 0.42988571196 2.18445304043 0.62882099488 0.45078342967 2.18556763827 0.62808030918 0.47392076406 2.18578851644 0.62701139647 0.49904675968 2.18508474415 0.62555160410 0.52591046105 2.18342539061 0.62363827946 0.55426091271 2.18077952502 0.62120876991 0.58384715921 2.17711621658 0.70442114986 0.37288990200 2.17584704600 0.70436110294 0.38638091760 2.17993965075 0.70422453023 0.40305962347 2.18310025605 0.70396053577 0.42259905535 2.18530306339 0.70351822358 0.44467224897 2.18652227421 0.70284669769 0.46895224007 2.18673209001 0.70189506212 0.49511206439 2.18590671223 0.70061242089 0.52282475767 2.18402034237 0.69894787804 0.55176335565 2.18104718188 0.69685053759 0.58160089406 2.17696143223 0.77941378845 0.36195251308 2.17572527624 0.77934025812 0.37640042786 2.18053327300 0.77915750820 0.39423988128 2.18422232052 0.77879705672 0.41504025971 2.18678483322 0.77819042172 0.43837094955 2.18821322549 0.77726912125 0.46380133719 2.18849991173 0.77596467335 0.49090080904 2.18763730635 0.77420859605 0.51923875147 2.18561782376 0.77193240741 0.54838455089 2.18243387834 0.76906762546 0.57790759369 2.17807788452 0.85479806849 0.35043991847 2.17571909392 0.85469893566 0.36599657084 2.18152082365 0.85440348123 0.38515430042 2.18594758077 0.85377630693 0.40734637294 2.18902358768 0.85268201448 0.43200605413 2.19077306678 0.85098520557 0.45856660976 2.19122024046 0.84855048195 0.48646130555 2.19038933112 0.84524244531 0.51512340724 2.18830456116 0.84092569737 0.54398618058 2.18499015297 0.83546483986 0.57248289131 2.18047032895 0.93063962278 0.33846438987 2.17585666544 0.93049838957 0.35529443817 2.18297585071 0.92999870098 0.37593784152 2.18838177046 0.92886892436 0.39965444294 2.19214456453 0.92683742704 0.42570408546 2.19433437277 0.92363257637 0.45334661209 2.19502133502 0.91898273970 0.48184186586 2.19427559113 0.91261628437 0.51044968978 2.19216728094 0.90426157773 0.53842992687 2.18876654430 0.89364698711 0.56504242016 2.18414352105 1.00700408410 0.32613819899 2.17616615723 1.00679987390 0.34441912147 2.18497190220 1.00597941910 0.36672546519 2.19163062325 1.00404554693 0.39210151763 2.19627300152 1.00050108461 0.41959156626 2.19902971814 0.99484885936 0.44823989853 2.20003145425 0.98659169841 0.47709080192 2.19940889098 0.97523242897 0.50518856389 2.19729270948 0.96027387827 0.53157747191 2.19381359088 0.94121887353 0.55530181343 2.18910221632 0.33301174709 0.40701142276 2.18306952339 0.33301561360 0.41823331400 2.18863181059 0.33279077948 0.43187418637 2.19307052766 0.33212857897 0.44780221867 2.19651001674 0.33082034629 0.46588558973 2.19907461999 0.32865741566 0.48599247837 2.20088867955 0.32543112133 0.50799106341 2.20207653755 0.32093279751 0.53174952368 2.20276253615 0.31495377844 0.55713603800 2.20307101749 0.30728539834 0.58401878518 2.20312632372 0.40697014493 0.40048921522 2.18278492885 0.40697679706 0.41213658392 2.18835313234 0.40676656146 0.42629905084 2.19277484316 0.40614601321 0.44280484952 2.19614778157 0.40492172738 0.46148221352 2.19856966786 0.40290027906 0.48215937638 2.20013822230 0.39988824333 0.50466457164 2.20095116515 0.39569219526 0.52882603285 2.20110621669 0.39011870994 0.55447199356 2.20070109718 0.38297436243 0.58143068731 2.19983352691 0.48099405183 0.39279729788 2.18247688652 0.48100503376 0.40496250463 2.18808621833 0.48083133158 0.41976486250 2.19252210013 0.48031532408 0.43698967902 2.19586304513 0.47929939006 0.45642226169 2.19818756657 0.47762590831 0.47784791805 2.19957417766 0.47513725762 0.50105195560 2.20010139163 0.47167581679 0.52581968185 2.19984772172 0.46708396460 0.55193640433 2.19889168115 0.46120407986 0.57918743055 2.19731178314 0.55512678227 0.38405046017 2.18217543035 0.55514095887 0.39683095941 2.18789088333 0.55501034686 0.41239701254 2.19239196597 0.55462152510 0.43048284117 2.19574609662 0.55386107244 0.45082266691 2.19802069360 0.55261556773 0.47315071139 2.19928317524 0.55077158982 0.49720119621 2.19960095988 0.54821571756 0.52270834297 2.19904146585 0.54483452981 0.54940637331 2.19767211148 0.54051460541 0.57702950882 2.19556031510 0.62941165078 0.37436349152 2.18191059432 0.62942520758 0.38786183155 2.18782694207 0.62932886432 0.40432089214 2.19246410807 0.62904962976 0.42341047000 2.19588722523 0.62851451262 0.44480036185 2.19816142645 0.62765052163 0.46816036441 2.19935184466 0.62638466552 0.49316027438 2.19952361275 0.62464395305 0.51946988850 2.19874186365 0.62235539292 0.54675900346 2.19707173026 0.61944599389 0.57469741599 2.19457834550 0.70389197184 0.36385118135 2.18171241239 0.70389841506 0.37817500433 2.18795420932 0.70381214099 0.39566189249 2.19281819382 0.70358465156 0.41589869953 2.19637672016 0.70316744870 0.43847227917 2.19870214264 0.70251203432 0.46296948510 2.19986681553 0.70156991034 0.48897717105 2.19994309313 0.70029257870 0.51608219070 2.19900332972 0.69863154131 0.54387139777 2.19711987959 0.69653830009 0.57193164596 2.19436509703 0.77861105997 0.35262831909 2.18161091852 0.77860121650 0.36789036103 2.18833249983 0.77848543388 0.38654540477 2.19353389061 0.77821160401 0.40807366379 2.19730487062 0.77772761879 0.43195535154 2.19973521965 0.77698137012 0.45767068149 2.20091471748 0.77592074989 0.48469986711 2.20093314389 0.77449364999 0.51252312187 2.19988027866 0.77264796233 0.54062065922 2.19784590157 0.77033157880 0.56847269263 2.19491979239 0.85361222966 0.34080969418 2.18163614669 0.85357424707 0.35712778494 2.18902162836 0.85337400000 0.37709682018 2.19469086582 0.85291550061 0.40006149679 2.19876196579 0.85210276101 0.42536651163 2.20135303499 0.85083979334 0.45235656158 2.20258218012 0.84903060976 0.48037634350 2.20256750791 0.84657922238 0.50877055428 2.20142712505 0.84338964335 0.53688389078 2.19927913827 0.83936588481 0.56406104989 2.19624165428 0.92893879541 0.32851009603 2.18181813087 0.92885814195 0.34600715933 2.19008140965 0.92850309639 0.36744152991 2.19636878686 0.92768135485 0.39198833256 2.20083829489 0.92620061344 0.41882269211 2.20364796616 0.92386856831 0.44711973336 2.20495583307 0.92049291557 0.47605458113 2.20491992805 0.91588135134 0.50480236022 2.20369828348 0.90984157175 0.53253819545 2.20144893180 0.90218127293 0.55843721162 2.19832990539 1.00463407173 0.31584431409 2.18218690501 1.00449353634 0.33464836750 2.19157165847 1.00389798006 0.35770492513 2.19864732110 1.00249418024 0.38398030512 2.20362414710 0.99992891421 0.41244082565 2.20671239065 0.99584895933 0.44205280485 2.20812230595 0.98990109292 0.47178256091 2.20806414719 0.98173209232 0.50059641197 2.20674816855 0.97098873489 0.52746067619 2.20438462424 0.95731779794 0.55134167173 2.20118376843 0.33268533578 0.39796473754 2.19031757239 0.33307939811 0.40992825545 2.19795521628 0.33297860089 0.42440216871 2.20401366126 0.33202756436 0.44123920172 2.20867089977 0.32987090876 0.46029207892 2.21210492426 0.32615325433 0.48141352469 2.21449372716 0.32051922132 0.50445626347 2.21601530093 0.31261342997 0.52927301967 2.21684763800 0.30208050052 0.55571651769 2.21716873081 0.28856505321 0.58363948195 2.21715657182 0.40624689153 0.39128160302 2.19000265692 0.40668352308 0.40370069335 2.19764384745 0.40669229358 0.41869898753 2.20369455910 0.40600162444 0.43606845146 2.20831606632 0.40433993707 0.45560105107 2.21166964360 0.40143565290 0.47708875227 2.21391656541 0.39701719333 0.50032352098 2.21521810621 0.39081297979 0.52509732310 2.21573554048 0.38255143369 0.55120212457 2.21563014269 0.37196097644 0.57842989128 2.21506318732 0.47999029398 0.38338165715 2.18968324885 0.48045631925 0.39634584497 2.19734904540 0.48056144066 0.41199210081 2.20340896234 0.48011485945 0.43005216516 2.20801260903 0.47892577687 0.45025777854 2.21130959485 0.47680339416 0.47234068144 2.21344952914 0.47355691259 0.49603261436 2.21458202129 0.46899553340 0.52106531782 2.21485668065 0.46292845784 0.54717053232 2.21442311659 0.45516488716 0.57407999836 2.21343093848 0.55391969121 0.37436797887 2.18940259162 0.55439894877 0.38796601316 2.19712917187 0.55457841600 0.40438645274 2.20322333007 0.55433883412 0.42329584846 2.20782881454 0.55356094438 0.44436075119 2.21108937359 0.55212548801 0.46724771181 2.21314875555 0.54991320625 0.49162328119 2.21415070874 0.54680484034 0.51715401019 2.21423898146 0.54268113151 0.54350644968 2.21355732205 0.53742282102 0.57034715053 2.21224947881 0.62803923130 0.36434364713 2.18920392866 0.62851257380 0.37866350079 2.19704258860 0.62873559347 0.39598698751 2.20320412136 0.62864511320 0.41590500699 2.20783296947 0.62817795585 0.43800845893 2.21107357546 0.62727094430 0.46188824304 2.21307038184 0.62586090144 0.48713525901 2.21396783114 0.62388465012 0.51334040655 2.21391036589 0.62127901324 0.54009458537 2.21304242861 0.61798081366 0.56698869515 2.21150846182 0.70235306234 0.35341174086 2.18913050339 0.70279835648 0.36854061070 2.19714765732 0.70302534695 0.38689864932 2.20341779529 0.70300526142 0.40798514640 2.20809336047 0.70270932753 0.43129939164 2.21132679605 0.70210877294 0.45634067474 2.21327054519 0.70117482530 0.48260828539 2.21407705108 0.69987871229 0.50960151329 2.21389875690 0.69819166154 0.53681964812 2.21288810581 0.69608490073 0.56376197958 2.21119754100 0.77686533240 0.34167533901 2.18922555925 0.77725745897 0.35769964576 2.19750273978 0.77744005032 0.37722638235 2.20393081093 0.77739084352 0.39964177233 2.20867827417 0.77708757565 0.42433203922 2.21191363097 0.77650798378 0.45068340656 2.21380538280 0.77562980500 0.47808209789 2.21452203114 0.77443077637 0.50591433675 2.21423207745 0.77288863496 0.53356634666 2.21310402320 0.77098111786 0.56042435117 2.21130636987 0.85158018957 0.32923752053 2.18953233965 0.85189104342 0.34624290882 2.19816619771 0.85197207743 0.36707513081 2.20480962736 0.85177342424 0.39098039041 2.20965599721 0.85124521646 0.41720489154 2.21289867584 0.85033758672 0.44499483812 2.21473103187 0.84900066766 0.47359643407 2.21534643389 0.84718459188 0.50225588330 2.21493825051 0.84483949202 0.53021938973 2.21369985033 0.84191550071 0.55673315727 2.21182460194 0.92650178193 0.31620136435 2.19009408804 0.92670027198 0.33427270274 2.19919639286 0.92661380218 0.35654983887 2.20612070366 0.92612456831 0.38210650628 2.21109481621 0.92511476620 0.41001643850 2.21434652627 0.92346659164 0.43935336905 2.21610362959 0.92106224043 0.46919103148 2.21659392193 0.91778390837 0.49860315929 2.21604519906 0.91351379126 0.52666348604 2.21468525672 0.90813408491 0.55244574524 2.21274189069 1.00163425757 0.30266994943 2.19095404784 1.00168630681 0.32189133037 2.20065168696 1.00135759842 0.34575545074 2.20793049891 1.00041584049 0.37312562559 2.21306301783 0.99862874112 0.40286516998 2.21632177786 0.99576400841 0.43383739899 2.21797931315 0.99158935045 0.46490562768 2.21830815783 0.98587247535 0.49493317110 2.21758084604 0.97838109121 0.52278334433 2.21606991193 0.96888290611 0.54731946242 2.21404788964 0.33175176184 0.38810006450 2.19947830630 0.33325713822 0.40086278244 2.20868280493 0.33386099495 0.41625570101 2.21597229807 0.33312664918 0.43410085207 2.22156904801 0.33061741803 0.45422026746 2.22569531704 0.32589661867 0.47643597903 2.22857336745 0.31852756823 0.50057001863 2.23042546153 0.30807358384 0.52644441811 2.23147386157 0.29409798266 0.55388120933 2.23194082987 0.27616408183 0.58270242412 2.23204862870 0.40423638139 0.38119920700 2.19907897656 0.40586790242 0.39444219537 2.20828020000 0.40668642369 0.41036632798 2.21556352711 0.40639434941 0.42871722539 2.22114047399 0.40469408377 0.44924050815 2.22522255676 0.40128803098 0.47168179682 2.22802129151 0.39587859524 0.49578671198 2.22974819437 0.38816818074 0.52130087417 2.23061478145 0.37785919170 0.54796990396 2.23083256884 0.36465403231 0.57553942191 2.23061307266 0.47724758860 0.37301457725 2.19871146837 0.47896107556 0.38681795943 2.20791873081 0.47993891444 0.40339798972 2.21520155080 0.48000132188 0.42242614122 2.22076425616 0.47896851454 0.44357388697 2.22481117466 0.47666070904 0.46651270004 2.22754663414 0.47289812204 0.49091405352 2.22917496237 0.46750097019 0.51644942046 2.22990048717 0.46028947012 0.54279027393 2.22992753634 0.45108383848 0.56960808700 2.22946043768 0.55071057262 0.36363433646 2.19843660950 0.55245554200 0.37807500884 2.20766111467 0.55353185206 0.39543737450 2.21494645692 0.55385422818 0.41531546195 2.22049406271 0.55333739571 0.43730329973 2.22450535851 0.55189608001 0.46099491637 2.22718177080 0.54944500644 0.48598434039 2.22872472604 0.54589890038 0.51186560034 2.22933565070 0.54117248718 0.53823272474 2.22921597126 0.53518049220 0.56467974212 2.22856711418 0.62455052257 0.35314664582 2.19831522775 0.62627018609 0.36829827788 2.20757006891 0.62737862145 0.38657117057 2.21485833321 0.62785972989 0.40747304999 2.22038356185 0.62769741266 0.43051164226 2.22434929604 0.62687557102 0.45519467348 2.22695907699 0.62537810622 0.48102986975 2.22841644590 0.62318891951 0.50752495720 2.22892494399 0.62029191214 0.53418766191 2.22868811247 0.61667098536 0.56052571001 2.22790949254 0.69869262762 0.34163966653 2.19840815087 0.70032389221 0.35757270077 2.20770831085 0.70139260747 0.37688606618 2.21499726745 0.70192448859 0.39898676773 2.22048642180 0.70194525078 0.42328181037 2.22438717500 0.70148060924 0.44917819905 2.22691092819 0.70055627917 0.47608293874 2.22826908248 0.69919797577 0.50340303439 2.22867303900 0.69743141425 0.53054549095 2.22833419886 0.69528230981 0.55691731339 2.22746396318 0.77306207688 0.32920155981 2.19877620666 0.77453554471 0.34598321177 2.20813855781 0.77548719501 0.36646874961 2.21542334740 0.77595516589 0.38994447757 2.22085631075 0.77597759545 0.41569669987 2.22466318315 0.77559262181 0.44301172077 2.22706969990 0.77483838308 0.47117584450 2.22830159631 0.77375301737 0.49947537528 2.22858460768 0.77237466278 0.52719661737 2.22814446930 0.77074145743 0.55362587499 2.22720691649 0.84758405950 0.31592048686 2.19948022290 0.84882402795 0.33361474513 2.20892352710 0.84957576895 0.35540590911 2.21619666082 0.84985842336 0.38043404190 2.22154689691 0.84969113205 0.40783920660 2.22522150822 0.84909303588 0.43676146632 2.22746776760 0.84808327574 0.46634088417 2.22853294790 0.84668099248 0.49571752325 2.22866432198 0.84490532697 0.52403144667 2.22810916269 0.84277542010 0.55042271752 2.22711474288 0.92218376461 0.30188460887 2.20058102735 0.92310822630 0.32055223509 2.21012593606 0.92357171417 0.34378423293 2.21737729548 0.92354092259 0.37054332311 2.22261184849 0.92298254595 0.39979222636 2.22610633797 0.92186327861 0.43049366339 2.22813750677 0.92014981494 0.46161035492 2.22898209778 0.91780884931 0.49210502167 2.22891685387 0.91480707610 0.52094038437 2.22821851790 0.91111118967 0.54707916373 2.22716383275 0.99678638137 0.28718208704 2.20213944782 0.99730702410 0.30688061590 2.21180850200 0.99738841554 0.33169040934 2.21902533914 0.99690932518 0.36036018362 2.22410483370 0.99574852254 0.39163865497 2.22736186014 0.99378477713 0.42427453964 2.22911129291 0.99089685846 0.45701655387 2.22966800647 0.98696353605 0.48861341391 2.22934687529 0.98186357940 0.51781383598 2.22846277381 0.97547575803 0.54336653634 2.22733057650 0.32990659030 0.37763827180 2.21108200262 0.33360034750 0.39126020302 2.22122087930 0.33574973354 0.40765940444 2.22925214313 0.33590898394 0.42660708276 2.23542519815 0.33363233420 0.44787444466 2.23998944837 0.32847401985 0.47123269685 2.24319429782 0.31998827640 0.49645304600 2.24528915055 0.30772933937 0.52330669881 2.24652341057 0.29125144427 0.55156486197 2.24714648192 0.27010882662 0.58099874218 2.24740776862 0.40029040206 0.37042210382 2.21051300906 0.40426303439 0.38454358590 2.22063675914 0.40676064297 0.40148659688 2.22865684376 0.40752271777 0.42093522241 2.23481554907 0.40628874875 0.44257354815 2.23935516123 0.40279822589 0.46608565975 2.24251796638 0.39679063916 0.49115564288 2.24454625069 0.38800547853 0.51746758319 2.24568230029 0.37618223397 0.54470556633 2.24616840135 0.36106039546 0.57255367797 2.24624684002 0.47188804303 0.36182943991 2.21002971069 0.47603829060 0.37651551954 2.22013864988 0.47877128981 0.39412459216 2.22814492900 0.47997645793 0.41425587355 2.23428626684 0.47954321222 0.43650857947 2.23880038218 0.47736096994 0.46048192570 2.24192499383 0.47331914837 0.48577512800 2.24389782058 0.46730716476 0.51198740215 2.24495658120 0.45921443638 0.53871796392 2.24533899450 0.44893038050 0.56556602908 2.24528277926 0.54448300649 0.35194133726 2.20970792751 0.54869596734 0.36725636530 2.21979296137 0.55154574677 0.38565708232 2.22777093134 0.55303687842 0.40665494012 2.23387822348 0.55317389591 0.42976139052 2.23835122388 0.55196133289 0.45448788531 2.24142631860 0.54940372297 0.48034587632 2.24333989372 0.54550559980 0.50684681534 2.24432833531 0.54027149701 0.53350215419 2.24462802944 0.53370594823 0.55982334467 2.24447536220 0.61785878571 0.34083885302 2.20962347950 0.62200591583 0.35684648453 2.21966610346 0.62484808656 0.37616775936 2.22758938327 0.62647065323 0.39821832606 2.23363229106 0.62695897114 0.42241383317 2.23803379896 0.62639839559 0.44816992923 2.24103287909 0.62487428191 0.47490226279 2.24286850361 0.62247198539 0.50202648239 2.24377964462 0.61927686136 0.52895823657 2.24400527427 0.61537426511 0.55511317388 2.24378436468 0.69179887397 0.32860304437 2.20985218667 0.69573798727 0.34536623857 2.21982448601 0.69844238189 0.36574031530 2.22765481730 0.70004445635 0.38903193529 2.23358934162 0.70067660919 0.41454775930 2.23787422007 0.70047123893 0.44159444808 2.24075561375 0.69956074412 0.46947866238 2.24247968374 0.69807752327 0.49750706294 2.24329259115 0.69615397493 0.52498631052 2.24344049706 0.69392249763 0.55122306586 2.24316956258 0.76608676454 0.31531496847 2.21046986901 0.76966203290 0.33289598878 2.22033451888 0.77209270547 0.35445844214 2.22802176592 0.77352496178 0.37918167175 2.23379024721 0.77410498137 0.40624502080 2.23789859987 0.77397894378 0.43482783251 2.24060546097 0.77329302853 0.46410945005 2.24216946762 0.77219341518 0.49326921664 2.24284925690 0.77082628324 0.52148647548 2.24290346592 0.76933781227 0.54794056975 2.24259073175 0.84050595070 0.30105568248 2.21155234652 0.84354790392 0.31951609650 2.22126261191 0.84556313000 0.34240583191 2.22874476162 0.84667884350 0.36875343937 2.23427587989 0.84702225898 0.39758746955 2.23813305100 0.84672059099 0.42793647313 2.24059335919 0.84590105410 0.45882900076 2.24193388874 0.84469086284 0.48929360312 2.24243172389 0.84321723179 0.51835883088 2.24236394891 0.84160737550 0.54505323470 2.24200764806 0.91483992573 0.28590624359 2.21317543919 0.91716545154 0.30530692309 2.22267517497 0.91861772820 0.32966617661 2.22987833690 0.91927277551 0.35783314208 2.23508711171 0.91920661332 0.38865695743 2.23860368611 0.91849526146 0.42098676058 2.24073024683 0.91721473974 0.45367168947 2.24176898060 0.91544106801 0.48556088202 2.24202207413 0.91325026609 0.51550347617 2.24179171414 0.91071835381 0.54234860985 2.24138008737 0.98887218290 0.26994770894 2.21541496701 0.99028452699 0.29034882989 2.22463861790 0.99102057277 0.31632316826 2.23147702426 0.99107343180 0.34650668382 2.23626481471 0.99043621570 0.37953533631 2.23933661785 0.98910203603 0.41404508549 2.24102706231 0.98706400441 0.44867189113 2.24167077669 0.98431523241 0.48205171298 2.24160238961 0.98084883164 0.51282051080 2.24115652969 0.97665791367 0.53961424435 2.24066782554 0.32684538617 0.36680022762 2.22565893885 0.33416053953 0.38134382524 2.23597574217 0.33895658855 0.39883790015 2.24415890151 0.34085771917 0.41897780686 2.25046008688 0.33948811736 0.44145889985 2.25513096828 0.33447196905 0.46597653364 2.25842321571 0.32543346021 0.49222606271 2.26058849917 0.31199677679 0.51990284156 2.26187848868 0.29378610474 0.54870222469 2.26254485423 0.27042563002 0.57831956661 2.26283926582 0.39376074110 0.35913037014 2.22480387571 0.40160201832 0.37418736084 2.23508809403 0.40692664259 0.39224531888 2.24324960563 0.40958525915 0.41290649363 2.24953583607 0.40942851327 0.43577313447 2.25419421093 0.40630705020 0.46044749078 2.25747215578 0.40007151522 0.48653181193 2.25961709619 0.39057255356 0.51362834730 2.26087645773 0.37766081051 0.54133934628 2.26149766598 0.36118693131 0.56926705824 2.26172814650 0.46303376462 0.34995962687 2.22410614146 0.47120695231 0.36557519688 2.23435217794 0.47686610367 0.38431397104 2.24248416040 0.48004201412 0.40568562853 2.24874692142 0.48076547905 0.42919984853 2.25338529356 0.47906729386 0.45436631021 2.25664410943 0.47497825395 0.48069469275 2.25876820160 0.46852915472 0.50769467531 2.26000240265 0.45975079158 0.53487593707 2.26059154517 0.44867395993 0.56174815720 2.26078046173 0.53422057282 0.33938078562 2.22364698916 0.54250545361 0.35560850140 2.23383096160 0.54829519184 0.37515288070 2.24190633815 0.55175595598 0.39742754145 2.24811767922 0.55305391449 0.42184610155 2.25270954522 0.55235523580 0.44782217891 2.25592649658 0.54982608839 0.47476939145 2.25801309371 0.54563264071 0.50210135707 2.25921389703 0.53994106121 0.52923169370 2.25977346694 0.53291751835 0.55557401924 2.25993636386 0.60687728180 0.32748663419 2.22350767188 0.61502763435 0.34438844247 2.23358741269 0.62073412713 0.36487107195 2.24155991118 0.62425505663 0.38824456226 2.24767244578 0.62584871936 0.41381895301 2.25217229496 0.62577341182 0.44090428382 2.25530673715 0.62428743052 0.46881059431 2.25732305083 0.62164907195 0.49684792411 2.25846851444 0.61811663263 0.52432631282 2.25899040642 0.61394840905 0.55055580008 2.25913600524 0.68056000766 0.31436996036 2.22376944265 0.68830360667 0.33201618815 2.23368449892 0.69370312956 0.35357756887 2.24148865181 0.69706728795 0.37824902086 2.24743555742 0.69870479346 0.40522546243 2.25177887181 0.69892435771 0.43370181191 2.25477225106 0.69803469232 0.46287298763 2.25666935125 0.69634450890 0.49193390791 2.25772382846 0.69416251909 0.52007949109 2.25818933876 0.69179743449 0.54650465547 2.25831953823 0.75482486651 0.30012355195 2.22451355455 0.76186348270 0.31859290650 2.23418518797 0.76672241918 0.34138139554 2.24173633237 0.76972062184 0.36755324712 2.24743135044 0.77117703657 0.39617268930 2.25153460483 0.77141060925 0.42630395014 2.25431045822 0.77074028576 0.45701125768 2.25602327328 0.76948501199 0.48735884000 2.25693741268 0.76796373382 0.51641092514 2.25731723909 0.76649539713 0.54323174116 2.25742711518 0.82922797444 0.28484019674 2.22582126062 0.83523737455 0.30421976559 2.23515244754 0.83931221601 0.32839157604 2.24234672517 0.84174303019 0.35626957094 2.24768416114 0.84282034848 0.38676769313 2.25144482307 0.84283470223 0.41879988546 2.25390877855 0.84207662283 0.45128009075 2.25535609522 0.84083664165 0.48312225186 2.25606684068 0.83940529007 0.51324031162 2.25632108255 0.83807309946 0.54054821287 2.25639888844 0.90332544754 0.26861268254 2.22777381393 0.90795539436 0.28899793346 2.23664924532 0.91099274009 0.31471713444 2.24336360252 0.91266248490 0.34451032220 2.24821832584 0.91318962896 0.37711753343 2.25151485556 0.91279917243 0.41127880483 2.25355463198 0.91171611550 0.44573417313 2.25463909538 0.91016545832 0.47922367501 2.25506968605 0.90837220108 0.51048734718 2.25514784428 0.90656134393 0.53826522634 2.25517501037 0.97667340193 0.25153379715 2.23045246752 0.97954765426 0.27302857818 2.23873854900 0.98128421145 0.30046709483 2.24483073675 0.98200695785 0.33238783078 2.24905818085 0.98183977780 0.36732926968 2.25175003137 0.98090655565 0.40382989523 2.25323543841 0.97933117575 0.44042819109 2.25384355204 0.97723752245 0.47566264094 2.25390352235 0.97474948009 0.50807172846 2.25374449941 0.97199093303 0.53619393732 2.25369563332 0.32226371446 0.35580680014 2.24373939251 0.33498922787 0.37133695716 2.25335369632 0.34379333184 0.39001580932 2.26099827827 0.34845600539 0.41143293744 2.26689445091 0.34875722758 0.43517792235 2.27126352681 0.34447697745 0.46084034489 2.27432681852 0.33539523402 0.48800978588 2.27630563859 0.32129197635 0.51627582615 2.27742129959 0.30194718347 0.54522804655 2.27789511407 0.27714083443 0.57445602789 2.27794839458 0.38399918605 0.34750408263 2.24245069778 0.39761795352 0.36355601613 2.25200877383 0.40719611371 0.38282801868 2.25961690929 0.41278050320 0.40481509018 2.26549587949 0.41441795860 0.42901223052 2.26986645977 0.41215531651 0.45491443962 2.27294942547 0.40603941353 0.48201671736 2.27496555193 0.39611708626 0.50981406366 2.27613561447 0.38243517130 0.53780147840 2.27668038845 0.36504050526 0.56547396151 2.27682064919 0.44980686068 0.33753851986 2.24140892629 0.46398604860 0.35413366298 2.25090269033 0.47403089292 0.37410818926 2.25846430850 0.48019973700 0.39685967254 2.26431450024 0.48275092417 0.42178568664 2.26867398497 0.48194279779 0.44828380541 2.27176348213 0.47803370118 0.47575160270 2.27380371114 0.47128197769 0.50358665232 2.27501539144 0.46194597067 0.53118652813 2.27561924245 0.45028402345 0.55794880396 2.27583598360 0.51890685158 0.32604448588 2.24068423798 0.53326922960 0.34322983599 2.25008136500 0.54345527900 0.36403207414 2.25756226217 0.54988063202 0.38774652440 2.26334881227 0.55296092091 0.41366851080 2.26766289809 0.55311177791 0.44109335741 2.27072640239 0.55074883526 0.46931638828 2.27276120797 0.54628772520 0.49763292744 2.27398919760 0.54014407999 0.52533829896 2.27463225408 0.53273353185 0.55172782688 2.27491226017 0.59051927194 0.31315635475 2.24034679279 0.60464321304 0.33100447341 2.24959071705 0.61462688146 0.35277542640 2.25693255658 0.62099011349 0.37765548565 2.26259731471 0.62425274542 0.40483092312 2.26680999480 0.62493461352 0.43348801076 2.26979560016 0.62355555408 0.46281302051 2.27177913415 0.62063540337 0.49199222432 2.27298560010 0.61669399769 0.52021189414 2.27364000135 0.61225117331 0.54665830191 2.27396734123 0.66386423499 0.29900850052 2.24046675066 0.67728371543 0.31761751355 2.24947666566 0.68670330984 0.34051399913 2.25659697799 0.69269510665 0.36676639620 2.26205850668 0.69583119432 0.39544314370 2.26609207078 0.69668366127 0.42561268059 2.26892848935 0.69582459594 0.45634344579 2.27079858142 0.69382608678 0.48670387824 2.27193316605 0.69126022221 0.51576241690 2.27256306228 0.68869909068 0.54258750070 2.27291908915 0.73816185394 0.28373529724 2.24111427152 0.75036645328 0.30322889465 2.24978513003 0.75884217365 0.32742354540 2.25657731267 0.76416253673 0.35525909592 2.26173088728 0.76690106422 0.38567539265 2.26548592172 0.76763127780 0.41761228204 2.26808248385 0.76692669916 0.45000961051 2.26976064152 0.76536084998 0.48180722451 2.27076046257 0.76350725196 0.51194497049 2.27132201487 0.76193942679 0.53936269487 2.27168536628 0.81263224198 0.26747111897 2.24235951531 0.82306714310 0.28799855501 2.25056202935 0.83020108242 0.31367981831 2.25689534690 0.83455932897 0.34331342472 2.26161295564 0.83666715174 0.37569789008 2.26496834330 0.83704981975 0.40963173025 2.26721499757 0.83623260203 0.44391346109 2.26860640617 0.83474076757 0.47734159843 2.26939605679 0.83309958539 0.50871465814 2.26983743715 0.83183432450 0.53683115607 2.27018403495 0.88649551234 0.25035033976 2.24427264197 0.89456150140 0.27208643290 2.25185328282 0.89993764568 0.29945857094 2.25757286694 0.90305240858 0.33110922248 2.26170321088 0.90433425348 0.36568085609 2.26451613119 0.90421164378 0.40181594037 2.26628344442 0.90311304286 0.43815694391 2.26727696712 0.90146691410 0.47334633529 2.26776851584 0.89970172090 0.50602658310 2.26802990713 0.89824592665 0.53484015593 2.26833295753 0.95897177822 0.23250733366 2.24692381142 0.96402524468 0.25565246659 2.25370480962 0.96720947295 0.28493555638 2.25863165907 0.96880870081 0.31882632909 2.26200015212 0.96910716607 0.35579451079 2.26410608108 0.96838910652 0.39430982753 2.26524523830 0.96693875995 0.43284200538 2.26571341610 0.96504036416 0.46986077038 2.26580640682 0.96297815693 0.50383584860 2.26582000280 0.96103637608 0.53323696610 2.26604999637 0.31585714019 0.34487885751 2.26585364110 0.33613792611 0.36146290683 2.27376104452 0.35057173530 0.38141775309 2.28007597845 0.35918699313 0.40419238755 2.28494902693 0.36201212498 0.42923580146 2.28853077400 0.35907555621 0.45599698607 2.29097180368 0.35040571219 0.48392493263 2.29242270000 0.33603101828 0.51246863239 2.29303404700 0.31597989986 0.54107707660 2.29295642870 0.29028078229 0.56919925651 2.29234042915 0.37035752445 0.33572331795 2.26395259656 0.39204393932 0.35283204768 2.27177336769 0.40758074752 0.37342022095 2.27803385131 0.41730697958 0.39684506316 2.28289022383 0.42156166603 0.42246379971 2.28649866166 0.42068383740 0.44963365600 2.28901534123 0.41501252423 0.47771185743 2.29059643895 0.40488675704 0.50605562939 2.29139813123 0.39064556636 0.53402219730 2.29157659450 0.37262798272 0.56096878655 2.29128800517 0.43132943857 0.32469950061 2.26240623082 0.45389456740 0.34232758941 2.27013356236 0.47007319445 0.36364930975 2.27633043677 0.48045137310 0.38792227192 2.28115728365 0.48561515674 0.41440408627 2.28477453256 0.48615059873 0.44235236312 2.28734261312 0.48264375244 0.47102471279 2.28902195489 0.47568067127 0.49967874560 2.28997298746 0.46584740858 0.52757207188 2.29035614043 0.45373001775 0.55396230195 2.29033184338 0.49752542276 0.31202424237 2.26125011749 0.52037252411 0.33021878792 2.26885042122 0.53670109995 0.35240196713 2.27494828824 0.54728007767 0.37772514744 2.27970800501 0.55287838467 0.40533969628 2.28329385799 0.55426494836 0.43439698109 2.28587013364 0.55220869613 0.46404836930 2.28760111842 0.54747855539 0.49344522834 2.28865109878 0.54084345354 0.52173892566 2.28918436119 0.53307231798 0.54808082867 2.28936519210 0.56769801725 0.29791438015 2.26051983020 0.59016052324 0.31677489908 2.26793273698 0.60611648787 0.33997514075 2.27386995912 0.61645299722 0.36655482330 2.27850018655 0.62205713740 0.39555366485 2.28199210923 0.62381599449 0.42601138356 2.28451441711 0.62261665460 0.45696769756 2.28623580014 0.61934620383 0.48746232499 2.28732494828 0.61489172828 0.51653498399 2.28795055147 0.61014031403 0.54322539270 2.28828129966 0.64059976224 0.28258675082 2.26025094255 0.66194127855 0.30226517880 2.26738930236 0.67697138206 0.32666577827 2.27307800280 0.68663003572 0.35471243309 2.27749162687 0.69185720248 0.38532902711 2.28080475755 0.69359284531 0.41743944418 2.28319197781 0.69277692717 0.44996756815 2.28482787065 0.69034941101 0.48183728288 2.28588701903 0.68725025981 0.51197247222 2.28654400595 0.68441943651 0.53929702001 2.28697341438 0.71498319795 0.26625819130 2.26047902817 0.73439750382 0.28695888295 2.26722891005 0.74791780638 0.31277082732 2.27255497270 0.75647109711 0.34249911040 2.27664012461 0.76098436749 0.37494881816 2.27966727424 0.76238460900 0.40892503659 2.28181933006 0.76159881312 0.44323285167 2.28327920053 0.75955397135 0.47667734937 2.28422979413 0.75717707515 0.50806361568 2.28485401932 0.75539511601 0.53619673658 2.28533478457 0.78960086459 0.24914553848 2.26123966068 0.80621191281 0.27112526743 2.26746035276 0.81760778467 0.29858723556 2.27228342222 0.82463608535 0.33021598882 2.27590347838 0.82814441998 0.36469607314 2.27851513058 0.82898039375 0.40071203445 2.28031298814 0.82799161179 0.43694841869 2.28149166039 0.82602567926 0.47208977180 2.28224575666 0.82393020134 0.50482063972 2.28276988628 0.82255278316 0.53382556837 2.28325865856 0.86320530239 0.23146562925 2.26256841368 0.87606721929 0.25503358812 2.26809242320 0.88469334080 0.28441195064 2.27224590475 0.88978490439 0.31816420194 2.27523948681 0.89204314754 0.35485382715 2.27728379785 0.89216930774 0.39304431140 2.27858946637 0.89086462246 0.43129913982 2.27936712083 0.88883032918 0.46818179753 2.27982738971 0.88676766539 0.50225576967 2.28018090150 0.88537786856 0.53208454137 2.28063828468 0.93454905155 0.21343530051 2.26450086080 0.94264613704 0.23895310093 2.26913391408 0.94782649861 0.27054192022 2.27242497370 0.95057745819 0.30664488336 2.27460594851 0.95138633772 0.34570511533 2.27590874734 0.95074045917 0.38616574110 2.27656527903 0.94912714445 0.42646988563 2.27680745243 0.94703371553 0.46506067390 2.27686717637 0.94494749433 0.50038123089 2.27697635969 0.94335580282 0.53087468155 2.27736691124 0.30732122838 0.33423726792 2.29253196213 0.33765814780 0.35194498229 2.29760408954 0.35960357080 0.37326835263 2.30169770712 0.37353383290 0.39747607027 2.30484455164 0.37982526963 0.42383682651 2.30707635988 0.37885421652 0.45161931268 2.30842486860 0.37099700907 0.48009222009 2.30892181458 0.35662998283 0.50852424006 2.30859893459 0.33612947330 0.53618406392 2.30748796540 0.30987181602 0.56234038296 2.30562064378 0.35218754386 0.32396815277 2.28980869334 0.38461307502 0.34219795140 2.29475644478 0.40809223518 0.36420745036 2.29877552826 0.42336321791 0.38918046368 2.30191341358 0.43116421681 0.41630080542 2.30421757050 0.43223342546 0.44475228963 2.30573546881 0.42730903743 0.47371873036 2.30651457829 0.41712924631 0.50238394166 2.30660236872 0.40243224567 0.52993173757 2.30604630987 0.38395622911 0.55554593216 2.30489387153 0.40672360561 0.31157595085 2.28756622067 0.44045149663 0.33029364773 2.29238816936 0.46480054515 0.35307939540 2.29632760870 0.48079866897 0.37901769307 2.29944355198 0.48947378588 0.40719303992 2.30179501251 0.49185381367 0.43668993515 2.30344100359 0.48896667014 0.46659287796 2.30444053854 0.48184027307 0.49598636753 2.30485263065 0.47150254027 0.52395490307 2.30473629323 0.45898138952 0.54958298377 2.30415053958 0.46905986635 0.29741185944 2.28577507121 0.50320056596 0.31667377606 2.29044437989 0.52770774642 0.34036986417 2.29427400117 0.54382346407 0.36747666905 2.29733163979 0.55278977526 0.39697073597 2.29968500048 0.55584873631 0.42782861020 2.30140178798 0.55424240358 0.45902683701 2.30254970701 0.54921283339 0.48954196168 2.30319646231 0.54200208209 0.51835052948 2.30340975862 0.53385220601 0.54442908568 2.30325730067 0.53732677880 0.28182707582 2.28440577202 0.57088743633 0.30178004120 2.28887019294 0.59479308467 0.32656453307 2.29253475844 0.61042088121 0.35504630225 2.29547434998 0.61914798337 0.38609109954 2.29776384901 0.62235154854 0.41856467574 2.29947813699 0.62140873413 0.45133278166 2.30069209538 0.61769669752 0.48326116810 2.30148060563 0.61259259612 0.51321558586 2.30191854920 0.60747358734 0.54006178576 2.30208080754 0.60965479567 0.26517279728 2.28342885018 0.64153926106 0.28605414795 2.28761072510 0.66403580558 0.31214907851 2.29102993326 0.67857419839 0.34221550329 2.29376835549 0.68658420866 0.37501133660 2.29590787268 0.68949560553 0.40929449274 2.29753036567 0.68873815816 0.44382288603 2.29871771533 0.68574163573 0.47735443078 2.29955180252 0.68193580737 0.50864704130 2.30011450810 0.67875044227 0.53645863190 2.30048771293 0.68417436968 0.24780022112 2.28281483276 0.71318319348 0.26993780110 2.28661109297 0.73341515486 0.29760917689 2.28967957838 0.74626669361 0.32947318278 2.29211032930 0.75313424953 0.36418865311 2.29399338608 0.75541426241 0.40041442217 2.29541878905 0.75450317206 0.43680932427 2.29647657855 0.75179741827 0.47203219373 2.29725679491 0.74869344084 0.50474186486 2.29784947847 0.74658767956 0.53359717196 2.29834466957 0.75901595354 0.23006054461 2.28253424683 0.78384638692 0.25387270547 2.28581641314 0.80091037819 0.28343050460 2.28840374655 0.81148164486 0.31730825135 2.29039694435 0.81683390442 0.35408025503 2.29189670379 0.81824087437 0.39232082498 2.29300372215 0.81697627220 0.43060427050 2.29381869671 0.81431381542 0.46750490094 2.29444232472 0.81152722151 0.50159702561 2.29497530347 0.80989020797 0.53145495384 2.29551833022 0.83230999996 0.21230496505 2.28255761947 0.85155599469 0.23830056584 2.28517180218 0.86450072127 0.27009873807 2.28712249054 0.87220233015 0.30620961961 2.28852487360 0.87571897176 0.34514334834 2.28949414041 0.87610879656 0.38541006214 2.29014548002 0.87442995496 0.42551989887 2.29059408149 0.87174059743 0.46398299640 2.29095513388 0.86909887438 0.49930949262 2.29134382623 0.86756293627 0.53000952540 2.29187534760 0.90218696167 0.19488467971 2.28285547774 0.91433917012 0.22366308702 2.28462237670 0.92216542978 0.25809955368 2.28575586310 0.92641202746 0.29666619819 2.28639079001 0.92782524998 0.33783513900 2.28666201052 0.92715138413 0.38007849461 2.28670437769 0.92513671672 0.42186838349 2.28665274459 0.92252753457 0.46167692412 2.28664196431 0.92007012446 0.49797623498 2.28680688991 0.91851077322 0.52923843453 2.28728237446 0.29635154404 0.32410289953 2.32430463310 0.33960140652 0.34300649160 2.32528913416 0.37120061022 0.36579222911 2.32616916933 0.39197967523 0.39150389865 2.32680176173 0.40276912164 0.41918528681 2.32704393448 0.40439946954 0.44788018019 2.32675271070 0.39770123904 0.47663236538 2.32578511352 0.38350495023 0.50448562897 2.32399816605 0.36264112319 0.53048375755 2.32124889142 0.33594027804 0.55367053773 2.31739431275 0.32884103182 0.31241866375 2.32051810940 0.37505845995 0.33183622322 2.32133257424 0.40874226786 0.35537523158 2.32211703673 0.43114774786 0.38200534285 2.32275999325 0.44353019223 0.41069621106 2.32314994021 0.44714489326 0.44041749024 2.32317537399 0.44324714324 0.47013883441 2.32272479101 0.43309223448 0.49882989759 2.32168668764 0.41793545924 0.52546033382 2.31994956030 0.39903210984 0.54899979711 2.31740190537 0.37511146915 0.29830125232 2.31735706149 0.42317582422 0.31816850947 2.31800988667 0.45802048193 0.34254050914 2.31870088776 0.48124337114 0.37029020233 2.31934158557 0.49444242074 0.40029054006 2.31984350096 0.49921555962 0.43141447332 2.32011815476 0.49716071664 0.46253495314 2.32007706779 0.48987582071 0.49252493053 2.31963176091 0.47895880068 0.52025735648 2.31869375494 0.46600758546 0.54460518202 2.31717457072 0.43249376234 0.28229914141 2.31468954266 0.48113858393 0.30269321926 2.31516949065 0.51615031012 0.32804306976 2.31574898579 0.53937996238 0.35711434770 2.31635609897 0.55267856216 0.38867270786 2.31691890108 0.55789713092 0.42148380499 2.31736546302 0.55688669015 0.45431329390 2.31762385568 0.55149826129 0.48592682934 2.31762214994 0.54358286582 0.51509006611 2.31728841670 0.53499152520 0.54056865896 2.31655072686 0.49831881771 0.26496080721 2.31238360620 0.54613182365 0.28610022148 2.31265980536 0.58024681016 0.31263792142 2.31308959419 0.60267093888 0.34323364958 2.31361309369 0.61541137144 0.37654714853 2.31417042489 0.62047526949 0.41123816081 2.31470170880 0.61986979466 0.44596642899 2.31514706644 0.61560210861 0.47939169561 2.31544661882 0.60967937296 0.51017370323 2.31554048696 0.60410874937 0.53697219440 2.31536879187 0.56991754158 0.24683472590 2.31030730540 0.61534062796 0.26907938503 2.31032925001 0.64742503975 0.29708007207 2.31055097633 0.66822971795 0.32940397859 2.31092213001 0.67981360357 0.36461829615 2.31139235673 0.68423563762 0.40129021634 2.31191130213 0.68355476110 0.43798693073 2.31242861188 0.67982991503 0.47327563089 2.31289393163 0.67512004042 0.50572350840 2.31325690706 0.67148407826 0.53389775482 2.31346718382 0.64462084026 0.22846937367 2.30832869352 0.68595008144 0.25232057883 2.30802624378 0.71480005660 0.28212452970 2.30796139558 0.73316971690 0.31638120533 2.30809276820 0.74305801352 0.35359058479 2.30837898092 0.74646389762 0.39225264714 2.30877865302 0.74538632037 0.43086737145 2.30925040378 0.74182423294 0.46793473677 2.30975285247 0.73777658649 0.50195472216 2.31024461839 0.73524233219 0.53142730670 2.31068432080 0.71975962008 0.21041322670 2.30631582386 0.75514526867 0.23651367177 2.30559920588 0.77948691842 0.26852630226 2.30514911532 0.79460435305 0.30492120043 2.30493456853 0.80231735627 0.34416844852 2.30492458181 0.80444571180 0.38473812877 2.30508817150 0.80280920337 0.42510032345 2.30539435393 0.79922761469 0.46372511480 2.30581214542 0.79552072949 0.49908258508 2.30631056229 0.79350833147 0.52964281652 2.30685862087 0.79266478734 0.19321476117 2.30413674970 0.82011127423 0.22234853275 2.30289655549 0.83860068292 0.25704039774 2.30194239892 0.84964704369 0.29577983450 2.30125709125 0.85476438678 0.33705632139 2.30082344372 0.85546674247 0.37935933679 2.30062426760 0.85326814102 0.42117835906 2.30064237413 0.84968261268 0.46100286657 2.30086057455 0.84622418772 0.49732233768 2.30126168013 0.84440689640 0.52862625076 2.30182850211 0.86066724836 0.17742245328 2.30165952433 0.87803318269 0.21051503068 2.29976671180 0.88925640781 0.24842182410 2.29816950974 0.89541120613 0.28971297816 2.29686989663 0.89757186004 0.33295863750 2.29586985100 0.89681265194 0.37672894676 2.29517135134 0.89420786422 0.41959405060 2.29477637616 0.89083177927 0.46012409364 2.29468690397 0.88775867949 0.49688922052 2.29490491328 0.88606284728 0.52845957590 2.29543238260 </DataArray>
</Points>
</Piece>
</StructuredGrid>
</VTKFile>
